; generated by SuperSlicer 2.5.59 on 2022-12-11 at 23:11:54 UTC


;
;

;
;
; 

; external perimeters extrusion width = 0.40mm
; perimeters extrusion width = 0.45mm
; infill extrusion width = 0.72mm
; solid infill extrusion width = 0.56mm
; top infill extrusion width = 0.40mm
; first layer extrusion width = 0.48mm

; object:{"name":"[a]_X_Endstop_Bumper_x1","id":"[a]_X_Endstop_Bumper_x1.stl id:0 copy 0","object_center":[60.000000,60.000000,0.000000],"boundingbox_center":[60.000000,60.000000,6.158577],"boundingbox_size":[13.000000,10.000000,12.317154]}
; plater:{"center":[60.000000,60.000000,0.000000],"boundingbox_center":[60.000000,60.000000,6.158577],"boundingbox_size":[13.000000,10.000000,12.317154]}

;TYPE:Custom
; M190 S0
; M109 S0 ; uncomment to remove set&wait temp gcode added automatically after this start gcode
PRINT_START EXTRUDER=230 BED=110 CHAMBER=50


; Pre-Processed for Cancel-Object support by preprocess_cancellation v0.2.0
; 1 known objects
EXCLUDE_OBJECT_DEFINE NAME=a__X_Endstop_Bumper_x1_stl_id_0_copy_0 CENTER=60.000,59.808 POLYGON=[[53.7,55.2],[53.7,64.8],[66.3,64.8],[66.3,55.2]]
M107
G21 ; set units to millimeters
G90 ; use absolute coordinates
M83 ; use relative distances for extrusion
;_TOOLCHANGE 0
M104 S230 ; set temperature
M109 S230 ; set temperature and wait for it to be reached
M190 S110 ; set bed temperature and wait for it to be reached
M107
;LAYER_CHANGE
;Z:0.25
;HEIGHT:0.25
;BEFORE_LAYER_CHANGE
;0.25


G1 Z0.25 F27000
;AFTER_LAYER_CHANGE
;0.25
G92 E0
G1 E-2 F3000
M204 S1500
G1 Z0.65 F27000
; printing object [a]_X_Endstop_Bumper_x1.stl id:0 copy 0
EXCLUDE_OBJECT_START NAME=a__X_Endstop_Bumper_x1_stl_id_0_copy_0
G1 X58.187 Y59.365
G1 Z0.25
G1 E2 F1800
;TYPE:Internal perimeter
;WIDTH:0.48
G1 F900
G1 X58.159 Y59.392 E0.0017
G1 X57.902 Y59.746 E0.01942
G1 X57.719 Y60.125 E0.01865
G1 X57.641 Y60.367 E0.01124
G1 X57.565 Y60.781 E0.01865
G1 X57.565 Y61.219 E0.01942
G1 X57.644 Y61.65 E0.01942
G1 X57.798 Y62.061 E0.01942
G1 X58.022 Y62.437 E0.01942
G1 X58.299 Y62.754 E0.01865
G1 X58.49 Y62.921 E0.01124
G1 X58.842 Y63.153 E0.01865
G1 X59.245 Y63.325 E0.01942
G1 X59.672 Y63.422 E0.01942
G1 X60.11 Y63.442 E0.01942
G1 X60.527 Y63.385 E0.01865
G1 X60.771 Y63.318 E0.01124
G1 X61.158 Y63.153 E0.01865
G1 X61.524 Y62.911 E0.01942
G1 X61.841 Y62.608 E0.01942
G1 X62.088 Y62.268 E0.01865
G1 X62.208 Y62.044 E0.01124
G1 X62.356 Y61.65 E0.01865
G1 X62.435 Y61.219 E0.01942
G1 X62.435 Y60.781 E0.01942
G1 X62.359 Y60.367 E0.01865
G1 X62.281 Y60.125 E0.01124
G1 X62.098 Y59.746 E0.01865
G1 X61.841 Y59.392 E0.01942
G1 X61.524 Y59.089 E0.01942
G1 X61.158 Y58.847 E0.01942
G1 X60.755 Y58.675 E0.01942
G1 X60.328 Y58.578 E0.01942
G1 X59.908 Y58.559 E0.01865
G1 X59.655 Y58.582 E0.01124
G1 X59.245 Y58.675 E0.01865
G1 X58.842 Y58.847 E0.01942
G1 X58.476 Y59.089 E0.01942
G1 X58.23 Y59.324 E0.01506
M204 S1000
G1 X58.482 Y59.673 F27000
;TYPE:External perimeter
G1 F900
G1 X58.269 Y59.966 E0.01602
G1 X58.116 Y60.285 E0.01568
G1 X58.055 Y60.471 E0.00869
G1 X57.992 Y60.819 E0.01568
G1 X57.992 Y61.181 E0.01602
G1 X58.056 Y61.536 E0.01602
G1 X58.183 Y61.875 E0.01602
G1 X58.369 Y62.185 E0.01602
G1 X58.602 Y62.452 E0.01568
G1 X58.749 Y62.581 E0.00869
G1 X59.045 Y62.776 E0.01568
G1 X59.377 Y62.918 E0.01602
G1 X59.729 Y62.998 E0.01602
G1 X60.09 Y63.014 E0.01602
G1 X60.441 Y62.967 E0.01568
G1 X60.63 Y62.915 E0.00869
G1 X60.955 Y62.776 E0.01568
G1 X61.257 Y62.576 E0.01602
G1 X61.518 Y62.327 E0.01602
G1 X61.726 Y62.04 E0.01568
G1 X61.819 Y61.868 E0.00869
G1 X61.944 Y61.536 E0.01568
G1 X62.008 Y61.181 E0.01602
G1 X62.008 Y60.819 E0.01602
G1 X61.945 Y60.471 E0.01568
G1 X61.884 Y60.285 E0.00869
G1 X61.731 Y59.966 E0.01568
G1 X61.518 Y59.673 E0.01602
G1 X61.257 Y59.424 E0.01602
G1 X60.956 Y59.224 E0.01602
G1 X60.623 Y59.082 E0.01602
G1 X60.271 Y59.002 E0.01602
G1 X59.917 Y58.986 E0.01568
G1 X59.722 Y59.004 E0.00869
G1 X59.377 Y59.082 E0.01568
G1 X59.044 Y59.224 E0.01602
G1 X58.743 Y59.424 E0.01602
G1 X58.525 Y59.632 E0.01336
;WIPE_START
M204 S1500
G1 X58.087 Y59.608 F27000
;WIPE_END
G1 X57.514 Y58.828
;TYPE:Internal perimeter
G1 F900
G1 X57.167 Y59.307 E0.02622
G1 X56.926 Y59.807 E0.0246
G1 X56.812 Y60.158 E0.01633
G1 X56.713 Y60.704 E0.0246
G1 X56.713 Y61.296 E0.02622
G1 X56.818 Y61.878 E0.02622
G1 X57.026 Y62.432 E0.02622
G1 X57.428 Y63.105 E0.03475
G1 X55.394 Y63.106 E0.09015
G1 X55.394 Y56.894 E0.27526
G1 X64.606 Y56.894 E0.40822
G1 X64.606 Y63.103 E0.27516
G1 X62.535 Y63.104 E0.09178
G1 X62.812 Y62.722 E0.0209
G1 X62.987 Y62.398 E0.01634
G1 X63.182 Y61.878 E0.0246
G1 X63.287 Y61.296 E0.02622
G1 X63.287 Y60.704 E0.02622
G1 X63.188 Y60.158 E0.0246
G1 X63.074 Y59.807 E0.01633
G1 X62.833 Y59.307 E0.0246
G1 X62.486 Y58.828 E0.02622
G1 X62.058 Y58.419 E0.02622
G1 X61.564 Y58.094 E0.02622
G1 X61.02 Y57.861 E0.02622
G1 X60.443 Y57.729 E0.02622
G1 X59.888 Y57.704 E0.0246
G1 X59.521 Y57.737 E0.01634
G1 X58.98 Y57.861 E0.0246
G1 X58.436 Y58.094 E0.02622
G1 X57.942 Y58.419 E0.02622
G1 X57.558 Y58.787 E0.02356
G1 X57.852 Y59.095 F27000
G1 F900
G1 X57.837 Y59.11 E0.00096
G1 X57.534 Y59.527 E0.02282
G1 X57.322 Y59.966 E0.02163
G1 X57.226 Y60.262 E0.01379
G1 X57.139 Y60.742 E0.02163
G1 X57.139 Y61.257 E0.02282
G1 X57.231 Y61.764 E0.02282
G1 X57.412 Y62.246 E0.02282
G1 X57.676 Y62.688 E0.02282
G1 X57.997 Y63.056 E0.02163
G1 X58.541 Y63.531 E0.03201
G1 X54.968 Y63.532 E0.15836
G1 X54.968 Y56.468 E0.31305
G1 X65.032 Y56.468 E0.446
G1 X65.032 Y63.53 E0.31294
G1 X61.493 Y63.531 E0.15683
G1 X62.163 Y62.89 E0.04108
G1 X62.45 Y62.495 E0.02163
G1 X62.598 Y62.221 E0.01379
G1 X62.769 Y61.764 E0.02163
G1 X62.861 Y61.257 E0.02282
G1 X62.861 Y60.742 E0.02282
G1 X62.774 Y60.262 E0.02163
G1 X62.678 Y59.966 E0.01379
G1 X62.466 Y59.527 E0.02163
G1 X62.163 Y59.11 E0.02282
G1 X61.791 Y58.754 E0.02282
G1 X61.361 Y58.47 E0.02282
G1 X60.888 Y58.268 E0.02282
G1 X60.386 Y58.153 E0.02282
G1 X59.898 Y58.132 E0.02163
G1 X59.588 Y58.159 E0.01379
G1 X59.112 Y58.268 E0.02163
G1 X58.639 Y58.47 E0.02282
G1 X58.209 Y58.754 E0.02282
G1 X57.896 Y59.054 E0.0192
G1 E-2 F3000
G1 Z0.65 F27000
G1 X54.541 Y56.041
G1 Z0.25
G1 E2 F1800
G1 F900
G1 X65.459 Y56.041 E0.48379
G1 X65.459 Y63.956 E0.35073
G1 X54.541 Y63.959 E0.48379
G1 X54.541 Y56.101 E0.34819
M204 S1000
G1 X54.115 Y55.615 F27000
;TYPE:External perimeter
G1 F900
G1 X65.885 Y55.615 E0.52157
G1 X65.885 Y63.97 E0.37025
G1 X65.857 Y64.13 E0.00718
G1 X65.783 Y64.257 E0.00652
G1 X65.668 Y64.342 E0.00635
G1 X65.518 Y64.382 E0.00686
G1 X54.522 Y64.385 E0.48728
G1 X54.409 Y64.37 E0.00508
G1 X54.275 Y64.308 E0.00652
G1 X54.172 Y64.198 E0.00668
G1 X54.131 Y64.099 E0.00475
G1 X54.115 Y63.978 E0.00541
G1 X54.115 Y55.675 E0.36793
;WIPE_START
M204 S1500
G1 X54.461 Y55.815 F27000
;WIPE_END
G1 E-2 F3000
G1 Z0.65 F27000
G1 X58.684 Y57.408
G1 Z0.25
G1 E2 F1800
;TYPE:Gap fill
;WIDTH:0.643794
G1 F900
G1 X58.834 Y57.387 E0.00927
;WIDTH:0.619696
G1 X58.966 Y57.373 E0.00782
G1 X59.084 Y57.36 E0.00701
;WIDTH:0.584119
G1 X59.203 Y57.346 E0.00657
;WIDTH:0.548541
G1 X59.321 Y57.333 E0.00613
;WIDTH:0.508118
G1 X59.44 Y57.32 E0.00563
G1 X59.47 Y57.317 E0.00146
G1 X59.668 Y57.308 E0.00934
;WIDTH:0.472015
G1 X59.865 Y57.299 E0.0086
G1 X59.893 Y57.299 E0.00122
G1 X60.186 Y57.306 E0.01274
;WIDTH:0.503167
G1 X60.479 Y57.312 E0.01369
G1 X60.648 Y57.329 E0.00793
;WIDTH:0.542384
G1 X60.777 Y57.344 E0.00658
;WIDTH:0.581041
G1 X60.905 Y57.358 E0.0071
;WIDTH:0.615128
G1 X61.034 Y57.373 E0.00756
G1 X61.141 Y57.384 E0.00626
;WIDTH:0.639456
G1 X61.316 Y57.408 E0.01076
G1 X58.688 Y57.916 F27000
;TYPE:Solid infill
;WIDTH:0.442941
G1 F1200
G1 X57.913 Y57.141 E0.04481
G1 X57.31 Y57.141 E0.02466
G1 X58.153 Y57.984 E0.04874
G1 X57.79 Y58.224 E0.0178
G1 X56.707 Y57.141 E0.0626
G1 X56.104 Y57.141 E0.02466
G1 X57.481 Y58.518 E0.07962
G1 X57.327 Y58.665 E0.0087
G1 X57.2 Y58.84 E0.00885
G1 X55.641 Y57.281 E0.09016
G1 X55.641 Y57.884 E0.02466
G1 X56.948 Y59.191 E0.07557
G1 X56.752 Y59.598 E0.01847
G1 X55.641 Y58.487 E0.06424
G1 X55.641 Y59.09 E0.02466
G1 X56.612 Y60.06 E0.05611
G1 X56.496 Y60.547 E0.02048
G1 X55.641 Y59.693 E0.04942
G1 X55.641 Y60.296 E0.02466
G1 X56.465 Y61.12 E0.04766
G1 X56.465 Y61.318 E0.0081
G1 X56.555 Y61.813 E0.02056
G1 X55.641 Y60.899 E0.05285
G1 X55.641 Y61.502 E0.02466
G1 X56.993 Y62.858 E0.07829
G1 X56.395 Y62.858 E0.02446
G1 X55.641 Y62.105 E0.04357
G1 X55.641 Y62.708 E0.02466
G1 X55.975 Y63.042 E0.01931
G1 X58.665 Y63.322 F27000
;TYPE:Gap fill
;WIDTH:0.14513
G1 F900
G1 X58.729 Y63.371 E0.00076
;WIDTH:0.169964
G1 X58.892 Y63.473 E0.00232
;WIDTH:0.24495
G1 X59.054 Y63.575 E0.00381
;WIDTH:0.302971
G1 X59.156 Y63.635 E0.00307
G1 X59.274 Y63.648 E0.00309
;WIDTH:0.270948
G1 X59.392 Y63.662 E0.00269
;WIDTH:0.235337
G1 X59.511 Y63.675 E0.00225
;WIDTH:0.199652
G1 X59.642 Y63.689 E0.00201
G1 X59.879 Y63.695 E0.00359
G1 X60.116 Y63.7 E0.00359
G1 X60.353 Y63.684 E0.0036
;WIDTH:0.237894
G1 X60.579 Y63.669 E0.00434
G1 X60.731 Y63.649 E0.00295
;WIDTH:0.31804
G1 X60.913 Y63.622 E0.00505
G1 X61.058 Y63.526 E0.00478
;WIDTH:0.234925
G1 X61.203 Y63.43 E0.00328
;WIDTH:0.176515
G1 X61.285 Y63.376 E0.00125
G1 X61.406 Y63.279 E0.00199
;WIDTH:0.141849
G1 X61.442 Y63.25 E0.00042
G1 E-2 F3000
G1 Z0.65 F27000
G1 X64.542 Y57.82
G1 Z0.25
G1 E2 F1800
;TYPE:Solid infill
;WIDTH:0.436037
G1 F1200
G1 X63.864 Y57.141 E0.03863
G1 X63.261 Y57.141 E0.02427
G1 X64.359 Y58.239 E0.06252
G1 X64.359 Y58.842 E0.02427
G1 X62.658 Y57.141 E0.09684
G1 X62.055 Y57.141 E0.02427
G1 X64.359 Y59.445 E0.13117
G1 X64.359 Y60.048 E0.02427
G1 X61.543 Y57.232 E0.1603
G1 X61.455 Y57.747 E0.02103
G1 X61.508 Y57.801 E0.00304
G1 X61.682 Y57.875 E0.00759
G1 X62.213 Y58.225 E0.02561
G1 X62.673 Y58.665 E0.02561
G1 X63.05 Y59.185 E0.02588
G1 X63.163 Y59.456 E0.0118
G1 X64.359 Y60.651 E0.06805
G1 X64.359 Y61.254 E0.02427
G1 X63.479 Y60.374 E0.0501
G1 X63.535 Y60.682 E0.01259
G1 X63.535 Y61.033 E0.01413
G1 X64.359 Y61.857 E0.04692
G1 X64.359 Y62.46 E0.02427
G1 X63.486 Y61.587 E0.0497
G1 X63.421 Y61.944 E0.01461
G1 X63.372 Y62.076 E0.00566
G1 X64.152 Y62.856 E0.04443
G1 X63.549 Y62.856 E0.02427
G1 X63.065 Y62.372 E0.02759
;LAYER_CHANGE
;Z:0.45
;HEIGHT:0.2
;BEFORE_LAYER_CHANGE
;0.45


; stop printing object [a]_X_Endstop_Bumper_x1.stl id:0 copy 0
EXCLUDE_OBJECT_END NAME=a__X_Endstop_Bumper_x1_stl_id_0_copy_0
G1 Z0.45 F27000
;AFTER_LAYER_CHANGE
;0.45
G92 E0
M104 S235 ; set temperature
; printing object [a]_X_Endstop_Bumper_x1.stl id:0 copy 0
EXCLUDE_OBJECT_START NAME=a__X_Endstop_Bumper_x1_stl_id_0_copy_0
G1 X62.301 Y61.984
;TYPE:Internal perimeter
;WIDTH:0.45
G1 F2279
G1 X62.468 Y61.472 E0.01822
G1 X62.51 Y61 E0.01604
G1 X62.47 Y60.552 E0.01523
G1 X62.35 Y60.118 E0.01523
G1 X62.144 Y59.691 E0.01604
G1 X61.753 Y59.201 E0.02123
G1 X61.364 Y58.89 E0.01685
G1 X60.799 Y58.618 E0.02123
G1 X60.337 Y58.513 E0.01604
G1 X59.863 Y58.491 E0.01604
G1 X59.246 Y58.603 E0.02123
G1 X58.811 Y58.79 E0.01604
G1 X58.435 Y59.038 E0.01523
G1 X58.11 Y59.349 E0.01523
G1 X57.845 Y59.713 E0.01523
G1 X57.65 Y60.118 E0.01523
G1 X57.53 Y60.552 E0.01523
G1 X57.49 Y61 E0.01523
G1 X57.532 Y61.472 E0.01604
G1 X57.726 Y62.069 E0.02123
G1 X57.969 Y62.475 E0.01604
G1 X58.265 Y62.814 E0.01523
G1 X58.617 Y63.095 E0.01523
G1 X59.035 Y63.319 E0.01604
G1 X59.639 Y63.486 E0.02123
G1 X60.113 Y63.508 E0.01604
G1 X60.559 Y63.447 E0.01523
G1 X60.987 Y63.308 E0.01523
G1 X61.383 Y63.095 E0.01523
G1 X61.735 Y62.814 E0.01523
G1 X62.031 Y62.475 E0.01523
G1 X62.283 Y62.041 E0.017
G1 X61.914 Y61.858 F27000
G1 F2279
G1 X62.066 Y61.39 E0.01667
G1 X62.101 Y61 E0.01325
G1 X62.068 Y60.625 E0.01275
G1 X61.967 Y60.262 E0.01275
G1 X61.798 Y59.909 E0.01325
G1 X61.464 Y59.49 E0.01812
G1 X61.146 Y59.237 E0.01375
G1 X60.664 Y59.005 E0.01813
G1 X60.282 Y58.918 E0.01325
G1 X59.891 Y58.9 E0.01325
G1 X59.364 Y58.996 E0.01813
G1 X59.004 Y59.15 E0.01325
G1 X58.69 Y59.357 E0.01275
G1 X58.418 Y59.617 E0.01275
G1 X58.196 Y59.922 E0.01275
G1 X58.033 Y60.262 E0.01275
G1 X57.932 Y60.625 E0.01275
G1 X57.899 Y61 E0.01275
G1 X57.934 Y61.39 E0.01325
G1 X58.099 Y61.899 E0.01812
G1 X58.3 Y62.235 E0.01325
G1 X58.548 Y62.519 E0.01275
G1 X58.842 Y62.754 E0.01275
G1 X59.187 Y62.939 E0.01325
G1 X59.703 Y63.082 E0.01812
G1 X60.094 Y63.099 E0.01325
G1 X60.468 Y63.049 E0.01275
G1 X60.826 Y62.932 E0.01275
G1 X61.158 Y62.754 E0.01275
G1 X61.452 Y62.519 E0.01275
G1 X61.7 Y62.235 E0.01275
G1 X61.892 Y61.914 E0.01268
M204 S1000
G1 X61.551 Y61.74 F27000
;TYPE:External perimeter
;WIDTH:0.4
G1 F2279
G1 X61.69 Y61.313 E0.01334
G1 X61.718 Y61 E0.00932
G1 X61.69 Y60.693 E0.00914
G1 X61.608 Y60.396 E0.00914
G1 X61.472 Y60.114 E0.00932
G1 X61.192 Y59.762 E0.01334
G1 X60.942 Y59.563 E0.0095
G1 X60.537 Y59.368 E0.01334
G1 X60.231 Y59.298 E0.00932
G1 X59.917 Y59.284 E0.00932
G1 X59.475 Y59.364 E0.01334
G1 X59.186 Y59.487 E0.00932
G1 X58.929 Y59.657 E0.00914
G1 X58.706 Y59.87 E0.00914
G1 X58.525 Y60.119 E0.00914
G1 X58.392 Y60.396 E0.00914
G1 X58.31 Y60.693 E0.00914
G1 X58.282 Y61 E0.00914
G1 X58.31 Y61.313 E0.00932
G1 X58.449 Y61.74 E0.01334
G1 X58.61 Y62.01 E0.00932
G1 X58.813 Y62.242 E0.00914
G1 X59.054 Y62.434 E0.00914
G1 X59.33 Y62.582 E0.00932
G1 X59.763 Y62.702 E0.01334
G1 X60.077 Y62.716 E0.00932
G1 X60.382 Y62.675 E0.00914
G1 X60.675 Y62.58 E0.00914
G1 X60.946 Y62.434 E0.00914
G1 X61.187 Y62.242 E0.00914
G1 X61.39 Y62.01 E0.00914
G1 X61.52 Y61.792 E0.00754
;WIPE_START
M204 S1500
G1 X61.947 Y61.686 F27000
;WIPE_END
G1 X62.647 Y62.238
;TYPE:Internal perimeter
;WIDTH:0.45
G1 F2279
G1 X62.869 Y61.554 E0.02433
G1 X62.919 Y61 E0.01884
G1 X62.872 Y60.479 E0.01771
G1 X62.733 Y59.974 E0.01771
G1 X62.491 Y59.473 E0.01884
G1 X62.043 Y58.911 E0.02433
G1 X61.582 Y58.543 E0.01996
G1 X60.934 Y58.231 E0.02434
G1 X60.392 Y58.108 E0.01883
G1 X59.836 Y58.083 E0.01883
G1 X59.129 Y58.211 E0.02434
G1 X58.617 Y58.43 E0.01884
G1 X58.18 Y58.718 E0.01771
G1 X57.802 Y59.08 E0.01771
G1 X57.494 Y59.503 E0.01771
G1 X57.267 Y59.974 E0.01771
G1 X57.128 Y60.479 E0.01771
G1 X57.081 Y61 E0.01771
G1 X57.131 Y61.554 E0.01884
G1 X57.353 Y62.238 E0.02433
G1 X57.639 Y62.716 E0.01883
G1 X57.983 Y63.11 E0.01771
G1 X58.183 Y63.269 E0.00865
G1 X58.106 Y63.487 E0.00782
G1 X55.013 Y63.487 E0.10471
G1 X55.013 Y56.513 E0.23607
G1 X64.987 Y56.513 E0.33761
G1 X64.987 Y63.487 E0.23607
G1 X61.894 Y63.487 E0.10471
G1 X61.817 Y63.269 E0.00782
G1 X62.017 Y63.11 E0.00865
G1 X62.361 Y62.716 E0.01771
G1 X62.616 Y62.289 E0.0168
G1 X61.551 Y63.894 F27000
G1 F2279
G1 X54.606 Y63.894 E0.23508
G1 X54.606 Y56.106 E0.26363
G1 X65.394 Y56.106 E0.36517
G1 X65.394 Y63.894 E0.26363
G1 X61.611 Y63.894 E0.12807
G1 X61.551 Y64.301 F27000
G1 F2279
G1 X54.528 Y64.301 E0.2377
G1 X54.375 Y64.268 E0.00531
G1 X54.31 Y64.226 E0.00261
G1 X54.258 Y64.17 E0.00261
G1 X54.224 Y64.105 E0.00248
G1 X54.199 Y63.956 E0.00509
G1 X54.199 Y55.699 E0.2795
G1 X65.801 Y55.699 E0.39273
G1 X65.801 Y63.958 E0.27955
G1 X65.786 Y64.077 E0.00406
G1 X65.746 Y64.172 E0.00351
G1 X65.67 Y64.242 E0.00351
G1 X65.605 Y64.276 E0.00248
G1 X65.456 Y64.301 E0.00509
G1 X61.611 Y64.301 E0.13016
M204 S1000
G1 X61.551 Y64.683 F27000
;TYPE:External perimeter
;WIDTH:0.4
G1 F2279
G1 X54.512 Y64.683 E0.209
G1 X54.387 Y64.672 E0.0037
G1 X54.212 Y64.617 E0.00545
G1 X54.062 Y64.522 E0.00528
G1 X53.942 Y64.391 E0.00528
G1 X53.857 Y64.228 E0.00545
G1 X53.817 Y63.988 E0.00721
G1 X53.817 Y55.46 E0.2532
G1 X53.96 Y55.317 E0.00604
G1 X66.04 Y55.317 E0.35864
G1 X66.183 Y55.46 E0.00604
G1 X66.183 Y63.983 E0.25303
G1 X66.158 Y64.176 E0.0058
G1 X66.088 Y64.346 E0.00545
G1 X66.026 Y64.434 E0.00318
G1 X65.891 Y64.558 E0.00545
G1 X65.728 Y64.643 E0.00545
G1 X65.488 Y64.683 E0.00721
G1 X61.611 Y64.683 E0.11513
;WIPE_START
M204 S1500
G1 X61.351 Y64.337 F27000
;WIPE_END
G1 X61.681 Y63.448
;TYPE:Gap fill
;WIDTH:0.524962
G1 F1800
G1 X61.578 Y63.474 E0.00427
;WIDTH:0.476743
G1 X61.476 Y63.497 E0.00379
;WIDTH:0.441021
G1 X61.332 Y63.533 E0.00489
;WIDTH:0.350741
G1 X61.189 Y63.569 E0.00378
;WIDTH:0.282092
G1 X61.096 Y63.591 E0.0019
G1 X60.982 Y63.609 E0.0023
;WIDTH:0.226014
G1 X60.867 Y63.627 E0.00176
;WIDTH:0.177667
G1 X60.753 Y63.646 E0.0013
;WIDTH:0.127608
G1 X60.596 Y63.67 E0.00112
G1 X59.458 Y63.669 F27000
;WIDTH:0.127884
G1 F1800
