; generated by SuperSlicer 2.5.59 on 2022-12-10 at 21:44:27 UTC


;
;

;
;
; TODO: check the size of the extruder and the y-bar clearance. Optimize & test supports.

; external perimeters extrusion width = 0.42mm
; perimeters extrusion width = 0.46mm
; infill extrusion width = 0.44mm
; solid infill extrusion width = 0.46mm
; top infill extrusion width = 0.44mm
; first layer extrusion width = 0.56mm

; object:{"name":"bear_upgrade_big_case_clamp_r2","id":"bear_upgrade_big_case_clamp_r2.stl id:0 copy 0","object_center":[60.000000,60.000000,0.000000],"boundingbox_center":[60.000000,60.000000,7.443107],"boundingbox_size":[36.000053,34.000092,14.886214]}
; plater:{"center":[60.000000,60.000000,0.000000],"boundingbox_center":[60.000000,60.000000,7.443107],"boundingbox_size":[36.000053,34.000092,14.886214]}

;TYPE:Custom
; M190 S0
; M109 S0 ; uncomment to remove set&wait temp gcode added automatically after this start gcode
PRINT_START EXTRUDER=230 BED=110 CHAMBER=50


; Pre-Processed for Cancel-Object support by preprocess_cancellation v0.2.0
; 1 known objects
EXCLUDE_OBJECT_DEFINE NAME=bear_upgrade_big_case_clamp_r2_stl_id_0_copy_0 CENTER=59.120,60.038 POLYGON=[[47.21,43.21],[42.658,45.389],[42.383,45.608],[42.231,45.924],[42.21,46.112],[42.21,73.888],[42.231,74.076],[42.383,74.392],[42.658,74.611],[47.21,76.79],[76.413,76.79],[77.79,75.413],[77.79,44.587],[76.413,43.21],[47.21,43.21]]
M107
G21 ; set units to millimeters
G90 ; use absolute coordinates
M83 ; use relative distances for extrusion
;_TOOLCHANGE 0
M104 S230 ; set temperature
M109 S230 ; set temperature and wait for it to be reached
M190 S110 ; set bed temperature and wait for it to be reached
M107
;LAYER_CHANGE
;Z:0.2
;HEIGHT:0.2
;BEFORE_LAYER_CHANGE
;0.2


G1 Z0.2 F18000
;AFTER_LAYER_CHANGE
;0.2
G92 E0
G1 E-2 F3000
G1 Z0.6 F18000
M204 S1000
G1 X39.137 Y42.095
G1 Z0.2
G1 E2 F1800
;TYPE:Skirt
;WIDTH:0.52
G1 X38.343 Y43.055 E0.04672
G1 X37.782 Y44.168 E0.04671
G1 X37.483 Y45.377 E0.04671
G1 X37.43 Y46.106 E0.02738
G1 X37.43 Y73.894 E1.04173
G1 X37.483 Y74.623 E0.02738
G1 X37.782 Y75.833 E0.04671
G1 X38.343 Y76.945 E0.04671
G1 X38.995 Y77.763 E0.03921
G1 X39.955 Y78.557 E0.0467
G1 X40.563 Y78.908 E0.02632
G1 X45.053 Y81.097 E0.18728
G1 X47.1 Y81.57 E0.07875
G1 X76.459 Y81.57 E1.10058
G1 X78.151 Y81.252 E0.06453
G1 X79.761 Y80.202 E0.07207
G1 X81.202 Y78.761 E0.07642
G1 X82.174 Y77.34 E0.06453
G1 X82.57 Y75.459 E0.07207
G1 X82.57 Y44.541 E1.15901
G1 X82.253 Y42.849 E0.06453
G1 X81.202 Y41.239 E0.07207
G1 X79.761 Y39.798 E0.07642
G1 X78.34 Y38.826 E0.06453
G1 X76.459 Y38.43 E0.07207
G1 X47.1 Y38.43 E1.10058
G1 X45.053 Y38.903 E0.07875
G1 X40.563 Y41.092 E0.18728
G1 X39.955 Y41.443 E0.02632
G1 X39.184 Y42.057 E0.03694
G1 X39.48 Y42.428 F18000
G1 F1800
G1 X38.747 Y43.309 E0.04295
G1 X38.232 Y44.325 E0.04271
G1 X37.957 Y45.431 E0.04271
G1 X37.907 Y46.106 E0.02538
G1 X37.907 Y73.894 E1.04173
G1 X37.957 Y74.57 E0.02538
G1 X38.232 Y75.675 E0.04271
G1 X38.747 Y76.691 E0.04271
G1 X39.332 Y77.426 E0.0352
G1 X40.209 Y78.153 E0.0427
G1 X40.772 Y78.479 E0.0244
G1 X45.262 Y80.669 E0.18728
G1 X47.1 Y81.093 E0.0707
G1 X76.459 Y81.093 E1.10058
G1 X77.887 Y80.842 E0.05438
G1 X79.423 Y79.865 E0.06825
G1 X80.865 Y78.423 E0.07642
G1 X81.697 Y77.236 E0.05438
G1 X82.093 Y75.459 E0.06825
G1 X82.093 Y44.541 E1.15901
G1 X81.842 Y43.113 E0.05438
G1 X80.865 Y41.577 E0.06825
G1 X79.423 Y40.135 E0.07642
G1 X78.236 Y39.303 E0.05438
G1 X76.459 Y38.907 E0.06825
G1 X47.1 Y38.907 E1.10058
G1 X45.262 Y39.332 E0.0707
G1 X40.772 Y41.521 E0.18728
G1 X40.209 Y41.847 E0.0244
G1 X39.527 Y42.391 E0.03269
G1 X39.812 Y42.769 F18000
G1 F1800
G1 X39.151 Y43.563 E0.03871
G1 X38.683 Y44.483 E0.0387
G1 X38.431 Y45.484 E0.0387
G1 X38.384 Y46.106 E0.02337
G1 X38.384 Y73.894 E1.04173
G1 X38.431 Y74.516 E0.02337
G1 X38.683 Y75.517 E0.0387
G1 X39.151 Y76.438 E0.0387
G1 X39.67 Y77.088 E0.0312
G1 X40.462 Y77.749 E0.0387
G1 X40.981 Y78.05 E0.02248
G1 X45.471 Y80.24 E0.18728
G1 X47.1 Y80.616 E0.06266
G1 X76.459 Y80.616 E1.10058
G1 X77.629 Y80.427 E0.04443
G1 X79.086 Y79.527 E0.0642
G1 X80.527 Y78.086 E0.07642
G1 X81.221 Y77.125 E0.04443
G1 X81.616 Y75.459 E0.0642
G1 X81.616 Y44.541 E1.15901
G1 X81.427 Y43.371 E0.04443
G1 X80.527 Y41.914 E0.0642
G1 X79.086 Y40.473 E0.07642
G1 X78.125 Y39.779 E0.04443
G1 X76.459 Y39.384 E0.0642
G1 X47.1 Y39.384 E1.10058
G1 X45.471 Y39.76 E0.06266
G1 X40.981 Y41.95 E0.18728
G1 X39.861 Y42.735 E0.05127
G1 X40.149 Y43.107 F18000
G1 F1800
G1 X39.555 Y43.816 E0.0347
G1 X39.133 Y44.64 E0.0347
G1 X38.905 Y45.537 E0.0347
G1 X38.861 Y46.106 E0.02137
G1 X38.861 Y73.894 E1.04173
G1 X38.905 Y74.463 E0.02137
G1 X39.133 Y75.36 E0.0347
G1 X39.555 Y76.184 E0.0347
G1 X40.007 Y76.751 E0.02719
G1 X40.716 Y77.345 E0.03469
G1 X41.19 Y77.621 E0.02056
G1 X45.68 Y79.811 E0.18728
G1 X47.1 Y80.139 E0.05461
G1 X76.459 Y80.139 E1.10058
G1 X77.376 Y80.006 E0.03473
G1 X78.749 Y79.19 E0.05987
G1 X80.19 Y77.749 E0.07642
G1 X80.745 Y77.006 E0.03473
G1 X81.139 Y75.459 E0.05987
G1 X81.139 Y44.541 E1.15901
G1 X81.006 Y43.624 E0.03473
G1 X80.19 Y42.251 E0.05987
G1 X78.749 Y40.81 E0.07642
G1 X78.006 Y40.255 E0.03474
G1 X76.459 Y39.861 E0.05987
G1 X47.1 Y39.862 E1.10058
G1 X45.68 Y40.189 E0.05461
G1 X41.19 Y42.379 E0.18728
G1 X40.198 Y43.072 E0.04537
G1 E-2 F3000
M204 S1500
G1 Z0.6 F18000
; printing object bear_upgrade_big_case_clamp_r2.stl id:0 copy 0
EXCLUDE_OBJECT_START NAME=bear_upgrade_big_case_clamp_r2_stl_id_0_copy_0
; acceleration to travel
G1 X46.224 Y59.026
; decel to extrusion
M204 S1000
G1 X50.241 Y69.662
; end travel
G1 Z0.2
G1 E2 F1800
;TYPE:Internal perimeter
;WIDTH:0.56
G1 X50.2 Y69.676 E0.00179
G1 X49.822 Y69.887 E0.01757
G1 X49.485 Y70.159 E0.01757
G1 X49.2 Y70.484 E0.01757
G1 X48.973 Y70.852 E0.01757
G1 X48.812 Y71.253 E0.01757
G1 X48.72 Y71.676 E0.01757
G1 X48.702 Y72.108 E0.01757
G1 X48.757 Y72.537 E0.01757
G1 X48.884 Y72.951 E0.01757
G1 X49.078 Y73.337 E0.01757
G1 X49.336 Y73.685 E0.01757
G1 X49.648 Y73.984 E0.01757
G1 X50.006 Y74.226 E0.01757
G1 X50.4 Y74.405 E0.01757
G1 X50.819 Y74.514 E0.01757
G1 X51.25 Y74.55 E0.01757
G1 X51.681 Y74.514 E0.01757
G1 X52.1 Y74.405 E0.01757
G1 X52.494 Y74.226 E0.01757
G1 X52.852 Y73.984 E0.01757
G1 X53.164 Y73.685 E0.01757
G1 X53.421 Y73.337 E0.01757
G1 X53.616 Y72.951 E0.01757
G1 X53.743 Y72.537 E0.01757
G1 X53.798 Y72.108 E0.01757
G1 X53.779 Y71.676 E0.01757
G1 X53.688 Y71.253 E0.01757
G1 X53.527 Y70.852 E0.01757
G1 X53.3 Y70.484 E0.01757
G1 X53.015 Y70.159 E0.01757
G1 X52.678 Y69.887 E0.01757
G1 X52.3 Y69.676 E0.01757
G1 X51.893 Y69.532 E0.01757
G1 X51.466 Y69.459 E0.01757
G1 X51.034 Y69.459 E0.01757
G1 X50.607 Y69.532 E0.01757
G1 X50.298 Y69.642 E0.01335
G1 X50.413 Y70.149 F18000
;TYPE:External perimeter
G1 F1800
G1 X50.113 Y70.317 E0.014
G1 X49.845 Y70.534 E0.014
G1 X49.617 Y70.792 E0.014
G1 X49.436 Y71.086 E0.014
G1 X49.308 Y71.405 E0.014
G1 X49.235 Y71.742 E0.014
G1 X49.221 Y72.086 E0.014
G1 X49.264 Y72.428 E0.014
G1 X49.365 Y72.757 E0.014
G1 X49.52 Y73.065 E0.014
G1 X49.725 Y73.342 E0.014
G1 X49.974 Y73.58 E0.014
G1 X50.259 Y73.773 E0.014
G1 X50.573 Y73.915 E0.014
G1 X50.907 Y74.002 E0.014
G1 X51.25 Y74.031 E0.014
G1 X51.593 Y74.002 E0.014
G1 X51.927 Y73.915 E0.014
G1 X52.241 Y73.773 E0.014
G1 X52.526 Y73.58 E0.014
G1 X52.775 Y73.342 E0.014
G1 X52.98 Y73.065 E0.014
G1 X53.135 Y72.757 E0.014
G1 X53.236 Y72.428 E0.014
G1 X53.279 Y72.086 E0.014
G1 X53.265 Y71.742 E0.014
G1 X53.192 Y71.405 E0.014
G1 X53.064 Y71.086 E0.014
G1 X52.883 Y70.792 E0.014
G1 X52.655 Y70.534 E0.014
G1 X52.387 Y70.317 E0.014
G1 X52.087 Y70.149 E0.014
G1 X51.762 Y70.034 E0.014
G1 X51.422 Y69.976 E0.014
G1 X51.078 Y69.976 E0.014
G1 X50.738 Y70.034 E0.014
G1 X50.47 Y70.129 E0.01156
;WIPE_START
M204 S1500
G1 X50.082 Y69.925 F18000
;WIPE_END
G1 E-2 F3000
G1 Z0.6 F18000
; acceleration to travel
G1 X52.863 Y71.704
; decel to extrusion
M204 S1000
G1 X54.716 Y72.89
; end travel
G1 Z0.2
G1 E2 F1800
;TYPE:Internal perimeter
G1 X55.069 Y72.943 E0.01448
G1 X55.069 Y74.7 E0.07139
G1 X54.7 Y75.069 E0.02119
G1 X53.215 Y75.069 E0.06034
G1 X53.943 Y74.371 E0.041
G1 X54.305 Y73.881 E0.02473
G1 X54.579 Y73.338 E0.02473
G1 X54.699 Y72.948 E0.01658
G1 E-2 F3000
M204 S1500
G1 Z0.6 F18000
M204 S1000
G1 X54.552 Y69.558
G1 Z0.2
G1 E2 F1800
G1 X54.092 Y69.035 E0.02828
G1 X53.55 Y68.597 E0.0283
G1 X52.942 Y68.258 E0.0283
G1 X52.285 Y68.026 E0.0283
G1 X51.598 Y67.908 E0.0283
G1 X50.902 Y67.908 E0.0283
G1 X50.215 Y68.026 E0.0283
G1 X49.558 Y68.258 E0.0283
G1 X48.95 Y68.597 E0.0283
G1 X48.408 Y69.035 E0.0283
G1 X47.948 Y69.558 E0.0283
G1 X47.583 Y70.151 E0.0283
G1 X47.323 Y70.797 E0.0283
G1 X47.29 Y70.952 E0.00641
G1 X46.448 Y70.952 E0.03419
G1 X46.448 Y67.443 E0.14254
G1 X54.552 Y67.443 E0.32924
G1 X54.552 Y69.498 E0.08346
G1 E-2 F3000
M204 S1500
G1 Z0.6 F18000
; acceleration to travel
G1 X50.445 Y70.68
; decel to extrusion
M204 S1000
G1 X47.707 Y71.469
; end travel
G1 Z0.2
G1 E2 F1800
G1 X45.362 Y71.469 E0.09527
G1 X45.931 Y70.9 E0.03268
G1 X45.931 Y65.425 E0.22243
G1 X47.07 Y65.425 E0.04629
G1 X47.07 Y66.926 E0.06098
G1 X53.933 Y66.926 E0.27883
G1 X53.933 Y65.426 E0.06098
G1 X55.069 Y65.426 E0.04615
G1 X55.069 Y71.016 E0.22715
G1 X54.734 Y71.081 E0.01387
G1 X54.454 Y70.385 E0.03049
G1 X54.135 Y69.866 E0.02473
G1 X53.733 Y69.41 E0.02473
G1 X53.259 Y69.027 E0.02473
G1 X52.728 Y68.731 E0.02473
G1 X52.154 Y68.528 E0.02473
G1 X51.554 Y68.425 E0.02473
G1 X50.946 Y68.425 E0.02473
G1 X50.346 Y68.528 E0.02473
G1 X49.772 Y68.731 E0.02473
G1 X49.241 Y69.027 E0.02473
G1 X48.767 Y69.41 E0.02473
G1 X48.365 Y69.866 E0.02473
G1 X48.046 Y70.385 E0.02473
G1 X47.819 Y70.949 E0.02473
G1 X47.72 Y71.41 E0.01915
G1 X48.19 Y71.986 F18000
G1 F1800
G1 X44.114 Y71.986 E0.1656
G1 X45.414 Y70.686 E0.0747
G1 X45.414 Y64.908 E0.23474
G1 X47.587 Y64.908 E0.08831
G1 X47.587 Y66.409 E0.06098
G1 X53.416 Y66.409 E0.23681
G1 X53.416 Y64.908 E0.06098
G1 X55.586 Y64.909 E0.08817
G1 X55.586 Y74.914 E0.40654
G1 X54.914 Y75.586 E0.03859
G1 X48.414 Y75.586 E0.2641
G1 X48.414 Y73.786 E0.07312
G1 X48.698 Y73.693 E0.01216
G1 X48.946 Y74.028 E0.01693
G1 X49.322 Y74.388 E0.02115
G1 X49.753 Y74.679 E0.02115
G1 X50.228 Y74.894 E0.02115
G1 X50.731 Y75.025 E0.02115
G1 X51.25 Y75.069 E0.02115
G1 X51.769 Y75.025 E0.02115
G1 X52.272 Y74.894 E0.02115
G1 X52.747 Y74.679 E0.02115
G1 X53.178 Y74.388 E0.02115
G1 X53.554 Y74.028 E0.02115
G1 X53.863 Y73.609 E0.02115
G1 X54.098 Y73.144 E0.02115
G1 X54.25 Y72.647 E0.02115
G1 X54.316 Y72.13 E0.02115
G1 X54.294 Y71.61 E0.02115
G1 X54.185 Y71.101 E0.02115
G1 X53.99 Y70.618 E0.02115
G1 X53.717 Y70.175 E0.02115
G1 X53.374 Y69.784 E0.02115
G1 X52.969 Y69.457 E0.02115
G1 X52.514 Y69.203 E0.02115
G1 X52.023 Y69.03 E0.02115
G1 X51.51 Y68.942 E0.02115
G1 X50.99 Y68.942 E0.02115
G1 X50.477 Y69.03 E0.02115
G1 X49.986 Y69.203 E0.02115
G1 X49.531 Y69.457 E0.02115
G1 X49.126 Y69.784 E0.02115
G1 X48.782 Y70.175 E0.02115
G1 X48.51 Y70.618 E0.02115
G1 X48.315 Y71.101 E0.02115
G1 X48.206 Y71.61 E0.02115
G1 X48.192 Y71.926 E0.01284
G1 X47.897 Y72.503 F18000
G1 F1800
G1 X42.866 Y72.503 E0.20443
G1 X44.897 Y70.472 E0.11672
G1 X44.897 Y64.391 E0.24705
G1 X48.105 Y64.391 E0.13032
G1 X48.105 Y65.892 E0.06098
G1 X52.899 Y65.892 E0.19479
G1 X52.899 Y64.391 E0.06098
G1 X56.103 Y64.391 E0.13019
G1 X56.103 Y75.128 E0.43625
G1 X55.128 Y76.103 E0.056
G1 X47.897 Y76.103 E0.29381
G1 X47.897 Y72.563 E0.14383
G1 X47.38 Y73.02 F18000
;TYPE:External perimeter
G1 F1800
G1 X43.42 Y73.02 E0.1609
G1 X43.42 Y74.52 E0.06095
G1 X43.021 Y74.52 E0.0162
G1 X42.863 Y74.502 E0.00649
G1 X42.732 Y74.456 E0.00562
G1 X42.615 Y74.383 E0.00562
G1 X42.517 Y74.285 E0.00562
G1 X42.444 Y74.168 E0.00562
G1 X42.398 Y74.037 E0.00562
G1 X42.38 Y73.879 E0.00649
G1 X42.38 Y72.257 E0.06587
G1 X44.38 Y70.257 E0.11492
G1 X44.38 Y63.874 E0.25935
G1 X48.622 Y63.874 E0.17234
G1 X48.622 Y65.375 E0.06098
G1 X52.382 Y65.375 E0.15277
G1 X52.382 Y63.874 E0.06098
G1 X56.62 Y63.874 E0.17221
G1 X56.62 Y75.343 E0.46596
G1 X55.343 Y76.62 E0.0734
G1 X47.38 Y76.62 E0.32353
G1 X47.38 Y73.08 E0.14383
;WIPE_START
M204 S1500
G1 X47.38 Y72.62 F18000
;WIPE_END
M204 S1000
G1 X48.299 Y72.224
;TYPE:Gap fill
;WIDTH:0.359541
G1 F1800
G1 X48.308 Y72.315 E0.00227
;WIDTH:0.405908
G1 X48.317 Y72.406 E0.0026
G1 X48.324 Y72.509 E0.00295
;WIDTH:0.439378
G1 X48.33 Y72.612 E0.00323
G1 X48.334 Y72.646 E0.00104
G1 X48.351 Y72.764 E0.00373
;WIDTH:0.48659
G1 X48.369 Y72.882 E0.00417
;WIDTH:0.533801
G1 X48.387 Y73.001 E0.00461
;WIDTH:0.590001
G1 X48.404 Y73.119 E0.00514
G1 X48.413 Y73.165 E0.00203
;WIDTH:0.626752
G1 X48.427 Y73.224 E0.00275
G1 X48.448 Y73.294 E0.00335
;WIDTH:0.68033
G1 X48.468 Y73.364 E0.00366
;WIDTH:0.733907
G1 X48.488 Y73.434 E0.00397
;WIDTH:0.787484
G1 X48.509 Y73.504 E0.00427
G1 X48.653 Y74.777 F18000
;WIDTH:1.10926
G1 F1800
G1 X48.706 Y74.807 E0.00513
;WIDTH:1.045186
G1 X48.779 Y74.84 E0.00632
;WIDTH:0.943648
G1 X48.852 Y74.874 E0.00568
;WIDTH:0.842108
G1 X48.925 Y74.908 E0.00504
;WIDTH:0.760511
G1 X48.987 Y74.936 E0.00387
G1 X49.043 Y74.958 E0.00335
;WIDTH:0.82291
G1 X49.118 Y74.981 E0.00484
;WIDTH:0.767372
G1 X49.194 Y75.004 E0.0045
;WIDTH:0.711833
G1 X49.269 Y75.027 E0.00415
;WIDTH:0.656294
G1 X49.345 Y75.05 E0.00381
;WIDTH:0.600755
G1 X49.42 Y75.073 E0.00346
;WIDTH:0.545216
G1 X49.496 Y75.096 E0.00312
G1 X49.538 Y75.107 E0.0017
G1 X49.631 Y75.127 E0.00378
;WIDTH:0.475105
G1 X49.725 Y75.148 E0.00325
;WIDTH:0.426734
G1 X49.818 Y75.168 E0.00289
;WIDTH:0.378363
G1 X49.912 Y75.188 E0.00252
;WIDTH:0.329992
G1 X50.005 Y75.208 E0.00216
;WIDTH:0.28162
G1 X50.099 Y75.228 E0.00179
G1 X50.119 Y75.232 E0.00038
G1 X50.24 Y75.247 E0.00229
;WIDTH:0.233324
G1 X50.361 Y75.263 E0.00183
;WIDTH:0.191882
G1 X50.483 Y75.278 E0.00143
;WIDTH:0.15044
G1 X50.604 Y75.294 E0.00103
G1 X50.657 Y75.301 E0.00045
G1 E-2 F3000
M204 S1500
G1 Z0.6 F18000
M204 S1000
G1 X54.157 Y74.83
G1 Z0.2
G1 E2 F1800
;WIDTH:0.530039
G1 X54.262 Y74.74 E0.0053
;WIDTH:0.498893
G1 X54.367 Y74.65 E0.00496
G1 X54.431 Y74.587 E0.00321
;WIDTH:0.603311
G1 X54.48 Y74.538 E0.00306
;WIDTH:0.639861
G1 X54.532 Y74.478 E0.00372
G1 X54.552 Y74.417 E0.00301
;WIDTH:0.591723
G1 X54.572 Y74.356 E0.00276
;WIDTH:0.543585
G1 X54.592 Y74.295 E0.00252
;WIDTH:0.495447
G1 X54.612 Y74.234 E0.00228
;WIDTH:0.447309
G1 X54.632 Y74.173 E0.00204
;WIDTH:0.382433
G1 X54.652 Y74.113 E0.00171
G1 X54.661 Y74.083 E0.00082
G1 X54.68 Y74.002 E0.00223
;WIDTH:0.336035
G1 X54.699 Y73.921 E0.00192
;WIDTH:0.289636
G1 X54.719 Y73.839 E0.00162
;WIDTH:0.243238
G1 X54.738 Y73.758 E0.00132
;WIDTH:0.196839
G1 X54.757 Y73.677 E0.00101
;WIDTH:0.139154
G1 X54.777 Y73.595 E0.00063
G1 X54.789 Y73.543 E0.00041
G1 X54.904 Y72.677 F18000
;WIDTH:0.899461
G1 F1800
G1 X54.924 Y72.477 E0.01358
;WIDTH:0.85354
G1 X54.944 Y72.276 E0.01285
G1 X54.95 Y72.191 E0.00542
G1 X54.951 Y72.124 E0.00429
G1 X54.947 Y71.91 E0.01361
G1 X54.942 Y71.696 E0.01361
G1 X54.94 Y71.619 E0.0049
;WIDTH:0.806888
G1 X54.938 Y71.543 E0.00462
G1 X54.933 Y71.445 E0.00588
;WIDTH:0.847454
G1 X54.93 Y71.389 E0.00356
G1 X54.929 Y71.344 E0.00282
G1 X54.925 Y71.287 E0.00363
G1 E-2 F3000
M204 S1500
G1 Z0.6 F18000
M204 S1000
G1 X54.293 Y68.127
G1 Z0.2
G1 E2 F1800
;WIDTH:1.137186
G1 X54.22 Y68.118 E0.00637
;WIDTH:1.03425
G1 X54.146 Y68.108 E0.00577
;WIDTH:0.931313
G1 X54.073 Y68.099 E0.00517
;WIDTH:0.828376
G1 X53.999 Y68.089 E0.00457
;WIDTH:0.727835
G1 X53.917 Y68.078 E0.00447
;WIDTH:0.782499
G1 X53.872 Y68.065 E0.0027
G1 X53.78 Y68.041 E0.00556
;WIDTH:0.714345
G1 X53.687 Y68.017 E0.00505
;WIDTH:0.659249
G1 X53.595 Y67.993 E0.00463
;WIDTH:0.604153
G1 X53.502 Y67.969 E0.00422
;WIDTH:0.549057
G1 X53.409 Y67.945 E0.0038
;WIDTH:0.493962
G1 X53.317 Y67.921 E0.00339
;WIDTH:0.438866
G1 X53.224 Y67.897 E0.00298
;WIDTH:0.38377
G1 X53.132 Y67.872 E0.00256
G1 X53.103 Y67.866 E0.00078
G1 X52.972 Y67.844 E0.00357
;WIDTH:0.317367
G1 X52.841 Y67.821 E0.00287
;WIDTH:0.263218
G1 X52.709 Y67.799 E0.00231
;WIDTH:0.209069
G1 X52.578 Y67.776 E0.00174
;WIDTH:0.15492
G1 X52.447 Y67.754 E0.00117
G1 X54.501 Y67.205 F18000
;WIDTH:0.70201
G1 F1800
G1 X54.501 Y65.664 E0.07981
G1 E-2 F3000
M204 S1500
G1 Z0.6 F18000
; acceleration to travel
G1 X50.47 Y66.84
