; generated by SuperSlicer 2.5.59 on 2022-12-11 at 07:23:14 UTC


;
;

;
;
; 

; external perimeters extrusion width = 0.40mm
; perimeters extrusion width = 0.45mm
; infill extrusion width = 0.72mm
; solid infill extrusion width = 0.56mm
; top infill extrusion width = 0.40mm
; first layer extrusion width = 0.48mm

; object:{"name":"Voron_Design_Cube_v7","id":"Voron_Design_Cube_v7 id:0 copy 0","object_center":[60.000000,60.000000,0.000000],"boundingbox_center":[60.000000,60.000000,10.000000],"boundingbox_size":[20.000000,20.000000,20.000000]}
; plater:{"center":[60.000000,60.000000,0.000000],"boundingbox_center":[60.000000,60.000000,10.000000],"boundingbox_size":[20.000000,20.000000,20.000000]}

;TYPE:Custom
; M190 S0
; M109 S0 ; uncomment to remove set&wait temp gcode added automatically after this start gcode
PRINT_START EXTRUDER=230 BED=110 CHAMBER=50
M107
G21 ; set units to millimeters
G90 ; use absolute coordinates
M83 ; use relative distances for extrusion
;_TOOLCHANGE 0
M104 S230 ; set temperature
M109 S230 ; set temperature and wait for it to be reached
M190 S110 ; set bed temperature and wait for it to be reached
M107
;LAYER_CHANGE
;Z:0.25
;HEIGHT:0.25
;BEFORE_LAYER_CHANGE
;0.25


G1 Z0.25 F27000
;AFTER_LAYER_CHANGE
;0.25
G92 E0
G1 E-2 F3000
M204 S1500
G1 Z0.65 F27000
; printing object Voron_Design_Cube_v7 id:0 copy 0
G1 X55.165 Y55.324
G1 Z0.25
G1 E2 F1800
;TYPE:Internal perimeter
;WIDTH:0.48
G1 F900
G1 X54.745 Y55.796 E0.02646
G1 X54.338 Y56.363 E0.02924
G1 X53.991 Y56.97 E0.02924
G1 X53.71 Y57.609 E0.02924
G1 X53.496 Y58.273 E0.02924
G1 X53.352 Y58.956 E0.02924
G1 X53.279 Y59.651 E0.02924
G1 X53.279 Y60.349 E0.02924
G1 X53.352 Y61.044 E0.02924
G1 X53.496 Y61.727 E0.02924
G1 X53.71 Y62.391 E0.02924
G1 X53.991 Y63.03 E0.02924
G1 X54.327 Y63.618 E0.02836
G1 X54.547 Y63.942 E0.01638
G1 X54.97 Y64.471 E0.02836
G1 X55.46 Y64.968 E0.02924
G1 X56 Y65.411 E0.02924
G1 X56.582 Y65.797 E0.02923
G1 X57.184 Y66.111 E0.02844
G1 X57.56 Y66.27 E0.01713
G1 X58.185 Y66.48 E0.02757
G1 X58.865 Y66.633 E0.0292
G1 X59.558 Y66.715 E0.02924
G1 X60.256 Y66.725 E0.02924
G1 X60.952 Y66.662 E0.02924
G1 X61.637 Y66.527 E0.02924
G1 X62.286 Y66.328 E0.02844
G1 X62.666 Y66.177 E0.01713
G1 X63.258 Y65.888 E0.02757
G1 X63.85 Y65.52 E0.02919
G1 X64.401 Y65.091 E0.02924
G1 X64.905 Y64.608 E0.02924
G1 X65.356 Y64.075 E0.02924
G1 X65.749 Y63.498 E0.02924
G1 X66.08 Y62.883 E0.02923
G1 X66.347 Y62.238 E0.02924
G1 X66.544 Y61.568 E0.02924
G1 X66.668 Y60.901 E0.02841
G1 X66.71 Y60.493 E0.0172
G1 X66.727 Y59.814 E0.02841
G1 X66.671 Y59.118 E0.02924
G1 X66.544 Y58.432 E0.02924
G1 X66.347 Y57.763 E0.02919
G1 X66.097 Y57.154 E0.02759
G1 X65.913 Y56.788 E0.01714
G1 X65.56 Y56.209 E0.02842
G1 X65.137 Y55.653 E0.02924
G1 X64.659 Y55.144 E0.02924
G1 X64.131 Y54.687 E0.02924
G1 X63.558 Y54.288 E0.02924
G1 X62.948 Y53.951 E0.02919
G1 X62.342 Y53.693 E0.02758
G1 X61.955 Y53.562 E0.01713
G1 X61.296 Y53.396 E0.02843
G1 X60.605 Y53.298 E0.02924
G1 X59.907 Y53.271 E0.02924
G1 X59.559 Y53.294 E0.01462
G1 X59.21 Y53.317 E0.01462
G1 X58.522 Y53.435 E0.02924
G1 X57.851 Y53.623 E0.0292
G1 X57.239 Y53.865 E0.02757
G1 X56.871 Y54.043 E0.01712
G1 X56.286 Y54.388 E0.02845
G1 X55.724 Y54.803 E0.02924
G1 X55.205 Y55.279 E0.02951
G1 X55.483 Y55.607 F27000
G1 F900
G1 X55.078 Y56.063 E0.02553
G1 X54.697 Y56.594 E0.02738
G1 X54.373 Y57.162 E0.02738
G1 X54.109 Y57.76 E0.02739
G1 X53.908 Y58.383 E0.02738
G1 X53.774 Y59.023 E0.02739
G1 X53.706 Y59.673 E0.02738
G1 X53.706 Y60.327 E0.02739
G1 X53.774 Y60.977 E0.02738
G1 X53.908 Y61.617 E0.02739
G1 X54.109 Y62.24 E0.02738
G1 X54.373 Y62.838 E0.02738
G1 X54.689 Y63.392 E0.02673
G1 X54.89 Y63.689 E0.01499
G1 X55.289 Y64.187 E0.02673
G1 X55.748 Y64.653 E0.02738
G1 X56.253 Y65.068 E0.02739
G1 X56.799 Y65.429 E0.02738
G1 X57.366 Y65.725 E0.0268
G1 X57.712 Y65.871 E0.01573
G1 X58.3 Y66.069 E0.02597
G1 X58.937 Y66.212 E0.02735
G1 X59.586 Y66.289 E0.02738
G1 X60.24 Y66.298 E0.02739
G1 X60.891 Y66.239 E0.02738
G1 X61.533 Y66.113 E0.02738
G1 X62.145 Y65.926 E0.02679
G1 X62.494 Y65.787 E0.01573
G1 X63.051 Y65.515 E0.02597
G1 X63.605 Y65.17 E0.02735
G1 X64.122 Y64.768 E0.02738
G1 X64.593 Y64.315 E0.02738
G1 X65.016 Y63.816 E0.02739
G1 X65.384 Y63.276 E0.02739
G1 X65.695 Y62.7 E0.02738
G1 X65.944 Y62.096 E0.02738
G1 X66.129 Y61.469 E0.02739
G1 X66.246 Y60.84 E0.02678
G1 X66.285 Y60.465 E0.01578
G1 X66.3 Y59.826 E0.02678
G1 X66.248 Y59.174 E0.02738
G1 X66.129 Y58.531 E0.02738
G1 X65.944 Y57.905 E0.02735
G1 X65.709 Y57.331 E0.02598
G1 X65.539 Y56.995 E0.01573
G1 X65.207 Y56.449 E0.02678
G1 X64.811 Y55.929 E0.02738
G1 X64.363 Y55.452 E0.02738
G1 X63.869 Y55.024 E0.02738
G1 X63.332 Y54.65 E0.02739
G1 X62.761 Y54.334 E0.02735
G1 X62.19 Y54.091 E0.02597
G1 X61.834 Y53.971 E0.01573
G1 X61.214 Y53.815 E0.02679
G1 X60.566 Y53.723 E0.02738
G1 X59.913 Y53.698 E0.02738
G1 X59.587 Y53.719 E0.01369
G1 X59.26 Y53.741 E0.01369
G1 X58.616 Y53.851 E0.02738
G1 X57.987 Y54.028 E0.02735
G1 X57.41 Y54.255 E0.02597
G1 X57.073 Y54.419 E0.01572
G1 X56.521 Y54.744 E0.0268
G1 X55.995 Y55.133 E0.02738
G1 X55.524 Y55.564 E0.02673
G1 X55.802 Y55.891 F27000
G1 F900
G1 X55.412 Y56.33 E0.0246
G1 X55.056 Y56.825 E0.02553
G1 X54.754 Y57.354 E0.02553
G1 X54.508 Y57.912 E0.02553
G1 X54.321 Y58.492 E0.02553
G1 X54.195 Y59.089 E0.02553
G1 X54.132 Y59.695 E0.02553
G1 X54.132 Y60.305 E0.02553
G1 X54.195 Y60.911 E0.02553
G1 X54.321 Y61.508 E0.02553
G1 X54.508 Y62.088 E0.02553
G1 X54.754 Y62.646 E0.02553
G1 X55.051 Y63.167 E0.02511
G1 X55.234 Y63.435 E0.0136
G1 X55.608 Y63.903 E0.02511
G1 X56.036 Y64.337 E0.02553
G1 X56.507 Y64.725 E0.02553
G1 X57.015 Y65.061 E0.02553
G1 X57.548 Y65.339 E0.02515
G1 X57.863 Y65.472 E0.01433
G1 X58.415 Y65.658 E0.02437
G1 X59.009 Y65.791 E0.02551
G1 X59.614 Y65.863 E0.02553
G1 X60.224 Y65.871 E0.02553
G1 X60.831 Y65.817 E0.02553
G1 X61.429 Y65.699 E0.02553
G1 X62.003 Y65.523 E0.02515
G1 X62.321 Y65.397 E0.01433
G1 X62.844 Y65.141 E0.02437
G1 X63.361 Y64.819 E0.02551
G1 X63.842 Y64.445 E0.02553
G1 X64.282 Y64.023 E0.02553
G1 X64.676 Y63.558 E0.02553
G1 X65.02 Y63.054 E0.02553
G1 X65.309 Y62.518 E0.02553
G1 X65.541 Y61.954 E0.02553
G1 X65.714 Y61.369 E0.02553
G1 X65.823 Y60.779 E0.02514
G1 X65.859 Y60.438 E0.01436
G1 X65.873 Y59.838 E0.02514
G1 X65.825 Y59.23 E0.02553
G1 X65.714 Y58.631 E0.02553
G1 X65.541 Y58.047 E0.02551
G1 X65.32 Y57.508 E0.02438
G1 X65.166 Y57.203 E0.01433
G1 X64.854 Y56.69 E0.02514
G1 X64.485 Y56.205 E0.02553
G1 X64.068 Y55.76 E0.02553
G1 X63.607 Y55.362 E0.02553
G1 X63.107 Y55.013 E0.02553
G1 X62.574 Y54.718 E0.02551
G1 X62.038 Y54.49 E0.02437
G1 X61.714 Y54.38 E0.01433
G1 X61.132 Y54.234 E0.02515
G1 X60.528 Y54.148 E0.02553
G1 X59.919 Y54.125 E0.02553
G1 X59.615 Y54.145 E0.01276
G1 X59.311 Y54.165 E0.01277
G1 X58.71 Y54.268 E0.02553
G1 X58.123 Y54.432 E0.02551
G1 X57.582 Y54.646 E0.02436
G1 X57.274 Y54.795 E0.01432
G1 X56.757 Y55.1 E0.02515
G1 X56.267 Y55.463 E0.02553
G1 X55.845 Y55.848 E0.02394
M204 S1000
G1 X56.121 Y56.174 F27000
;TYPE:External perimeter
G1 F900
G1 X55.745 Y56.596 E0.02367
G1 X55.415 Y57.056 E0.02367
G1 X55.135 Y57.546 E0.02367
G1 X54.907 Y58.064 E0.02368
G1 X54.734 Y58.602 E0.02367
G1 X54.617 Y59.155 E0.02368
G1 X54.559 Y59.717 E0.02367
G1 X54.559 Y60.283 E0.02368
G1 X54.617 Y60.845 E0.02367
G1 X54.734 Y61.398 E0.02368
G1 X54.907 Y61.936 E0.02367
G1 X55.135 Y62.454 E0.02367
G1 X55.413 Y62.941 E0.02349
G1 X55.577 Y63.182 E0.01221
G1 X55.927 Y63.62 E0.02349
G1 X56.324 Y64.022 E0.02367
G1 X56.761 Y64.382 E0.02368
G1 X57.232 Y64.693 E0.02367
G1 X57.73 Y64.953 E0.02351
G1 X58.014 Y65.074 E0.01292
G1 X58.53 Y65.247 E0.02277
G1 X59.081 Y65.371 E0.02366
G1 X59.642 Y65.437 E0.02367
G1 X60.208 Y65.445 E0.02368
G1 X60.771 Y65.394 E0.02367
G1 X61.325 Y65.285 E0.02367
G1 X61.862 Y65.121 E0.0235
G1 X62.149 Y65.007 E0.01292
G1 X62.637 Y64.768 E0.02277
G1 X63.117 Y64.469 E0.02366
G1 X63.563 Y64.122 E0.02367
G1 X63.971 Y63.731 E0.02367
G1 X64.336 Y63.299 E0.02368
G1 X64.655 Y62.832 E0.02367
G1 X64.923 Y62.335 E0.02367
G1 X65.139 Y61.812 E0.02367
G1 X65.299 Y61.27 E0.02367
G1 X65.401 Y60.718 E0.0235
G1 X65.433 Y60.411 E0.01294
G1 X65.447 Y59.85 E0.0235
G1 X65.402 Y59.286 E0.02367
G1 X65.299 Y58.73 E0.02367
G1 X65.139 Y58.188 E0.02366
G1 X64.932 Y57.685 E0.02277
G1 X64.793 Y57.41 E0.01293
G1 X64.502 Y56.93 E0.0235
G1 X64.159 Y56.48 E0.02367
G1 X63.772 Y56.068 E0.02367
G1 X63.345 Y55.699 E0.02367
G1 X62.881 Y55.375 E0.02368
G1 X62.386 Y55.102 E0.02366
G1 X61.886 Y54.889 E0.02277
G1 X61.594 Y54.79 E0.01292
G1 X61.049 Y54.653 E0.0235
G1 X60.49 Y54.573 E0.02367
G1 X59.925 Y54.552 E0.02367
G1 X59.643 Y54.57 E0.01184
G1 X59.361 Y54.589 E0.01184
G1 X58.803 Y54.684 E0.02367
G1 X58.259 Y54.837 E0.02367
G1 X57.754 Y55.036 E0.02276
G1 X57.476 Y55.171 E0.01292
G1 X56.993 Y55.456 E0.02351
G1 X56.538 Y55.792 E0.02367
G1 X56.165 Y56.133 E0.02116
;WIPE_START
M204 S1500
G1 X55.732 Y56.08 F27000
;WIPE_END
G1 E-2 F3000
G1 Z0.65 F27000
G1 X51.627 Y54.537
G1 Z0.25
G1 E2 F1800
;TYPE:Internal perimeter
G1 F900
G1 X54.537 Y51.627 E0.17233
G1 X65.463 Y51.627 E0.45752
G1 X68.373 Y54.537 E0.17233
G1 X68.373 Y65.463 E0.45752
G1 X65.463 Y68.373 E0.17233
G1 X54.537 Y68.373 E0.45752
G1 X51.627 Y65.463 E0.17233
G1 X51.627 Y54.597 E0.45501
G1 X51.201 Y54.361 F27000
G1 F900
G1 X54.361 Y51.201 E0.18712
G1 X65.639 Y51.201 E0.47231
G1 X68.799 Y54.361 E0.18712
G1 X68.799 Y65.639 E0.47231
G1 X65.639 Y68.799 E0.18712
G1 X54.361 Y68.799 E0.47231
G1 X51.201 Y65.639 E0.18712
G1 X51.201 Y54.421 E0.4698
G1 X50.775 Y54.184 F27000
G1 F900
G1 X54.184 Y50.775 E0.20191
G1 X65.816 Y50.775 E0.4871
G1 X65.942 Y50.901 E0.00748
G1 X69.225 Y54.184 E0.19443
G1 X69.225 Y65.816 E0.4871
G1 X65.816 Y69.225 E0.20191
G1 X54.184 Y69.225 E0.4871
G1 X50.775 Y65.816 E0.20191
G1 X50.775 Y54.244 E0.48459
M204 S1000
G1 X50.348 Y54.008 F27000
;TYPE:External perimeter
G1 F900
G1 X54.008 Y50.348 E0.2167
G1 X65.993 Y50.348 E0.50189
G1 X66.244 Y50.6 E0.01488
G1 X69.652 Y54.008 E0.20183
G1 X69.652 Y65.993 E0.50189
G1 X65.993 Y69.652 E0.2167
G1 X54.008 Y69.652 E0.50189
G1 X50.348 Y65.993 E0.2167
G1 X50.348 Y54.068 E0.49938
;WIPE_START
M204 S1500
G1 X50.748 Y54.008 F27000
;WIPE_END
G1 E-2 F3000
G1 Z0.65 F27000
G1 X65.165 Y51.691
G1 Z0.25
G1 E2 F1800
;TYPE:Solid infill
;WIDTH:0.454286
G1 F1200
G1 X68.125 Y54.652 E0.16594
G1 X68.125 Y55.255 E0.0239
G1 X64.745 Y51.875 E0.18946
G1 X64.142 Y51.875 E0.0239
G1 X68.125 Y55.858 E0.22325
G1 X68.125 Y56.461 E0.0239
G1 X63.539 Y51.875 E0.25705
G1 X62.936 Y51.875 E0.0239
G1 X68.125 Y57.064 E0.29084
G1 X68.125 Y57.667 E0.0239
G1 X62.333 Y51.875 E0.32464
G1 X61.73 Y51.875 E0.0239
G1 X68.125 Y58.27 E0.35843
G1 X68.125 Y58.872 E0.0239
G1 X66.333 Y57.08 E0.10047
G1 X66.658 Y58.008 E0.03896
G1 X68.125 Y59.475 E0.08226
G1 X68.125 Y60.078 E0.0239
G1 X66.842 Y58.795 E0.07196
G1 X66.933 Y59.489 E0.02777
G1 X68.125 Y60.681 E0.06681
G1 X68.125 Y61.284 E0.0239
G1 X66.958 Y60.117 E0.06543
G1 X66.927 Y60.689 E0.0227
G1 X68.125 Y61.887 E0.06717
G1 X68.125 Y62.49 E0.0239
G1 X66.847 Y61.212 E0.07163
G1 X66.731 Y61.698 E0.01981
G1 X68.125 Y63.093 E0.07818
G1 X68.125 Y63.696 E0.0239
G1 X66.614 Y62.184 E0.08473
G1 X66.581 Y62.321 E0.00555
G1 X66.441 Y62.615 E0.01291
G1 X68.125 Y64.299 E0.09439
G1 X68.125 Y64.902 E0.0239
G1 X66.247 Y63.024 E0.10526
G1 X66.053 Y63.433 E0.01794
G1 X68.053 Y65.433 E0.11208
G1 X67.752 Y65.734 E0.0169
G1 X65.824 Y63.807 E0.10801
G1 X65.564 Y64.149 E0.01705
G1 X67.45 Y66.036 E0.10572
G1 X67.149 Y66.337 E0.0169
G1 X65.303 Y64.492 E0.10342
G1 X65.086 Y64.778 E0.01425
G1 X65.033 Y64.824 E0.00279
G1 X66.847 Y66.638 E0.10171
G1 X66.546 Y66.94 E0.0169
G1 X64.709 Y65.103 E0.10294
G1 X64.386 Y65.383 E0.01694
G1 X66.244 Y67.241 E0.10416
G1 X65.943 Y67.543 E0.0169
G1 X64.062 Y65.663 E0.10539
G1 X63.992 Y65.723 E0.00369
G1 X63.689 Y65.892 E0.01375
G1 X65.641 Y67.844 E0.10943
G1 X65.36 Y68.125 E0.01575
G1 X65.319 Y68.125 E0.00163
G1 X63.301 Y66.107 E0.11311
G1 X62.914 Y66.323 E0.01757
G1 X64.716 Y68.125 E0.10103
G1 X64.113 Y68.125 E0.0239
G1 X62.487 Y66.499 E0.09113
G1 X62.037 Y66.652 E0.01884
G1 X63.51 Y68.125 E0.08256
G1 X62.907 Y68.125 E0.0239
G1 X61.569 Y66.787 E0.07502
G1 X61.041 Y66.862 E0.02112
G1 X62.305 Y68.125 E0.0708
G1 X61.702 Y68.125 E0.0239
G1 X60.514 Y66.938 E0.06657
G1 X60.266 Y66.973 E0.00993
G1 X59.924 Y66.951 E0.01359
G1 X61.099 Y68.125 E0.06585
G1 X60.496 Y68.125 E0.0239
G1 X59.278 Y66.908 E0.06823
G1 X58.823 Y66.878 E0.01808
G1 X58.577 Y66.81 E0.01012
G1 X59.893 Y68.125 E0.07374
G1 X59.29 Y68.125 E0.0239
G1 X57.455 Y66.29 E0.10286
G1 E-2 F3000
G1 Z0.65 F27000
G1 X63.385 Y54.132
G1 Z0.25
G1 E2 F1800
G1 F1200
G1 X61.128 Y51.875 E0.12653
G1 X60.525 Y51.875 E0.0239
G1 X61.984 Y53.334 E0.08181
G1 X61.347 Y53.154 E0.02623
G1 X61.177 Y53.13 E0.00684
G1 X59.922 Y51.875 E0.07034
G1 X59.319 Y51.875 E0.0239
G1 X60.494 Y53.05 E0.06588
G1 X59.889 Y53.048 E0.02398
G1 X58.716 Y51.875 E0.06576
G1 X58.113 Y51.875 E0.0239
G1 X59.316 Y53.077 E0.06742
G1 X58.785 Y53.15 E0.02123
G1 X57.51 Y51.875 E0.07146
G1 X56.907 Y51.875 E0.0239
G1 X58.285 Y53.253 E0.07727
G1 X57.834 Y53.405 E0.01888
G1 X56.304 Y51.875 E0.08575
G1 X55.701 Y51.875 E0.0239
G1 X57.382 Y53.556 E0.09423
G1 X57.139 Y53.637 E0.01016
G1 X56.959 Y53.736 E0.00812
G1 X55.098 Y51.875 E0.10433
G1 X54.64 Y51.875 E0.01816
G1 X54.567 Y51.947 E0.00405
G1 X56.57 Y53.95 E0.11226
G1 X56.181 Y54.164 E0.0176
G1 X54.266 Y52.248 E0.10735
G1 X53.964 Y52.55 E0.0169
G1 X55.845 Y54.431 E0.10541
G1 X55.514 Y54.703 E0.01698
G1 X53.663 Y52.851 E0.10377
G1 X53.362 Y53.153 E0.0169
G1 X55.184 Y54.975 E0.10213
G1 X55.032 Y55.1 E0.00779
G1 X54.887 Y55.281 E0.0092
G1 X53.06 Y53.454 E0.10239
G1 X52.759 Y53.756 E0.0169
G1 X54.619 Y55.616 E0.10427
G1 X54.351 Y55.951 E0.017
G1 X52.457 Y54.057 E0.10615
G1 X52.156 Y54.359 E0.0169
G1 X54.094 Y56.297 E0.10865
G1 X53.892 Y56.698 E0.01779
G1 X51.875 Y54.681 E0.11307
G1 X51.875 Y55.284 E0.0239
G1 X53.69 Y57.099 E0.10174
G1 X53.488 Y57.5 E0.01779
G1 X51.875 Y55.887 E0.09041
G1 X51.875 Y56.49 E0.0239
G1 X53.357 Y57.972 E0.0831
G1 X53.231 Y58.449 E0.01954
G1 X51.875 Y57.093 E0.07601
G1 X51.875 Y57.695 E0.0239
G1 X53.106 Y58.927 E0.06901
G1 X53.076 Y59.5 E0.02275
G1 X51.875 Y58.298 E0.06734
G1 X51.875 Y58.901 E0.0239
G1 X53.046 Y60.073 E0.06567
G1 X53.031 Y60.362 E0.01147
G1 X53.087 Y60.717 E0.01422
G1 X51.875 Y59.504 E0.06795
G1 X51.875 Y60.107 E0.0239
G1 X53.199 Y61.432 E0.07424
G1 X53.255 Y61.791 E0.01439
G1 X53.44 Y62.275 E0.02056
G1 X51.875 Y60.71 E0.08773
G1 X51.875 Y61.313 E0.0239
G1 X53.873 Y63.312 E0.11203
G1 X54.348 Y64.09 E0.0361
G1 X55.293 Y65.151 E0.05634
G1 X56.453 Y66.009 E0.0572
G1 X56.681 Y66.119 E0.01002
G1 X58.687 Y68.125 E0.11243
G1 X58.084 Y68.125 E0.0239
G1 X51.875 Y61.916 E0.34803
G1 X51.875 Y62.519 E0.0239
G1 X57.481 Y68.125 E0.31423
G1 X56.878 Y68.125 E0.0239
G1 X51.875 Y63.122 E0.28044
G1 X51.875 Y63.725 E0.0239
G1 X56.275 Y68.125 E0.24664
G1 X55.672 Y68.125 E0.0239
G1 X51.875 Y64.328 E0.21285
G1 X51.875 Y64.931 E0.0239
G1 X55.252 Y68.309 E0.18933
G1 X54.743 Y68.159 F27000
;TYPE:Gap fill
;WIDTH:0.171935
G1 F900
G1 X54.654 Y68.091 E0.0013
G1 X53.282 Y66.718 E0.02255
G1 X51.909 Y65.346 E0.02255
G1 X51.841 Y65.257 E0.0013
;LAYER_CHANGE
;Z:0.45
;HEIGHT:0.2
;BEFORE_LAYER_CHANGE
;0.45


; stop printing object Voron_Design_Cube_v7 id:0 copy 0
G1 Z0.45 F27000
;AFTER_LAYER_CHANGE
;0.45
G92 E0
M104 S235 ; set temperature
; printing object Voron_Design_Cube_v7 id:0 copy 0
G1 X54.491 Y63.554
;TYPE:Internal perimeter
;WIDTH:0.45
G1 F8106.5218
G1 X54.669 Y63.831 E0.01054
G1 X55.095 Y64.363 E0.0218
G1 X55.56 Y64.835 E0.02119
G1 X55.846 Y65.083 E0.01212
G1 X56.379 Y65.476 E0.02119
G1 X56.967 Y65.822 E0.0218
G1 X57.586 Y66.105 E0.0218
G1 X58.232 Y66.322 E0.0218
G1 X58.897 Y66.472 E0.0218
G1 X59.574 Y66.551 E0.0218
G1 X60.256 Y66.56 E0.0218
G1 X60.934 Y66.498 E0.0218
G1 X61.603 Y66.366 E0.0218
G1 X62.254 Y66.166 E0.0218
G1 X62.881 Y65.899 E0.0218
G1 X63.477 Y65.568 E0.02179
G1 X64.036 Y65.178 E0.0218
G1 X64.551 Y64.732 E0.0218
G1 X65.017 Y64.234 E0.0218
G1 X65.429 Y63.691 E0.0218
G1 X65.782 Y63.109 E0.0218
G1 X66.065 Y62.51 E0.02119
G1 X66.2 Y62.156 E0.01212
