; generated by SuperSlicer 2.5.59 on 2022-12-12 at 08:06:00 UTC


;
;

;
;
; 

; external perimeters extrusion width = 0.40mm
; perimeters extrusion width = 0.45mm
; infill extrusion width = 0.72mm
; solid infill extrusion width = 0.56mm
; top infill extrusion width = 0.40mm
; first layer extrusion width = 0.48mm

; object:{"name":"v0_bed_wago_221-412x4","id":"v0_bed_wago_221-412x4.stl id:0 copy 0","object_center":[60.000000,60.000000,0.000000],"boundingbox_center":[60.000000,60.000000,11.125000],"boundingbox_size":[27.200005,62.600002,22.250000]}
; plater:{"center":[60.000000,60.000000,0.000000],"boundingbox_center":[60.000000,60.000000,11.125000],"boundingbox_size":[27.200005,62.600002,22.250000]}

;TYPE:Custom
; M190 S0
; M109 S0 ; uncomment to remove set&wait temp gcode added automatically after this start gcode
PRINT_START EXTRUDER=230 BED=110 CHAMBER=50


; Pre-Processed for Cancel-Object support by preprocess_cancellation v0.2.0
; 1 known objects
EXCLUDE_OBJECT_DEFINE NAME=v0_bed_wago_221_412x4_stl_id_0_copy_0 CENTER=60.262,59.895 POLYGON=[[46.6,28.9],[46.6,91.1],[73.4,91.1],[73.4,28.9]]
M107
G21 ; set units to millimeters
G90 ; use absolute coordinates
M83 ; use relative distances for extrusion
;_TOOLCHANGE 0
M104 S230 ; set temperature
M109 S230 ; set temperature and wait for it to be reached
M190 S110 ; set bed temperature and wait for it to be reached
M107
;LAYER_CHANGE
;Z:0.25
;HEIGHT:0.25
;BEFORE_LAYER_CHANGE
;0.25


G1 Z0.25 F27000
;AFTER_LAYER_CHANGE
;0.25
G92 E0
G1 E-2 F3000
M204 S1500
G1 Z0.65 F27000
; printing object v0_bed_wago_221-412x4.stl id:0 copy 0
EXCLUDE_OBJECT_START NAME=v0_bed_wago_221_412x4_stl_id_0_copy_0
G1 X52.911 Y80.356
G1 Z0.25
G1 E2 F1800
;TYPE:Internal perimeter
;WIDTH:0.48
G1 F900
G1 X52.502 Y80.483 E0.01794
G1 X52.083 Y80.696 E0.01968
G1 X51.696 Y80.955 E0.0195
G1 X51.211 Y81.409 E0.02784
G1 X50.928 Y81.775 E0.01934
G1 X50.698 Y82.159 E0.01876
G1 X50.437 Y82.782 E0.02831
G1 X50.163 Y82.727 E0.0117
G1 X50.163 Y80.064 E0.11152
G1 X52.867 Y80.066 E0.11324
G1 X52.902 Y80.297 E0.00976
G1 X52.345 Y81.041 F27000
G1 F900
G1 X52.299 Y81.064 E0.00214
G1 X51.962 Y81.29 E0.01697
G1 X51.527 Y81.697 E0.02496
G1 X51.281 Y82.015 E0.01685
G1 X51.08 Y82.352 E0.01642
G1 X50.89 Y82.804 E0.02055
G1 X50.748 Y83.423 E0.02657
G1 X50.741 Y84.053 E0.0264
G1 X50.816 Y84.536 E0.02048
G1 X50.932 Y84.913 E0.01652
G1 X51.097 Y85.282 E0.01692
G1 X51.431 Y85.791 E0.02547
G1 X51.787 Y86.164 E0.02161
G1 X52.275 Y86.523 E0.02537
G1 X52.637 Y86.707 E0.017
G1 X53.02 Y86.847 E0.01706
G1 X53.613 Y86.957 E0.02529
G1 X54.103 Y86.964 E0.02053
G1 X54.493 Y86.913 E0.01646
G1 X54.884 Y86.814 E0.01688
G1 X55.443 Y86.572 E0.02553
G1 X55.871 Y86.283 E0.02161
G1 X56.329 Y85.845 E0.02653
G1 X56.681 Y85.321 E0.02643
G1 X56.883 Y84.875 E0.0205
G1 X56.992 Y84.496 E0.0165
G1 X57.057 Y84.098 E0.01691
G1 X57.057 Y83.489 E0.02549
G1 X56.963 Y82.982 E0.02161
G1 X56.753 Y82.414 E0.02535
G1 X56.551 Y82.062 E0.01702
G1 X56.324 Y81.758 E0.01587
G1 X56.044 Y81.463 E0.01701
G1 X55.561 Y81.099 E0.02536
G1 X55.101 Y80.864 E0.02161
G1 X54.518 Y80.69 E0.02548
G1 X54.118 Y80.638 E0.01692
G1 X53.723 Y80.634 E0.01651
G1 X53.239 Y80.701 E0.02049
G1 X52.663 Y80.879 E0.02524
G1 X52.398 Y81.014 E0.01244
G1 X52.538 Y81.421 F27000
G1 F900
G1 X52.515 Y81.433 E0.00107
G1 X52.228 Y81.625 E0.01443
G1 X51.844 Y81.985 E0.02207
G1 X51.634 Y82.256 E0.01436
G1 X51.461 Y82.545 E0.01408
G1 X51.297 Y82.936 E0.01775
G1 X51.174 Y83.473 E0.02311
G1 X51.168 Y84.023 E0.023
G1 X51.233 Y84.44 E0.0177
G1 X51.332 Y84.763 E0.01415
G1 X51.472 Y85.077 E0.01441
G1 X51.766 Y85.525 E0.02241
G1 X52.07 Y85.843 E0.01843
G1 X52.499 Y86.159 E0.02234
G1 X52.807 Y86.316 E0.01446
G1 X53.132 Y86.434 E0.01449
G1 X53.656 Y86.531 E0.02229
G1 X54.079 Y86.537 E0.01774
G1 X54.413 Y86.494 E0.01411
G1 X54.746 Y86.409 E0.01438
G1 X55.238 Y86.196 E0.02244
G1 X55.602 Y85.95 E0.01843
G1 X56 Y85.569 E0.02308
G1 X56.307 Y85.112 E0.02302
G1 X56.482 Y84.727 E0.01772
G1 X56.575 Y84.403 E0.01413
G1 X56.63 Y84.064 E0.0144
G1 X56.63 Y83.528 E0.02242
G1 X56.551 Y83.095 E0.01843
G1 X56.365 Y82.596 E0.02233
G1 X56.193 Y82.296 E0.01447
G1 X55.998 Y82.033 E0.01373
G1 X55.76 Y81.783 E0.01446
G1 X55.334 Y81.462 E0.02233
G1 X54.942 Y81.262 E0.01843
G1 X54.429 Y81.108 E0.02241
G1 X54.088 Y81.064 E0.0144
G1 X53.75 Y81.061 E0.01414
G1 X53.331 Y81.118 E0.01771
G1 X52.824 Y81.276 E0.02225
G1 X52.591 Y81.394 E0.01093
M204 S1000
G1 X52.731 Y81.801 F27000
;TYPE:External perimeter
G1 F900
G1 X52.494 Y81.959 E0.0119
G1 X52.16 Y82.273 E0.01919
G1 X51.987 Y82.497 E0.01186
G1 X51.843 Y82.738 E0.01174
G1 X51.705 Y83.067 E0.01495
G1 X51.6 Y83.524 E0.01965
G1 X51.594 Y83.992 E0.0196
G1 X51.649 Y84.344 E0.01493
G1 X51.732 Y84.613 E0.01177
G1 X51.848 Y84.872 E0.01189
G1 X52.101 Y85.258 E0.01934
G1 X52.353 Y85.522 E0.01525
G1 X52.724 Y85.795 E0.01931
G1 X52.977 Y85.924 E0.01191
G1 X53.245 Y86.022 E0.01193
G1 X53.698 Y86.105 E0.01928
G1 X54.054 Y86.11 E0.01495
G1 X54.333 Y86.074 E0.01176
G1 X54.608 Y86.004 E0.01187
G1 X55.032 Y85.821 E0.01935
G1 X55.334 Y85.617 E0.01525
G1 X55.672 Y85.293 E0.01964
G1 X55.933 Y84.904 E0.01961
G1 X56.081 Y84.579 E0.01493
G1 X56.159 Y84.309 E0.01177
G1 X56.204 Y84.029 E0.01188
G1 X56.204 Y83.567 E0.01934
G1 X56.138 Y83.209 E0.01525
G1 X55.978 Y82.777 E0.0193
G1 X55.836 Y82.53 E0.01192
G1 X55.671 Y82.308 E0.01159
G1 X55.475 Y82.102 E0.01191
G1 X55.107 Y81.825 E0.0193
G1 X54.782 Y81.659 E0.01526
G1 X54.34 Y81.527 E0.01934
G1 X54.058 Y81.49 E0.01188
G1 X53.777 Y81.488 E0.01177
G1 X53.424 Y81.536 E0.01493
G1 X52.985 Y81.672 E0.01927
G1 X52.784 Y81.774 E0.00943
;WIPE_START
M204 S1500
G1 X52.379 Y81.611 F27000
;WIPE_END
G1 E-2 F3000
G1 Z0.65 F27000
G1 X50.453 Y84.807
G1 Z0.25
G1 E2 F1800
;TYPE:Internal perimeter
G1 F900
G1 X50.533 Y85.064 E0.01123
G1 X50.722 Y85.488 E0.01944
G1 X51.096 Y86.057 E0.02854
G1 X51.504 Y86.485 E0.02479
G1 X52.05 Y86.888 E0.0284
G1 X52.467 Y87.099 E0.01955
G1 X52.889 Y87.253 E0.01882
G1 X52.839 Y87.535 E0.01198
G1 X50.163 Y87.536 E0.11205
G1 X50.163 Y84.851 E0.11245
G1 X50.394 Y84.816 E0.00978
G1 E-2 F3000
G1 Z0.65 F27000
G1 X63.885 Y39.937
G1 Z0.25
G1 E2 F1800
G1 F900
G1 X54.988 Y39.93 E0.37257
G1 X54.932 Y39.658 E0.01162
G1 X55.649 Y39.347 E0.03272
G1 X56.14 Y39.016 E0.02479
G1 X56.657 Y38.521 E0.02998
G1 X57.054 Y37.929 E0.02984
G1 X57.284 Y37.423 E0.02328
G1 X57.409 Y36.99 E0.01887
G1 X57.483 Y36.532 E0.01942
G1 X57.483 Y35.85 E0.02857
G1 X57.376 Y35.268 E0.02479
G1 X57.14 Y34.633 E0.02837
G1 X56.908 Y34.227 E0.01957
G1 X56.651 Y33.883 E0.01801
G1 X56.329 Y33.544 E0.01956
G1 X55.788 Y33.136 E0.02839
G1 X55.26 Y32.867 E0.02479
G1 X54.922 Y32.766 E0.0148
G1 X54.964 Y32.474 E0.01234
G1 X69.837 Y32.47 E0.6228
G1 X69.837 Y87.525 E2.30553
G1 X54.98 Y87.534 E0.62215
G1 X54.923 Y87.262 E0.01163
G1 X55.649 Y86.947 E0.03312
G1 X56.14 Y86.616 E0.02479
G1 X56.657 Y86.121 E0.02998
G1 X57.054 Y85.529 E0.02984
G1 X57.284 Y85.023 E0.02328
G1 X57.409 Y84.59 E0.01887
G1 X57.483 Y84.132 E0.01942
G1 X57.483 Y83.45 E0.02857
G1 X57.376 Y82.868 E0.02479
G1 X57.14 Y82.233 E0.02838
G1 X56.908 Y81.827 E0.01957
G1 X56.651 Y81.482 E0.01801
G1 X56.329 Y81.144 E0.01956
G1 X55.788 Y80.736 E0.02839
G1 X55.26 Y80.467 E0.02479
G1 X54.901 Y80.359 E0.01571
G1 X54.944 Y80.068 E0.01235
G1 X65.174 Y80.075 E0.42839
G1 X65.163 Y39.938 E1.68081
G1 X63.945 Y39.937 E0.05099
G1 E-2 F3000
G1 Z0.65 F27000
G1 X52.869 Y39.646
G1 Z0.25
G1 E2 F1800
G1 F900
G1 X52.82 Y39.928 E0.01198
G1 X50.163 Y39.926 E0.11123
G1 X50.163 Y37.251 E0.112
G1 X50.453 Y37.208 E0.01229
G1 X50.533 Y37.464 E0.01122
G1 X50.721 Y37.888 E0.01944
G1 X51.096 Y38.457 E0.02854
G1 X51.504 Y38.886 E0.02479
G1 X52.05 Y39.288 E0.0284
G1 X52.467 Y39.499 E0.01955
G1 X52.813 Y39.626 E0.01545
G1 X53.543 Y39.344 F27000
G1 F900
G1 X53.613 Y39.357 E0.00302
G1 X54.103 Y39.364 E0.02053
G1 X54.493 Y39.313 E0.01646
G1 X54.884 Y39.214 E0.01688
G1 X55.443 Y38.972 E0.02553
G1 X55.871 Y38.683 E0.02161
G1 X56.329 Y38.245 E0.02653
G1 X56.681 Y37.721 E0.02643
G1 X56.883 Y37.275 E0.0205
G1 X56.992 Y36.896 E0.0165
G1 X57.057 Y36.498 E0.01691
G1 X57.057 Y35.889 E0.02549
G1 X56.963 Y35.382 E0.02161
G1 X56.753 Y34.814 E0.02535
G1 X56.551 Y34.462 E0.01702
G1 X56.324 Y34.158 E0.01587
G1 X56.044 Y33.863 E0.01701
G1 X55.561 Y33.499 E0.02536
G1 X55.101 Y33.264 E0.02161
G1 X54.518 Y33.09 E0.02548
G1 X54.117 Y33.038 E0.01692
G1 X53.723 Y33.034 E0.01651
G1 X53.238 Y33.101 E0.02049
G1 X52.663 Y33.279 E0.02524
G1 X52.299 Y33.464 E0.0171
G1 X51.962 Y33.69 E0.01697
G1 X51.527 Y34.097 E0.02496
G1 X51.281 Y34.415 E0.01685
G1 X51.08 Y34.752 E0.01642
G1 X50.89 Y35.205 E0.02056
G1 X50.748 Y35.823 E0.02657
G1 X50.741 Y36.453 E0.0264
G1 X50.816 Y36.936 E0.02048
G1 X50.932 Y37.313 E0.01652
G1 X51.097 Y37.682 E0.01692
G1 X51.431 Y38.191 E0.02547
G1 X51.787 Y38.564 E0.02161
G1 X52.275 Y38.923 E0.02537
G1 X52.637 Y39.107 E0.017
G1 X53.02 Y39.247 E0.01706
G1 X53.484 Y39.333 E0.01976
G1 X53.62 Y38.925 F27000
G1 F900
G1 X53.656 Y38.931 E0.00151
G1 X54.079 Y38.937 E0.01774
G1 X54.413 Y38.894 E0.01411
G1 X54.746 Y38.809 E0.01438
G1 X55.238 Y38.596 E0.02244
G1 X55.602 Y38.35 E0.01843
G1 X56 Y37.969 E0.02308
G1 X56.307 Y37.512 E0.02302
G1 X56.482 Y37.127 E0.01772
G1 X56.575 Y36.803 E0.01413
G1 X56.63 Y36.464 E0.0144
G1 X56.63 Y35.928 E0.02242
G1 X56.551 Y35.495 E0.01843
G1 X56.365 Y34.996 E0.02232
G1 X56.193 Y34.696 E0.01447
G1 X55.998 Y34.433 E0.01373
G1 X55.76 Y34.183 E0.01446
G1 X55.334 Y33.862 E0.02233
G1 X54.942 Y33.662 E0.01843
G1 X54.429 Y33.508 E0.02241
G1 X54.088 Y33.464 E0.0144
G1 X53.75 Y33.461 E0.01414
G1 X53.331 Y33.518 E0.01771
G1 X52.824 Y33.676 E0.02225
G1 X52.515 Y33.833 E0.01452
G1 X52.228 Y34.025 E0.01443
G1 X51.844 Y34.385 E0.02207
G1 X51.634 Y34.656 E0.01436
G1 X51.461 Y34.945 E0.01408
G1 X51.297 Y35.336 E0.01775
G1 X51.174 Y35.873 E0.02311
G1 X51.168 Y36.423 E0.023
G1 X51.233 Y36.84 E0.0177
G1 X51.332 Y37.163 E0.01415
G1 X51.472 Y37.477 E0.0144
G1 X51.766 Y37.925 E0.02241
G1 X52.07 Y38.243 E0.01843
G1 X52.499 Y38.559 E0.02234
G1 X52.807 Y38.716 E0.01446
G1 X53.132 Y38.834 E0.01449
G1 X53.561 Y38.914 E0.01826
M204 S1000
G1 X53.698 Y38.505 F27000
;TYPE:External perimeter
G1 F900
G1 X54.055 Y38.51 E0.01495
G1 X54.333 Y38.474 E0.01176
G1 X54.608 Y38.404 E0.01187
G1 X55.032 Y38.221 E0.01935
G1 X55.334 Y38.017 E0.01525
G1 X55.672 Y37.693 E0.01964
G1 X55.933 Y37.304 E0.01961
G1 X56.081 Y36.979 E0.01493
G1 X56.159 Y36.709 E0.01177
G1 X56.204 Y36.429 E0.01188
G1 X56.204 Y35.967 E0.01934
G1 X56.138 Y35.609 E0.01525
G1 X55.978 Y35.177 E0.0193
G1 X55.836 Y34.93 E0.01192
G1 X55.671 Y34.708 E0.01159
G1 X55.475 Y34.502 E0.01191
G1 X55.107 Y34.225 E0.0193
G1 X54.782 Y34.059 E0.01526
G1 X54.34 Y33.927 E0.01934
G1 X54.058 Y33.89 E0.01189
G1 X53.777 Y33.887 E0.01177
G1 X53.424 Y33.936 E0.01493
G1 X52.985 Y34.072 E0.01926
G1 X52.731 Y34.201 E0.01194
G1 X52.494 Y34.359 E0.0119
G1 X52.16 Y34.673 E0.01919
G1 X51.987 Y34.897 E0.01186
G1 X51.843 Y35.138 E0.01174
G1 X51.705 Y35.467 E0.01495
G1 X51.6 Y35.924 E0.01965
G1 X51.594 Y36.392 E0.0196
G1 X51.649 Y36.744 E0.01493
G1 X51.732 Y37.013 E0.01177
G1 X51.848 Y37.272 E0.01189
G1 X52.101 Y37.658 E0.01934
G1 X52.353 Y37.922 E0.01525
G1 X52.724 Y38.195 E0.0193
G1 X52.977 Y38.324 E0.01191
G1 X53.245 Y38.422 E0.01193
G1 X53.639 Y38.494 E0.01677
;WIPE_START
M204 S1500
G1 X53.873 Y38.865 F27000
;WIPE_END
G1 E-2 F3000
G1 Z0.65 F27000
G1 X50.437 Y35.182
G1 Z0.25
G1 E2 F1800
;TYPE:Internal perimeter
G1 F900
G1 X50.163 Y35.127 E0.0117
G1 X50.163 Y32.475 E0.11104
G1 X52.84 Y32.475 E0.11207
G1 X52.884 Y32.764 E0.01228
G1 X52.502 Y32.883 E0.01673
G1 X52.083 Y33.096 E0.01967
G1 X51.696 Y33.355 E0.0195
G1 X51.211 Y33.809 E0.02784
G1 X50.928 Y34.175 E0.01934
G1 X50.698 Y34.559 E0.01876
G1 X50.46 Y35.127 E0.02578
G1 E-2 F3000
G1 Z0.65 F27000
G1 X64.737 Y40.364
G1 Z0.25
G1 E2 F1800
G1 F900
G1 X49.737 Y40.352 E0.62814
G1 X49.737 Y32.049 E0.34769
G1 X70.263 Y32.043 E0.85956
G1 X70.263 Y87.951 E2.34123
G1 X49.737 Y87.963 E0.85957
G1 X49.737 Y79.638 E0.34863
G1 X64.747 Y79.648 E0.62859
G1 X64.737 Y40.424 E1.64259
G1 X64.31 Y40.79 F27000
G1 F900
G1 X49.311 Y40.778 E0.62814
G1 X49.311 Y31.623 E0.38338
G1 X70.689 Y31.617 E0.89527
G1 X70.689 Y88.377 E2.37694
G1 X49.311 Y88.389 E0.89527
G1 X49.31 Y79.211 E0.38437
G1 X64.321 Y79.222 E0.62858
G1 X64.31 Y40.85 E1.60688
M204 S1000
G1 X63.884 Y41.216 F27000
;TYPE:External perimeter
G1 F900
G1 X48.884 Y41.204 E0.62814
G1 X48.884 Y31.197 E0.41907
G1 X49.381 Y31.184 E0.02083
G1 X71.116 Y31.19 E0.91016
G1 X71.116 Y88.803 E2.41264
G1 X48.884 Y88.816 E0.93098
G1 X48.884 Y78.784 E0.4201
G1 X63.894 Y78.795 E0.62858
G1 X63.884 Y41.276 E1.57117
;WIPE_START
M204 S1500
G1 X63.884 Y40.816 F27000
;WIPE_END
G1 E-2 F3000
G1 Z0.65 F27000
G1 X54.762 Y39.801
G1 Z0.25
G1 E2 F1800
;TYPE:Gap fill
;WIDTH:0.693218
G1 F900
G1 X54.601 Y39.823 E0.0102
G1 X54.443 Y39.84 E0.00996
G1 X54.298 Y39.849 E0.00912
;WIDTH:0.662619
G1 X54.153 Y39.858 E0.00868
G1 X54.11 Y39.86 E0.00257
G1 X53.85 Y39.858 E0.01558
G1 X53.59 Y39.856 E0.01558
G1 X53.538 Y39.853 E0.00307
;WIDTH:0.697441
G1 X53.362 Y39.837 E0.01123
G1 X53.202 Y39.814 E0.01018
;WIDTH:0.765505
G1 X53.043 Y39.792 E0.01126
G1 X51.71 Y39.863 F27000
;TYPE:Solid infill
;WIDTH:0.624
G1 F1200
G1 X50.411 Y38.564 E0.10003
G1 X50.411 Y39.167 E0.03282
G1 X51.106 Y39.863 E0.05357
G1 X50.295 Y37.033 F27000
;TYPE:Gap fill
;WIDTH:0.757566
G1 F900
G1 X50.275 Y36.873 E0.01118
;WIDTH:0.699974
G1 X50.256 Y36.712 E0.01026
;WIDTH:0.665837
G1 X50.241 Y36.514 E0.01194
G1 X50.239 Y36.464 E0.00304
G1 X50.241 Y36.13 E0.02007
;WIDTH:0.694122
G1 X50.243 Y35.796 E0.021
G1 X50.253 Y35.671 E0.00787
G1 X50.279 Y35.513 E0.01008
;WIDTH:0.777518
G1 X50.305 Y35.355 E0.01139
G1 X50.925 Y32.539 F27000
;TYPE:Solid infill
;WIDTH:0.563158
G1 F1200
G1 X51.544 Y33.157 E0.04297
G1 X51.251 Y33.468 E0.02096
G1 X50.506 Y32.722 E0.0518
G1 X50.411 Y32.722 E0.00468
G1 X50.411 Y33.23 E0.02494
G1 X50.96 Y33.779 E0.03816
G1 X50.668 Y34.091 E0.02096
G1 X50.227 Y33.65 E0.03064
G1 E-2 F3000
G1 Z0.65 F27000
G1 X53.055 Y32.585
G1 Z0.25
G1 E2 F1800
;TYPE:Gap fill
;WIDTH:0.691174
G1 F900
G1 X53.136 Y32.577 E0.00513
G1 X53.262 Y32.569 E0.00787
G1 X53.374 Y32.563 E0.00703
G1 X53.522 Y32.553 E0.00931
;WIDTH:0.654364
G1 X53.67 Y32.542 E0.00878
G1 X53.714 Y32.541 E0.00255
G1 X53.924 Y32.542 E0.0124
G1 X54.134 Y32.543 E0.0124
G1 X54.301 Y32.553 E0.0099
;WIDTH:0.695022
G1 X54.433 Y32.561 E0.00831
G1 X54.601 Y32.571 E0.01062
G1 X54.75 Y32.585 E0.00944
G1 E-2 F3000
G1 Z0.65 F27000
G1 X69.773 Y33.396
G1 Z0.25
G1 E2 F1800
;TYPE:Solid infill
;WIDTH:0.467469
G1 F1200
G1 X69.094 Y32.717 E0.03912
G1 X68.492 Y32.717 E0.02458
G1 X69.589 Y33.815 E0.06332
G1 X69.589 Y34.418 E0.02459
G1 X67.889 Y32.718 E0.09808
G1 X67.286 Y32.718 E0.02458
G1 X69.589 Y35.021 E0.13285
G1 X69.589 Y35.624 E0.02459
G1 X66.683 Y32.718 E0.16762
G1 X66.081 Y32.718 E0.02458
G1 X69.589 Y36.227 E0.20238
G1 X69.589 Y36.83 E0.02459
G1 X65.478 Y32.718 E0.23715
G1 X64.875 Y32.718 E0.02458
G1 X69.589 Y37.433 E0.27191
G1 X69.589 Y38.036 E0.02459
G1 X64.272 Y32.719 E0.30668
G1 X63.669 Y32.719 E0.02458
G1 X69.589 Y38.639 E0.34145
G1 X69.589 Y39.242 E0.02459
G1 X63.067 Y32.719 E0.37621
G1 X62.464 Y32.719 E0.02458
G1 X69.589 Y39.845 E0.41098
G1 X69.589 Y40.448 E0.02459
G1 X61.861 Y32.719 E0.44575
G1 X61.258 Y32.719 E0.02458
G1 X69.589 Y41.051 E0.48051
G1 X69.589 Y41.654 E0.02459
G1 X60.656 Y32.72 E0.51528
G1 X60.053 Y32.72 E0.02458
G1 X69.589 Y42.256 E0.55004
G1 X69.589 Y42.859 E0.02459
G1 X59.45 Y32.72 E0.58481
G1 X58.847 Y32.72 E0.02458
G1 X69.589 Y43.462 E0.61958
G1 X69.589 Y44.065 E0.02459
G1 X58.244 Y32.72 E0.65434
G1 X57.642 Y32.72 E0.02458
G1 X64.611 Y39.69 E0.40198
G1 X64.008 Y39.69 E0.02461
G1 X57.039 Y32.721 E0.40194
G1 X56.436 Y32.721 E0.02458
G1 X63.404 Y39.689 E0.40191
G1 X62.801 Y39.689 E0.02461
G1 X55.65 Y32.538 E0.41244
G1 X57.247 Y34.738 F27000
G1 F1200
G1 X62.197 Y39.688 E0.2855
G1 X61.594 Y39.688 E0.02461
G1 X57.73 Y35.823 E0.22289
G1 X57.696 Y36.392 E0.02324
G1 X60.991 Y39.687 E0.19005
G1 X60.387 Y39.687 E0.02461
G1 X57.659 Y36.958 E0.15737
G1 X57.653 Y37.043 E0.00347
G1 X57.513 Y37.415 E0.01622
