; generated by SuperSlicer 2.5.59 on 2022-12-10 at 20:05:11 UTC


;
;

;
;
; TODO: check the size of the extruder and the y-bar clearance. Optimize & test supports.

; external perimeters extrusion width = 0.42mm
; perimeters extrusion width = 0.46mm
; infill extrusion width = 0.44mm
; solid infill extrusion width = 0.46mm
; top infill extrusion width = 0.44mm
; first layer extrusion width = 0.56mm

; object:{"name":"Voron_Design_Cube_v7","id":"Voron_Design_Cube_v7.stl id:0 copy 0","object_center":[60.000000,60.000000,0.000000],"boundingbox_center":[60.000000,60.000000,15.000000],"boundingbox_size":[30.000000,30.000000,30.000000]}
; plater:{"center":[60.000000,60.000000,0.000000],"boundingbox_center":[60.000000,60.000000,15.000000],"boundingbox_size":[30.000000,30.000000,30.000000]}

;TYPE:Custom
; M190 S0
; M109 S0 ; uncomment to remove set&wait temp gcode added automatically after this start gcode
PRINT_START EXTRUDER=230 BED=110 CHAMBER=50


; Pre-Processed for Cancel-Object support by preprocess_cancellation v0.2.0
; 1 known objects
EXCLUDE_OBJECT_DEFINE NAME=Voron_Design_Cube_v7_stl_id_0_copy_0 CENTER=60.467,60.136 POLYGON=[[45.21,45.21],[45.21,74.79],[74.79,74.79],[75.0,49.645],[74.79,45.21],[45.21,45.21]]
M107
G21 ; set units to millimeters
G90 ; use absolute coordinates
M83 ; use relative distances for extrusion
;_TOOLCHANGE 0
M104 S230 ; set temperature
M109 S230 ; set temperature and wait for it to be reached
M190 S110 ; set bed temperature and wait for it to be reached
M107
;LAYER_CHANGE
;Z:0.2
;HEIGHT:0.2
;BEFORE_LAYER_CHANGE
;0.2


G1 Z0.2 F18000
;AFTER_LAYER_CHANGE
;0.2
G92 E0
G1 E-2 F3000
G1 Z0.6 F18000
M204 S1000
G1 X44.436 Y44.436
G1 Z0.2
G1 E2 F1800
;TYPE:Skirt
;WIDTH:0.52
G1 X41.561 Y47.312 E0.15245
G1 X40.449 Y48.971 E0.07487
G1 X40.053 Y50.951 E0.0757
G1 X40.053 Y69.049 E0.67844
G1 X40.441 Y71.008 E0.07487
G1 X41.561 Y72.688 E0.0757
G1 X47.312 Y78.439 E0.30489
G1 X48.971 Y79.551 E0.07487
G1 X50.951 Y79.947 E0.0757
G1 X69.049 Y79.947 E0.67844
G1 X71.008 Y79.559 E0.07487
G1 X72.688 Y78.439 E0.0757
G1 X78.439 Y72.688 E0.30489
G1 X79.551 Y71.029 E0.07487
G1 X79.947 Y69.049 E0.0757
G1 X79.947 Y50.951 E0.67844
G1 X79.559 Y48.992 E0.07487
G1 X78.439 Y47.312 E0.0757
G1 X72.688 Y41.561 E0.30489
G1 X71.029 Y40.449 E0.07487
G1 X69.049 Y40.053 E0.0757
G1 X50.951 Y40.053 E0.67844
G1 X48.992 Y40.441 E0.07487
G1 X47.312 Y41.561 E0.0757
G1 X44.479 Y44.394 E0.1502
G1 X44.816 Y44.731 F18000
G1 F1800
G1 X41.898 Y47.649 E0.1547
G1 X40.926 Y49.07 E0.06453
G1 X40.53 Y50.951 E0.07207
G1 X40.53 Y69.049 E0.67844
G1 X40.848 Y70.741 E0.06453
G1 X41.898 Y72.351 E0.07207
G1 X47.649 Y78.102 E0.30489
G1 X49.07 Y79.074 E0.06453
G1 X50.951 Y79.47 E0.07207
G1 X69.049 Y79.47 E0.67844
G1 X70.741 Y79.152 E0.06453
G1 X72.351 Y78.102 E0.07207
G1 X78.102 Y72.351 E0.30489
G1 X79.074 Y70.93 E0.06453
G1 X79.47 Y69.049 E0.07207
G1 X79.47 Y50.951 E0.67844
G1 X79.152 Y49.259 E0.06453
G1 X78.102 Y47.649 E0.07207
G1 X72.351 Y41.898 E0.30489
G1 X70.93 Y40.926 E0.06453
G1 X69.049 Y40.53 E0.07207
G1 X50.951 Y40.53 E0.67844
G1 X49.259 Y40.848 E0.06453
G1 X47.649 Y41.898 E0.07207
G1 X44.858 Y44.689 E0.14795
G1 X45.196 Y45.026 F18000
G1 F1800
G1 X42.235 Y47.986 E0.15695
G1 X41.403 Y49.174 E0.05438
G1 X41.007 Y50.951 E0.06825
G1 X41.007 Y69.049 E0.67844
G1 X41.258 Y70.478 E0.05438
G1 X42.235 Y72.014 E0.06825
G1 X47.986 Y77.765 E0.30489
G1 X49.174 Y78.597 E0.05438
G1 X50.951 Y78.993 E0.06825
G1 X69.049 Y78.993 E0.67844
G1 X70.478 Y78.742 E0.05438
G1 X72.014 Y77.765 E0.06825
G1 X77.765 Y72.014 E0.30489
G1 X78.597 Y70.826 E0.05438
G1 X78.993 Y69.049 E0.06825
G1 X78.993 Y50.951 E0.67844
G1 X78.742 Y49.522 E0.05438
G1 X77.765 Y47.986 E0.06825
G1 X72.014 Y42.235 E0.30489
G1 X70.826 Y41.403 E0.05438
G1 X69.049 Y41.007 E0.06825
G1 X50.951 Y41.007 E0.67844
G1 X49.522 Y41.258 E0.05438
G1 X47.986 Y42.235 E0.06825
G1 X45.238 Y44.984 E0.1457
G1 X45.575 Y45.321 F18000
G1 F1800
G1 X42.573 Y48.324 E0.1592
G1 X41.879 Y49.285 E0.04443
G1 X41.484 Y50.951 E0.0642
G1 X41.484 Y69.049 E0.67844
G1 X41.673 Y70.219 E0.04443
G1 X42.573 Y71.676 E0.0642
G1 X48.324 Y77.427 E0.30489
G1 X49.285 Y78.121 E0.04443
G1 X50.951 Y78.516 E0.0642
G1 X69.049 Y78.516 E0.67844
G1 X70.219 Y78.327 E0.04443
G1 X71.676 Y77.427 E0.0642
G1 X77.427 Y71.676 E0.30489
G1 X78.121 Y70.715 E0.04443
G1 X78.516 Y69.049 E0.0642
G1 X78.516 Y50.951 E0.67844
G1 X78.327 Y49.781 E0.04443
G1 X77.427 Y48.324 E0.0642
G1 X71.676 Y42.573 E0.30489
G1 X70.715 Y41.879 E0.04443
G1 X69.049 Y41.484 E0.0642
G1 X50.951 Y41.484 E0.67844
G1 X49.781 Y41.673 E0.04443
G1 X48.324 Y42.573 E0.0642
G1 X45.618 Y45.278 E0.14345
G1 X45.955 Y45.616 F18000
G1 F1800
G1 X42.91 Y48.661 E0.16144
G1 X42.355 Y49.403 E0.03474
G1 X41.961 Y50.951 E0.05987
G1 X41.961 Y69.049 E0.67844
G1 X42.094 Y69.966 E0.03474
G1 X42.91 Y71.339 E0.05987
G1 X48.661 Y77.09 E0.30489
G1 X49.403 Y77.645 E0.03473
G1 X50.951 Y78.039 E0.05987
G1 X69.049 Y78.039 E0.67844
G1 X69.966 Y77.906 E0.03474
G1 X71.339 Y77.09 E0.05987
G1 X77.09 Y71.339 E0.30489
G1 X77.645 Y70.597 E0.03474
G1 X78.039 Y69.049 E0.05987
G1 X78.039 Y50.951 E0.67844
G1 X77.906 Y50.034 E0.03473
G1 X77.09 Y48.661 E0.05987
G1 X71.339 Y42.91 E0.30489
G1 X70.597 Y42.355 E0.03474
G1 X69.049 Y41.961 E0.05987
G1 X50.951 Y41.961 E0.67844
G1 X50.034 Y42.094 E0.03474
G1 X48.661 Y42.91 E0.05987
G1 X45.998 Y45.573 E0.1412
G1 E-2 F3000
M204 S1500
G1 Z0.6 F18000
; printing object Voron_Design_Cube_v7.stl id:0 copy 0
EXCLUDE_OBJECT_START NAME=Voron_Design_Cube_v7_stl_id_0_copy_0
; acceleration to travel
G1 X50.217 Y49.793
; decel to extrusion
M204 S1000
G1 X53.03 Y52.606
; end travel
G1 Z0.2
G1 E2 F1800
;TYPE:Internal perimeter
;WIDTH:0.56
G1 X52.564 Y53.072 E0.02677
G1 X52.038 Y53.678 E0.03259
G1 X51.434 Y54.524 E0.04224
G1 X50.914 Y55.437 E0.0427
G1 X50.492 Y56.4 E0.0427
G1 X50.171 Y57.4 E0.0427
G1 X49.955 Y58.429 E0.04271
G1 X49.847 Y59.474 E0.0427
G1 X49.847 Y60.526 E0.04271
G1 X49.955 Y61.571 E0.0427
G1 X50.171 Y62.6 E0.04271
G1 X50.488 Y63.59 E0.04226
G1 X50.804 Y64.327 E0.03256
G1 X51.168 Y65.036 E0.0324
G1 X51.728 Y65.912 E0.04225
G1 X52.383 Y66.734 E0.0427
G1 X53.119 Y67.485 E0.04271
G1 X53.928 Y68.155 E0.0427
G1 X54.803 Y68.738 E0.0427
G1 X55.722 Y69.222 E0.0422
G1 X56.464 Y69.529 E0.03261
G1 X57.222 Y69.779 E0.03246
G1 X58.234 Y70.012 E0.04219
G1 X59.277 Y70.141 E0.0427
G1 X60.328 Y70.162 E0.04271
G1 X61.375 Y70.073 E0.0427
G1 X62.408 Y69.878 E0.0427
G1 X63.402 Y69.58 E0.04215
G1 X64.147 Y69.28 E0.03266
G1 X64.865 Y68.926 E0.03251
G1 X65.75 Y68.385 E0.04214
G1 X66.585 Y67.746 E0.0427
G1 X67.349 Y67.025 E0.0427
G1 X68.035 Y66.229 E0.0427
G1 X68.635 Y65.366 E0.04271
G1 X69.143 Y64.446 E0.0427
G1 X69.553 Y63.478 E0.0427
G1 X69.861 Y62.473 E0.0427
G1 X70.064 Y61.442 E0.0427
G1 X70.157 Y60.411 E0.04207
G1 X70.157 Y59.589 E0.03338
G1 X70.064 Y58.558 E0.04207
G1 X69.861 Y57.527 E0.0427
G1 X69.558 Y56.536 E0.04209
G1 X69.254 Y55.795 E0.03256
G1 X68.893 Y55.075 E0.03271
G1 X68.346 Y54.195 E0.0421
G1 X67.702 Y53.364 E0.0427
G1 X66.976 Y52.604 E0.0427
G1 X66.176 Y51.924 E0.0427
G1 X65.309 Y51.329 E0.04271
G1 X64.397 Y50.834 E0.04214
G1 X63.662 Y50.518 E0.03251
G1 X62.902 Y50.257 E0.03266
G1 X61.894 Y50.011 E0.04216
G1 X60.853 Y49.869 E0.0427
G1 X59.802 Y49.835 E0.0427
G1 X59.278 Y49.872 E0.02135
G1 X58.754 Y49.91 E0.02135
G1 X57.719 Y50.092 E0.0427
G1 X56.708 Y50.381 E0.0427
G1 X55.733 Y50.772 E0.0427
G1 X54.803 Y51.262 E0.0427
G1 X53.928 Y51.845 E0.0427
G1 X53.128 Y52.508 E0.04222
G1 X53.072 Y52.564 E0.00321
G1 X53.395 Y52.972 F18000
G1 F1800
G1 X52.942 Y53.425 E0.02602
G1 X52.445 Y53.998 E0.03085
G1 X51.87 Y54.802 E0.04016
G1 X51.377 Y55.67 E0.04053
G1 X50.976 Y56.583 E0.04053
G1 X50.671 Y57.533 E0.04053
G1 X50.467 Y58.509 E0.04053
G1 X50.364 Y59.501 E0.04053
G1 X50.364 Y60.499 E0.04053
G1 X50.467 Y61.491 E0.04053
G1 X50.671 Y62.467 E0.04053
G1 X50.973 Y63.409 E0.04018
G1 X51.272 Y64.106 E0.03083
G1 X51.617 Y64.778 E0.03067
G1 X52.15 Y65.611 E0.04017
G1 X52.771 Y66.391 E0.04053
G1 X53.469 Y67.103 E0.04053
G1 X54.238 Y67.74 E0.04053
G1 X55.067 Y68.293 E0.04053
G1 X55.941 Y68.754 E0.04014
G1 X56.644 Y69.044 E0.03087
G1 X57.362 Y69.281 E0.03072
G1 X58.324 Y69.503 E0.04013
G1 X59.314 Y69.625 E0.04053
G1 X60.311 Y69.644 E0.04053
G1 X61.305 Y69.56 E0.04053
G1 X62.285 Y69.375 E0.04053
G1 X63.231 Y69.092 E0.0401
G1 X63.936 Y68.807 E0.03091
G1 X64.616 Y68.473 E0.03076
G1 X65.457 Y67.958 E0.04009
G1 X66.249 Y67.352 E0.04053
G1 X66.975 Y66.667 E0.04053
G1 X67.626 Y65.912 E0.04053
G1 X68.195 Y65.093 E0.04053
G1 X68.677 Y64.219 E0.04053
G1 X69.067 Y63.301 E0.04053
G1 X69.359 Y62.347 E0.04053
G1 X69.551 Y61.368 E0.04053
G1 X69.64 Y60.387 E0.04003
G1 X69.64 Y59.613 E0.03147
G1 X69.551 Y58.632 E0.04003
G1 X69.359 Y57.653 E0.04053
G1 X69.07 Y56.71 E0.04005
G1 X68.783 Y56.009 E0.0308
G1 X68.442 Y55.328 E0.03095
G1 X67.921 Y54.491 E0.04005
G1 X67.31 Y53.702 E0.04053
G1 X66.621 Y52.981 E0.04053
G1 X65.861 Y52.335 E0.04053
G1 X65.038 Y51.771 E0.04053
G1 X64.171 Y51.3 E0.04009
G1 X63.476 Y51.001 E0.03076
G1 X62.757 Y50.754 E0.03091
G1 X61.798 Y50.52 E0.0401
G1 X60.809 Y50.385 E0.04053
G1 X59.812 Y50.353 E0.04053
G1 X59.315 Y50.388 E0.02027
G1 X58.817 Y50.424 E0.02027
G1 X57.835 Y50.597 E0.04053
G1 X56.876 Y50.871 E0.04053
G1 X55.95 Y51.242 E0.04053
G1 X55.067 Y51.707 E0.04053
G1 X54.238 Y52.26 E0.04053
G1 X53.477 Y52.891 E0.04015
G1 X53.438 Y52.929 E0.00223
G1 X53.761 Y53.337 F18000
G1 F1800
G1 X53.321 Y53.777 E0.02527
G1 X52.851 Y54.319 E0.02912
G1 X52.306 Y55.081 E0.03809
G1 X51.84 Y55.902 E0.03836
G1 X51.46 Y56.766 E0.03836
G1 X51.172 Y57.665 E0.03835
G1 X50.978 Y58.589 E0.03836
G1 X50.881 Y59.528 E0.03835
G1 X50.881 Y60.472 E0.03836
G1 X50.978 Y61.411 E0.03835
G1 X51.172 Y62.335 E0.03835
G1 X51.458 Y63.228 E0.0381
G1 X51.74 Y63.886 E0.0291
G1 X52.066 Y64.52 E0.02895
G1 X52.571 Y65.31 E0.03809
G1 X53.159 Y66.048 E0.03835
G1 X53.82 Y66.722 E0.03836
G1 X54.547 Y67.324 E0.03835
G1 X55.332 Y67.848 E0.03836
G1 X56.161 Y68.285 E0.03807
G1 X56.824 Y68.559 E0.02913
G1 X57.501 Y68.782 E0.02898
G1 X58.414 Y68.993 E0.03806
G1 X59.351 Y69.108 E0.03835
G1 X60.295 Y69.127 E0.03836
G1 X61.235 Y69.047 E0.03835
G1 X62.163 Y68.872 E0.03835
G1 X63.06 Y68.603 E0.03804
G1 X63.725 Y68.335 E0.02916
G1 X64.366 Y68.019 E0.02901
G1 X65.164 Y67.531 E0.03803
G1 X65.914 Y66.957 E0.03835
G1 X66.601 Y66.31 E0.03835
G1 X67.217 Y65.594 E0.03835
G1 X67.756 Y64.819 E0.03836
G1 X68.212 Y63.993 E0.03835
G1 X68.58 Y63.124 E0.03835
G1 X68.857 Y62.221 E0.03835
G1 X69.039 Y61.295 E0.03835
G1 X69.123 Y60.364 E0.03799
G1 X69.123 Y59.636 E0.02957
G1 X69.039 Y58.705 E0.03799
G1 X68.857 Y57.779 E0.03835
G1 X68.583 Y56.884 E0.038
G1 X68.312 Y56.223 E0.02904
G1 X67.99 Y55.581 E0.02919
G1 X67.496 Y54.786 E0.03801
G1 X66.918 Y54.04 E0.03835
G1 X66.266 Y53.358 E0.03835
G1 X65.547 Y52.746 E0.03835
G1 X64.768 Y52.212 E0.03836
G1 X63.945 Y51.766 E0.03803
G1 X63.289 Y51.484 E0.02901
G1 X62.611 Y51.25 E0.02916
G1 X61.701 Y51.029 E0.03804
G1 X60.766 Y50.901 E0.03835
G1 X59.822 Y50.87 E0.03835
G1 X59.352 Y50.904 E0.01918
G1 X58.881 Y50.937 E0.01918
G1 X57.951 Y51.101 E0.03835
G1 X57.043 Y51.36 E0.03835
G1 X56.167 Y51.712 E0.03835
G1 X55.332 Y52.152 E0.03835
G1 X54.547 Y52.676 E0.03836
G1 X53.825 Y53.273 E0.03808
G1 X53.803 Y53.295 E0.00124
G1 X54.127 Y53.703 F18000
G1 F1800
G1 X53.7 Y54.13 E0.02453
G1 X53.258 Y54.639 E0.02738
G1 X52.743 Y55.36 E0.03601
G1 X52.302 Y56.134 E0.03618
G1 X51.944 Y56.95 E0.03618
G1 X51.673 Y57.798 E0.03618
G1 X51.49 Y58.669 E0.03618
G1 X51.398 Y59.555 E0.03618
G1 X51.398 Y60.445 E0.03618
G1 X51.49 Y61.331 E0.03618
G1 X51.673 Y62.202 E0.03618
G1 X51.943 Y63.047 E0.03602
G1 X52.208 Y63.666 E0.02737
G1 X52.515 Y64.262 E0.02722
G1 X52.992 Y65.009 E0.03602
G1 X53.547 Y65.705 E0.03618
G1 X54.17 Y66.341 E0.03618
G1 X54.856 Y66.909 E0.03618
G1 X55.597 Y67.403 E0.03618
G1 X56.381 Y67.816 E0.036
G1 X57.004 Y68.073 E0.02739
G1 X57.64 Y68.284 E0.02724
G1 X58.504 Y68.483 E0.036
G1 X59.388 Y68.592 E0.03618
G1 X60.278 Y68.609 E0.03618
G1 X61.165 Y68.534 E0.03618
G1 X62.04 Y68.368 E0.03618
G1 X62.888 Y68.115 E0.03598
G1 X63.514 Y67.862 E0.02741
G1 X64.116 Y67.566 E0.02726
G1 X64.871 Y67.104 E0.03598
G1 X65.579 Y66.563 E0.03618
G1 X66.226 Y65.952 E0.03618
G1 X66.807 Y65.277 E0.03618
G1 X67.316 Y64.546 E0.03618
G1 X67.746 Y63.767 E0.03618
G1 X68.094 Y62.947 E0.03618
G1 X68.354 Y62.095 E0.03618
G1 X68.526 Y61.222 E0.03618
G1 X68.606 Y60.34 E0.03595
G1 X68.606 Y59.66 E0.02767
G1 X68.526 Y58.778 E0.03595
G1 X68.354 Y57.905 E0.03618
G1 X68.095 Y57.058 E0.03596
G1 X67.841 Y56.437 E0.02728
G1 X67.538 Y55.834 E0.02743
G1 X67.071 Y55.082 E0.03596
G1 X66.526 Y54.378 E0.03618
G1 X65.91 Y53.734 E0.03618
G1 X65.232 Y53.158 E0.03618
G1 X64.498 Y52.654 E0.03618
G1 X63.72 Y52.231 E0.03598
G1 X63.103 Y51.966 E0.02726
G1 X62.465 Y51.747 E0.02741
G1 X61.605 Y51.537 E0.03598
G1 X60.723 Y51.417 E0.03618
G1 X59.833 Y51.388 E0.03618
G1 X59.388 Y51.42 E0.01809
G1 X58.944 Y51.451 E0.01809
G1 X58.067 Y51.606 E0.03618
G1 X57.211 Y51.85 E0.03618
G1 X56.385 Y52.182 E0.03618
G1 X55.597 Y52.597 E0.03618
G1 X54.856 Y53.091 E0.03618
G1 X54.169 Y53.661 E0.03627
G1 X54.492 Y54.069 F18000
;TYPE:External perimeter
G1 F1800
G1 X54.078 Y54.483 E0.02378
G1 X53.665 Y54.96 E0.02565
G1 X53.179 Y55.639 E0.03394
G1 X52.765 Y56.367 E0.03401
G1 X52.429 Y57.133 E0.03401
G1 X52.173 Y57.93 E0.03401
G1 X52.001 Y58.749 E0.03401
G1 X51.915 Y59.582 E0.03401
G1 X51.915 Y60.418 E0.03401
G1 X52.001 Y61.251 E0.03401
G1 X52.173 Y62.07 E0.03401
G1 X52.428 Y62.866 E0.03394
G1 X52.677 Y63.446 E0.02564
G1 X52.963 Y64.004 E0.0255
G1 X53.413 Y64.708 E0.03394
G1 X53.935 Y65.362 E0.034
G1 X54.521 Y65.96 E0.03401
G1 X55.165 Y66.494 E0.03401
G1 X55.861 Y66.958 E0.03401
G1 X56.6 Y67.347 E0.03393
G1 X57.184 Y67.588 E0.02565
G1 X57.78 Y67.785 E0.02551
G1 X58.594 Y67.973 E0.03393
G1 X59.424 Y68.075 E0.034
G1 X60.261 Y68.092 E0.034
G1 X61.095 Y68.021 E0.03401
G1 X61.917 Y67.865 E0.034
G1 X62.717 Y67.626 E0.03392
G1 X63.303 Y67.39 E0.02566
G1 X63.866 Y67.113 E0.02551
G1 X64.578 Y66.677 E0.03392
G1 X65.243 Y66.168 E0.034
G1 X65.852 Y65.594 E0.034
G1 X66.398 Y64.96 E0.034
G1 X66.876 Y64.273 E0.03401
G1 X67.28 Y63.54 E0.034
G1 X67.607 Y62.77 E0.034
G1 X67.852 Y61.969 E0.034
G1 X68.014 Y61.148 E0.034
G1 X68.089 Y60.317 E0.03391
G1 X68.089 Y59.683 E0.02576
G1 X68.014 Y58.852 E0.03391
G1 X67.852 Y58.031 E0.034
G1 X67.608 Y57.233 E0.03392
G1 X67.37 Y56.651 E0.02552
G1 X67.087 Y56.086 E0.02566
G1 X66.646 Y55.377 E0.03392
G1 X66.133 Y54.716 E0.034
G1 X65.555 Y54.111 E0.03401
G1 X64.917 Y53.569 E0.034
G1 X64.227 Y53.096 E0.03401
G1 X63.494 Y52.697 E0.03392
G1 X62.917 Y52.449 E0.02551
G1 X62.32 Y52.244 E0.02566
G1 X61.508 Y52.046 E0.03393
G1 X60.679 Y51.933 E0.034
G1 X59.843 Y51.906 E0.03401
G1 X59.425 Y51.935 E0.017
G1 X59.008 Y51.965 E0.017
G1 X58.184 Y52.111 E0.03401
G1 X57.379 Y52.34 E0.034
G1 X56.602 Y52.652 E0.03401
G1 X55.861 Y53.042 E0.034
G1 X55.165 Y53.506 E0.03401
G1 X54.536 Y54.028 E0.03321
;WIPE_START
M204 S1500
G1 X54.109 Y53.954 F18000
;WIPE_END
G1 E-2 F3000
G1 Z0.6 F18000
; acceleration to travel
G1 X52.798 Y50.111
; decel to extrusion
M204 S1000
G1 X51.924 Y47.548
; end travel
G1 Z0.2
G1 E2 F1800
;TYPE:Internal perimeter
G1 X68.076 Y47.548 E0.65628
G1 X72.452 Y51.924 E0.25141
G1 X72.452 Y68.076 E0.65628
G1 X68.076 Y72.452 E0.25141
G1 X51.924 Y72.452 E0.65628
G1 X47.548 Y68.076 E0.25141
G1 X47.548 Y51.924 E0.65628
G1 X51.881 Y47.591 E0.24898
G1 X51.71 Y47.031 F18000
G1 F1800
G1 X68.29 Y47.031 E0.67369
G1 X72.969 Y51.71 E0.26882
G1 X72.969 Y68.29 E0.67369
G1 X68.29 Y72.969 E0.26882
G1 X51.71 Y72.969 E0.67369
G1 X47.031 Y68.29 E0.26882
G1 X47.031 Y51.71 E0.67369
G1 X51.667 Y47.074 E0.26638
G1 X51.495 Y46.514 F18000
G1 F1800
G1 X68.505 Y46.514 E0.69109
G1 X73.486 Y51.495 E0.28622
G1 X73.486 Y68.505 E0.69109
G1 X68.505 Y73.486 E0.28622
G1 X51.495 Y73.486 E0.69109
G1 X46.514 Y68.505 E0.28622
G1 X46.514 Y51.495 E0.69109
G1 X51.453 Y46.557 E0.28379
G1 X51.281 Y45.997 F18000
G1 F1800
G1 X68.719 Y45.997 E0.7085
G1 X68.798 Y46.076 E0.00454
G1 X74.003 Y51.281 E0.29909
G1 X74.003 Y68.719 E0.7085
G1 X68.719 Y74.003 E0.30363
