; generated by SuperSlicer 2.5.59 on 2023-05-14 at 23:07:25 UTC

; 

; external perimeters extrusion width = 0.45mm
; perimeters extrusion width = 0.45mm
; infill extrusion width = 0.45mm
; solid infill extrusion width = 0.45mm
; top infill extrusion width = 0.40mm
; support material extrusion width = 0.35mm
; first layer extrusion width = 0.42mm

; object:{"name":"AMS_LID_SPACER_LEFT_TALL","id":"AMS_LID_SPACER_LEFT_TALL.STL id:0 copy 0","object_center":[125.000000,105.023739,0.000000],"boundingbox_center":[125.000000,105.023739,13.133168],"boundingbox_size":[182.099991,197.966192,26.266335]}
EXCLUDE_OBJECT_DEFINE NAME=AMS_LID_SPACER_LEFT_TALL_STL_id_0_copy_0 CENTER=125.000000,105.023739 POLYGON=[[33.950004,28.921356],[35.700012,6.040642],[37.200004,6.040642],[216.049984,197.379952],[216.049984,204.006832],[41.450012,204.006832],[41.058816,203.996592],[41.057488,203.996496],[40.668672,203.965888],[40.666048,203.965552],[40.280632,203.914800],[40.276772,203.914096],[39.895728,203.843440],[39.890692,203.842256],[39.515008,203.752048],[39.139480,203.640832],[38.770188,203.510064],[38.408120,203.360080],[38.054244,203.191280],[37.709548,203.004128],[37.700148,202.998368],[37.374960,202.799072],[37.365380,202.792512],[37.051416,202.576720],[37.041800,202.569344],[36.739784,202.337616],[36.440940,202.082368],[36.155716,201.811680],[35.884904,201.526304],[35.629264,201.227008],[35.621660,201.217104],[35.389504,200.914528],[35.382628,200.904544],[35.166328,200.589808],[35.160232,200.579872],[34.960336,200.253664],[34.772148,199.907056],[34.767692,199.897744],[34.602272,199.550912],[34.598640,199.542160],[34.451216,199.186240],[34.319404,198.814000],[34.207216,198.435264],[34.114976,198.051072],[34.042960,197.662512],[33.991372,197.270592],[33.991164,197.267968],[33.960356,196.876528],[33.960320,196.875200],[33.950004,196.481360],[33.950004,28.921356]]
; plater:{"center":[125.000000,105.023739,0.000000],"boundingbox_center":[125.000000,105.023739,13.133168],"boundingbox_size":[182.099991,197.966192,26.266335]}

M73 P0 R298
;TYPE:Custom
Start : M104 S0
M140 S0
PRINT_START EXTRUDER_TEMP=210 BED_TEMP=50
M107
G21 ; set units to millimeters
G90 ; use absolute coordinates
M83 ; use relative distances for extrusion
M900 K0
;_TOOLCHANGE 0
M104 S210 ; set temperature
M109 S210 ; set temperature and wait for it to be reached
M107
;LAYER_CHANGE
;Z:0.2
;HEIGHT:0.2
;BEFORE_LAYER_CHANGE
G92 E0.0
;0.2
TIMELAPSE_TAKE_FRAME

G1 Z0.4 F10800
;AFTER_LAYER_CHANGE
;0.2
G1 Z0.6
M204 S1000
G1 X30.438 Y3.044
G1 Z0.2
;TYPE:Skirt
;WIDTH:0.52
G1 F754.591
G1 X28.256 Y24.865 E1.00045
G1 X28.252 Y34.976 E0.46125
G1 X30.527 Y203.318 E7.68041
M73 P0 R297
G1 X30.743 Y203.83 E0.02537
G1 X33.018 Y206.105 E0.14677
G1 X33.541 Y206.321 E0.02579
G1 X221.009 Y206.321 E8.55227
G1 X221.748 Y205.583 E0.04765
G1 X221.748 Y195.555 E0.45745
G1 X221.55 Y195.053 E0.02464
G1 X41.834 Y1.687 E12.04293
G1 X41.293 Y1.451 E0.02692
G1 X31.266 Y1.451 E0.45745
G1 X30.531 Y2.116 E0.04521
G1 X30.444 Y2.984 E0.03979
G1 Z0.6 F10800
; printing object AMS_LID_SPACER_LEFT_TALL.STL id:0 copy 0
EXCLUDE_OBJECT_START NAME=AMS_LID_SPACER_LEFT_TALL_STL_id_0_copy_0
; acceleration to travel
M204 S1500
G1 X32.608 Y17.813
; decel to extrusion
M204 S1000
G1 X34.056 Y27.729
; end travel
G1 Z0.2
;TYPE:Support material interface
;WIDTH:0.42
G1 F954.70553
G1 X38.503 Y27.729 E0.16037
G1 X38.503 Y29.658 E0.06958
G1 X37.56 Y29.405 E0.0352
G1 X37.236 Y29.654 E0.01471
G1 X37.236 Y29.901 E0.00893
G1 X35.664 Y29.901 E0.05672
G1 X35.664 Y29.653 E0.00895
G1 X35.34 Y29.405 E0.01472
G1 X34.056 Y29.751 E0.04795
G1 X34.056 Y27.789 E0.07074
G1 Z0.6 F10800
; acceleration to travel
M204 S1500
G1 X36.668 Y28.126
; decel to extrusion
M204 S1000
G1 X38.409 Y28.351
; end travel
G1 Z0.2
G1 F954.70553
G1 X34.312 Y28.351 E0.14773
G1 X34.312 Y28.77 E0.01511
G1 X38.247 Y28.77 E0.14188
G1 X38.247 Y29.189 E0.01511
G1 X34.15 Y29.189 E0.14773
G1 Z0.6 F10800
; acceleration to travel
M204 S1500
G1 X35.945 Y29.44
; decel to extrusion
M204 S1000
G1 X37.142 Y29.608
; end travel
G1 Z0.2
G1 F954.70553
G1 X35.758 Y29.608 E0.04992
G1 X35.758 Y30.488 F10800
;TYPE:Support material
G1 F954.70553
G1 X37.226 Y30.489 E0.05296
G1 X37.226 Y195.645 E5.95511
G1 X37.246 Y196.065 E0.01518
G1 X37.303 Y196.495 E0.01564
G1 X37.389 Y196.928 E0.01593
G1 X37.507 Y197.351 E0.01584
G1 X37.67 Y197.773 E0.01632
G1 X37.864 Y198.153 E0.01537
G1 X38.082 Y198.48 E0.01419
G1 X38.328 Y198.776 E0.01387
G1 X38.653 Y199.069 E0.01579
G1 X39.03 Y199.345 E0.01684
G1 X39.662 Y199.688 E0.02591
G1 X40.099 Y199.854 E0.01684
G1 X40.546 Y199.972 E0.0167
G1 X41.004 Y200.043 E0.0167
G1 X41.442 Y200.065 E0.01581
G1 X215.589 Y200.065 E6.27929
M73 P0 R296
G1 X216.285 Y199.903 E0.02578
G1 X216.551 Y199.565 E0.01552
G1 X216.551 Y198.859 E0.02544
G1 X216.285 Y198.52 E0.01552
G1 X215.589 Y198.358 E0.02578
G1 X41.466 Y198.358 E6.27841
G1 X41.255 Y198.347 E0.00762
G1 X40.873 Y198.266 E0.01409
G1 X40.69 Y198.196 E0.00706
G1 X40.358 Y198.004 E0.01383
G1 X40.122 Y197.803 E0.01121
G1 X39.995 Y197.662 E0.0068
G1 X39.621 Y197.09 E0.02465
G1 X39.532 Y196.905 E0.0074
G1 X39.465 Y196.719 E0.00714
G1 X39.404 Y196.404 E0.01157
G1 X39.382 Y195.954 E0.01625
G1 X39.374 Y193.28 E0.0964
G1 X43.568 Y193.28 E0.15124
G1 X43.568 Y195.555 E0.08203
G1 X221.009 Y195.555 E6.39808
G1 X221.009 Y205.583 E0.36156
G1 X214.224 Y205.583 E0.24467
G1 X214.224 Y204.422 E0.04185
G1 X216.108 Y204.422 E0.06796
G1 X216.474 Y204.057 E0.01863
G1 X216.474 Y201.784 E0.08197
G1 X216.108 Y201.418 E0.01862
G1 X41.148 Y201.41 E6.30863
G1 X40.541 Y201.346 E0.022
G1 X40.255 Y201.293 E0.0105
G1 X39.665 Y201.135 E0.022
G1 X39.101 Y200.918 E0.0218
G1 X38.562 Y200.644 E0.0218
G1 X38.055 Y200.315 E0.0218
G1 X37.585 Y199.934 E0.0218
G1 X37.158 Y199.507 E0.0218
G1 X36.777 Y199.037 E0.0218
G1 X36.448 Y198.53 E0.0218
G1 X36.171 Y197.986 E0.022
G1 X35.958 Y197.432 E0.0214
G1 X35.8 Y196.843 E0.022
G1 X35.706 Y196.246 E0.0218
G1 X35.674 Y195.631 E0.0222
G1 X35.674 Y30.488 E5.95461
G1 X35.698 Y30.488 E0.00087
G1 Z0.6 F10800
; acceleration to travel
M204 S1500
G1 X146.595 Y135.488
; decel to extrusion
M204 S1000
G1 X220.527 Y205.488
; end travel
G1 Z0.2
G1 F954.70553
G1 X220.527 Y195.812 E0.34892
G1 X220.108 Y195.812 E0.01511
G1 X220.108 Y205.326 E0.34307
G1 X219.689 Y205.326 E0.01511
G1 X219.689 Y195.812 E0.34307
G1 X219.27 Y195.812 E0.01511
G1 X219.27 Y205.326 E0.34307
M73 P0 R295
G1 X218.851 Y205.326 E0.01511
G1 X218.851 Y195.812 E0.34307
G1 X218.432 Y195.812 E0.01511
G1 X218.432 Y205.326 E0.34307
G1 X218.013 Y205.326 E0.01511
G1 X218.013 Y195.812 E0.34307
G1 X217.594 Y195.812 E0.01511
G1 X217.594 Y205.326 E0.34307
G1 X217.175 Y205.326 E0.01511
G1 X217.175 Y195.812 E0.34307
G1 X216.756 Y195.812 E0.01511
G1 X216.756 Y205.326 E0.34307
G1 X216.337 Y205.326 E0.01511
G1 X216.337 Y204.556 E0.02777
G1 X216.214 Y204.679 E0.00625
G1 X215.918 Y204.679 E0.01069
G1 X215.918 Y205.326 E0.02336
G1 X215.499 Y205.326 E0.01511
G1 X215.499 Y204.679 E0.02336
G1 X215.08 Y204.679 E0.01511
G1 X215.08 Y205.326 E0.02336
G1 X214.661 Y205.326 E0.01511
G1 X214.661 Y204.516 E0.0292
G1 Z0.6 F10800
; acceleration to travel
M204 S1500
G1 X215.667 Y202.715
; decel to extrusion
M204 S1000
G1 X216.337 Y201.514
; end travel
G1 Z0.2
G1 F954.70553
G1 X216.337 Y200.155 E0.04901
G1 X215.918 Y200.258 E0.01556
G1 X215.918 Y201.162 E0.0326
G1 X215.499 Y201.162 E0.01511
G1 X215.499 Y200.322 E0.03029
G1 X215.08 Y200.322 E0.01511
G1 X215.08 Y201.162 E0.03029
G1 X214.661 Y201.162 E0.01511
G1 X214.661 Y200.322 E0.03029
G1 X214.242 Y200.322 E0.01511
G1 X214.242 Y201.162 E0.03029
G1 X213.823 Y201.162 E0.01511
G1 X213.823 Y200.322 E0.03029
G1 X213.404 Y200.322 E0.01511
G1 X213.404 Y201.162 E0.03029
G1 X212.985 Y201.162 E0.01511
G1 X212.985 Y200.322 E0.03029
G1 X212.566 Y200.322 E0.01511
G1 X212.566 Y201.162 E0.03029
G1 X212.147 Y201.162 E0.01511
G1 X212.147 Y200.322 E0.03029
G1 X211.728 Y200.322 E0.01511
G1 X211.728 Y201.162 E0.03028
G1 X211.309 Y201.162 E0.01511
G1 X211.309 Y200.322 E0.03028
G1 X210.89 Y200.322 E0.01511
G1 X210.89 Y201.162 E0.03028
G1 X210.471 Y201.162 E0.01511
G1 X210.471 Y200.322 E0.03028
G1 X210.052 Y200.322 E0.01511
G1 X210.052 Y201.162 E0.03028
G1 X209.633 Y201.162 E0.01511
G1 X209.633 Y200.322 E0.03028
G1 X209.214 Y200.322 E0.01511
G1 X209.214 Y201.162 E0.03028
G1 X208.795 Y201.162 E0.01511
G1 X208.795 Y200.322 E0.03028
G1 X208.376 Y200.322 E0.01511
G1 X208.376 Y201.162 E0.03028
G1 X207.957 Y201.162 E0.01511
G1 X207.957 Y200.322 E0.03028
G1 X207.538 Y200.322 E0.01511
G1 X207.538 Y201.162 E0.03028
G1 X207.119 Y201.162 E0.01511
G1 X207.119 Y200.322 E0.03028
G1 X206.701 Y200.322 E0.01511
G1 X206.701 Y201.162 E0.03028
G1 X206.282 Y201.161 E0.01511
G1 X206.282 Y200.322 E0.03027
G1 X205.863 Y200.322 E0.01511
G1 X205.863 Y201.161 E0.03027
G1 X205.444 Y201.161 E0.01511
G1 X205.444 Y200.322 E0.03027
G1 X205.025 Y200.322 E0.01511
G1 X205.025 Y201.161 E0.03027
G1 X204.606 Y201.161 E0.01511
G1 X204.606 Y200.322 E0.03027
G1 X204.187 Y200.322 E0.01511
G1 X204.187 Y201.161 E0.03027
G1 X203.768 Y201.161 E0.01511
G1 X203.768 Y200.322 E0.03027
G1 X203.349 Y200.322 E0.01511
G1 X203.349 Y201.161 E0.03027
G1 X202.93 Y201.161 E0.01511
G1 X202.93 Y200.322 E0.03027
G1 X202.511 Y200.322 E0.01511
G1 X202.511 Y201.161 E0.03027
G1 X202.092 Y201.161 E0.01511
G1 X202.092 Y200.322 E0.03027
G1 X201.673 Y200.322 E0.01511
G1 X201.673 Y201.161 E0.03027
G1 X201.254 Y201.161 E0.01511
G1 X201.254 Y200.322 E0.03027
G1 X200.835 Y200.322 E0.01511
G1 X200.835 Y201.161 E0.03027
G1 X200.416 Y201.161 E0.01511
G1 X200.416 Y200.322 E0.03026
G1 X199.997 Y200.322 E0.01511
G1 X199.997 Y201.161 E0.03026
G1 X199.578 Y201.161 E0.01511
G1 X199.578 Y200.322 E0.03026
G1 X199.159 Y200.322 E0.01511
G1 X199.159 Y201.161 E0.03026
G1 X198.74 Y201.161 E0.01511
G1 X198.74 Y200.322 E0.03026
G1 X198.321 Y200.322 E0.01511
G1 X198.321 Y201.161 E0.03026
G1 X197.902 Y201.161 E0.01511
G1 X197.902 Y200.322 E0.03026
G1 X197.483 Y200.322 E0.01511
G1 X197.483 Y201.161 E0.03026
G1 X197.064 Y201.161 E0.01511
G1 X197.064 Y200.322 E0.03026
G1 X196.645 Y200.322 E0.01511
G1 X196.645 Y201.161 E0.03026
G1 X196.226 Y201.161 E0.01511
G1 X196.226 Y200.322 E0.03026
G1 X195.807 Y200.322 E0.01511
G1 X195.807 Y201.161 E0.03026
G1 X195.388 Y201.161 E0.01511
G1 X195.388 Y200.322 E0.03026
G1 X194.969 Y200.322 E0.01511
G1 X194.969 Y201.161 E0.03025
G1 X194.55 Y201.161 E0.01511
G1 X194.55 Y200.322 E0.03025
G1 X194.131 Y200.322 E0.01511
G1 X194.131 Y201.161 E0.03025
G1 X193.712 Y201.161 E0.01511
G1 X193.712 Y200.322 E0.03025
G1 X193.293 Y200.322 E0.01511
G1 X193.293 Y201.161 E0.03025
G1 X192.874 Y201.161 E0.01511
G1 X192.874 Y200.322 E0.03025
G1 X192.455 Y200.322 E0.01511
G1 X192.455 Y201.161 E0.03025
G1 X192.036 Y201.161 E0.01511
G1 X192.036 Y200.322 E0.03025
G1 X191.617 Y200.322 E0.01511
G1 X191.617 Y201.161 E0.03025
G1 X191.198 Y201.161 E0.01511
G1 X191.198 Y200.322 E0.03025
G1 X190.779 Y200.322 E0.01511
G1 X190.779 Y201.161 E0.03025
G1 X190.36 Y201.161 E0.01511
G1 X190.36 Y200.322 E0.03025
G1 X189.941 Y200.322 E0.01511
G1 X189.941 Y201.161 E0.03025
G1 X189.522 Y201.161 E0.01511
G1 X189.522 Y200.322 E0.03025
G1 X189.103 Y200.322 E0.01511
G1 X189.103 Y201.161 E0.03024
G1 X188.684 Y201.161 E0.01511
G1 X188.684 Y200.322 E0.03024
G1 X188.266 Y200.322 E0.01511
G1 X188.266 Y201.161 E0.03024
G1 X187.847 Y201.161 E0.01511
G1 X187.847 Y200.322 E0.03024
G1 X187.428 Y200.322 E0.01511
G1 X187.428 Y201.161 E0.03024
G1 X187.009 Y201.161 E0.01511
G1 X187.009 Y200.322 E0.03024
G1 X186.59 Y200.322 E0.01511
G1 X186.59 Y201.161 E0.03024
G1 X186.171 Y201.161 E0.01511
G1 X186.171 Y200.322 E0.03024
G1 X185.752 Y200.322 E0.01511
G1 X185.752 Y201.16 E0.03024
G1 X185.333 Y201.16 E0.01511
G1 X185.333 Y200.322 E0.03024
G1 X184.914 Y200.322 E0.01511
G1 X184.914 Y201.16 E0.03024
G1 X184.495 Y201.16 E0.01511
G1 X184.495 Y200.322 E0.03024
G1 X184.076 Y200.322 E0.01511
G1 X184.076 Y201.16 E0.03024
G1 X183.657 Y201.16 E0.01511
G1 X183.657 Y200.322 E0.03024
G1 X183.238 Y200.322 E0.01511
G1 X183.238 Y201.16 E0.03023
G1 X182.819 Y201.16 E0.01511
G1 X182.819 Y200.322 E0.03023
G1 X182.4 Y200.322 E0.01511
G1 X182.4 Y201.16 E0.03023
G1 X181.981 Y201.16 E0.01511
G1 X181.981 Y200.322 E0.03023
G1 X181.562 Y200.322 E0.01511
G1 X181.562 Y201.16 E0.03023
G1 X181.143 Y201.16 E0.01511
G1 X181.143 Y200.322 E0.03023
G1 X180.724 Y200.322 E0.01511
G1 X180.724 Y201.16 E0.03023
G1 X180.305 Y201.16 E0.01511
G1 X180.305 Y200.322 E0.03023
G1 X179.886 Y200.322 E0.01511
G1 X179.886 Y201.16 E0.03023
G1 X179.467 Y201.16 E0.01511
G1 X179.467 Y200.322 E0.03023
G1 X179.048 Y200.322 E0.01511
G1 X179.048 Y201.16 E0.03023
G1 X178.629 Y201.16 E0.01511
G1 X178.629 Y200.322 E0.03023
G1 X178.21 Y200.322 E0.01511
G1 X178.21 Y201.16 E0.03023
G1 X177.791 Y201.16 E0.01511
G1 X177.791 Y200.322 E0.03022
G1 X177.372 Y200.322 E0.01511
G1 X177.372 Y201.16 E0.03022
G1 X176.953 Y201.16 E0.01511
G1 X176.953 Y200.322 E0.03022
G1 X176.534 Y200.322 E0.01511
G1 X176.534 Y201.16 E0.03022
G1 X176.115 Y201.16 E0.01511
G1 X176.115 Y200.322 E0.03022
G1 X175.696 Y200.322 E0.01511
G1 X175.696 Y201.16 E0.03022
G1 X175.277 Y201.16 E0.01511
G1 X175.277 Y200.322 E0.03022
G1 X174.858 Y200.322 E0.01511
G1 X174.858 Y201.16 E0.03022
G1 X174.439 Y201.16 E0.01511
G1 X174.439 Y200.322 E0.03022
G1 X174.02 Y200.322 E0.01511
G1 X174.02 Y201.16 E0.03022
G1 X173.601 Y201.16 E0.01511
G1 X173.601 Y200.322 E0.03022
G1 X173.182 Y200.322 E0.01511
G1 X173.182 Y201.16 E0.03022
G1 X172.763 Y201.16 E0.01511
G1 X172.763 Y200.322 E0.03022
G1 X172.344 Y200.322 E0.01511
G1 X172.344 Y201.16 E0.03022
G1 X171.925 Y201.16 E0.01511
G1 X171.925 Y200.322 E0.03021
G1 X171.506 Y200.322 E0.01511
G1 X171.506 Y201.16 E0.03021
G1 X171.087 Y201.16 E0.01511
G1 X171.087 Y200.322 E0.03021
G1 X170.668 Y200.322 E0.01511
G1 X170.668 Y201.16 E0.03021
G1 X170.25 Y201.16 E0.01511
G1 X170.25 Y200.322 E0.03021
G1 X169.831 Y200.322 E0.01511
G1 X169.831 Y201.16 E0.03021
G1 X169.412 Y201.16 E0.01511
G1 X169.412 Y200.322 E0.03021
G1 X168.993 Y200.322 E0.01511
G1 X168.993 Y201.16 E0.03021
G1 X168.574 Y201.16 E0.01511
G1 X168.574 Y200.322 E0.03021
G1 X168.155 Y200.322 E0.01511
G1 X168.155 Y201.16 E0.03021
G1 X167.736 Y201.16 E0.01511
G1 X167.736 Y200.322 E0.03021
G1 X167.317 Y200.322 E0.01511
G1 X167.317 Y201.16 E0.03021
G1 X166.898 Y201.16 E0.01511
G1 X166.898 Y200.322 E0.03021
G1 X166.479 Y200.322 E0.01511
G1 X166.479 Y201.16 E0.0302
G1 X166.06 Y201.16 E0.01511
G1 X166.06 Y200.322 E0.0302
G1 X165.641 Y200.322 E0.01511
G1 X165.641 Y201.16 E0.0302
G1 X165.222 Y201.159 E0.01511
G1 X165.222 Y200.322 E0.0302
G1 X164.803 Y200.322 E0.01511
G1 X164.803 Y201.159 E0.0302
G1 X164.384 Y201.159 E0.01511
G1 X164.384 Y200.322 E0.0302
G1 X163.965 Y200.322 E0.01511
G1 X163.965 Y201.159 E0.0302
G1 X163.546 Y201.159 E0.01511
G1 X163.546 Y200.322 E0.0302
G1 X163.127 Y200.322 E0.01511
G1 X163.127 Y201.159 E0.0302
G1 X162.708 Y201.159 E0.01511
G1 X162.708 Y200.322 E0.0302
G1 X162.289 Y200.322 E0.01511
G1 X162.289 Y201.159 E0.0302
G1 X161.87 Y201.159 E0.01511
G1 X161.87 Y200.322 E0.0302
G1 X161.451 Y200.322 E0.01511
G1 X161.451 Y201.159 E0.0302
G1 X161.032 Y201.159 E0.01511
G1 X161.032 Y200.322 E0.0302
G1 X160.613 Y200.322 E0.01511
G1 X160.613 Y201.159 E0.03019
G1 X160.194 Y201.159 E0.01511
G1 X160.194 Y200.322 E0.03019
G1 X159.775 Y200.322 E0.01511
G1 X159.775 Y201.159 E0.03019
G1 X159.356 Y201.159 E0.01511
G1 X159.356 Y200.322 E0.03019
G1 X158.937 Y200.322 E0.01511
G1 X158.937 Y201.159 E0.03019
G1 X158.518 Y201.159 E0.01511
G1 X158.518 Y200.322 E0.03019
G1 X158.099 Y200.322 E0.01511
G1 X158.099 Y201.159 E0.03019
G1 X157.68 Y201.159 E0.01511
G1 X157.68 Y200.322 E0.03019
G1 X157.261 Y200.322 E0.01511
G1 X157.261 Y201.159 E0.03019
G1 X156.842 Y201.159 E0.01511
G1 X156.842 Y200.322 E0.03019
G1 X156.423 Y200.322 E0.01511
G1 X156.423 Y201.159 E0.03019
G1 X156.004 Y201.159 E0.01511
G1 X156.004 Y200.322 E0.03019
G1 X155.585 Y200.322 E0.01511
G1 X155.585 Y201.159 E0.03019
G1 X155.166 Y201.159 E0.01511
G1 X155.166 Y200.322 E0.03019
G1 X154.747 Y200.322 E0.01511
G1 X154.747 Y201.159 E0.03018
