; generated by SuperSlicer 2.5.59 on 2023-05-15 at 15:23:22 UTC

; 

; external perimeters extrusion width = 0.45mm
; perimeters extrusion width = 0.45mm
; infill extrusion width = 0.45mm
; solid infill extrusion width = 0.45mm
; top infill extrusion width = 0.40mm
; support material extrusion width = 0.35mm
; first layer extrusion width = 0.42mm

; object:{"name":"AMS_LID_SPACER_RIGHT_TALL","id":"AMS_LID_SPACER_RIGHT_TALL.STL id:0 copy 0","object_center":[125.000000,105.000000,0.000000],"boundingbox_center":[125.000000,105.000000,13.250000],"boundingbox_size":[196.500000,182.099998,26.500000]}
EXCLUDE_OBJECT_DEFINE NAME=AMS_LID_SPACER_RIGHT_TALL_STL_id_0_copy_0 CENTER=125.000000,105.000000 POLYGON=[[26.750000,21.449998],[26.760208,21.058792],[26.760284,21.057480],[26.790818,20.668656],[26.791076,20.666030],[26.841736,20.280610],[26.842346,20.276748],[26.912826,19.895722],[26.913894,19.890656],[27.003922,19.515000],[27.005554,19.508850],[27.114762,19.139466],[27.117080,19.132370],[27.245102,18.770172],[27.248138,18.762238],[27.394578,18.408112],[27.398408,18.399476],[27.562790,18.054230],[27.567444,18.045074],[27.749314,17.709534],[27.754822,17.699996],[27.953660,17.374954],[27.959976,17.365204],[28.175262,17.051406],[28.182374,17.041610],[28.413574,16.739777],[28.421402,16.730087],[28.667954,16.440933],[28.676406,16.431519],[28.937714,16.155701],[28.946702,16.146698],[29.222122,15.884888],[29.231522,15.876419],[29.520416,15.629242],[29.530090,15.621399],[29.831832,15.389496],[29.841598,15.382370],[30.155456,15.166321],[30.165206,15.159973],[30.490464,14.960327],[30.500000,14.954804],[30.835892,14.772141],[30.845078,14.767456],[31.190826,14.602264],[31.199478,14.598404],[31.554276,14.451202],[31.562240,14.448135],[31.925248,14.319397],[31.932374,14.317062],[32.302704,14.207199],[32.308868,14.205551],[32.685592,14.114960],[32.690658,14.113892],[33.072846,14.042938],[33.076736,14.042328],[33.463410,13.991364],[33.466050,13.991089],[33.856156,13.960342],[33.857484,13.960281],[34.250000,13.949997],[200.781088,13.949997],[223.250000,15.699997],[223.250000,17.199996],[31.750000,196.049984],[26.750000,196.049984],[26.750000,21.449998]]
; plater:{"center":[125.000000,105.000000,0.000000],"boundingbox_center":[125.000000,105.000000,13.250000],"boundingbox_size":[196.500000,182.099998,26.500000]}

M73 P0 R357
;TYPE:Custom
Start : M104 S0
M140 S0
PRINT_START EXTRUDER_TEMP=210 BED_TEMP=50
M107
G21 ; set units to millimeters
G90 ; use absolute coordinates
M83 ; use relative distances for extrusion
M900 K0
;_TOOLCHANGE 0
M104 S210 ; set temperature
M109 S210 ; set temperature and wait for it to be reached
M107
;LAYER_CHANGE
;Z:0.2
;HEIGHT:0.2
;BEFORE_LAYER_CHANGE
G92 E0.0
;0.2
TIMELAPSE_TAKE_FRAME

G1 Z0.4 F10800
;AFTER_LAYER_CHANGE
;0.2
G1 Z0.6
M204 S1000
G1 X23.398 Y11.699
G1 Z0.2
;TYPE:Skirt
;WIDTH:0.52
G1 F754.591
G1 X21.505 Y15.485 E0.1931
G1 X21.428 Y15.815 E0.01548
G1 X21.428 Y201.009 E8.44849
M73 P0 R356
G1 X22.166 Y201.748 E0.04765
G1 X36.743 Y201.748 E0.66501
G1 X37.253 Y201.544 E0.02504
G1 X225.794 Y21.828 E11.88265
G1 X226.023 Y21.293 E0.02653
G1 X226.023 Y11.266 E0.45745
G1 X225.367 Y10.532 E0.0449
G1 X205.168 Y8.257 E0.92731
G1 X28.991 Y8.252 E8.03714
G1 X28.66 Y8.33 E0.01548
G1 X24.111 Y10.605 E0.23206
G1 X23.78 Y10.935 E0.02131
G1 X23.425 Y11.646 E0.03622
G1 Z0.6 F10800
; printing object AMS_LID_SPACER_RIGHT_TALL.STL id:0 copy 0
EXCLUDE_OBJECT_START NAME=AMS_LID_SPACER_RIGHT_TALL_STL_id_0_copy_0
; acceleration to travel
M204 S1500
G1 X142.952 Y13.09
; decel to extrusion
M204 S1000
G1 X222.871 Y14.056
; end travel
G1 Z0.2
;TYPE:Support material interface
;WIDTH:0.42
G1 F954.70553
G1 X225.044 Y14.056 E0.07834
G1 X225.044 Y18.503 E0.16037
G1 X222.871 Y18.503 E0.07834
G1 X222.871 Y17.683 E0.02957
G1 X223.183 Y17.371 E0.0159
G1 X223.183 Y15.529 E0.06644
G1 X222.871 Y15.217 E0.0159
G1 X222.871 Y14.116 E0.03971
G1 Z0.6 F10800
; acceleration to travel
M204 S1500
G1 X224.118 Y14.347
; decel to extrusion
M204 S1000
G1 X224.95 Y14.501
; end travel
G1 Z0.2
G1 F954.70553
G1 X223.128 Y14.501 E0.0657
G1 X223.128 Y14.92 E0.01511
G1 X224.788 Y14.92 E0.05985
G1 X224.788 Y15.339 E0.01511
G1 X223.356 Y15.339 E0.05162
G1 X223.44 Y15.422 E0.00426
G1 X223.44 Y15.758 E0.01209
G1 X224.788 Y15.758 E0.0486
G1 X224.788 Y16.177 E0.01511
G1 X223.44 Y16.177 E0.0486
G1 X223.44 Y16.596 E0.01511
G1 X224.788 Y16.596 E0.0486
G1 X224.788 Y17.015 E0.01511
G1 X223.44 Y17.015 E0.0486
G1 X223.44 Y17.434 E0.01511
G1 X224.788 Y17.434 E0.0486
G1 X224.788 Y17.853 E0.01511
G1 X222.966 Y17.853 E0.0657
G1 Z0.6 F10800
; acceleration to travel
M204 S1500
G1 X212.237 Y17.853
; decel to extrusion
M204 S1000
G1 X205.085 Y17.853
; end travel
G1 Z0.2
;TYPE:Support material
G1 F954.70553
G1 X205.085 Y23.568 E0.20607
G1 X36.743 Y23.568 E6.06997
M73 P0 R355
G1 X36.743 Y201.009 E6.39808
G1 X22.166 Y201.009 E0.52562
G1 X22.166 Y15.815 E6.67761
G1 X24.441 Y15.815 E0.08203
G1 X24.441 Y11.266 E0.16405
G1 X28.991 Y11.266 E0.16405
G1 X28.991 Y8.991 E0.08203
G1 X205.085 Y8.991 E6.34951
G1 X205.085 Y15.276 E0.22665
G1 X34.247 Y15.276 E6.15998
G1 X33.621 Y15.309 E0.02261
G1 X32.984 Y15.408 E0.02325
G1 X32.635 Y15.492 E0.01294
G1 X32.022 Y15.693 E0.02325
G1 X31.433 Y15.957 E0.0233
G1 X30.882 Y16.276 E0.02295
G1 X30.607 Y16.466 E0.01205
G1 X30.131 Y16.851 E0.02207
G1 X29.673 Y17.307 E0.0233
G1 X29.265 Y17.808 E0.0233
G1 X28.912 Y18.349 E0.0233
G1 X28.604 Y18.954 E0.02447
G1 X28.374 Y19.558 E0.0233
G1 X28.208 Y20.183 E0.0233
G1 X28.109 Y20.821 E0.0233
G1 X28.076 Y21.447 E0.02261
G1 X28.076 Y196.108 E6.29784
M73 P0 R354
G1 X28.442 Y196.474 E0.01863
G1 X30.058 Y196.474 E0.05829
G1 X30.424 Y196.108 E0.01863
G1 X30.424 Y21.461 E6.29733
G1 X30.445 Y21.05 E0.01484
G1 X30.508 Y20.655 E0.01444
G1 X30.611 Y20.268 E0.01444
G1 X30.755 Y19.894 E0.01444
G1 X30.937 Y19.537 E0.01444
G1 X31.155 Y19.201 E0.01444
G1 X31.407 Y18.89 E0.01444
G1 X31.69 Y18.607 E0.01444
G1 X32.001 Y18.355 E0.01444
G1 X32.332 Y18.14 E0.01424
G1 X32.879 Y17.879 E0.02184
G1 X33.46 Y17.707 E0.02184
G1 X33.85 Y17.645 E0.01424
G1 X34.261 Y17.624 E0.01484
G1 X205.085 Y17.624 E6.15947
G1 X205.085 Y17.793 E0.0061
; acceleration to travel
M204 S1500
G1 X204.797 Y21.201 F10800
; decel to extrusion
M204 S1000
G1 X204.606 Y23.474
; end travel
G1 F954.70553
G1 X204.606 Y17.88 E0.20169
G1 X204.187 Y17.88 E0.01511
G1 X204.187 Y23.311 E0.19585
G1 X203.768 Y23.311 E0.01511
G1 X203.768 Y17.88 E0.19585
G1 X203.349 Y17.88 E0.01511
G1 X203.349 Y23.311 E0.19585
G1 X202.93 Y23.311 E0.01511
G1 X202.93 Y17.88 E0.19585
G1 X202.511 Y17.88 E0.01511
G1 X202.511 Y23.311 E0.19585
G1 X202.092 Y23.311 E0.01511
G1 X202.092 Y17.88 E0.19585
G1 X201.673 Y17.88 E0.01511
G1 X201.673 Y23.311 E0.19585
G1 X201.254 Y23.311 E0.01511
G1 X201.254 Y17.88 E0.19585
G1 X200.835 Y17.88 E0.01511
G1 X200.835 Y23.311 E0.19585
G1 X200.416 Y23.311 E0.01511
G1 X200.416 Y17.88 E0.19585
G1 X199.997 Y17.88 E0.01511
G1 X199.997 Y23.311 E0.19585
G1 X199.578 Y23.311 E0.01511
G1 X199.578 Y17.88 E0.19585
G1 X199.159 Y17.88 E0.01511
G1 X199.159 Y23.311 E0.19585
G1 X198.74 Y23.311 E0.01511
G1 X198.74 Y17.88 E0.19585
G1 X198.321 Y17.88 E0.01511
G1 X198.321 Y23.311 E0.19585
G1 X197.902 Y23.311 E0.01511
G1 X197.902 Y17.88 E0.19585
G1 X197.483 Y17.88 E0.01511
G1 X197.483 Y23.311 E0.19585
G1 X197.064 Y23.311 E0.01511
G1 X197.064 Y17.88 E0.19585
G1 X196.645 Y17.88 E0.01511
G1 X196.645 Y23.311 E0.19585
G1 X196.226 Y23.311 E0.01511
G1 X196.226 Y17.88 E0.19585
G1 X195.807 Y17.88 E0.01511
G1 X195.807 Y23.311 E0.19585
G1 X195.388 Y23.311 E0.01511
G1 X195.388 Y17.88 E0.19585
G1 X194.969 Y17.88 E0.01511
G1 X194.969 Y23.311 E0.19585
G1 X194.55 Y23.311 E0.01511
G1 X194.55 Y17.88 E0.19585
G1 X194.131 Y17.88 E0.01511
G1 X194.131 Y23.311 E0.19585
G1 X193.712 Y23.311 E0.01511
G1 X193.712 Y17.88 E0.19585
G1 X193.293 Y17.88 E0.01511
G1 X193.293 Y23.311 E0.19585
G1 X192.874 Y23.311 E0.01511
G1 X192.874 Y17.88 E0.19585
G1 X192.455 Y17.88 E0.01511
G1 X192.455 Y23.311 E0.19585
G1 X192.036 Y23.311 E0.01511
G1 X192.036 Y17.88 E0.19585
G1 X191.617 Y17.88 E0.01511
G1 X191.617 Y23.311 E0.19585
G1 X191.198 Y23.311 E0.01511
G1 X191.198 Y17.88 E0.19585
G1 X190.779 Y17.88 E0.01511
G1 X190.779 Y23.311 E0.19585
G1 X190.36 Y23.311 E0.01511
G1 X190.36 Y17.88 E0.19585
G1 X189.941 Y17.88 E0.01511
G1 X189.941 Y23.311 E0.19585
G1 X189.522 Y23.311 E0.01511
G1 X189.522 Y17.88 E0.19585
G1 X189.103 Y17.88 E0.01511
G1 X189.103 Y23.311 E0.19585
G1 X188.685 Y23.311 E0.01511
G1 X188.685 Y17.88 E0.19585
G1 X188.266 Y17.88 E0.01511
G1 X188.266 Y23.311 E0.19585
G1 X187.847 Y23.311 E0.01511
G1 X187.847 Y17.88 E0.19585
G1 X187.428 Y17.88 E0.01511
G1 X187.428 Y23.311 E0.19585
G1 X187.009 Y23.311 E0.01511
G1 X187.009 Y17.88 E0.19585
G1 X186.59 Y17.88 E0.01511
G1 X186.59 Y23.311 E0.19585
G1 X186.171 Y23.311 E0.01511
G1 X186.171 Y17.88 E0.19585
G1 X185.752 Y17.88 E0.01511
G1 X185.752 Y23.311 E0.19585
G1 X185.333 Y23.311 E0.01511
G1 X185.333 Y17.88 E0.19585
G1 X184.914 Y17.88 E0.01511
G1 X184.914 Y23.311 E0.19585
G1 X184.495 Y23.311 E0.01511
G1 X184.495 Y17.88 E0.19585
G1 X184.076 Y17.88 E0.01511
G1 X184.076 Y23.311 E0.19585
G1 X183.657 Y23.311 E0.01511
G1 X183.657 Y17.88 E0.19585
G1 X183.238 Y17.88 E0.01511
G1 X183.238 Y23.311 E0.19585
G1 X182.819 Y23.311 E0.01511
G1 X182.819 Y17.88 E0.19585
G1 X182.4 Y17.88 E0.01511
G1 X182.4 Y23.311 E0.19585
G1 X181.981 Y23.311 E0.01511
G1 X181.981 Y17.88 E0.19585
G1 X181.562 Y17.88 E0.01511
G1 X181.562 Y23.311 E0.19585
G1 X181.143 Y23.311 E0.01511
G1 X181.143 Y17.88 E0.19585
G1 X180.724 Y17.88 E0.01511
G1 X180.724 Y23.311 E0.19585
G1 X180.305 Y23.311 E0.01511
G1 X180.305 Y17.88 E0.19585
G1 X179.886 Y17.88 E0.01511
G1 X179.886 Y23.311 E0.19585
G1 X179.467 Y23.311 E0.01511
G1 X179.467 Y17.88 E0.19585
G1 X179.048 Y17.88 E0.01511
G1 X179.048 Y23.311 E0.19585
G1 X178.629 Y23.311 E0.01511
G1 X178.629 Y17.88 E0.19585
G1 X178.21 Y17.88 E0.01511
G1 X178.21 Y23.311 E0.19585
G1 X177.791 Y23.311 E0.01511
G1 X177.791 Y17.88 E0.19585
G1 X177.372 Y17.88 E0.01511
G1 X177.372 Y23.311 E0.19585
G1 X176.953 Y23.311 E0.01511
G1 X176.953 Y17.88 E0.19585
G1 X176.534 Y17.88 E0.01511
G1 X176.534 Y23.311 E0.19585
G1 X176.115 Y23.311 E0.01511
G1 X176.115 Y17.88 E0.19585
G1 X175.696 Y17.88 E0.01511
G1 X175.696 Y23.311 E0.19585
G1 X175.277 Y23.311 E0.01511
G1 X175.277 Y17.88 E0.19585
G1 X174.858 Y17.88 E0.01511
G1 X174.858 Y23.311 E0.19585
G1 X174.439 Y23.311 E0.01511
G1 X174.439 Y17.88 E0.19585
G1 X174.02 Y17.88 E0.01511
G1 X174.02 Y23.311 E0.19585
G1 X173.601 Y23.311 E0.01511
G1 X173.601 Y17.88 E0.19585
G1 X173.182 Y17.88 E0.01511
G1 X173.182 Y23.311 E0.19585
G1 X172.763 Y23.311 E0.01511
G1 X172.763 Y17.88 E0.19585
G1 X172.344 Y17.88 E0.01511
G1 X172.344 Y23.311 E0.19585
G1 X171.925 Y23.311 E0.01511
G1 X171.925 Y17.88 E0.19585
G1 X171.506 Y17.88 E0.01511
G1 X171.506 Y23.311 E0.19585
G1 X171.087 Y23.311 E0.01511
G1 X171.087 Y17.88 E0.19585
G1 X170.669 Y17.88 E0.01511
G1 X170.668 Y23.311 E0.19585
G1 X170.25 Y23.311 E0.01511
G1 X170.25 Y17.88 E0.19585
G1 X169.831 Y17.88 E0.01511
G1 X169.831 Y23.311 E0.19585
G1 X169.412 Y23.311 E0.01511
G1 X169.412 Y17.88 E0.19585
G1 X168.993 Y17.88 E0.01511
G1 X168.993 Y23.311 E0.19585
G1 X168.574 Y23.311 E0.01511
G1 X168.574 Y17.88 E0.19585
G1 X168.155 Y17.88 E0.01511
G1 X168.155 Y23.311 E0.19585
G1 X167.736 Y23.311 E0.01511
G1 X167.736 Y17.88 E0.19585
G1 X167.317 Y17.88 E0.01511
G1 X167.317 Y23.311 E0.19585
G1 X166.898 Y23.311 E0.01511
G1 X166.898 Y17.88 E0.19585
M73 P0 R353
G1 X166.479 Y17.88 E0.01511
G1 X166.479 Y23.311 E0.19585
G1 X166.06 Y23.311 E0.01511
G1 X166.06 Y17.88 E0.19585
G1 X165.641 Y17.88 E0.01511
G1 X165.641 Y23.311 E0.19585
G1 X165.222 Y23.311 E0.01511
G1 X165.222 Y17.88 E0.19585
G1 X164.803 Y17.88 E0.01511
G1 X164.803 Y23.311 E0.19585
G1 X164.384 Y23.311 E0.01511
G1 X164.384 Y17.88 E0.19585
G1 X163.965 Y17.88 E0.01511
G1 X163.965 Y23.311 E0.19585
G1 X163.546 Y23.311 E0.01511
G1 X163.546 Y17.88 E0.19585
G1 X163.127 Y17.88 E0.01511
G1 X163.127 Y23.311 E0.19585
G1 X162.708 Y23.311 E0.01511
G1 X162.708 Y17.88 E0.19585
G1 X162.289 Y17.88 E0.01511
G1 X162.289 Y23.311 E0.19585
G1 X161.87 Y23.311 E0.01511
G1 X161.87 Y17.88 E0.19585
G1 X161.451 Y17.88 E0.01511
G1 X161.451 Y23.311 E0.19585
G1 X161.032 Y23.311 E0.01511
G1 X161.032 Y17.88 E0.19585
G1 X160.613 Y17.88 E0.01511
G1 X160.613 Y23.311 E0.19585
G1 X160.194 Y23.311 E0.01511
G1 X160.194 Y17.88 E0.19585
G1 X159.775 Y17.88 E0.01511
G1 X159.775 Y23.311 E0.19585
G1 X159.356 Y23.311 E0.01511
G1 X159.356 Y17.88 E0.19585
G1 X158.937 Y17.88 E0.01511
G1 X158.937 Y23.311 E0.19585
G1 X158.518 Y23.311 E0.01511
G1 X158.518 Y17.88 E0.19585
G1 X158.099 Y17.88 E0.01511
G1 X158.099 Y23.311 E0.19585
G1 X157.68 Y23.311 E0.01511
G1 X157.68 Y17.88 E0.19585
G1 X157.261 Y17.88 E0.01511
G1 X157.261 Y23.311 E0.19585
G1 X156.842 Y23.311 E0.01511
G1 X156.842 Y17.88 E0.19585
G1 X156.423 Y17.88 E0.01511
G1 X156.423 Y23.311 E0.19585
G1 X156.004 Y23.311 E0.01511
G1 X156.004 Y17.88 E0.19585
G1 X155.585 Y17.88 E0.01511
G1 X155.585 Y23.311 E0.19585
M73 P1 R353
G1 X155.166 Y23.311 E0.01511
G1 X155.166 Y17.88 E0.19585
G1 X154.747 Y17.88 E0.01511
G1 X154.747 Y23.311 E0.19585
G1 X154.328 Y23.311 E0.01511
G1 X154.328 Y17.88 E0.19585
G1 X153.909 Y17.88 E0.01511
G1 X153.909 Y23.311 E0.19585
G1 X153.49 Y23.311 E0.01511
G1 X153.49 Y17.88 E0.19585
G1 X153.071 Y17.88 E0.01511
G1 X153.071 Y23.311 E0.19585
G1 X152.652 Y23.311 E0.01511
G1 X152.652 Y17.88 E0.19585
G1 X152.234 Y17.88 E0.01511
G1 X152.234 Y23.311 E0.19585
G1 X151.815 Y23.311 E0.01511
G1 X151.815 Y17.88 E0.19585
G1 X151.396 Y17.88 E0.01511
G1 X151.396 Y23.311 E0.19585
G1 X150.977 Y23.311 E0.01511
G1 X150.977 Y17.88 E0.19585
G1 X150.558 Y17.88 E0.01511
G1 X150.558 Y23.311 E0.19585
G1 X150.139 Y23.311 E0.01511
G1 X150.139 Y17.88 E0.19585
G1 X149.72 Y17.88 E0.01511
G1 X149.72 Y23.311 E0.19585
G1 X149.301 Y23.311 E0.01511
G1 X149.301 Y17.88 E0.19585
G1 X148.882 Y17.88 E0.01511
G1 X148.882 Y23.311 E0.19585
G1 X148.463 Y23.311 E0.01511
G1 X148.463 Y17.88 E0.19585
G1 X148.044 Y17.88 E0.01511
G1 X148.044 Y23.311 E0.19585
G1 X147.625 Y23.311 E0.01511
G1 X147.625 Y17.88 E0.19585
G1 X147.206 Y17.88 E0.01511
G1 X147.206 Y23.311 E0.19585
G1 X146.787 Y23.311 E0.01511
G1 X146.787 Y17.88 E0.19585
G1 X146.368 Y17.88 E0.01511
G1 X146.368 Y23.311 E0.19585
G1 X145.949 Y23.311 E0.01511
G1 X145.949 Y17.88 E0.19585
G1 X145.53 Y17.88 E0.01511
G1 X145.53 Y23.311 E0.19585
G1 X145.111 Y23.311 E0.01511
G1 X145.111 Y17.88 E0.19585
G1 X144.692 Y17.88 E0.01511
G1 X144.692 Y23.311 E0.19585
G1 X144.273 Y23.311 E0.01511
G1 X144.273 Y17.88 E0.19585
G1 X143.854 Y17.88 E0.01511
G1 X143.854 Y23.311 E0.19585
G1 X143.435 Y23.311 E0.01511
G1 X143.435 Y17.88 E0.19585
G1 X143.016 Y17.88 E0.01511
G1 X143.016 Y23.311 E0.19585
G1 X142.597 Y23.311 E0.01511
G1 X142.597 Y17.88 E0.19585
G1 X142.178 Y17.88 E0.01511
G1 X142.178 Y23.311 E0.19585
G1 X141.759 Y23.311 E0.01511
G1 X141.759 Y17.88 E0.19585
G1 X141.34 Y17.88 E0.01511
G1 X141.34 Y23.311 E0.19585
G1 X140.921 Y23.311 E0.01511
G1 X140.921 Y17.88 E0.19585
G1 X140.502 Y17.88 E0.01511
G1 X140.502 Y23.311 E0.19585
G1 X140.083 Y23.311 E0.01511
G1 X140.083 Y17.88 E0.19585
G1 X139.664 Y17.88 E0.01511
G1 X139.664 Y23.311 E0.19585
G1 X139.245 Y23.311 E0.01511
G1 X139.245 Y17.88 E0.19585
G1 X138.826 Y17.88 E0.01511
G1 X138.826 Y23.311 E0.19585
G1 X138.407 Y23.311 E0.01511
G1 X138.407 Y17.88 E0.19585
G1 X137.988 Y17.88 E0.01511
G1 X137.988 Y23.311 E0.19585
G1 X137.569 Y23.311 E0.01511
G1 X137.569 Y17.88 E0.19585
G1 X137.15 Y17.88 E0.01511
G1 X137.15 Y23.311 E0.19585
G1 X136.731 Y23.311 E0.01511
G1 X136.731 Y17.88 E0.19585
G1 X136.312 Y17.88 E0.01511
G1 X136.312 Y23.311 E0.19585
G1 X135.893 Y23.311 E0.01511
G1 X135.893 Y17.88 E0.19585
G1 X135.474 Y17.88 E0.01511
G1 X135.474 Y23.311 E0.19585
G1 X135.055 Y23.311 E0.01511
G1 X135.055 Y17.88 E0.19585
G1 X134.636 Y17.88 E0.01511
G1 X134.636 Y23.311 E0.19585
G1 X134.218 Y23.311 E0.01511
G1 X134.218 Y17.88 E0.19585
G1 X133.799 Y17.88 E0.01511
G1 X133.799 Y23.311 E0.19585
G1 X133.38 Y23.311 E0.01511
G1 X133.38 Y17.88 E0.19585
G1 X132.961 Y17.88 E0.01511
