; generated by SuperSlicer 2.5.59 on 2023-05-13 at 05:31:09 UTC

; 

; external perimeters extrusion width = 0.45mm
; perimeters extrusion width = 0.45mm
; infill extrusion width = 0.45mm
; solid infill extrusion width = 0.45mm
; top infill extrusion width = 0.40mm
; first layer extrusion width = 0.42mm

; external perimeters extrusion width = 0.45mm
; perimeters extrusion width = 0.45mm
; infill extrusion width = 0.45mm
; solid infill extrusion width = 0.45mm
; top infill extrusion width = 0.40mm
; first layer extrusion width = 0.42mm

; object:{"name":"BaseStand","id":"BaseStand.stl id:0 copy 0","object_center":[162.546584,143.505463,0.000000],"boundingbox_center":[162.546584,143.505463,5.000000],"boundingbox_size":[85.000000,50.000000,10.000000]}
EXCLUDE_OBJECT_DEFINE NAME=BaseStand_stl_id_0_copy_0 CENTER=162.546584,143.505463 POLYGON=[[120.046584,143.506352],[120.059352,142.892816],[120.097704,142.279664],[120.161632,141.667232],[120.251080,141.055920],[120.366024,140.446080],[120.506360,139.838080],[120.672024,139.232304],[120.862912,138.629072],[121.078920,138.028816],[121.319888,137.431824],[121.585696,136.838496],[121.876184,136.249200],[122.191160,135.664256],[122.530456,135.084048],[122.893848,134.508912],[123.281128,133.939208],[123.692064,133.375248],[124.126392,132.817384],[124.583872,132.265976],[125.064216,131.721328],[125.567136,131.183776],[126.092344,130.653656],[126.639496,130.131272],[127.208280,129.616944],[127.798352,129.110992],[128.409360,128.613696],[129.040928,128.125368],[129.692688,127.646320],[130.364224,127.176816],[131.055144,126.717152],[131.765048,126.267592],[132.493472,125.828424],[133.240024,125.399904],[134.004208,124.982288],[134.785584,124.575824],[135.583712,124.180768],[136.398048,123.797352],[137.228144,123.425808],[138.073504,123.066352],[138.933600,122.719216],[139.807904,122.384600],[140.695920,122.062704],[141.597088,121.753720],[142.510896,121.457856],[143.436752,121.175256],[144.374112,120.906112],[145.322448,120.650584],[146.281136,120.408816],[147.249632,120.180960],[148.227344,119.967160],[149.213680,119.767544],[150.208032,119.582216],[151.209840,119.411304],[152.218464,119.254896],[153.233312,119.113104],[154.253760,118.986008],[155.279200,118.873672],[156.309056,118.776184],[157.342624,118.693584],[158.379344,118.625928],[159.418576,118.573264],[160.459680,118.535624],[161.502080,118.513016],[162.545072,118.505464],[163.588080,118.512968],[164.630448,118.535528],[165.671568,118.573136],[166.710800,118.625752],[167.747536,118.693368],[168.781136,118.775920],[169.810976,118.873368],[170.836448,118.985656],[171.856912,119.112720],[172.871776,119.254464],[173.880416,119.410824],[174.882240,119.581696],[175.876624,119.766984],[176.862976,119.966560],[177.840720,120.180320],[178.809232,120.408136],[179.767968,120.649856],[180.716304,120.905352],[181.653712,121.174456],[182.579600,121.457016],[183.493440,121.752856],[184.394656,122.061792],[185.282704,122.383656],[186.157056,122.718232],[187.017200,123.065328],[187.862592,123.424744],[188.692736,123.796256],[189.507120,124.179632],[190.305280,124.574664],[191.086720,124.981088],[191.850960,125.398672],[192.597552,125.827168],[193.326032,126.266304],[194.036000,126.715832],[194.726976,127.175472],[195.398576,127.644944],[196.050368,128.123960],[196.682000,128.612272],[197.293072,129.109528],[197.883200,129.615464],[198.452064,130.129760],[198.999264,130.652128],[199.524544,131.182240],[200.027520,131.719760],[200.507936,132.264376],[200.965488,132.815784],[201.399888,133.373624],[201.810880,133.937560],[202.198224,134.507264],[202.561696,135.082384],[202.901056,135.662560],[203.216112,136.247504],[203.506672,136.836800],[203.772544,137.430080],[204.013600,138.027072],[204.229664,138.627328],[204.420624,139.230528],[204.586368,139.836320],[204.726784,140.444304],[204.841776,141.054144],[204.931328,141.665472],[204.995312,142.277872],[205.033760,142.891056],[205.046592,143.504576],[205.033824,144.118096],[204.995472,144.731264],[204.931536,145.343696],[204.842080,145.955008],[204.727152,146.564848],[204.586800,147.172848],[204.421136,147.778624],[204.230256,148.381856],[204.014256,148.982112],[203.773280,149.579104],[203.507472,150.172432],[203.216992,150.761712],[202.902016,151.346672],[202.562720,151.926880],[202.199328,152.502016],[201.812048,153.071712],[201.401104,153.635680],[200.966784,154.193536],[200.509296,154.744944],[200.028944,155.289600],[199.526032,155.827152],[199.000832,156.357264],[198.453680,156.879648],[197.884896,157.393984],[197.294816,157.899936],[196.683808,158.397232],[196.052224,158.885552],[195.400496,159.364608],[194.728960,159.834112],[194.038032,160.293776],[193.328128,160.743328],[192.599680,161.182496],[191.853152,161.611024],[191.088960,162.028640],[190.307568,162.435104],[189.509472,162.830160],[188.695120,163.213584],[187.865024,163.585120],[187.019664,163.944576],[186.159584,164.291712],[185.285264,164.626320],[184.397248,164.948208],[183.496080,165.257200],[182.582272,165.553072],[181.656416,165.835664],[180.719040,166.104816],[179.770720,166.360352],[178.812032,166.602112],[177.843536,166.829952],[176.865824,167.043760],[175.879504,167.243392],[174.885136,167.428704],[173.883328,167.599632],[172.874704,167.756032],[171.859856,167.897824],[170.839408,168.024912],[169.813952,168.137248],[168.784128,168.234736],[167.750528,168.317344],[166.713824,168.384992],[165.674592,168.437648],[164.633488,168.475312],[163.591088,168.497904],[162.548096,168.505456],[161.505104,168.497952],[160.462720,168.475392],[159.421600,168.437792],[158.382352,168.385168],[157.345648,168.317568],[156.312048,168.235008],[155.282192,168.137552],[154.256736,168.025264],[153.236272,167.898208],[152.221408,167.756448],[151.212752,167.600096],[150.210944,167.429232],[149.216560,167.243936],[148.230192,167.044368],[147.252464,166.830592],[146.283936,166.602784],[145.325216,166.361072],[144.376864,166.105568],[143.439456,165.836464],[142.513552,165.553904],[141.599728,165.258080],[140.698512,164.949120],[139.810448,164.627280],[138.936112,164.292688],[138.075968,163.945584],[137.230592,163.586176],[136.400432,163.214656],[135.586048,162.831296],[134.787888,162.436272],[134.006456,162.029840],[133.242216,161.612240],[132.495624,161.183760],[131.767120,160.744624],[131.057176,160.295104],[130.366200,159.835456],[129.694592,159.365984],[129.042784,158.886960],[128.411160,158.398656],[127.800104,157.901392],[127.209968,157.395456],[126.641112,156.881168],[126.093904,156.358800],[125.568632,155.828688],[125.065640,155.291168],[124.585232,154.746544],[124.127688,154.195152],[123.693280,153.637296],[123.282288,153.073360],[122.894936,152.503664],[122.531472,151.928544],[122.192112,151.348352],[121.877064,150.763424],[121.586504,150.174128],[121.320624,149.580848],[121.079576,148.983856],[120.863512,148.383584],[120.672544,147.780400],[120.506808,147.174608],[120.366392,146.566624],[120.251384,145.956784],[120.161848,145.345456],[120.097856,144.733040],[120.059416,144.119872],[120.046584,143.506352]]
; object:{"name":"Holder","id":"Holder.stl id:1 copy 0","object_center":[125.011308,104.998084,0.000000],"boundingbox_center":[125.011308,104.998084,2.500000],"boundingbox_size":[166.497180,168.548886,5.000000]}
EXCLUDE_OBJECT_DEFINE NAME=Holder_stl_id_1_copy_0 CENTER=125.011308,104.998084 POLYGON=[[41.762720,169.352240],[41.800736,168.903280],[41.851740,168.431760],[41.916092,167.937136],[41.994272,167.418512],[42.086836,166.874976],[42.194352,166.305472],[42.317244,165.709280],[42.455644,165.086240],[42.609252,164.436800],[42.777496,163.762000],[42.959572,163.063168],[43.154680,162.341744],[43.362044,161.599088],[43.580992,160.836336],[44.051828,159.253696],[45.094072,155.980320],[46.173684,152.696864],[47.291664,149.403040],[48.449244,146.098560],[49.647928,142.782960],[50.889540,139.455776],[52.176208,136.116432],[53.510364,132.764280],[54.894776,129.398560],[56.332512,126.018432],[57.826988,122.623000],[59.381960,119.211224],[61.001524,115.782032],[62.690088,112.334208],[64.452348,108.866496],[66.293312,105.377536],[67.244936,103.624632],[68.218232,101.865888],[69.213904,100.101136],[70.232648,98.330128],[71.275192,96.552696],[72.342264,94.768640],[73.434632,92.977768],[74.553040,91.179856],[75.698272,89.374728],[76.871048,87.562136],[78.072192,85.741904],[79.302448,83.913800],[80.562576,82.077656],[81.853360,80.233216],[83.175552,78.380304],[84.529904,76.518704],[85.917120,74.648256],[87.337984,72.768704],[88.793176,70.879896],[90.283384,68.981624],[91.809312,67.073732],[93.371576,65.156008],[94.970792,63.228328],[96.607568,61.290504],[98.282416,59.342404],[99.995832,57.383888],[101.748288,55.414840],[103.540152,53.435156],[105.371752,51.444756],[107.243352,49.443544],[109.155176,47.431468],[111.107320,45.408516],[112.952248,43.549372],[114.815560,41.748816],[116.696864,40.008768],[118.595776,38.331108],[120.511904,36.717760],[122.444904,35.170640],[124.394352,33.691624],[126.359888,32.282654],[128.341112,30.945610],[130.337704,29.682404],[132.349184,28.494988],[134.375264,27.385186],[136.415504,26.354958],[138.469536,25.406212],[140.537040,24.540832],[141.575648,24.140030],[142.617488,23.760766],[144.104896,23.258972],[145.598112,22.801880],[147.096768,22.389610],[148.600352,22.022332],[150.108432,21.700218],[151.620512,21.423400],[153.136144,21.192100],[154.654832,21.006432],[156.176096,20.866616],[157.699536,20.772736],[159.224608,20.725030],[160.750848,20.723640],[162.277856,20.768714],[163.805104,20.860420],[165.332128,20.998962],[166.858464,21.184456],[168.594800,21.452332],[170.328320,21.779496],[172.058864,22.165550],[173.786352,22.610076],[175.510656,23.112648],[177.231664,23.672828],[178.949248,24.290230],[180.663328,24.964448],[182.373808,25.694984],[184.080544,26.481476],[185.783424,27.323516],[187.482336,28.220642],[189.177216,29.172462],[190.867888,30.178520],[192.554256,31.238460],[194.236256,32.351826],[194.628752,32.618134],[208.259888,46.249276],[204.724368,49.784804],[61.683020,189.272528],[41.762720,169.352240]]
; plater:{"center":[125.011308,104.998084,0.000000],"boundingbox_center":[125.011308,104.998084,5.000000],"boundingbox_size":[166.497180,168.548886,10.000000]}

M73 P0 R67
;TYPE:Custom
Start : M104 S0
M140 S0
PRINT_START EXTRUDER_TEMP=220 BED_TEMP=70
M107
G21 ; set units to millimeters
G90 ; use absolute coordinates
M83 ; use relative distances for extrusion
M900 K0.05 ; Filament gcode LA 1.5
M900 K30 ; Filament gcode LA 1.0
;_TOOLCHANGE 0
M104 S220 ; set temperature
M109 S220 ; set temperature and wait for it to be reached
M107
;LAYER_CHANGE
;Z:0.3
;HEIGHT:0.3
;BEFORE_LAYER_CHANGE
G92 E0.0
;0.3
TIMELAPSE_TAKE_FRAME

G1 E-0.8 F2100
G1 Z0.4 F10800
;AFTER_LAYER_CHANGE
;0.3
G1 Z0.7
M204 S1000
G1 X88.494 Y70.138
G1 Z0.3
G1 E0.8 F2100
;TYPE:Skirt
;WIDTH:0.52
G1 F900
G1 X86.763 Y72.322 E0.15836
G1 X81.255 Y79.819 E0.52866
G1 X76.258 Y87.17 E0.50511
G1 X73.935 Y90.795 E0.24472
G1 X70.646 Y96.187 E0.3589
G1 X66.605 Y103.277 E0.46375
G1 X62.036 Y112.014 E0.56028
G1 X60.343 Y115.471 E0.21875
G1 X57.165 Y122.321 E0.42913
G1 X52.837 Y132.487 E0.62788
G1 X48.963 Y142.536 E0.61198
G1 X46.605 Y149.162 E0.39973
G1 X44.403 Y155.753 E0.39488
G1 X43.354 Y159.048 E0.19652
G1 X42.07 Y163.59 E0.2682
G1 X41.478 Y166.177 E0.15079
G1 X41.076 Y168.842 E0.15317
G1 X41.038 Y169.291 E0.0256
G1 X41.248 Y169.867 E0.03485
G1 X61.168 Y189.787 E1.60092
G1 X61.821 Y189.987 E0.03879
G1 X175.529 Y168.033 E6.58105
M73 P0 R66
G1 X180.109 Y167.005 E0.26677
G1 X183.89 Y165.874 E0.22425
G1 X186.135 Y165.063 E0.13567
G1 X188.327 Y164.157 E0.13476
G1 X191.98 Y162.353 E0.23153
G1 X194.828 Y160.623 E0.18936
G1 X197.589 Y158.578 E0.19529
G1 X198.913 Y157.422 E0.09984
G1 X200.161 Y156.19 E0.09966
G1 X201.962 Y154.071 E0.15803
G1 X203.53 Y151.677 E0.16265
G1 X204.439 Y149.825 E0.11723
G1 X205.13 Y147.881 E0.11724
M73 P1 R66
G1 X205.59 Y145.75 E0.1239
G1 X205.714 Y144.597 E0.06589
G1 X208.987 Y46.273 E5.59057
G1 X208.775 Y45.735 E0.03292
G1 X195.143 Y32.103 E1.09548
G1 X191.255 Y29.562 E0.26396
G1 X187.839 Y27.586 E0.22429
G1 X184.385 Y25.82 E0.22042
G1 X180.93 Y24.287 E0.21482
G1 X177.457 Y22.981 E0.21085
G1 X173.99 Y21.911 E0.20618
G1 X170.487 Y21.069 E0.20475
G1 X166.969 Y20.465 E0.20281
G1 X163.871 Y20.136 E0.17708
G1 X160.772 Y19.996 E0.17626
G1 X156.109 Y20.142 E0.26511
G1 X153.048 Y20.47 E0.17498
G1 X149.977 Y20.984 E0.17692
G1 X145.385 Y22.106 E0.26864
G1 X142.385 Y23.071 E0.1791
G1 X140.256 Y23.869 E0.1292
G1 X136.087 Y25.705 E0.25884
G1 X134.026 Y26.747 E0.13127
G1 X129.949 Y29.067 E0.26658
G1 X127.934 Y30.342 E0.13549
G1 X123.97 Y33.1 E0.2744
G1 X121.99 Y34.602 E0.14125
G1 X118.127 Y37.774 E0.28405
G1 X116.203 Y39.474 E0.14592
G1 X112.436 Y43.037 E0.29463
G1 X104.842 Y50.946 E0.62306
G1 X97.737 Y58.861 E0.60446
G1 X92.805 Y64.699 E0.43428
G1 X88.532 Y70.091 E0.39099
;WIPE_START
G1 F8640
M204 S1250
G1 X90.576 Y67.511 E-0.76
;WIPE_END
G1 E-0.04 F2100
G1 Z0.7 F10800
; printing object BaseStand.stl id:0 copy 0
EXCLUDE_OBJECT_START NAME=BaseStand_stl_id_0_copy_0
; acceleration to travel
M204 S1500
G1 X151.571 Y125.681
; decel to extrusion
M204 S1000
G1 X166.312 Y139.74
; end travel
G1 Z0.3
G1 E0.8 F2100
;TYPE:Internal perimeter
;WIDTH:0.42
G1 F900
G1 X158.781 Y139.74 E0.33405
G1 X158.781 Y147.271 E0.33405
G1 X166.312 Y147.271 E0.33405
G1 X166.312 Y139.8 E0.33139
G1 X165.957 Y140.095 F10800
;TYPE:External perimeter
G1 F900
G1 X159.137 Y140.095 E0.3025
G1 X159.137 Y146.915 E0.3025
G1 X165.957 Y146.915 E0.3025
G1 X165.957 Y140.155 E0.29984
;WIPE_START
M204 S1250
G1 X165.957 Y139.695 F10800
;WIPE_END
;WIPE_START
G1 F8640
G1 X162.666 Y139.789 E-0.76
;WIPE_END
G1 E-0.04 F2100
G1 Z0.7 F10800
; acceleration to travel
M204 S1500
G1 X166.382 Y123.395
; decel to extrusion
M204 S1000
G1 X167.28 Y119.433
; end travel
G1 Z0.3
G1 E0.8 F2100
;TYPE:Internal perimeter
G1 F900
G1 X168.658 Y119.538 E0.06126
G1 X170.96 Y119.776 E0.10265
G1 X172.34 Y119.957 E0.06175
G1 X173.7 Y120.161 E0.06102
G1 X175.966 Y120.569 E0.10211
G1 X177.309 Y120.851 E0.06086
G1 X178.644 Y121.16 E0.06081
G1 X179.972 Y121.501 E0.0608
G1 X181.276 Y121.866 E0.06006
G1 X182.582 Y122.265 E0.06055
G1 X183.846 Y122.686 E0.05908
G1 X185.963 Y123.469 E0.10015
G1 X187.169 Y123.966 E0.05784
G1 X188.408 Y124.513 E0.06006
G1 X189.2 Y124.886 E0.03884
G1 X190.343 Y125.461 E0.05674
G1 X191.53 Y126.101 E0.05983
G1 X192.28 Y126.534 E0.03841
G1 X193.019 Y126.982 E0.03833
G1 X194.063 Y127.657 E0.05512
G1 X194.922 Y128.25 E0.04633
G1 X195.762 Y128.872 E0.04638
G1 X196.593 Y129.53 E0.04699
G1 X197.386 Y130.204 E0.04618
G1 X198.157 Y130.911 E0.0464
G1 X198.89 Y131.633 E0.04564
G1 X199.603 Y132.4 E0.04642
G1 X200.26 Y133.168 E0.04483
G1 X200.679 Y133.698 E0.02995
G1 X201.301 Y134.555 E0.04698
G1 X201.796 Y135.31 E0.04007
G1 X202.254 Y136.084 E0.03988
G1 X202.533 Y136.604 E0.02617
G1 X202.927 Y137.425 E0.04042
G1 X203.272 Y138.244 E0.03938
G1 X203.473 Y138.796 E0.02606
G1 X203.746 Y139.678 E0.04095
G1 X203.957 Y140.53 E0.03896
G1 X204.07 Y141.11 E0.02618
G1 X204.196 Y142.037 E0.0415
G1 X204.263 Y142.906 E0.03867
G1 X204.275 Y143.5 E0.02636
G1 X204.25 Y144.317 E0.03623
G1 X204.205 Y144.849 E0.02369
G1 X204.107 Y145.662 E0.03634
G1 X203.963 Y146.456 E0.03577
G1 X203.774 Y147.23 E0.03537
G1 X203.358 Y148.535 E0.06073
G1 X203.067 Y149.272 E0.03515
G1 X202.74 Y149.991 E0.03503
G1 X202.238 Y150.957 E0.04829
G1 X201.84 Y151.632 E0.03477
G1 X201.415 Y152.289 E0.03472
G1 X200.776 Y153.185 E0.04879
G1 X200.296 Y153.799 E0.03457
G1 X199.572 Y154.646 E0.04945
G1 X199.038 Y155.224 E0.03487
G1 X198.487 Y155.783 E0.03485
G1 X197.658 Y156.562 E0.05043
G1 X196.715 Y157.38 E0.05539
G1 X195.456 Y158.37 E0.07103
G1 X194.503 Y159.054 E0.05201
G1 X193.466 Y159.746 E0.05534
G1 X192.781 Y160.175 E0.03581
G1 X191.741 Y160.789 E0.05357
G1 X190.647 Y161.392 E0.05543
G1 X189.552 Y161.951 E0.05453
G1 X188.422 Y162.492 E0.05554
G1 X186.498 Y163.326 E0.09301
G1 X185.323 Y163.789 E0.05604
G1 X184.139 Y164.223 E0.05591
G1 X182.126 Y164.889 E0.09407
G1 X180.882 Y165.258 E0.05754
G1 X179.655 Y165.595 E0.05645
