; generated by SuperSlicer 2.5.59 on 2023-05-05 at 20:48:59 UTC

; 

; external perimeters extrusion width = 0.45mm
; perimeters extrusion width = 0.45mm
; infill extrusion width = 0.45mm
; solid infill extrusion width = 0.45mm
; top infill extrusion width = 0.40mm
; first layer extrusion width = 0.42mm

; object:{"name":"Brackets_2020","id":"Brackets_2020.stl id:0 copy 0","object_center":[125.000000,105.000000,0.000000],"boundingbox_center":[125.000000,105.000000,4.808359],"boundingbox_size":[18.022766,32.976963,9.616718]}
EXCLUDE_OBJECT_DEFINE NAME=Brackets_2020_stl_id_0_copy_0 CENTER=125.000000,105.000000 POLYGON=[[115.988616,121.356960],[115.988752,105.673400],[116.011400,88.676832],[116.411544,88.511520],[133.611544,88.527224],[134.011384,88.693272],[133.988616,121.488480],[133.588624,121.488480],[115.988616,121.488328],[115.988616,121.356960]]
; plater:{"center":[125.000000,105.000000,0.000000],"boundingbox_center":[125.000000,105.000000,4.808359],"boundingbox_size":[18.022766,32.976963,9.616718]}

M73 P0 R19
;TYPE:Custom
Start : M104 S0
M140 S0
PRINT_START EXTRUDER_TEMP=220 BED_TEMP=70
M107
G21 ; set units to millimeters
G90 ; use absolute coordinates
M83 ; use relative distances for extrusion
M900 K0.05 ; Filament gcode LA 1.5
M900 K30 ; Filament gcode LA 1.0
;_TOOLCHANGE 0
M104 S220 ; set temperature
M109 S220 ; set temperature and wait for it to be reached
M107
;LAYER_CHANGE
;Z:0.3
;HEIGHT:0.3
;BEFORE_LAYER_CHANGE
G92 E0.0
;0.3
TIMELAPSE_TAKE_FRAME

G1 E-0.8 F2100
M73 P1 R19
G1 Z0.4 F10800
;AFTER_LAYER_CHANGE
;0.3
G1 Z0.7
M204 S1000
G1 X111.337 Y84.514
G1 Z0.3
G1 E0.8 F2100
;TYPE:Skirt
;WIDTH:0.52
G1 F900
G1 X111.193 Y95.256 E0.6105
G1 X111.311 Y125.31 E1.70788
M73 P2 R19
G1 X112.039 Y126.035 E0.05838
G1 X137.939 Y126.035 E1.47183
G1 X138.666 Y125.315 E0.05819
G1 X138.801 Y112.258 E0.74202
G1 X138.693 Y84.545 E1.57487
G1 X137.966 Y83.82 E0.05835
G1 X112.066 Y83.796 E1.47183
G1 X111.38 Y84.472 E0.0547
;WIPE_START
G1 F8640
M204 S1250
G1 X112.066 Y83.796 E-0.22226
G1 X114.395 Y83.798 E-0.53774
;WIPE_END
G1 E-0.04 F2100
G1 Z0.7 F10800
; acceleration to travel
M204 S1500
G1 X113.617 Y85.871
; decel to extrusion
M204 S1000
G1 X113.429 Y86.372
; end travel
G1 Z0.3
G1 E0.8 F2100
;WIDTH:0.42
G1 F900
G1 X114.211 Y85.643 E0.0474
G1 X114.992 Y85.174 E0.04046
G1 X115.781 Y84.879 E0.03733
G1 X116.582 Y84.739 E0.03605
G1 X133.363 Y84.746 E0.74435
G1 X134.331 Y84.92 E0.04359
G1 X135.278 Y85.315 E0.04556
G1 X136.012 Y85.82 E0.03947
G1 X136.602 Y86.395 E0.03656
G1 X137.249 Y87.336 E0.05066
G1 X137.589 Y88.194 E0.04092
G1 X137.753 Y89.091 E0.04045
G1 X137.749 Y103.694 E0.64775
M73 P2 R18
G1 X137.575 Y104.679 E0.04435
G1 X137.479 Y104.932 E0.012
G1 X137.549 Y105.116 E0.00874
G1 X137.735 Y106.1 E0.04442
G1 X137.748 Y109.574 E0.15409
G1 X137.842 Y110.939 E0.06066
G1 X137.874 Y112.157 E0.05407
G1 X137.849 Y112.974 E0.03624
G1 X137.749 Y114.375 E0.06234
G1 X137.742 Y114.695 E0.01416
G1 X137.739 Y120.673 E0.26517
G1 X137.564 Y121.67 E0.0449
G1 X137.168 Y122.622 E0.04572
G1 X136.664 Y123.356 E0.03947
G1 X136.091 Y123.944 E0.03643
G1 X135.3 Y124.512 E0.04322
G1 X134.336 Y124.922 E0.04645
G1 X133.301 Y125.108 E0.04663
M73 P3 R18
G1 X116.674 Y125.108 E0.73748
G1 X115.677 Y124.932 E0.04492
G1 X114.725 Y124.537 E0.04573
G1 X113.991 Y124.033 E0.03948
G1 X113.402 Y123.46 E0.03644
G1 X112.834 Y122.669 E0.04323
G1 X112.424 Y121.705 E0.04646
G1 X112.238 Y120.67 E0.04665
G1 X112.238 Y106.157 E0.64372
G1 X112.421 Y105.141 E0.04576
G1 X112.511 Y104.906 E0.01116
G1 X112.429 Y104.691 E0.01022
G1 X112.247 Y103.676 E0.04573
G1 X112.25 Y97.696 E0.26525
G1 X112.243 Y97.378 E0.01409
G1 X112.14 Y95.923 E0.06469
G1 X112.124 Y94.671 E0.05557
G1 X112.154 Y93.913 E0.03363
G1 X112.249 Y92.578 E0.05934
G1 X112.264 Y89.119 E0.15345
G1 X112.44 Y88.149 E0.04371
G1 X112.813 Y87.244 E0.04342
G1 X113.395 Y86.421 E0.0447
G1 X113.682 Y86.625 F10800
G1 F900
G1 X114.411 Y85.938 E0.04442
G1 X115.133 Y85.5 E0.03747
G1 X115.858 Y85.226 E0.03438
G1 X116.627 Y85.092 E0.03463
G1 X133.347 Y85.101 E0.74159
G1 X134.247 Y85.266 E0.0406
G1 X135.123 Y85.636 E0.04217
G1 X135.797 Y86.103 E0.03635
G1 X136.341 Y86.637 E0.03381
G1 X136.927 Y87.487 E0.04578
G1 X137.243 Y88.275 E0.03768
G1 X137.401 Y89.139 E0.03894
G1 X137.393 Y103.679 E0.64491
G1 X137.229 Y104.599 E0.04148
G1 X137.096 Y104.933 E0.01592
G1 X137.203 Y105.2 E0.01277
G1 X137.379 Y106.118 E0.04147
G1 X137.392 Y109.587 E0.15387
G1 X137.487 Y110.959 E0.061
G1 X137.518 Y112.161 E0.05333
G1 X137.494 Y112.952 E0.03509
G1 X137.394 Y114.359 E0.06256
G1 X137.386 Y114.69 E0.01472
G1 X137.384 Y120.657 E0.26465
G1 X137.217 Y121.588 E0.04194
G1 X136.847 Y122.467 E0.0423
G1 X136.381 Y123.141 E0.03635
G1 X135.848 Y123.684 E0.03373
G1 X135.109 Y124.211 E0.04027
G1 X134.216 Y124.586 E0.04296
G1 X133.286 Y124.752 E0.04194
G1 X116.69 Y124.752 E0.73608
G1 X115.759 Y124.586 E0.04196
G1 X114.88 Y124.216 E0.04231
G1 X114.206 Y123.749 E0.03636
G1 X113.662 Y123.217 E0.03374
G1 X113.135 Y122.478 E0.04027
G1 X112.76 Y121.585 E0.04297
G1 X112.593 Y120.654 E0.04195
G1 X112.594 Y106.173 E0.64231
G1 X112.767 Y105.223 E0.04284
G1 X112.893 Y104.907 E0.01509
G1 X112.776 Y104.61 E0.01417
G1 X112.603 Y103.66 E0.04281
G1 X112.606 Y97.692 E0.26473
G1 X112.598 Y97.362 E0.01465
G1 X112.496 Y95.914 E0.0644
G1 X112.479 Y94.68 E0.05472
G1 X112.509 Y93.935 E0.03305
G1 X112.604 Y92.592 E0.05975
G1 X112.617 Y89.166 E0.15195
M73 P4 R18
G1 X112.777 Y88.267 E0.0405
G1 X113.134 Y87.398 E0.04168
G1 X113.647 Y86.674 E0.03937
G1 X113.936 Y86.88 F10800
G1 F900
G1 X113.965 Y86.84 E0.00219
G1 X114.612 Y86.232 E0.03939
G1 X115.275 Y85.827 E0.03445
G1 X115.968 Y85.565 E0.03288
G1 X116.672 Y85.445 E0.03168
G1 X133.33 Y85.457 E0.73887
G1 X134.163 Y85.612 E0.03756
G1 X134.967 Y85.956 E0.03876
G1 X135.58 Y86.386 E0.03324
G1 X136.079 Y86.878 E0.03109
G1 X136.604 Y87.637 E0.04094
G1 X136.906 Y88.39 E0.03599
G1 X137.048 Y89.186 E0.03583
G1 X137.037 Y103.662 E0.64211
G1 X136.882 Y104.517 E0.03854
G1 X136.711 Y104.934 E0.01996
G1 X136.858 Y105.286 E0.0169
G1 X137.024 Y106.136 E0.03845
G1 X137.037 Y109.6 E0.15364
G1 X137.132 Y110.98 E0.06134
G1 X137.162 Y112.165 E0.0526
G1 X137.139 Y112.93 E0.03395
G1 X137.038 Y114.342 E0.06277
G1 X137.03 Y114.686 E0.01527
G1 X137.028 Y120.641 E0.26412
G1 X136.871 Y121.505 E0.03894
G1 X136.527 Y122.311 E0.03885
G1 X136.098 Y122.925 E0.03324
G1 X135.606 Y123.423 E0.03106
G1 X134.92 Y123.91 E0.03732
G1 X134.134 Y124.24 E0.03781
G1 X133.27 Y124.397 E0.03896
G1 X116.706 Y124.397 E0.73467
G1 X115.842 Y124.239 E0.03895
G1 X115.036 Y123.896 E0.03886
G1 X114.422 Y123.467 E0.03324
G1 X113.923 Y122.975 E0.03107
G1 X113.436 Y122.288 E0.03733
G1 X113.106 Y121.502 E0.03782
G1 X112.949 Y120.638 E0.03897
G1 X112.949 Y106.189 E0.64088
G1 X113.113 Y105.306 E0.03984
G1 X113.278 Y104.907 E0.01913
G1 X113.122 Y104.527 E0.01823
G1 X112.958 Y103.644 E0.03983
G1 X112.961 Y97.688 E0.26418
G1 X112.954 Y97.345 E0.01522
G1 X112.851 Y95.904 E0.0641
G1 X112.835 Y94.689 E0.05387
G1 X112.864 Y93.958 E0.03247
G1 X112.96 Y92.605 E0.06016
G1 X112.972 Y89.183 E0.15179
G1 X113.123 Y88.349 E0.03758
G1 X113.455 Y87.553 E0.03824
G1 X113.901 Y86.929 E0.03404
G1 X114.189 Y87.137 F10800
G1 F900
G1 X114.243 Y87.062 E0.0041
G1 X114.814 Y86.525 E0.03477
G1 X115.416 Y86.154 E0.0314
G1 X116.077 Y85.904 E0.03134
G1 X116.716 Y85.799 E0.02869
G1 X133.313 Y85.813 E0.73619
G1 X134.077 Y85.958 E0.03448
G1 X134.808 Y86.275 E0.03534
G1 X135.363 Y86.667 E0.03013
G1 X135.817 Y87.119 E0.02841
G1 X136.281 Y87.788 E0.03613
G1 X136.569 Y88.505 E0.03427
G1 X136.695 Y89.231 E0.03268
G1 X136.682 Y103.646 E0.63935
G1 X136.536 Y104.434 E0.03554
G1 X136.325 Y104.935 E0.02411
G1 X136.512 Y105.373 E0.02114
G1 X136.668 Y106.155 E0.03535
G1 X136.681 Y109.613 E0.15339
G1 X136.777 Y111.001 E0.06169
G1 X136.807 Y112.16 E0.05142
G1 X136.784 Y112.909 E0.03324
G1 X136.683 Y114.325 E0.06299
G1 X136.675 Y114.682 E0.01583
G1 X136.673 Y120.625 E0.26358
M73 P5 R18
G1 X136.525 Y121.42 E0.0359
G1 X136.208 Y122.153 E0.03538
G1 X135.816 Y122.707 E0.03013
G1 X135.365 Y123.162 E0.02841
G1 X134.731 Y123.608 E0.03438
G1 X134.015 Y123.904 E0.03436
G1 X133.254 Y124.041 E0.03432
G1 X116.722 Y124.041 E0.73324
G1 X115.927 Y123.893 E0.0359
G1 X115.194 Y123.577 E0.03539
G1 X114.639 Y123.185 E0.03013
G1 X114.185 Y122.734 E0.02841
G1 X113.738 Y122.1 E0.03439
G1 X113.442 Y121.384 E0.03437
G1 X113.305 Y120.622 E0.03433
G1 X113.305 Y106.206 E0.63944
G1 X113.459 Y105.391 E0.03679
G1 X113.664 Y104.907 E0.02329
G1 X113.468 Y104.443 E0.02239
G1 X113.314 Y103.628 E0.03677
G1 X113.317 Y97.684 E0.26363
G1 X113.309 Y97.329 E0.01578
G1 X113.207 Y95.884 E0.06425
G1 X113.19 Y94.699 E0.05257
G1 X113.219 Y93.98 E0.03188
G1 X113.316 Y92.618 E0.06057
G1 X113.328 Y89.2 E0.15161
G1 X113.469 Y88.433 E0.03461
G1 X113.774 Y87.71 E0.03479
G1 X114.154 Y87.186 E0.0287
G1 X114.439 Y87.393 F10800
G1 F900
G1 X114.5 Y87.309 E0.0046
G1 X115.017 Y86.817 E0.03165
G1 X115.558 Y86.48 E0.02829
G1 X116.186 Y86.243 E0.02977
G1 X116.758 Y86.152 E0.02568
G1 X117.358 Y86.151 E0.0266
G1 X133.296 Y86.168 E0.70694
G1 X133.99 Y86.303 E0.03135
G1 X134.648 Y86.593 E0.0319
G1 X135.143 Y86.948 E0.02703
G1 X135.554 Y87.359 E0.02578
G1 X135.959 Y87.941 E0.03144
G1 X136.222 Y88.586 E0.03091
G1 X136.339 Y89.247 E0.02976
G1 X136.326 Y103.629 E0.63792
G1 X136.19 Y104.348 E0.03248
G1 X135.938 Y104.936 E0.02836
G1 X136.168 Y105.462 E0.02548
G1 X136.313 Y106.174 E0.03219
G1 X136.325 Y109.626 E0.15313
G1 X136.422 Y111.021 E0.06203
G1 X136.451 Y112.154 E0.05025
G1 X136.429 Y112.887 E0.03254
G1 X136.328 Y114.308 E0.06321
G1 X136.319 Y114.678 E0.01639
G1 X136.317 Y120.608 E0.26302
G1 X136.179 Y121.334 E0.0328
G1 X135.89 Y121.993 E0.0319
G1 X135.535 Y122.488 E0.02702
G1 X135.124 Y122.899 E0.02577
G1 X134.544 Y123.305 E0.03143
G1 X133.898 Y123.568 E0.0309
G1 X133.238 Y123.685 E0.02976
G1 X116.739 Y123.685 E0.7318
G1 X116.012 Y123.548 E0.0328
G1 X115.354 Y123.259 E0.0319
G1 X114.858 Y122.904 E0.02703
G1 X114.447 Y122.493 E0.02578
G1 X114.041 Y121.912 E0.03143
G1 X113.778 Y121.267 E0.03091
G1 X113.66 Y120.606 E0.02976
G1 X113.66 Y106.223 E0.63798
G1 X113.805 Y105.477 E0.03367
G1 X114.052 Y104.908 E0.02755
G1 X113.813 Y104.356 E0.02665
G1 X113.669 Y103.611 E0.03366
G1 X113.673 Y97.68 E0.26306
G1 X113.664 Y97.312 E0.01634
G1 X113.562 Y95.874 E0.06395
G1 X113.546 Y94.708 E0.05172
G1 X113.574 Y94.003 E0.03129
G1 X113.671 Y92.632 E0.06097
G1 X113.683 Y89.218 E0.15142
M73 P6 R18
G1 X113.815 Y88.518 E0.03159
G1 X114.093 Y87.869 E0.03133
G1 X114.404 Y87.442 E0.02341
G1 X114.688 Y87.649 F10800
G1 F900
G1 X114.756 Y87.556 E0.00513
G1 X115.249 Y87.088 E0.03012
G1 X115.73 Y86.792 E0.02506
G1 X116.293 Y86.583 E0.02666
G1 X116.798 Y86.506 E0.02265
G1 X117.357 Y86.506 E0.02481
G1 X133.246 Y86.521 E0.70476
G1 X133.867 Y86.637 E0.02799
G1 X134.457 Y86.893 E0.02856
G1 X134.902 Y87.21 E0.02422
G1 X135.291 Y87.6 E0.02443
G1 X135.638 Y88.094 E0.0268
G1 X135.875 Y88.668 E0.02754
G1 X135.984 Y89.263 E0.02679
G1 X135.971 Y103.612 E0.63645
G1 X135.844 Y104.263 E0.02943
G1 X135.654 Y104.719 E0.02192
G1 X135.522 Y104.925 E0.01087
G1 X135.588 Y105.026 E0.00534
G1 X135.824 Y105.554 E0.02563
G1 X135.957 Y106.193 E0.02896
G1 X135.97 Y109.639 E0.15285
G1 X136.067 Y111.042 E0.06238
G1 X136.095 Y112.158 E0.04952
G1 X136.074 Y112.865 E0.03139
G1 X135.972 Y114.292 E0.06343
G1 X135.964 Y114.674 E0.01695
G1 X135.961 Y120.591 E0.26247
G1 X135.845 Y121.211 E0.02798
G1 X135.589 Y121.802 E0.02855
G1 X135.273 Y122.247 E0.02421
G1 X134.884 Y122.637 E0.02443
G1 X134.389 Y122.984 E0.0268
G1 X133.816 Y123.221 E0.02754
G1 X133.222 Y123.33 E0.02678
G1 X116.756 Y123.33 E0.73036
G1 X116.135 Y123.213 E0.02799
G1 X115.544 Y122.958 E0.02856
G1 X115.099 Y122.642 E0.02422
G1 X114.71 Y122.253 E0.02443
G1 X114.362 Y121.758 E0.0268
G1 X114.125 Y121.184 E0.02754
G1 X114.016 Y120.59 E0.02679
G1 X114.016 Y106.24 E0.6365
G1 X114.15 Y105.566 E0.03049
G1 X114.387 Y105.03 E0.02598
G1 X114.466 Y104.911 E0.00634
G1 X114.394 Y104.803 E0.00576
G1 X114.158 Y104.268 E0.02593
G1 X114.025 Y103.594 E0.03048
G1 X114.028 Y97.676 E0.26247
G1 X114.02 Y97.295 E0.01691
G1 X113.917 Y95.854 E0.06411
G1 X113.902 Y94.708 E0.05083
G1 X113.928 Y94.025 E0.03029
G1 X114.027 Y92.645 E0.06138
G1 X114.039 Y89.235 E0.15124
G1 X114.15 Y88.64 E0.02685
G1 X114.412 Y88.027 E0.02957
G1 X114.653 Y87.698 E0.01809
G1 X114.937 Y87.906 F10800
G1 F900
G1 X115.013 Y87.803 E0.00569
G1 X115.48 Y87.359 E0.02856
G1 X115.899 Y87.106 E0.02175
G1 X116.398 Y86.923 E0.02358
G1 X116.811 Y86.861 E0.0185
G1 X117.357 Y86.862 E0.02422
G1 X133.229 Y86.876 E0.70401
G1 X133.78 Y86.983 E0.02488
G1 X134.268 Y87.195 E0.02358
G1 X134.662 Y87.472 E0.02137
G1 X135.029 Y87.84 E0.02308
G1 X135.318 Y88.25 E0.02225
G1 X135.529 Y88.752 E0.02418
G1 X135.628 Y89.279 E0.02375
G1 X135.615 Y103.594 E0.63497
G1 X135.509 Y104.143 E0.02479
G1 X135.333 Y104.567 E0.02037
G1 X135.092 Y104.932 E0.01939
G1 X135.271 Y105.186 E0.0138
G1 X135.491 Y105.681 E0.02402
G1 X135.602 Y106.212 E0.02406
G1 X135.614 Y109.652 E0.15256
G1 X135.712 Y111.063 E0.06272
G1 X135.74 Y112.162 E0.04878
G1 X135.719 Y112.844 E0.03025
G1 X135.617 Y114.275 E0.06365
G1 X135.608 Y114.67 E0.01751
G1 X135.606 Y120.574 E0.26189
G1 X135.499 Y121.125 E0.02488
G1 X135.288 Y121.612 E0.02357
G1 X135.011 Y122.007 E0.02136
G1 X134.643 Y122.374 E0.02307
G1 X134.234 Y122.663 E0.02224
G1 X133.731 Y122.875 E0.02417
G1 X133.205 Y122.974 E0.02375
G1 X116.773 Y122.974 E0.72887
M73 P7 R18
G1 X116.222 Y122.868 E0.02488
G1 X115.734 Y122.657 E0.02358
G1 X115.34 Y122.38 E0.02137
G1 X114.972 Y122.012 E0.02308
G1 X114.683 Y121.602 E0.02225
G1 X114.471 Y121.1 E0.02418
G1 X114.372 Y120.574 E0.02375
G1 X114.372 Y106.257 E0.635
G1 X114.483 Y105.692 E0.02558
G1 X114.705 Y105.19 E0.02433
G1 X114.901 Y104.912 E0.01508
G1 X114.713 Y104.643 E0.01454
G1 X114.492 Y104.142 E0.02429
G1 X114.381 Y103.577 E0.02557
G1 X114.384 Y97.672 E0.26189
G1 X114.375 Y97.279 E0.01747
G1 X114.272 Y95.833 E0.06426
G1 X114.257 Y94.708 E0.04994
G1 X114.283 Y94.048 E0.02929
G1 X114.382 Y92.658 E0.06179
G1 X114.394 Y89.253 E0.15104
G1 X114.495 Y88.726 E0.02378
G1 X114.73 Y88.187 E0.02607
G1 X114.901 Y87.954 E0.01281
G1 X115.185 Y88.164 F10800
G1 F900
G1 X115.269 Y88.05 E0.00629
G1 X115.71 Y87.63 E0.02701
G1 X116.037 Y87.434 E0.01692
G1 X116.503 Y87.263 E0.02201
G1 X116.823 Y87.217 E0.01435
G1 X117.357 Y87.217 E0.02365
G1 X133.212 Y87.232 E0.70326
G1 X133.658 Y87.318 E0.02014
G1 X134.08 Y87.497 E0.02032
G1 X134.421 Y87.734 E0.01845
G1 X134.767 Y88.081 E0.02171
G1 X134.999 Y88.408 E0.01778
G1 X135.184 Y88.839 E0.02081
G1 X135.272 Y89.296 E0.02063
G1 X135.259 Y103.577 E0.63346
G1 X135.174 Y104.023 E0.02014
G1 X135.011 Y104.414 E0.01878
G1 X134.778 Y104.761 E0.01852
G1 X134.613 Y104.93 E0.01047
G1 X134.758 Y105.077 E0.00915
G1 X134.953 Y105.348 E0.01481
G1 X135.158 Y105.808 E0.02236
G1 X135.246 Y106.231 E0.01916
G1 X135.259 Y109.665 E0.15229
G1 X135.357 Y111.083 E0.06307
G1 X135.384 Y112.166 E0.04805
G1 X135.364 Y112.822 E0.02911
G1 X135.262 Y114.258 E0.06386
G1 X135.252 Y114.665 E0.01807
G1 X135.25 Y120.557 E0.26133
G1 X135.165 Y121.003 E0.02014
G1 X134.985 Y121.425 E0.02032
G1 X134.748 Y121.766 E0.01844
G1 X134.402 Y122.112 E0.0217
G1 X134.076 Y122.344 E0.01778
G1 X133.645 Y122.53 E0.02081
G1 X133.188 Y122.619 E0.02063
G1 X116.789 Y122.618 E0.72737
G1 X116.343 Y122.533 E0.02014
G1 X115.922 Y122.354 E0.02032
G1 X115.58 Y122.117 E0.01845
G1 X115.234 Y121.771 E0.02171
G1 X115.002 Y121.444 E0.01778
G1 X114.816 Y121.013 E0.02081
G1 X114.727 Y120.557 E0.02063
G1 X114.727 Y106.275 E0.63348
G1 X114.816 Y105.817 E0.02067
G1 X115.022 Y105.351 E0.02261
G1 X115.223 Y105.073 E0.01521
G1 X115.383 Y104.916 E0.00995
G1 X115.226 Y104.755 E0.00999
G1 X115.031 Y104.483 E0.01483
G1 X114.825 Y104.017 E0.02259
G1 X114.736 Y103.56 E0.02067
G1 X114.739 Y97.668 E0.26131
G1 X114.73 Y97.262 E0.01803
G1 X114.627 Y95.813 E0.06441
G1 X114.613 Y94.708 E0.04905
G1 X114.638 Y94.07 E0.0283
G1 X114.738 Y92.671 E0.0622
G1 X114.75 Y89.271 E0.15082
G1 X114.84 Y88.815 E0.02064
G1 X115.047 Y88.35 E0.02258
G1 X115.149 Y88.212 E0.00759
G1 X115.432 Y88.422 F10800
