; generated by SuperSlicer 2.5.59 on 2023-05-06 at 04:59:38 UTC

; 

; external perimeters extrusion width = 0.45mm
; perimeters extrusion width = 0.45mm
; infill extrusion width = 0.45mm
; solid infill extrusion width = 0.45mm
; top infill extrusion width = 0.40mm
; first layer extrusion width = 0.42mm

; external perimeters extrusion width = 0.45mm
; perimeters extrusion width = 0.45mm
; infill extrusion width = 0.45mm
; solid infill extrusion width = 0.45mm
; top infill extrusion width = 0.40mm
; first layer extrusion width = 0.42mm

; external perimeters extrusion width = 0.45mm
; perimeters extrusion width = 0.45mm
; infill extrusion width = 0.45mm
; solid infill extrusion width = 0.45mm
; top infill extrusion width = 0.40mm
; first layer extrusion width = 0.42mm

; external perimeters extrusion width = 0.45mm
; perimeters extrusion width = 0.45mm
; infill extrusion width = 0.45mm
; solid infill extrusion width = 0.45mm
; top infill extrusion width = 0.40mm
; first layer extrusion width = 0.42mm

; object:{"name":"cable_clip_vertical","id":"cable_clip_vertical.stl id:0 copy 0","object_center":[115.975000,97.056444,0.000000],"boundingbox_center":[115.975000,97.056444,2.700000],"boundingbox_size":[15.050000,12.887112,5.400000]}
EXCLUDE_OBJECT_DEFINE NAME=cable_clip_vertical_stl_id_0_copy_0 CENTER=115.975000,97.056444 POLYGON=[[108.450000,96.012888],[110.575000,92.612888],[111.174992,92.012888],[112.575000,90.612888],[119.375000,90.612888],[121.375000,92.612888],[123.500000,96.012888],[123.500000,97.910632],[123.497632,97.979352],[123.495800,98.002200],[123.490552,98.047744],[123.483232,98.093000],[123.478792,98.115496],[123.462392,98.182272],[123.441456,98.247768],[123.433480,98.269256],[123.416064,98.311672],[123.396712,98.353232],[123.386336,98.373672],[123.352416,98.433488],[122.087288,100.496056],[120.543504,103.012912],[120.538944,103.020344],[120.537400,103.022856],[120.507488,103.068680],[120.489760,103.093568],[120.486376,103.098136],[120.474864,103.113080],[120.436272,103.159976],[120.428720,103.168472],[120.402536,103.196176],[120.377320,103.221576],[120.364912,103.233280],[120.339976,103.255288],[120.313336,103.277920],[120.295488,103.292016],[120.272576,103.308816],[120.244792,103.328624],[120.221008,103.344200],[120.200816,103.356312],[120.172168,103.373296],[120.142096,103.389408],[120.096000,103.411624],[120.059400,103.427264],[120.016856,103.443328],[119.973616,103.457440],[119.935288,103.468168],[119.885440,103.479704],[119.851904,103.485968],[119.795608,103.493864],[119.767312,103.496608],[119.704856,103.499800],[119.682112,103.500000],[112.267880,103.500000],[112.245144,103.499800],[112.182688,103.496608],[112.154392,103.493864],[112.098088,103.485968],[112.064560,103.479704],[112.014712,103.468168],[111.976376,103.457440],[111.933144,103.443328],[111.890592,103.427264],[111.854000,103.411624],[111.807896,103.389408],[111.777832,103.373296],[111.749184,103.356312],[111.728992,103.344200],[111.705208,103.328624],[111.677424,103.308816],[111.654512,103.292016],[111.636656,103.277920],[111.610024,103.255288],[111.585080,103.233280],[111.572680,103.221576],[111.547464,103.196176],[111.521280,103.168472],[111.513728,103.159976],[111.475136,103.113080],[111.463624,103.098136],[111.460232,103.093568],[111.442512,103.068680],[111.412600,103.022856],[111.411056,103.020344],[111.398992,103.000688],[109.862712,100.496056],[108.597584,98.433488],[108.563656,98.373672],[108.553280,98.353232],[108.533936,98.311672],[108.516520,98.269256],[108.508544,98.247768],[108.487600,98.182272],[108.471208,98.115496],[108.466768,98.093000],[108.459440,98.047744],[108.454200,98.002200],[108.452360,97.979352],[108.450000,97.910632],[108.450000,96.012888]]
; object:{"name":"cable_clip_vertical","id":"cable_clip_vertical.stl id:1 copy 0","object_center":[115.975000,112.943556,0.000000],"boundingbox_center":[115.975000,112.943556,2.700000],"boundingbox_size":[15.050000,12.887112,5.400000]}
EXCLUDE_OBJECT_DEFINE NAME=cable_clip_vertical_stl_id_1_copy_0 CENTER=115.975000,112.943556 POLYGON=[[108.450000,111.900000],[110.575000,108.500000],[111.174992,107.900000],[112.575000,106.500000],[119.375000,106.500000],[121.375000,108.500000],[123.500000,111.900000],[123.500000,113.797744],[123.497632,113.866472],[123.495800,113.889312],[123.490552,113.934864],[123.483232,113.980120],[123.478792,114.002608],[123.462392,114.069392],[123.441456,114.134880],[123.433480,114.156376],[123.416064,114.198784],[123.396712,114.240352],[123.386336,114.260792],[123.352416,114.320600],[121.959240,116.591928],[120.538944,118.907464],[120.537400,118.909976],[120.507488,118.955792],[120.489760,118.980680],[120.486376,118.985256],[120.474864,119.000200],[120.436272,119.047088],[120.428720,119.055592],[120.402536,119.083288],[120.377320,119.108688],[120.364912,119.120392],[120.339976,119.142400],[120.313336,119.165040],[120.295488,119.179128],[120.272576,119.195928],[120.244792,119.215736],[120.221008,119.231312],[120.200816,119.243424],[120.172168,119.260416],[120.142096,119.276520],[120.096000,119.298736],[120.059400,119.314376],[120.016856,119.330448],[119.973616,119.344560],[119.935288,119.355288],[119.885440,119.366824],[119.851904,119.373088],[119.795608,119.380984],[119.767312,119.383720],[119.704856,119.386920],[119.682112,119.387112],[112.267880,119.387112],[112.245144,119.386920],[112.182688,119.383720],[112.154392,119.380984],[112.098088,119.373088],[112.064560,119.366824],[112.014712,119.355288],[111.976376,119.344560],[111.933144,119.330448],[111.890592,119.314376],[111.854000,119.298736],[111.807896,119.276520],[111.777832,119.260416],[111.749184,119.243424],[111.728992,119.231312],[111.705208,119.215736],[111.677424,119.195928],[111.654512,119.179128],[111.636656,119.165040],[111.610024,119.142400],[111.585080,119.120392],[111.572680,119.108688],[111.547464,119.083288],[111.521280,119.055592],[111.513728,119.047088],[111.475136,119.000200],[111.463624,118.985256],[111.460232,118.980680],[111.442512,118.955792],[111.412600,118.909976],[111.411056,118.907464],[111.398992,118.887800],[111.273488,118.683192],[108.597584,114.320600],[108.563656,114.260792],[108.553280,114.240352],[108.533936,114.198784],[108.516520,114.156376],[108.508544,114.134880],[108.487600,114.069392],[108.471208,114.002608],[108.466768,113.980120],[108.459440,113.934864],[108.454200,113.889312],[108.452360,113.866472],[108.450000,113.797744],[108.450000,111.900000]]
; object:{"name":"cable_clip_vertical","id":"cable_clip_vertical.stl id:2 copy 0","object_center":[134.025000,97.056444,0.000000],"boundingbox_center":[134.025000,97.056444,2.700000],"boundingbox_size":[15.050000,12.887112,5.400000]}
EXCLUDE_OBJECT_DEFINE NAME=cable_clip_vertical_stl_id_2_copy_0 CENTER=134.025000,97.056444 POLYGON=[[126.499992,96.012888],[128.625000,92.612888],[129.224992,92.012888],[130.625000,90.612888],[137.424992,90.612888],[139.424992,92.612888],[141.549984,96.012888],[141.549984,97.910632],[141.547616,97.979352],[141.545792,98.002200],[141.540544,98.047744],[141.533216,98.093000],[141.528784,98.115496],[141.512384,98.182272],[141.491456,98.247768],[141.483472,98.269256],[141.466048,98.311672],[141.446720,98.353232],[141.436320,98.373672],[141.402416,98.433488],[138.611392,102.983752],[138.587392,103.022856],[138.557488,103.068680],[138.539744,103.093568],[138.536368,103.098136],[138.524864,103.113080],[138.486272,103.159976],[138.478720,103.168472],[138.452528,103.196176],[138.427328,103.221576],[138.414912,103.233280],[138.389968,103.255288],[138.363328,103.277920],[138.345472,103.292016],[138.322576,103.308816],[138.294784,103.328624],[138.270992,103.344200],[138.250816,103.356312],[138.222176,103.373296],[138.192096,103.389408],[138.146000,103.411624],[138.109408,103.427264],[138.066848,103.443328],[138.023600,103.457440],[137.985296,103.468168],[137.935440,103.479704],[137.901904,103.485968],[137.845600,103.493864],[137.817312,103.496608],[137.754848,103.499800],[137.732112,103.500000],[130.317872,103.500000],[130.295136,103.499800],[130.232680,103.496608],[130.204392,103.493864],[130.148088,103.485968],[130.114552,103.479704],[130.064696,103.468168],[130.026384,103.457440],[129.983136,103.443328],[129.940584,103.427264],[129.903992,103.411624],[129.857896,103.389408],[129.827824,103.373296],[129.799176,103.356312],[129.778992,103.344200],[129.755200,103.328624],[129.727416,103.308816],[129.704512,103.292016],[129.686664,103.277920],[129.660016,103.255288],[129.635072,103.233280],[129.622664,103.221576],[129.597456,103.196176],[129.571272,103.168472],[129.563720,103.159976],[129.525128,103.113080],[129.513624,103.098136],[129.510240,103.093568],[129.492512,103.068680],[129.462600,103.022856],[129.461056,103.020344],[129.456512,103.012944],[129.448976,103.000664],[129.438600,102.983752],[127.912704,100.496056],[126.647576,98.433488],[126.613656,98.373672],[126.603280,98.353232],[126.583928,98.311672],[126.566512,98.269256],[126.558544,98.247768],[126.537600,98.182272],[126.521200,98.115496],[126.516760,98.093000],[126.509440,98.047744],[126.504200,98.002200],[126.502360,97.979352],[126.499992,97.910632],[126.499992,96.012888]]
; object:{"name":"cable_clip_vertical","id":"cable_clip_vertical.stl id:3 copy 0","object_center":[134.025001,112.943556,0.000000],"boundingbox_center":[134.025001,112.943556,2.700000],"boundingbox_size":[15.050000,12.887112,5.400000]}
EXCLUDE_OBJECT_DEFINE NAME=cable_clip_vertical_stl_id_3_copy_0 CENTER=134.025001,112.943556 POLYGON=[[126.499992,111.900000],[128.625000,108.500000],[129.224992,107.900000],[130.625000,106.500000],[137.424992,106.500000],[139.424992,108.500000],[141.549984,111.900000],[141.549984,113.797744],[141.547616,113.866472],[141.545792,113.889312],[141.540544,113.934864],[141.533216,113.980120],[141.528784,114.002608],[141.512384,114.069392],[141.491456,114.134880],[141.483472,114.156376],[141.466048,114.198784],[141.446720,114.240352],[141.436320,114.260792],[141.402416,114.320600],[138.611392,118.870864],[138.587392,118.909976],[138.557488,118.955792],[138.539744,118.980680],[138.536368,118.985256],[138.524864,119.000200],[138.486272,119.047088],[138.478720,119.055592],[138.452528,119.083288],[138.427328,119.108688],[138.414912,119.120392],[138.389968,119.142400],[138.363328,119.165040],[138.345472,119.179128],[138.322576,119.195928],[138.294784,119.215736],[138.270992,119.231312],[138.250816,119.243424],[138.222176,119.260416],[138.192096,119.276520],[138.146000,119.298736],[138.109408,119.314376],[138.066848,119.330448],[138.023600,119.344560],[137.985296,119.355288],[137.935440,119.366824],[137.901904,119.373088],[137.845600,119.380984],[137.817312,119.383720],[137.754848,119.386920],[137.732112,119.387112],[130.317872,119.387112],[130.295136,119.386920],[130.232680,119.383720],[130.204392,119.380984],[130.148088,119.373088],[130.114552,119.366824],[130.064696,119.355288],[130.026384,119.344560],[129.983136,119.330448],[129.940584,119.314376],[129.903992,119.298736],[129.857896,119.276520],[129.827824,119.260416],[129.799176,119.243424],[129.778992,119.231312],[129.755200,119.215736],[129.727416,119.195928],[129.704512,119.179128],[129.686664,119.165040],[129.660016,119.142400],[129.635072,119.120392],[129.622664,119.108688],[129.597456,119.083288],[129.571272,119.055592],[129.563720,119.047088],[129.525128,119.000200],[129.513624,118.985256],[129.510240,118.980680],[129.492512,118.955792],[129.462600,118.909976],[129.461056,118.907464],[129.456512,118.900064],[129.438600,118.870864],[127.912704,116.383168],[126.647576,114.320600],[126.613656,114.260792],[126.603280,114.240352],[126.583928,114.198784],[126.566512,114.156376],[126.558544,114.134880],[126.537600,114.069392],[126.521200,114.002608],[126.516760,113.980120],[126.509440,113.934864],[126.504200,113.889312],[126.502360,113.866472],[126.499992,113.797744],[126.499992,111.900000]]
; plater:{"center":[125.000000,105.000000,0.000000],"boundingbox_center":[125.000000,105.000000,2.700000],"boundingbox_size":[33.100001,28.774224,5.400000]}

M73 P0 R18
;TYPE:Custom
Start : M104 S0
M140 S0
PRINT_START EXTRUDER_TEMP=220 BED_TEMP=70
M107
G21 ; set units to millimeters
G90 ; use absolute coordinates
M83 ; use relative distances for extrusion
M900 K0.05 ; Filament gcode LA 1.5
M900 K30 ; Filament gcode LA 1.0
;_TOOLCHANGE 0
M104 S220 ; set temperature
M109 S220 ; set temperature and wait for it to be reached
M107
;LAYER_CHANGE
;Z:0.3
;HEIGHT:0.3
;BEFORE_LAYER_CHANGE
G92 E0.0
;0.3
TIMELAPSE_TAKE_FRAME

G1 E-0.8 F2100
M73 P1 R18
G1 Z0.4 F10800
;AFTER_LAYER_CHANGE
;0.3
G1 Z0.7
M204 S1000
G1 X110.46 Y91.698
G1 Z0.3
G1 E0.8 F2100
;TYPE:Skirt
;WIDTH:0.52
G1 F900
G1 X107.844 Y95.61 E0.26744
G1 X107.722 Y96.013 E0.02391
G1 X107.723 Y113.809 E1.01128
M73 P2 R18
G1 X107.83 Y114.188 E0.02242
G1 X111.023 Y119.395 E0.3471
G1 X111.286 Y119.648 E0.02074
G1 X111.651 Y119.829 E0.02314
G1 X112.12 Y119.93 E0.02729
G1 X137.655 Y119.929 E1.45104
G1 X138.446 Y119.791 E0.04566
G1 X138.977 Y119.395 E0.03764
G1 X142.17 Y114.188 E0.3471
G1 X142.277 Y113.808 E0.02242
G1 X142.278 Y96.013 E1.01128
G1 X142.156 Y95.61 E0.02391
G1 X139.631 Y91.81 E0.25927
G1 X137.94 Y90.098 E0.13676
G1 X137.425 Y89.885 E0.03166
G1 X112.575 Y89.885 E1.41216
G1 X112.06 Y90.098 E0.03166
G1 X110.503 Y91.656 E0.12518
;WIPE_START
G1 F8640
M204 S1250
G1 X112.06 Y90.098 E-0.50862
G1 X112.575 Y89.885 E-0.12862
G1 X113.107 Y89.885 E-0.12276
;WIPE_END
G1 E-0.04 F2100
G1 Z0.7 F10800
; printing object cable_clip_vertical.stl id:0 copy 0
EXCLUDE_OBJECT_START NAME=cable_clip_vertical_stl_id_0_copy_0
; acceleration to travel
M204 S1500
G1 X113.812 Y94.604
; decel to extrusion
M204 S1000
G1 X113.982 Y95.745
; end travel
G1 Z0.3
G1 E0.8 F2100
;TYPE:Internal perimeter
;WIDTH:0.42
G1 F900
G1 X114.221 Y95.481 E0.01575
G1 X114.204 Y97.278 E0.07971
G1 X117.746 Y97.278 E0.15708
G1 X117.729 Y95.481 E0.07971
G1 X118.124 Y95.918 E0.0261
G1 X118.98 Y96.779 E0.05384
G1 X122.824 Y96.779 E0.17051
G1 X119.545 Y102.125 E0.2782
G1 X118.952 Y101.938 E0.02757
G1 X117.92 Y101.708 E0.04691
G1 X116.994 Y101.586 E0.0414
G1 X116.064 Y101.54 E0.0413
G1 X115.139 Y101.571 E0.04107
G1 X114.518 Y101.634 E0.02769
G1 X114.023 Y101.71 E0.02222
G1 X112.998 Y101.938 E0.04657
G1 X112.405 Y102.125 E0.02757
G1 X109.126 Y96.779 E0.2782
G1 X112.97 Y96.779 E0.17051
G1 X113.826 Y95.918 E0.05384
G1 X113.942 Y95.789 E0.00768
;WIPE_START
G1 F8640
M204 S1250
G1 X113.826 Y95.918 E-0.03999
G1 X112.97 Y96.779 E-0.28029
G1 X111.066 Y96.779 E-0.43972
;WIPE_END
G1 E-0.04 F2100
G1 Z0.7 F10800
; acceleration to travel
M204 S1500
G1 X116.429 Y94.142
; decel to extrusion
M204 S1000
G1 X117.725 Y93.504
; end travel
G1 Z0.3
G1 E0.8 F2100
G1 F900
G1 X117.75 Y91.576 E0.08555
G1 X117.827 Y91.437 E0.00704
G1 X117.946 Y91.382 E0.0058
G1 X118.705 Y91.38 E0.03369
G1 X119.759 Y92.434 E0.06611
G1 X119.759 Y93.448 E0.04502
G1 X119.028 Y93.45 E0.03246
G1 X117.785 Y93.502 E0.05518
;WIPE_START
G1 F8640
M204 S1250
G1 X119.028 Y93.45 E-0.28725
G1 X119.759 Y93.448 E-0.16897
G1 X119.759 Y92.434 E-0.23434
G1 X119.547 Y92.221 E-0.06944
;WIPE_END
G1 E-0.04 F2100
G1 Z0.7 F10800
; acceleration to travel
M204 S1500
G1 X115.129 Y91.565
; decel to extrusion
M204 S1000
G1 X114.062 Y91.407
; end travel
G1 Z0.3
G1 E0.8 F2100
G1 F900
G1 X114.159 Y91.471 E0.00519
G1 X114.197 Y91.576 E0.00494
G1 X114.225 Y93.504 E0.08554
M73 P3 R18
G1 X112.922 Y93.45 E0.05784
G1 X112.191 Y93.448 E0.03246
G1 X112.191 Y92.434 E0.04502
G1 X113.245 Y91.38 E0.06611
G1 X113.969 Y91.382 E0.03213
G1 X114.004 Y91.391 E0.00161
;WIPE_START
G1 F8640
M204 S1250
G1 X113.969 Y91.382 E-0.00836
G1 X113.245 Y91.38 E-0.16725
G1 X112.191 Y92.434 E-0.34418
G1 X112.191 Y93.448 E-0.23434
G1 X112.216 Y93.449 E-0.00587
;WIPE_END
G1 E-0.04 F2100
G1 Z0.7 F10800
; acceleration to travel
M204 S1500
G1 X113.862 Y93.781
; decel to extrusion
M204 S1000
G1 X114.26 Y93.862
; end travel
G1 Z0.3
G1 E0.8 F2100
;TYPE:External perimeter
G1 F900
G1 X112.915 Y93.806 E0.05971
G1 X111.835 Y93.803 E0.04789
G1 X111.835 Y92.286 E0.06729
G1 X113.098 Y91.023 E0.07921
