; generated by SuperSlicer 2.5.59 on 2023-05-14 at 06:02:47 UTC

; 

; external perimeters extrusion width = 0.45mm
; perimeters extrusion width = 0.45mm
; infill extrusion width = 0.45mm
; solid infill extrusion width = 0.45mm
; top infill extrusion width = 0.40mm
; first layer extrusion width = 0.42mm

; external perimeters extrusion width = 0.45mm
; perimeters extrusion width = 0.45mm
; infill extrusion width = 0.45mm
; solid infill extrusion width = 0.45mm
; top infill extrusion width = 0.40mm
; first layer extrusion width = 0.42mm

; object:{"name":"Cow","id":"Cow.stl id:0 copy 0","object_center":[124.989843,91.460327,0.000000],"boundingbox_center":[124.989843,91.460327,2.000000],"boundingbox_size":[29.865295,19.565155,4.000000]}
EXCLUDE_OBJECT_DEFINE NAME=Cow_stl_id_0_copy_0 CENTER=124.989843,91.460327 POLYGON=[[110.057200,99.692768],[110.057392,99.647504],[110.057512,99.638752],[110.058560,99.594192],[110.058760,99.588272],[110.059104,99.578656],[110.717568,82.534776],[110.777592,82.459336],[110.837760,82.388168],[110.898072,82.321272],[110.958528,82.258712],[111.019120,82.200544],[111.079864,82.146864],[111.140760,82.097792],[111.201816,82.053392],[111.263024,82.013808],[111.324392,81.979144],[111.385944,81.949568],[111.447648,81.925152],[111.509536,81.906048],[111.571592,81.892352],[111.633840,81.884144],[111.696272,81.881456],[119.286296,81.711072],[127.857736,81.677752],[127.978384,81.682880],[128.097568,81.698624],[136.531408,82.933152],[136.674896,82.956008],[136.815888,82.984608],[136.953456,83.019000],[137.086576,83.059280],[137.214320,83.105640],[137.335840,83.158160],[137.450256,83.216992],[137.556848,83.282240],[137.654944,83.353992],[137.743984,83.432264],[137.823552,83.517104],[137.893312,83.608448],[137.953072,83.706160],[138.002864,83.810040],[138.042816,83.919816],[138.073280,84.035112],[139.793216,90.967880],[139.837312,91.176832],[139.873360,91.395248],[139.901680,91.622784],[139.922480,91.859144],[135.167056,97.557296],[135.045168,97.698320],[134.919824,97.836352],[134.791040,97.971360],[134.658816,98.103408],[134.523104,98.232408],[134.383904,98.358448],[134.241248,98.481432],[134.095064,98.601424],[133.945408,98.718432],[133.792240,98.832416],[133.635560,98.943376],[133.475400,99.051344],[133.311704,99.156328],[133.144528,99.258320],[132.973880,99.357344],[132.799712,99.453416],[132.622072,99.546528],[132.440952,99.636672],[132.256344,99.723920],[132.068328,99.808272],[131.876864,99.889752],[131.681976,99.968400],[131.483704,100.044208],[131.282040,100.117200],[131.077056,100.187456],[130.868712,100.254960],[130.657104,100.319776],[130.442200,100.381912],[130.224088,100.441424],[130.002744,100.498368],[129.778232,100.552752],[129.550600,100.604664],[129.319856,100.654072],[129.086056,100.701064],[128.849216,100.745712],[128.609408,100.788040],[128.366640,100.828080],[127.872448,100.901536],[127.366968,100.966504],[126.850576,101.023360],[126.323616,101.072584],[125.786456,101.114576],[125.239464,101.149768],[124.683008,101.178632],[124.117464,101.201552],[123.543192,101.219008],[122.960560,101.231432],[122.369936,101.239272],[121.771664,101.242904],[121.166104,101.242816],[120.553600,101.239336],[119.934456,101.232960],[119.309008,101.223984],[118.677544,101.212848],[118.040368,101.199848],[117.397736,101.185376],[116.749920,101.169696],[116.097128,101.153152],[110.717568,101.015736],[110.620824,100.945696],[110.531784,100.870928],[110.450456,100.791456],[110.376840,100.707288],[110.310944,100.618360],[110.252776,100.524672],[110.202304,100.426136],[110.159512,100.322712],[110.124320,100.214312],[110.096672,100.100848],[110.076448,99.982256],[110.063968,99.864976],[110.063352,99.857344],[110.062256,99.841504],[110.062056,99.838392],[110.060840,99.817640],[110.060600,99.813312],[110.059296,99.785872],[110.059080,99.780408],[110.057992,99.746720],[110.057832,99.740096],[110.057600,99.729048],[110.057240,99.700488],[110.057200,99.692768]]
; object:{"name":"Ufo v1","id":"Ufo v1.1 screwed  cap.stl id:1 copy 0","object_center":[126.789858,116.201917,0.000000],"boundingbox_center":[126.789858,116.201917,4.900147],"boundingbox_size":[24.244766,24.240784,9.800294]}
EXCLUDE_OBJECT_DEFINE NAME=Ufo_v1_1_screwed_cap_stl_id_1_copy_0 CENTER=126.789858,116.201917 POLYGON=[[114.667472,116.201832],[114.670656,115.908248],[114.675376,115.764176],[114.699080,115.327104],[114.738552,114.891160],[114.793728,114.456928],[114.864544,114.024976],[114.950912,113.595872],[115.052712,113.170152],[115.169816,112.748400],[115.302072,112.331128],[115.449304,111.918928],[115.611328,111.512280],[115.787920,111.111768],[115.978856,110.717880],[116.183888,110.331160],[116.402760,109.952104],[116.635160,109.581160],[116.880808,109.218856],[117.139376,108.865680],[117.410512,108.522080],[117.693896,108.188464],[117.989128,107.865280],[118.295840,107.552992],[118.613624,107.252000],[118.942064,106.962632],[118.974008,106.935016],[119.004176,106.909744],[119.280736,106.685352],[119.463264,106.543624],[119.512840,106.506760],[119.629208,106.420456],[119.987016,106.168288],[120.353680,105.929248],[120.728752,105.703568],[121.111720,105.491592],[121.502080,105.293592],[121.899344,105.109784],[122.302984,104.940472],[122.712480,104.785816],[123.127288,104.646072],[123.546864,104.521376],[123.970680,104.411912],[124.398160,104.317792],[124.828768,104.239216],[125.261936,104.176192],[125.697080,104.128888],[126.133656,104.097304],[126.571088,104.081528],[127.008816,104.081528],[127.446240,104.097336],[127.882824,104.128888],[128.317960,104.176256],[128.751128,104.239240],[129.161912,104.313400],[129.200488,104.321240],[129.609224,104.411944],[129.772952,104.451920],[129.832704,104.467696],[130.033024,104.521408],[130.452608,104.646136],[130.867400,104.785872],[131.276888,104.940536],[131.680544,105.109880],[132.077792,105.293688],[132.468168,105.491688],[132.851136,105.703656],[133.226200,105.929336],[133.592864,106.168408],[133.950656,106.420544],[134.299136,106.685472],[134.637792,106.962752],[134.966224,107.252120],[135.284000,107.553144],[135.590736,107.865432],[135.885952,108.188584],[136.169312,108.522200],[136.440464,108.865832],[136.699008,109.219040],[136.944640,109.581344],[137.177056,109.952256],[137.395904,110.331344],[137.563632,110.644088],[137.581536,110.679120],[137.600960,110.718064],[137.791872,111.111952],[137.836336,111.208176],[137.861232,111.264728],[137.968448,111.512464],[138.130464,111.919112],[138.277712,112.331312],[138.409936,112.748584],[138.527040,113.170336],[138.628848,113.596056],[138.715216,114.025160],[138.786016,114.457136],[138.841184,114.891344],[138.880640,115.327288],[138.904320,115.764360],[138.912224,116.202008],[138.904320,116.639664],[138.880608,117.076736],[138.841152,117.512680],[138.785984,117.946888],[138.715184,118.378864],[138.628816,118.807968],[138.527008,119.233688],[138.409888,119.655440],[138.277648,120.072712],[138.130400,120.484912],[137.968384,120.891560],[137.852480,121.159928],[137.836240,121.195784],[137.791776,121.292072],[137.600864,121.685928],[137.581488,121.724840],[137.552800,121.779584],[137.395808,122.072680],[137.176944,122.451736],[136.944544,122.822680],[136.698912,123.184952],[136.440336,123.538136],[136.169184,123.881760],[135.885808,124.215376],[135.590576,124.538560],[135.283872,124.850848],[134.966096,125.151840],[134.637632,125.441208],[134.298976,125.718488],[133.950504,125.983384],[133.592712,126.235520],[133.226016,126.474592],[132.850952,126.700240],[132.467984,126.912216],[132.077640,127.110248],[131.680360,127.294056],[131.276736,127.463360],[130.867216,127.618000],[130.452424,127.757768],[130.032840,127.882464],[129.810944,127.942280],[129.772800,127.951952],[129.609040,127.991928],[129.200320,128.082624],[129.139680,128.094344],[128.750944,128.164624],[128.317776,128.227616],[127.882632,128.274952],[127.446056,128.306536],[127.008616,128.322312],[126.570904,128.322312],[126.133472,128.306504],[125.696888,128.274920],[125.261736,128.227584],[124.828576,128.164600],[124.397976,128.085984],[123.970488,127.991864],[123.546688,127.882400],[123.127096,127.757704],[122.712296,127.617936],[122.302808,127.463304],[121.899168,127.293960],[121.501904,127.110152],[121.111544,126.912152],[120.728576,126.700152],[120.353520,126.474472],[119.986856,126.235432],[119.629048,125.983264],[119.494496,125.883896],[119.463144,125.860120],[119.280584,125.718368],[119.004048,125.494000],[118.941920,125.441088],[118.613480,125.151720],[118.295704,124.850696],[117.988992,124.538408],[117.693768,124.215224],[117.410392,123.881608],[117.139256,123.538008],[116.880688,123.184800],[116.635056,122.822496],[116.402656,122.451584],[116.183800,122.072496],[115.978768,121.685776],[115.787840,121.291888],[115.611256,120.891376],[115.449232,120.484728],[115.302008,120.072528],[115.169760,119.655256],[115.052664,119.233504],[114.950864,118.807784],[114.864512,118.378648],[114.793696,117.946704],[114.738528,117.512496],[114.699064,117.076552],[114.675376,116.639448],[114.671600,116.534776],[114.670648,116.495440],[114.667472,116.201832]]
; plater:{"center":[124.989843,105.000029,0.000000],"boundingbox_center":[124.989843,105.000029,4.900147],"boundingbox_size":[29.865295,46.644559,9.800294]}

M73 P0 R21
;TYPE:Custom
Start : M104 S0
M140 S0
PRINT_START EXTRUDER_TEMP=220 BED_TEMP=70
M107
G21 ; set units to millimeters
G90 ; use absolute coordinates
M83 ; use relative distances for extrusion
M900 K0.05 ; Filament gcode LA 1.5
M900 K30 ; Filament gcode LA 1.0
;_TOOLCHANGE 0
M104 S220 ; set temperature
M109 S220 ; set temperature and wait for it to be reached
M107
;LAYER_CHANGE
;Z:0.3
;HEIGHT:0.3
;BEFORE_LAYER_CHANGE
G92 E0.0
;0.3
TIMELAPSE_TAKE_FRAME

G1 E-0.8 F2100
M73 P1 R20
G1 Z0.4 F10800
;AFTER_LAYER_CHANGE
;0.3
G1 Z0.7
M204 S1000
G1 X110.162 Y82.065
G1 Z0.3
G1 E0.8 F2100
;TYPE:Skirt
;WIDTH:0.52
G1 F900
G1 X109.99 Y82.507 E0.02693
G1 X109.331 Y99.581 E0.97101
G1 X109.455 Y100.507 E0.05308
G1 X114.503 Y119.804 E1.13351
G1 X115.137 Y121.506 E0.10324
G1 X115.762 Y122.707 E0.0769
G1 X116.945 Y124.388 E0.11681
G1 X117.848 Y125.366 E0.07563
G1 X119.185 Y126.525 E0.10057
G1 X120.33 Y127.256 E0.07721
G1 X121.732 Y127.964 E0.08923
G1 X123.238 Y128.503 E0.09093
G1 X124.778 Y128.846 E0.08965
G1 X126.565 Y129.003 E0.10197
G1 X128.97 Y128.832 E0.137
G1 X130.269 Y128.541 E0.07562
G1 X132.156 Y127.827 E0.11465
G1 X133.759 Y126.942 E0.10408
M73 P2 R20
G1 X135.409 Y125.67 E0.1184
G1 X136.533 Y124.508 E0.09186
G1 X137.737 Y122.842 E0.11681
G1 X138.606 Y121.174 E0.10686
G1 X139.291 Y118.969 E0.13123
G1 X139.574 Y116.897 E0.11882
G1 X140.65 Y91.89 E1.42239
G1 X140.5 Y90.793 E0.06296
G1 X138.768 Y83.818 E0.40839
G1 X138.444 Y83.137 E0.04283
G1 X138.038 Y82.736 E0.03245
G1 X137.444 Y82.415 E0.03838
G1 X136.78 Y82.236 E0.03905
G1 X128.084 Y80.963 E0.49947
G1 X119.343 Y80.985 E0.4967
G1 X111.54 Y81.165 E0.44354
G1 X110.929 Y81.368 E0.03658
G1 X110.405 Y81.786 E0.03811
G1 X110.201 Y82.02 E0.01763
;WIPE_START
G1 F8640
M204 S1250
G1 X110.405 Y81.786 E-0.07162
G1 X110.929 Y81.368 E-0.15485
G1 X111.54 Y81.165 E-0.14862
G1 X113.207 Y81.127 E-0.38492
;WIPE_END
G1 E-0.04 F2100
G1 Z0.7 F10800
; printing object Cow.stl id:0 copy 0
EXCLUDE_OBJECT_START NAME=Cow_stl_id_0_copy_0
; acceleration to travel
M204 S1500
G1 X124.811 Y82.217
; decel to extrusion
M204 S1000
G1 X127.615 Y82.481
; end travel
G1 Z0.3
G1 E0.8 F2100
;TYPE:Internal perimeter
;WIDTH:0.42
G1 F900
G1 X127.801 Y82.449 E0.00837
G1 X127.981 Y82.448 E0.008
G1 X127.862 Y83.972 E0.0678
G1 X127.584 Y83.956 E0.01238
G1 X127.622 Y82.989 E0.04293
G1 X127.616 Y82.541 E0.01988
;WIPE_START
G1 F8640
M204 S1250
G1 X127.622 Y82.989 E-0.10351
G1 X127.584 Y83.956 E-0.22349
G1 X127.862 Y83.972 E-0.06444
G1 X127.981 Y82.448 E-0.35294
G1 X127.914 Y82.449 E-0.01562
;WIPE_END
G1 E-0.04 F2100
G1 Z0.7 F10800
; acceleration to travel
M204 S1500
G1 X127.633 Y83.828
; decel to extrusion
M204 S1000
G1 X127.565 Y84.161
; end travel
G1 Z0.3
G1 E0.8 F2100
G1 F900
G1 X127.845 Y84.187 E0.01248
G1 X127.603 Y87.284 E0.13779
G1 X127.804 Y87.676 E0.01956
G1 X127.895 Y87.921 E0.01158
G1 X128.099 Y88.749 E0.03783
G1 X128.301 Y89.972 E0.05498
G1 X128.568 Y92.097 E0.09501
G1 X129.665 Y92.237 E0.04907
G1 X130.194 Y92.264 E0.02347
G1 X130.718 Y92.244 E0.02327
G1 X131.235 Y92.169 E0.02314
G1 X131.735 Y92.037 E0.02294
G1 X132.211 Y91.852 E0.02265
G1 X132.66 Y91.62 E0.02243
G1 X133.511 Y91.077 E0.0448
G1 X133.275 Y90.028 E0.04769
G1 X131.653 Y89.825 E0.07248
G1 X131.741 Y89.634 E0.00931
G1 X131.887 Y89.405 E0.01208
G1 X132.095 Y89.21 E0.01263
G1 X132.296 Y89.106 E0.01001
G1 X132.448 Y89.056 E0.00713
G1 X133.788 Y88.819 E0.06035
G1 X133.224 Y87.686 E0.05616
G1 X133.136 Y87.414 E0.01268
G1 X133.256 Y87.281 E0.00797
G1 X133.856 Y86.867 E0.03232
G1 X134.188 Y86.591 E0.01917
G1 X134.414 Y86.341 E0.01493
G1 X134.605 Y86.061 E0.01504
G1 X134.759 Y85.748 E0.01547
G1 X134.905 Y85.29 E0.02131
G1 X135.077 Y84.362 E0.04187
G1 X135.147 Y84.092 E0.01239
G1 X135.221 Y83.932 E0.00782
G1 X135.294 Y83.844 E0.00508
G1 X135.414 Y83.766 E0.00634
G1 X135.658 Y83.695 E0.01127
G1 X136.08 Y83.666 E0.01874
G1 X136.544 Y83.712 E0.02069
G1 X136.925 Y83.818 E0.01752
G1 X137.122 Y83.919 E0.00985
G1 X137.231 Y84.015 E0.00644
G1 X137.3 Y84.129 E0.00591
G1 X137.347 Y84.44 E0.01397
G1 X137.241 Y85.713 E0.05665
G1 X137.277 Y86.291 E0.02568
G1 X137.365 Y86.621 E0.01515
G1 X137.541 Y86.999 E0.01848
G1 X137.929 Y87.547 E0.02981
G1 X138.012 Y87.693 E0.00746
G1 X138.073 Y87.923 E0.01051
G1 X138.068 Y88.172 E0.01105
G1 X138.038 Y88.354 E0.00818
G1 X137.932 Y88.743 E0.0179
G1 X137.597 Y89.663 E0.04342
G1 X138.413 Y90.123 E0.04155
G1 X138.585 Y90.257 E0.00967
G1 X138.729 Y90.413 E0.00941
G1 X139.027 Y90.874 E0.02438
G1 X136.65 Y90.341 E0.10809
G1 X136.469 Y92.332 E0.08866
G1 X136.339 Y93.146 E0.03657
G1 X136.107 Y94.11 E0.04397
G1 X135.874 Y94.814 E0.0329
G1 X135.512 Y95.643 E0.04012
G1 X135.176 Y96.243 E0.03052
G1 X134.791 Y96.801 E0.03005
G1 X134.359 Y97.314 E0.02977
G1 X133.873 Y97.787 E0.03008
G1 X133.205 Y98.31 E0.03762
G1 X132.44 Y98.777 E0.03976
G1 X131.582 Y99.182 E0.04207
G1 X130.637 Y99.525 E0.04458
G1 X129.602 Y99.807 E0.04761
G1 X128.479 Y100.033 E0.05078
G1 X127.274 Y100.206 E0.05402
G1 X126.26 Y100.309 E0.04519
G1 X124.647 Y100.414 E0.07172
G1 X122.946 Y100.466 E0.07544
G1 X121.169 Y100.477 E0.07885
G1 X118.055 Y100.434 E0.13811
G1 X111.012 Y100.257 E0.31249
G1 X110.949 Y100.185 E0.00424
G1 X110.882 Y100.054 E0.00656
G1 X110.838 Y99.873 E0.00826
G1 X110.825 Y99.605 E0.0119
G1 X110.841 Y99.395 E0.00935
G1 X110.907 Y98.971 E0.019
G1 X111.374 Y96.915 E0.09354
G1 X111.633 Y95.52 E0.06292
G1 X111.839 Y93.885 E0.0731
G1 X111.946 Y92.403 E0.06588
G1 X111.994 Y90.36 E0.09067
G1 X111.933 Y87.962 E0.10636
G1 X112.168 Y87.908 E0.01067
G1 X112.508 Y88.722 E0.03915
G1 X112.85 Y89.665 E0.04448
G1 X112.948 Y90.004 E0.01567
G1 X113.014 Y90.4 E0.01778
G1 X112.912 Y91.693 E0.05753
G1 X115.97 Y90.631 E0.14356
G1 X116.538 Y89.025 E0.07558
G1 X117.168 Y87.341 E0.07976
G1 X118.928 Y82.828 E0.21483
M73 P3 R20
G1 X119.097 Y82.609 E0.0123
G1 X119.258 Y82.488 E0.00893
G1 X119.464 Y82.528 E0.00929
G1 X119.773 Y82.697 E0.01565
G1 X118.461 Y85.491 E0.13694
G1 X117.677 Y87.301 E0.08746
G1 X117.185 Y88.596 E0.06147
G1 X117.004 Y89.158 E0.02618
G1 X116.835 Y89.807 E0.02975
G1 X116.693 Y90.65 E0.03789
G1 X118.143 Y92.583 E0.10718
G1 X119.151 Y92.19 E0.048
G1 X119.632 Y92.034 E0.02243
G1 X120.153 Y91.898 E0.02388
G1 X120.719 Y91.783 E0.02561
G1 X121.332 Y91.69 E0.02754
G1 X121.987 Y91.619 E0.02921
G1 X124.383 Y91.473 E0.10646
G1 X123.735 Y89.001 E0.11338
G1 X123.412 Y87.971 E0.04784
G1 X123.053 Y86.976 E0.04693
G1 X122.654 Y86.02 E0.04595
G1 X122.433 Y85.544 E0.02328
G1 X121.969 Y84.646 E0.04483
G1 X121.462 Y83.784 E0.04437
G1 X120.63 Y82.525 E0.06693
G1 X120.954 Y82.477 E0.01456
G1 X121.071 Y82.481 E0.00518
G1 X121.304 Y82.563 E0.01094
G1 X121.507 Y82.712 E0.01117
G1 X124.841 Y89.866 E0.3501
G1 X125.804 Y89.878 E0.0427
G1 X126.422 Y88.632 E0.06169
G1 X126.783 Y87.766 E0.0416
G1 X127.084 Y86.868 E0.04201
G1 X127.318 Y85.937 E0.04259
