; generated by SuperSlicer 2.5.59 on 2023-05-04 at 00:17:42 UTC

; 

; external perimeters extrusion width = 0.45mm
; perimeters extrusion width = 0.45mm
; infill extrusion width = 0.45mm
; solid infill extrusion width = 0.45mm
; top infill extrusion width = 0.40mm
; first layer extrusion width = 0.42mm

; object:{"name":"Filament_Card","id":"Filament_Card.stl id:0 copy 0","object_center":[125.000000,105.000000,0.000000],"boundingbox_center":[125.000000,105.000000,1.000000],"boundingbox_size":[60.000000,34.000000,2.000000]}
EXCLUDE_OBJECT_DEFINE NAME=Filament_Card_stl_id_0_copy_0 CENTER=125.000000,105.000000 POLYGON=[[95.000000,91.000000],[95.036936,90.530704],[95.146824,90.072952],[95.326984,89.638032],[95.572952,89.236648],[95.878680,88.878680],[96.236648,88.572952],[96.638032,88.326984],[97.072952,88.146824],[97.530704,88.036936],[98.000000,88.000000],[152.000000,88.000000],[152.469296,88.036936],[152.927056,88.146824],[153.361968,88.326984],[153.763344,88.572952],[154.121328,88.878680],[154.427056,89.236648],[154.673024,89.638032],[154.853168,90.072952],[154.963072,90.530704],[155.000000,91.000000],[155.000000,119.000000],[154.963072,119.469296],[154.853168,119.927048],[154.673024,120.361968],[154.427056,120.763352],[154.121328,121.121320],[153.763344,121.427048],[153.361968,121.673016],[152.927056,121.853168],[152.469296,121.963064],[152.000000,122.000000],[98.000000,122.000000],[97.530704,121.963064],[97.072952,121.853168],[96.638032,121.673016],[96.236648,121.427048],[95.878680,121.121320],[95.572952,120.763352],[95.326984,120.361968],[95.146824,119.927048],[95.036936,119.469296],[95.000000,119.000000],[95.000000,91.000000]]
; plater:{"center":[125.000000,105.000000,0.000000],"boundingbox_center":[125.000000,105.000000,1.000000],"boundingbox_size":[60.000000,34.000000,2.000000]}

M73 P0 R22
;TYPE:Custom
Start : M104 S0
M140 S0
PRINT_START EXTRUDER_TEMP=220 BED_TEMP=70
M107
G21 ; set units to millimeters
G90 ; use absolute coordinates
M83 ; use relative distances for extrusion
M900 K0.05 ; Filament gcode LA 1.5
M900 K30 ; Filament gcode LA 1.0
;_TOOLCHANGE 0
M104 S220 ; set temperature
M109 S220 ; set temperature and wait for it to be reached
M107
;LAYER_CHANGE
;Z:0.2
;HEIGHT:0.2
;BEFORE_LAYER_CHANGE
G92 E0.0
;0.2
TIMELAPSE_TAKE_FRAME

G1 E-0.8 F2100
M73 P1 R22
G1 Z0.4 F10800
;AFTER_LAYER_CHANGE
;0.2
G1 Z0.6
M204 S1000
G1 X95.399 Y88.317
G1 Z0.2
G1 E0.8 F2100
;TYPE:Skirt
;WIDTH:0.52
G1 F900
G1 X94.943 Y88.851 E0.02784
G1 X94.465 Y89.79 E0.04183
G1 X94.264 Y90.942 E0.04638
G1 X94.261 Y119 E1.11304
G1 X94.429 Y120.099 E0.04412
G1 X94.697 Y120.748 E0.02784
G1 X95.399 Y121.683 E0.04638
G1 X96.252 Y122.303 E0.04183
G1 X96.901 Y122.571 E0.02784
G1 X98 Y122.739 E0.04412
G1 X123.101 Y122.738 E0.99575
G1 X152.033 Y121.448 E1.14883
G1 X152.591 Y121.371 E0.02234
G1 X153.157 Y121.153 E0.02407
G1 X153.632 Y120.819 E0.02305
M73 P2 R22
G1 X154.126 Y120.201 E0.03137
G1 X154.343 Y119.692 E0.02197
G1 X154.446 Y119.06 E0.02541
G1 X155.736 Y103.128 E0.63406
G1 X155.739 Y91 E0.48111
G1 X155.535 Y89.79 E0.04866
G1 X155.057 Y88.851 E0.04183
G1 X154.683 Y88.399 E0.02326
G1 X154.243 Y88.011 E0.02326
G1 X153.645 Y87.645 E0.02784
G1 X153.099 Y87.429 E0.02326
G1 X152.058 Y87.264 E0.04183
G1 X98 Y87.261 E2.14444
G1 X96.901 Y87.429 E0.04412
G1 X96.252 Y87.697 E0.02784
G1 X95.448 Y88.282 E0.03945
;WIPE_START
G1 F8640
G1 X96.252 Y87.697 E-0.22963
G1 X96.901 Y87.429 E-0.16205
G1 X98 Y87.261 E-0.25679
G1 X98.483 Y87.261 E-0.11153
;WIPE_END
G1 E-0.04 F2100
G1 Z0.6 F10800
; printing object Filament_Card.stl id:0 copy 0
EXCLUDE_OBJECT_START NAME=Filament_Card_stl_id_0_copy_0
; acceleration to travel
M204 S1500
G1 X103.033 Y104.883
; decel to extrusion
M204 S800
G1 X103.913 Y108.29
; end travel
G1 Z0.2
G1 E0.8 F2100
;TYPE:Internal perimeter
;WIDTH:0.42
G1 F900
G1 X103.913 Y120.087 E0.36989
G1 X116.087 Y120.087 E0.38171
G1 X116.087 Y107.913 E0.38171
G1 X103.913 Y107.913 E0.38171
G1 X103.913 Y108.23 E0.00994
G1 X104.29 Y108.29 F10800
;TYPE:External perimeter
G1 F900
G1 X104.29 Y119.71 E0.35807
G1 X115.71 Y119.71 E0.35807
G1 X115.71 Y108.29 E0.35807
G1 X104.35 Y108.29 E0.35618
;WIPE_START
M204 S1000
G1 X103.89 Y108.29 F10800
;WIPE_END
;WIPE_START
G1 F8640
G1 X103.947 Y111.581 E-0.76
;WIPE_END
G1 E-0.04 F2100
G1 Z0.6 F10800
; acceleration to travel
M204 S1500
G1 X102.459 Y98.342
; decel to extrusion
M204 S800
G1 X102.171 Y95.782
; end travel
G1 Z0.2
M73 P3 R22
G1 E0.8 F2100
;TYPE:Internal perimeter
G1 F900
G1 X102.171 Y98.573 E0.0875
G1 X107.36 Y101.569 E0.18785
G1 X112.549 Y98.573 E0.18785
G1 X112.549 Y92.582 E0.18785
G1 X107.36 Y89.586 E0.18785
G1 X103.107 Y92.042 E0.15398
G1 X103.107 Y91.673 E0.01157
G1 X100.016 Y89.888 E0.11191
G1 X96.925 Y91.673 E0.11191
G1 X96.925 Y95.242 E0.11191
G1 X100.016 Y97.027 E0.11191
G1 X102.119 Y95.812 E0.07616
G1 X102.73 Y95.025 F10800
;TYPE:External perimeter
G1 F900
G1 X102.73 Y91.891 E0.09826
G1 X100.016 Y90.324 E0.09826
G1 X99.427 Y90.664 E0.02132
G1 X97.302 Y91.891 E0.07694
G1 X97.302 Y95.025 E0.09826
G1 X100.016 Y96.591 E0.09826
G1 X102.678 Y95.055 E0.09638
;WIPE_START
M204 S1000
G1 X103.124 Y94.955 F10800
;WIPE_END
;WIPE_START
G1 F8640
G1 X102.93 Y91.775 E-0.7356
G1 X102.839 Y91.722 E-0.0244
;WIPE_END
G1 E-0.04 F2100
G1 Z0.6 F10800
M204 S800
G1 X103.427 Y90.987
G1 Z0.2
G1 E0.8 F2100
;TYPE:Internal perimeter
G1 F900
G1 X101.831 Y90.066 E0.05776
G1 X101.891 Y89.842 E0.00726
G1 X104.961 Y89.842 E0.09626
G1 X105.021 Y90.066 E0.00726
G1 X103.478 Y90.957 E0.05585
G1 X103.427 Y91.422 F10800
G1 F900
G1 X100.423 Y89.688 E0.10873
G1 X100.483 Y89.465 E0.00726
G1 X106.368 Y89.466 E0.18451
G1 X106.428 Y89.689 E0.00726
G1 X103.478 Y91.392 E0.10678
;WIPE_START
G1 F8640
M204 S1000
G1 X106.329 Y89.746 E-0.76
;WIPE_END
M73 P3 R21
G1 E-0.04 F2100
G1 Z0.6 F10800
; acceleration to travel
M204 S1500
G1 X99.516 Y90.015
; decel to extrusion
M204 S800
G1 X98.199 Y90.067
; end travel
G1 Z0.2
G1 E0.8 F2100
G1 F900
G1 X97.098 Y90.702 E0.03986
G1 X96.934 Y90.527 E0.00753
G1 X97.102 Y90.279 E0.00939
G1 X97.227 Y90.148 E0.00568
G1 X97.456 Y89.986 E0.00879
G1 X97.618 Y89.912 E0.00558
G1 X97.804 Y89.864 E0.00603
G1 X98.126 Y89.836 E0.01013
G1 X98.181 Y90.01 E0.0057
G1 X97.492 Y89.555 F10800
G1 F900
G1 X97.74 Y89.491 E0.00804
G1 X98.049 Y89.464 E0.00973
G1 X99.549 Y89.464 E0.04702
G1 X99.609 Y89.688 E0.00726
G1 X96.464 Y91.504 E0.11385
G1 X96.464 Y91.05 E0.01424
G1 X96.491 Y90.74 E0.00974
G1 X96.555 Y90.492 E0.00804
G1 X96.663 Y90.255 E0.00815
G1 X96.808 Y90.041 E0.00812
G1 X96.98 Y89.861 E0.0078
G1 X97.267 Y89.657 E0.01105
G1 X97.437 Y89.58 E0.00585
;WIPE_START
G1 F8640
M204 S1000
G1 X97.267 Y89.657 E-0.04309
G1 X96.98 Y89.861 E-0.08136
G1 X96.808 Y90.041 E-0.05741
G1 X96.663 Y90.255 E-0.0598
G1 X96.555 Y90.492 E-0.06004
G1 X96.491 Y90.74 E-0.05923
G1 X96.464 Y91.05 E-0.07171
G1 X96.464 Y91.504 E-0.10485
G1 X97.299 Y91.022 E-0.22252
;WIPE_END
G1 E-0.04 F2100
G1 Z0.6 F10800
; acceleration to travel
M204 S1500
G1 X102.022 Y113.5
; decel to extrusion
M204 S800
G1 X102.935 Y117.846
; end travel
G1 Z0.2
G1 E0.8 F2100
G1 F900
G1 X103.159 Y117.906 E0.00726
G1 X103.159 Y120.159 E0.07063
G1 X100.913 Y120.159 E0.07042
G1 X100.852 Y119.937 E0.00721
G1 X101.535 Y119.531 E0.02491
G1 X102.086 Y119.059 E0.02276
G1 X102.568 Y118.482 E0.02358
G1 X102.905 Y117.898 E0.02112
;WIPE_START
G1 F8640
M204 S1000
G1 X102.568 Y118.482 E-0.15553
G1 X102.086 Y119.059 E-0.17368
G1 X101.535 Y119.531 E-0.1676
G1 X100.852 Y119.937 E-0.18348
G1 X100.913 Y120.159 E-0.05308
G1 X101.028 Y120.159 E-0.02664
;WIPE_END
G1 E-0.04 F2100
G1 Z0.6 F10800
; acceleration to travel
M204 S1500
G1 X102.621 Y115.153
; decel to extrusion
M204 S800
G1 X102.929 Y114.185
; end travel
G1 Z0.2
G1 E0.8 F2100
G1 F900
G1 X102.653 Y113.653 E0.01878
G1 X102.297 Y113.168 E0.01887
G1 X101.778 Y112.657 E0.02283
G1 X101.227 Y112.273 E0.02105
G1 X96.841 Y109.741 E0.1588
G1 X96.841 Y96.065 E0.4288
G1 X100.016 Y97.898 E0.11494
G1 X101.417 Y97.089 E0.05073
G1 X101.417 Y99.009 E0.0602
G1 X107.36 Y102.44 E0.21515
G1 X113.303 Y99.009 E0.21515
G1 X113.303 Y92.147 E0.21515
G1 X109.7 Y90.067 E0.13042
G1 X109.76 Y89.843 E0.00726
G1 X152.05 Y89.85 E1.32596
M73 P4 R21
G1 X152.192 Y89.863 E0.00449
G1 X152.383 Y89.913 E0.00616
G1 X152.56 Y89.993 E0.00611
G1 X152.721 Y90.102 E0.0061
G1 X152.852 Y90.227 E0.00567
G1 X153.014 Y90.456 E0.00879
G1 X153.087 Y90.617 E0.00555
G1 X153.137 Y90.806 E0.00611
G1 X153.159 Y91.066 E0.00817
G1 X153.159 Y101.84 E0.33783
G1 X153.027 Y101.937 E0.00513
G1 X152.642 Y102.291 E0.01638
G1 X152.308 Y102.68 E0.0161
G1 X152.033 Y103.091 E0.01549
G1 X151.799 Y103.543 E0.01598
G1 X151.626 Y104.037 E0.0164
G1 X151.53 Y104.522 E0.0155
G1 X151.503 Y104.847 E0.01024
G1 X151.51 Y118.51 E0.42838
G1 X124.817 Y118.503 E0.83694
G1 X124.322 Y118.564 E0.01563
G1 X123.772 Y118.712 E0.01785
G1 X123.297 Y118.915 E0.01622
G1 X122.852 Y119.179 E0.01622
G1 X122.303 Y119.629 E0.02226
G1 X121.937 Y120.027 E0.01694
G1 X121.84 Y120.159 E0.00513
G1 X116.841 Y120.159 E0.15674
G1 X116.841 Y107.159 E0.40761
G1 X103.159 Y107.159 E0.429
G1 X103.159 Y114.129 E0.21855
G1 X102.987 Y114.171 E0.00555
;WIPE_START
G1 F8640
M204 S1000
G1 X103.159 Y114.129 E-0.04087
G1 X103.159 Y111.015 E-0.71913
;WIPE_END
G1 E-0.04 F2100
G1 Z0.6 F10800
; acceleration to travel
M204 S1500
G1 X102.983 Y114.911
; decel to extrusion
M204 S800
G1 X102.949 Y115.664
; end travel
G1 Z0.2
G1 E0.8 F2100
G1 F900
G1 X102.855 Y115.069 E0.01889
G1 X102.691 Y114.547 E0.01714
G1 X102.332 Y113.853 E0.02451
G1 X102.01 Y113.416 E0.01701
G1 X101.536 Y112.948 E0.02088
G1 X101.025 Y112.592 E0.01954
G1 X96.464 Y109.959 E0.16512
G1 X96.464 Y95.412 E0.45611
G1 X100.016 Y97.462 E0.12859
G1 X101.794 Y96.436 E0.06439
G1 X101.794 Y98.791 E0.07385
G1 X107.36 Y102.004 E0.2015
G1 X112.926 Y98.791 E0.2015
G1 X112.926 Y92.364 E0.2015
G1 X108.293 Y89.69 E0.16773
G1 X108.353 Y89.466 E0.00726
G1 X152.066 Y89.473 E1.37061
M73 P5 R21
G1 X152.257 Y89.49 E0.006
G1 X152.509 Y89.556 E0.00817
G1 X152.745 Y89.663 E0.00812
G1 X152.959 Y89.808 E0.00812
G1 X153.139 Y89.98 E0.00779
G1 X153.343 Y90.267 E0.01105
G1 X153.444 Y90.491 E0.0077
G1 X153.51 Y90.742 E0.00812
G1 X153.536 Y91.05 E0.00968
G1 X153.536 Y102.031 E0.34433
G1 X153.266 Y102.229 E0.01047
G1 X152.914 Y102.553 E0.01503
G1 X152.608 Y102.909 E0.01469
G1 X152.358 Y103.283 E0.01411
G1 X152.146 Y103.693 E0.01449
G1 X151.99 Y104.136 E0.01472
G1 X151.904 Y104.574 E0.01399
G1 X151.88 Y104.863 E0.00909
G1 X151.887 Y118.887 E0.43972
G1 X124.84 Y118.88 E0.84805
G1 X124.394 Y118.935 E0.01407
G1 X123.896 Y119.069 E0.01618
G1 X123.468 Y119.252 E0.0146
G1 X123.069 Y119.489 E0.01455
G1 X122.562 Y119.904 E0.02054
G1 X122.229 Y120.266 E0.01545
G1 X122.031 Y120.536 E0.01047
G1 X116.464 Y120.536 E0.17456
G1 X116.464 Y107.536 E0.40761
G1 X103.536 Y107.536 E0.40536
G1 X103.536 Y120.536 E0.40761
G1 X98.063 Y120.536 E0.17159
G1 X97.659 Y120.49 E0.01275
G1 X97.495 Y120.446 E0.00534
G1 X97.255 Y120.337 E0.00825
G1 X97.041 Y120.192 E0.00812
G1 X96.861 Y120.02 E0.00779
G1 X96.657 Y119.733 E0.01105
G1 X96.556 Y119.509 E0.0077
G1 X96.453 Y119.113 E0.01282
G1 X97.064 Y119.459 E0.02202
G1 X97.625 Y119.723 E0.01944
G1 X98.274 Y119.901 E0.0211
G1 X98.944 Y119.967 E0.0211
G1 X99.602 Y119.92 E0.02071
G1 X100.121 Y119.804 E0.01666
G1 X100.736 Y119.567 E0.02066
G1 X101.314 Y119.223 E0.0211
G1 X101.819 Y118.792 E0.02083
G1 X101.961 Y118.627 E0.00681
G1 X102.257 Y118.266 E0.01464
G1 X102.593 Y117.686 E0.02102
G1 X102.826 Y117.054 E0.0211
G1 X102.948 Y116.393 E0.0211
G1 X102.957 Y115.723 E0.02099
G1 X102.579 Y115.775 F10800
G1 F900
G1 X102.58 Y115.747 E0.00089
G1 X102.486 Y115.155 E0.01879
G1 X102.341 Y114.691 E0.01524
G1 X102.01 Y114.053 E0.02255
G1 X101.724 Y113.663 E0.01515
G1 X101.294 Y113.239 E0.01894
G1 X100.823 Y112.91 E0.01803
G1 X96.087 Y110.176 E0.17145
G1 X96.087 Y91.033 E0.60021
G1 X96.118 Y90.676 E0.01125
G1 X96.199 Y90.366 E0.01006
G1 X96.332 Y90.07 E0.01016
G1 X96.514 Y89.803 E0.01014
G1 X96.733 Y89.574 E0.00991
G1 X97.078 Y89.329 E0.0133
G1 X97.366 Y89.199 E0.00988
G1 X97.676 Y89.118 E0.01006
G1 X98.033 Y89.087 E0.01125
G1 X99.489 Y89.087 E0.04565
G1 X152.083 Y89.096 E1.64903
M73 P6 R21
G1 X152.321 Y89.117 E0.00751
G1 X152.635 Y89.199 E0.01017
G1 X152.93 Y89.332 E0.01014
G1 X153.197 Y89.514 E0.01014
G1 X153.426 Y89.733 E0.00991
G1 X153.671 Y90.078 E0.01331
G1 X153.801 Y90.365 E0.00985
G1 X153.883 Y90.678 E0.01014
G1 X153.913 Y91.033 E0.01119
G1 X153.913 Y102.223 E0.35083
G1 X153.506 Y102.521 E0.01581
G1 X153.185 Y102.816 E0.01367
G1 X152.909 Y103.137 E0.01328
G1 X152.683 Y103.475 E0.01274
G1 X152.493 Y103.843 E0.013
G1 X152.355 Y104.236 E0.01305
G1 X152.278 Y104.626 E0.01248
G1 X152.257 Y104.879 E0.00794
G1 X152.264 Y118.952 E0.44126
G1 X152.229 Y119.118 E0.00533
G1 X152.105 Y119.234 E0.00532
G1 X151.952 Y119.264 E0.00488
G1 X124.863 Y119.257 E0.84936
G1 X124.467 Y119.306 E0.01252
G1 X124.02 Y119.426 E0.01451
G1 X123.639 Y119.589 E0.01298
G1 X123.286 Y119.798 E0.01288
G1 X122.822 Y120.179 E0.01881
G1 X122.521 Y120.506 E0.01396
G1 X122.223 Y120.913 E0.01581
G1 X98.042 Y120.913 E0.75817
G1 X97.589 Y120.861 E0.0143
G1 X97.367 Y120.802 E0.00719
G1 X97.07 Y120.668 E0.01022
G1 X96.803 Y120.486 E0.01014
G1 X96.574 Y120.267 E0.00991
G1 X96.329 Y119.922 E0.01331
G1 X96.199 Y119.635 E0.00985
G1 X96.117 Y119.322 E0.01014
G1 X96.087 Y118.967 E0.01119
G1 X96.087 Y118.473 E0.01547
G1 X97.237 Y119.124 E0.04142
G1 X97.756 Y119.367 E0.01798
G1 X98.343 Y119.529 E0.01909
G1 X98.949 Y119.589 E0.01908
G1 X99.547 Y119.546 E0.01882
G1 X100.011 Y119.442 E0.01491
G1 X100.571 Y119.227 E0.01878
G1 X101.094 Y118.916 E0.01908
G1 X101.552 Y118.524 E0.0189
G1 X101.672 Y118.384 E0.00578
G1 X101.947 Y118.05 E0.01355
G1 X102.25 Y117.525 E0.01903
G1 X102.461 Y116.954 E0.01909
G1 X102.572 Y116.355 E0.01908
G1 X102.579 Y115.835 E0.01631
G1 X102.202 Y115.774 F10800
;TYPE:External perimeter
G1 F900
G1 X102.118 Y115.241 E0.01691
G1 X101.991 Y114.835 E0.01333
G1 X101.689 Y114.252 E0.02059
G1 X101.438 Y113.911 E0.01329
G1 X101.052 Y113.53 E0.01699
G1 X100.62 Y113.229 E0.01652
G1 X95.878 Y110.491 E0.17168
G1 X95.752 Y110.37 E0.00549
G1 X95.71 Y110.2 E0.00549
G1 X95.71 Y91.017 E0.60144
G1 X95.745 Y90.612 E0.01276
G1 X95.842 Y90.239 E0.01207
G1 X96.002 Y89.885 E0.01218
G1 X96.219 Y89.565 E0.01215
G1 X96.485 Y89.288 E0.01203
G1 X96.89 Y89 E0.01556
G1 X97.239 Y88.842 E0.01203
G1 X97.612 Y88.745 E0.01207
G1 X98.017 Y88.71 E0.01276
G1 X99.489 Y88.71 E0.04615
G1 X152.099 Y88.719 E1.64955
M73 P7 R21
G1 X152.386 Y88.744 E0.00902
G1 X152.761 Y88.842 E0.01217
G1 X153.115 Y89.002 E0.01215
G1 X153.435 Y89.219 E0.01215
G1 X153.712 Y89.485 E0.01203
G1 X154 Y89.89 E0.01556
G1 X154.158 Y90.239 E0.01201
G1 X154.256 Y90.614 E0.01216
G1 X154.29 Y91.017 E0.01271
G1 X154.29 Y102.446 E0.35834
G1 X154.074 Y102.572 E0.00785
G1 X153.746 Y102.812 E0.01273
G1 X153.457 Y103.078 E0.01232
G1 X153.21 Y103.366 E0.01188
G1 X153.009 Y103.667 E0.01136
G1 X152.84 Y103.993 E0.01151
G1 X152.72 Y104.335 E0.01137
G1 X152.652 Y104.678 E0.01097
G1 X152.634 Y104.894 E0.00679
G1 X152.641 Y118.975 E0.4415
G1 X152.62 Y119.153 E0.00562
G1 X152.564 Y119.297 E0.00483
G1 X152.475 Y119.424 E0.00486
G1 X152.292 Y119.566 E0.00728
G1 X152.153 Y119.62 E0.00467
G1 X151.975 Y119.641 E0.00562
G1 X124.886 Y119.634 E0.84936
G1 X124.539 Y119.677 E0.01097
G1 X124.143 Y119.783 E0.01284
G1 X123.81 Y119.926 E0.01136
G1 X123.503 Y120.108 E0.01121
G1 X123.081 Y120.453 E0.01708
G1 X122.812 Y120.746 E0.01246
G1 X122.572 Y121.074 E0.01273
G1 X122.446 Y121.29 E0.00785
G1 X98.02 Y121.29 E0.76585
G1 X97.518 Y121.233 E0.01585
G1 X97.24 Y121.158 E0.00903
G1 X96.885 Y120.998 E0.0122
G1 X96.565 Y120.781 E0.01215
G1 X96.288 Y120.515 E0.01203
G1 X96 Y120.11 E0.01556
G1 X95.842 Y119.761 E0.01201
G1 X95.744 Y119.386 E0.01216
G1 X95.71 Y118.983 E0.01271
G1 X95.71 Y118.336 E0.02026
G1 X95.723 Y118.235 E0.00319
G1 X95.797 Y118.107 E0.00465
G1 X95.926 Y118.033 E0.00465
G1 X96.074 Y118.033 E0.00465
G1 X97.41 Y118.789 E0.04813
G1 X97.887 Y119.012 E0.01652
G1 X98.412 Y119.157 E0.01707
G1 X98.954 Y119.21 E0.01707
G1 X99.492 Y119.172 E0.01693
G1 X99.902 Y119.08 E0.01316
