; generated by SuperSlicer 2.5.59 on 2023-05-13 at 16:45:29 UTC

; 

; external perimeters extrusion width = 0.45mm
; perimeters extrusion width = 0.45mm
; infill extrusion width = 0.45mm
; solid infill extrusion width = 0.45mm
; top infill extrusion width = 0.40mm
; first layer extrusion width = 0.42mm

; external perimeters extrusion width = 0.45mm
; perimeters extrusion width = 0.45mm
; infill extrusion width = 0.45mm
; solid infill extrusion width = 0.45mm
; top infill extrusion width = 0.40mm
; first layer extrusion width = 0.42mm

; object:{"name":"LittleMan","id":"LittleMan.stl id:0 copy 0","object_center":[155.406987,105.472447,0.000000],"boundingbox_center":[155.406987,105.472447,2.000000],"boundingbox_size":[15.622841,50.130310,4.000000]}
EXCLUDE_OBJECT_DEFINE NAME=LittleMan_stl_id_0_copy_0 CENTER=155.406987,105.472447 POLYGON=[[147.595584,121.502080],[147.872464,98.299984],[147.874560,98.163536],[147.877312,98.031152],[147.880736,97.902760],[147.884832,97.778376],[147.889584,97.657936],[147.895008,97.541424],[147.901088,97.428776],[147.907840,97.320000],[147.915248,97.215008],[147.923344,97.113760],[147.932080,97.016224],[147.941504,96.922328],[147.951568,96.832008],[147.962304,96.745200],[147.973728,96.661824],[150.334016,80.407296],[153.334016,80.407296],[162.561440,88.302760],[162.591200,88.330256],[162.620000,88.360968],[162.647792,88.394872],[162.674592,88.431864],[162.700400,88.471872],[162.725184,88.514808],[162.748960,88.560584],[162.771712,88.609136],[162.793456,88.660344],[162.814160,88.714120],[162.833824,88.770376],[162.852448,88.828984],[162.870016,88.889872],[162.886544,88.952904],[162.902000,89.017984],[162.929680,89.153816],[162.953072,89.296456],[162.972128,89.444952],[162.986784,89.598368],[162.997056,89.755696],[163.002896,89.916008],[163.004336,90.078304],[163.218416,120.009208],[163.216720,120.051304],[163.212880,120.092352],[163.206944,120.132376],[163.198944,120.171408],[163.177184,120.246728],[162.463616,122.294152],[162.445616,122.340840],[162.425664,122.386088],[162.403616,122.429784],[162.379344,122.471824],[162.352784,122.512096],[162.323824,122.550488],[162.292368,122.586952],[162.258416,122.621392],[162.221856,122.653752],[153.038288,130.387448],[153.035744,130.389528],[153.020416,130.401704],[153.006560,130.412232],[153.002704,130.415072],[152.974464,130.434816],[152.968384,130.438816],[152.964272,130.441464],[152.942032,130.455200],[152.932816,130.460544],[152.909264,130.473360],[152.907072,130.474488],[152.895968,130.480008],[152.876144,130.489256],[152.857856,130.497040],[152.848832,130.500608],[152.842720,130.502928],[152.818880,130.511232],[152.808928,130.514344],[152.789600,130.519840],[152.779280,130.522464],[152.774848,130.523496],[152.740432,130.530392],[152.739072,130.530608],[152.729392,130.532104],[152.705712,130.535000],[152.698208,130.535672],[152.670688,130.537320],[152.668208,130.537384],[152.656736,130.537600],[152.635344,130.537352],[152.615120,130.536376],[152.606112,130.535672],[152.599696,130.535128],[152.573952,130.532104],[152.563744,130.530576],[152.543056,130.526976],[152.533232,130.524992],[152.527504,130.523776],[152.493008,130.515232],[152.490960,130.514648],[152.479120,130.511232],[152.453360,130.503024],[152.417008,130.489592],[152.414272,130.488496],[152.379584,130.473664],[152.341872,130.455416],[152.303856,130.434904],[151.753008,130.128904],[151.639008,130.062344],[151.527504,129.990664],[151.418464,129.913880],[151.372432,129.879336],[151.311984,129.831968],[151.301488,129.823520],[151.288032,129.812560],[151.232304,129.765960],[151.208064,129.745056],[151.205248,129.742584],[151.164784,129.706664],[151.124144,129.669432],[151.106752,129.653168],[151.098864,129.645688],[151.044704,129.593232],[151.034432,129.583040],[151.008080,129.556520],[150.971408,129.518736],[150.966944,129.514072],[150.912016,129.455352],[150.890880,129.432128],[150.849152,129.385256],[150.818608,129.350008],[150.816496,129.347536],[150.743776,129.260560],[150.731392,129.245392],[150.727808,129.240904],[150.672720,129.171480],[150.639584,129.128600],[150.617312,129.099368],[150.603264,129.080568],[150.553888,129.013640],[150.506160,128.947296],[150.470688,128.896696],[150.469184,128.894528],[150.397248,128.789368],[150.389888,128.778352],[150.341280,128.705016],[150.311456,128.659336],[150.289744,128.625736],[150.235328,128.540280],[150.219248,128.514768],[150.182896,128.456512],[150.161376,128.421752],[150.129152,128.369328],[150.102880,128.326232],[150.089600,128.304384],[150.074720,128.279816],[150.019312,128.187680],[149.991824,128.141632],[149.962624,128.092496],[149.952208,128.074952],[149.904320,127.993920],[149.886464,127.963648],[149.822624,127.854992],[149.424816,127.176688],[149.375200,127.070992],[149.330896,126.973840],[149.325136,126.961024],[149.274592,126.846776],[149.239680,126.765752],[149.223632,126.728184],[149.172176,126.605184],[149.151472,126.554424],[149.120272,126.477728],[149.067872,126.345696],[149.014992,126.209008],[148.961616,126.067576],[148.907712,125.921288],[148.853280,125.770040],[148.798336,125.613792],[148.765200,125.517496],[148.742864,125.452432],[148.732416,125.421472],[148.700864,125.327816],[148.686832,125.285944],[148.670528,125.236792],[148.641504,125.148632],[148.630272,125.114328],[148.613776,125.063592],[148.587392,124.981896],[148.573184,124.937600],[148.537296,124.824760],[148.515536,124.755824],[148.487248,124.665288],[148.457392,124.569088],[148.437136,124.503104],[148.398720,124.377496],[148.339568,124.181176],[148.279904,123.980280],[148.219808,123.774912],[148.159248,123.565208],[148.098224,123.351344],[148.036768,123.133384],[147.974912,122.911504],[147.945744,122.805808],[147.912656,122.685768],[147.850000,122.456280],[147.807808,122.300392],[147.786976,122.223120],[147.763424,122.135432],[147.723536,121.986336],[147.677424,121.812784],[147.659760,121.745992],[147.635952,121.655768],[147.595584,121.502080]]
; object:{"name":"Ufo v1","id":"Ufo v1.1 with threaded top.stl id:1 copy 0","object_center":[115.785377,104.999998,0.000000],"boundingbox_center":[115.785377,104.999998,8.289406],"boundingbox_size":[58.007736,58.008560,16.578813]}
EXCLUDE_OBJECT_DEFINE NAME=Ufo_v1_1_with_threaded_top_stl_id_1_copy_0 CENTER=115.785377,104.999998 POLYGON=[[86.781512,104.999824],[86.785800,104.465952],[86.800536,103.932288],[86.825104,103.398936],[86.859464,102.866160],[86.903656,102.334056],[86.957608,101.802928],[87.021344,101.272808],[87.094816,100.743992],[87.178024,100.216592],[87.270904,99.690800],[87.373456,99.166880],[87.485624,98.644968],[87.607408,98.125072],[87.738736,97.607488],[87.879544,97.092536],[88.029832,96.580208],[88.189496,96.070776],[88.358536,95.564312],[88.536848,95.061072],[88.724368,94.561288],[88.921128,94.064888],[89.126968,93.572216],[89.341824,93.083472],[89.565640,92.598760],[89.798352,92.118232],[90.039856,91.642096],[90.290104,91.170448],[90.548936,90.703560],[90.816392,90.241400],[91.092256,89.784312],[91.376528,89.332344],[91.668944,88.885872],[91.969760,88.444528],[92.278504,88.008984],[92.595248,87.579168],[92.919832,87.155248],[93.252168,86.737376],[93.592152,86.325688],[93.939624,85.920384],[94.294552,85.521464],[94.296584,85.519200],[94.656696,85.129216],[95.026064,84.743632],[95.402392,84.365000],[95.785672,83.993280],[96.175704,83.628728],[96.572400,83.271400],[96.975616,82.921424],[97.385176,82.578944],[97.800992,82.244040],[98.223280,81.916576],[98.650760,81.597512],[99.084440,81.286064],[99.523760,80.982672],[99.968632,80.687384],[100.418776,80.400400],[100.874264,80.121648],[101.334624,79.851464],[101.800112,79.589656],[102.270064,79.336600],[102.744872,79.092112],[103.223816,78.856512],[103.707272,78.629680],[104.194584,78.411872],[104.685880,78.203056],[105.181080,78.003256],[105.679808,77.812632],[106.181928,77.631232],[106.687192,77.459144],[107.195800,77.296288],[107.707168,77.142888],[108.221312,76.998912],[108.738040,76.864400],[109.257064,76.739448],[109.778472,76.624064],[110.301680,76.518320],[110.827040,76.422160],[111.353728,76.335760],[111.882328,76.259008],[112.411776,76.192056],[112.942840,76.134816],[113.474400,76.087408],[114.007168,76.049752],[114.540144,76.021936],[115.073880,76.003912],[115.607592,75.995720],[116.141568,75.997368],[116.675264,76.008824],[117.208600,76.030112],[117.570512,76.050152],[117.741744,76.061224],[118.274096,76.102136],[118.805560,76.152840],[119.336072,76.213312],[119.865296,76.283528],[120.393280,76.363520],[120.919496,76.453160],[121.444248,76.552528],[121.966736,76.661480],[122.487536,76.780096],[123.005616,76.908184],[123.522016,77.046000],[124.034696,77.192968],[124.545368,77.349584],[125.052600,77.515448],[125.557296,77.690800],[126.057936,77.875160],[126.555864,78.068992],[127.049360,78.271648],[127.539536,78.483528],[128.025528,78.704336],[128.507520,78.934120],[128.985096,79.172680],[129.458296,79.420048],[129.926776,79.676016],[130.390592,79.940648],[130.849304,80.213680],[131.303120,80.495248],[131.751408,80.784920],[132.194608,81.083048],[132.631864,81.388984],[133.063840,81.703256],[133.489504,82.025064],[133.909640,82.355016],[134.323136,82.692272],[134.730816,83.037440],[135.131648,83.389688],[135.526320,83.749608],[135.913952,84.116416],[136.295056,84.490560],[136.710112,84.914192],[137.116512,85.346320],[137.514048,85.786752],[137.902400,86.235088],[138.281536,86.691352],[138.651344,87.155344],[139.011440,87.626624],[139.361888,88.105296],[139.505008,88.306800],[139.702608,88.591160],[140.033072,89.083568],[140.353520,89.582768],[140.663840,90.088720],[140.963440,90.600384],[141.252672,91.118328],[141.531376,91.642344],[141.799040,92.171392],[142.055952,92.706120],[142.301984,93.246160],[142.536736,93.790720],[142.760384,94.340160],[142.972800,94.894200],[143.173872,95.452552],[143.363280,96.014352],[143.541328,96.580328],[143.707680,97.149632],[143.862384,97.722360],[144.005408,98.298288],[144.136512,98.876624],[144.255808,99.457712],[144.363248,100.041480],[144.458640,100.626656],[144.479248,100.764048],[144.542064,101.213968],[144.613568,101.803656],[144.672832,102.393136],[144.720112,102.984472],[144.755296,103.576824],[144.778320,104.169440],[144.789248,104.762552],[144.788048,105.354136],[144.774672,105.948864],[144.749200,106.541512],[144.711632,107.133648],[144.661936,107.724712],[144.600176,108.314704],[144.526320,108.903512],[144.440496,109.490304],[144.342672,110.075384],[144.232832,110.658696],[144.111216,111.238992],[143.977696,111.816992],[143.832272,112.392528],[143.675328,112.964184],[143.638784,113.091072],[143.506608,113.532904],[143.326192,114.098400],[143.134464,114.659432],[142.931184,115.216744],[142.716464,115.770024],[142.490656,116.318304],[142.253584,116.862096],[142.005376,117.401104],[141.746352,117.934576],[141.476384,118.462808],[141.195568,118.985600],[140.904400,119.502056],[140.602480,120.012856],[140.290080,120.517528],[139.967760,121.015176],[139.635168,121.506416],[139.292336,121.991064],[138.940192,122.467904],[138.578096,122.937816],[138.206192,123.400520],[137.825456,123.854896],[137.435216,124.301704],[137.035712,124.740704],[136.627776,125.170904],[136.210880,125.592968],[135.785264,126.006536],[135.351632,126.411016],[134.909648,126.806712],[134.459504,127.193400],[134.001864,127.570536],[133.536456,127.938360],[133.063352,128.296784],[132.583544,128.645080],[132.096432,128.983704],[131.602144,129.312504],[131.101976,129.630680],[130.595032,129.938752],[130.081480,130.236632],[129.562776,130.523528],[129.037888,130.799928],[128.507112,131.065768],[127.971728,131.320312],[127.430864,131.564024],[126.884872,131.796752],[126.869816,131.803008],[126.334792,132.018064],[125.780016,132.228152],[125.220840,132.426944],[124.658160,132.614072],[124.091552,132.789792],[123.521176,132.953920],[122.948136,133.106200],[122.371824,133.246824],[121.792344,133.375672],[121.211152,133.492520],[120.627304,133.597536],[120.040936,133.690616],[119.453752,133.771608],[118.864560,133.840608],[118.273640,133.897584],[117.682560,133.942384],[117.090224,133.975160],[116.496992,133.995792],[115.904208,134.004272],[115.310992,134.000608],[114.717680,133.984832],[114.125400,133.956944],[113.533520,133.916928],[112.942288,133.864808],[112.352856,133.800656],[111.764560,133.724424],[111.177504,133.636112],[110.593232,133.535952],[110.010696,133.423800],[109.430088,133.299624],[108.853152,133.163880],[108.278592,133.016176],[107.706680,132.856656],[107.139144,132.685760],[106.574736,132.503112],[106.013760,132.308840],[105.457704,132.103456],[104.905552,131.886568],[104.357632,131.658264],[103.815128,131.419128],[103.277312,131.168792],[102.744448,130.907352],[102.217608,130.635376],[101.696152,130.352536],[101.180256,130.058896],[100.671344,129.755248],[100.168016,129.440856],[99.671008,129.116056],[99.181576,128.781736],[98.698672,128.437192],[98.222472,128.082488],[97.754488,127.718816],[97.293624,127.345280],[96.840136,126.962104],[96.395280,126.570384],[95.958192,126.169320],[95.529112,125.759104],[95.109056,125.340768],[94.697376,124.913640],[94.294296,124.477944],[93.900632,124.034584],[93.515928,123.583016],[93.140288,123.123360],[92.774600,122.656744],[92.418304,122.182440],[92.071488,121.700536],[91.735168,121.212472],[91.408632,120.717232],[91.091968,120.214880],[90.786256,119.707192],[90.490704,119.192816],[90.205536,118.672192],[89.931440,118.146520],[89.667984,117.615032],[89.415240,117.077824],[89.173936,116.536384],[88.943560,115.989752],[88.724256,115.438120],[88.516584,114.882848],[88.320160,114.323096],[88.135176,113.759224],[87.961872,113.192088],[87.800144,112.621344],[87.650056,112.047160],[87.511872,111.470528],[87.385456,110.890904],[87.270856,110.308568],[87.168288,109.724560],[87.077656,109.138312],[86.998976,108.550056],[86.932416,107.960856],[86.877896,107.370128],[86.835464,106.778264],[86.805144,106.185888],[86.786960,105.593456],[86.781512,104.999824]]
; plater:{"center":[124.999958,104.999998,0.000000],"boundingbox_center":[124.999958,104.999998,8.289406],"boundingbox_size":[76.436899,58.008560,16.578813]}

M73 P0 R56
;TYPE:Custom
Start : M104 S0
M140 S0
PRINT_START EXTRUDER_TEMP=220 BED_TEMP=70
M107
G21 ; set units to millimeters
G90 ; use absolute coordinates
M83 ; use relative distances for extrusion
M900 K0.05 ; Filament gcode LA 1.5
M900 K30 ; Filament gcode LA 1.0
;_TOOLCHANGE 0
M104 S220 ; set temperature
M109 S220 ; set temperature and wait for it to be reached
M107
;LAYER_CHANGE
;Z:0.3
;HEIGHT:0.3
;BEFORE_LAYER_CHANGE
G92 E0.0
;0.3
TIMELAPSE_TAKE_FRAME

G1 E-0.8 F2100
M73 P0 R55
G1 Z0.4 F10800
;AFTER_LAYER_CHANGE
;0.3
G1 Z0.7
M204 S1000
G1 X93.899 Y85.062
G1 Z0.3
G1 E0.8 F2100
;TYPE:Skirt
;WIDTH:0.52
G1 F900
G1 X93.254 Y85.775 E0.0546
G1 X91.498 Y88.046 E0.16314
G1 X89.935 Y90.539 E0.16722
G1 X89.384 Y91.572 E0.06651
G1 X88.209 Y94.191 E0.16315
G1 X87.122 Y97.535 E0.19979
G1 X86.629 Y99.779 E0.13055
G1 X86.368 Y101.54 E0.10117
G1 X86.216 Y103.27 E0.09873
G1 X86.172 Y105.603 E0.13259
G1 X86.259 Y107.338 E0.09873
G1 X86.626 Y110.185 E0.16313
G1 X87.286 Y113.059 E0.16757
G1 X88.198 Y115.781 E0.16314
G1 X88.877 Y117.38 E0.09873
G1 X89.935 Y119.46 E0.1326
G1 X90.851 Y120.986 E0.10115
G1 X92.516 Y123.325 E0.16315
G1 X94.449 Y125.544 E0.1672
G1 X96.56 Y127.532 E0.1648
G1 X97.465 Y128.274 E0.0665
G1 X99.805 Y129.937 E0.16315
G1 X102.84 Y131.64 E0.19776
G1 X105.513 Y132.782 E0.16518
G1 X107.766 Y133.513 E0.13462
G1 X111.166 Y134.256 E0.19776
G1 X113.447 Y134.526 E0.13053
G1 X115.182 Y134.613 E0.09872
G1 X118.095 Y134.53 E0.16561
G1 X152.739 Y131.262 E1.97747
G1 X153.313 Y131.079 E0.03421
G1 X162.7 Y123.196 E0.69663
G1 X163.137 Y122.56 E0.04384
G1 X163.887 Y120.41 E0.1294
G1 X163.946 Y120.004 E0.02331
G1 X163.731 Y89.911 E1.71016
G1 X163.636 Y88.977 E0.05332
G1 X163.314 Y88.087 E0.05378
G1 X163.064 Y87.777 E0.02262
G1 X153.807 Y79.854 E0.69243
G1 X153.421 Y79.685 E0.02399
G1 X119.268 Y75.586 E1.95473
M73 P1 R55
G1 X116.353 Y75.385 E0.16605
G1 X115.182 Y75.386 E0.06652
G1 X112.318 Y75.584 E0.16315
G1 X108.858 Y76.203 E0.19978
G1 X106.102 Y77.008 E0.16315
