; generated by SuperSlicer 2.5.59 on 2023-05-10 at 06:02:45 UTC

; 

; external perimeters extrusion width = 0.45mm
; perimeters extrusion width = 0.45mm
; infill extrusion width = 0.45mm
; solid infill extrusion width = 0.45mm
; top infill extrusion width = 0.40mm
; first layer extrusion width = 0.42mm

; external perimeters extrusion width = 0.45mm
; perimeters extrusion width = 0.45mm
; infill extrusion width = 0.45mm
; solid infill extrusion width = 0.45mm
; top infill extrusion width = 0.40mm
; first layer extrusion width = 0.42mm

; object:{"name":"lrs_200_psu_bracket_x2","id":"lrs_200_psu_bracket_x2.stl id:0 copy 0","object_center":[125.000000,93.699997,0.000000],"boundingbox_center":[125.000000,93.699997,7.000000],"boundingbox_size":[65.000000,19.600006,14.000000]}
EXCLUDE_OBJECT_DEFINE NAME=lrs_200_psu_bracket_x2_stl_id_0_copy_0 CENTER=125.000000,93.699997 POLYGON=[[92.500000,94.500000],[94.100000,92.899992],[95.012424,91.987568],[95.500000,91.500000],[103.500000,85.899992],[142.000000,83.899992],[145.100000,83.899992],[154.500000,91.500000],[157.500000,94.500000],[157.500000,96.500000],[155.500000,103.100000],[155.100000,103.500000],[92.899992,103.500000],[92.500000,103.100000],[92.500000,94.500000]]
; object:{"name":"lrs_200_psu_bracket_x2","id":"lrs_200_psu_bracket_x2.stl id:1 copy 0","object_center":[125.000000,116.300003,0.000000],"boundingbox_center":[125.000000,116.300003,7.000000],"boundingbox_size":[65.000000,19.600006,14.000000]}
EXCLUDE_OBJECT_DEFINE NAME=lrs_200_psu_bracket_x2_stl_id_1_copy_0 CENTER=125.000000,116.300003 POLYGON=[[92.500000,117.100008],[94.889752,114.710240],[95.500000,114.100008],[103.500000,108.500000],[142.000000,106.500000],[145.100000,106.500000],[154.500000,114.100008],[157.500000,117.100008],[157.500000,119.100008],[155.500000,125.700008],[155.100000,126.100008],[92.899992,126.100008],[92.500000,125.700008],[92.500000,117.100008]]
; plater:{"center":[125.000000,105.000000,0.000000],"boundingbox_center":[125.000000,105.000000,7.000000],"boundingbox_size":[65.000000,42.200012,14.000000]}

M73 P0 R81
;TYPE:Custom
Start : M104 S0
M140 S0
PRINT_START EXTRUDER_TEMP=220 BED_TEMP=70
M107
G21 ; set units to millimeters
G90 ; use absolute coordinates
M83 ; use relative distances for extrusion
M900 K0.05 ; Filament gcode LA 1.5
M900 K30 ; Filament gcode LA 1.0
;_TOOLCHANGE 0
M104 S220 ; set temperature
M109 S220 ; set temperature and wait for it to be reached
M107
;LAYER_CHANGE
;Z:0.3
;HEIGHT:0.3
;BEFORE_LAYER_CHANGE
G92 E0.0
;0.3
TIMELAPSE_TAKE_FRAME

G1 E-0.8 F2100
G1 Z0.4 F10800
;AFTER_LAYER_CHANGE
;0.3
G1 Z0.7
M204 S1000
G1 X93.385 Y92.585
G1 Z0.3
G1 E0.8 F2100
;TYPE:Skirt
;WIDTH:0.52
G1 F900
G1 X93.172 Y93.1 E0.03165
G1 X93.172 Y125.7 E1.85257
G1 X93.48 Y126.294 E0.03803
G1 X94.045 Y126.694 E0.03937
G1 X94.466 Y126.828 E0.02506
G1 X153.534 Y126.828 E3.35672
M73 P0 R80
G1 X153.955 Y126.694 E0.02506
G1 X154.52 Y126.294 E0.03937
G1 X154.747 Y126.033 E0.01965
G1 X158.147 Y119.433 E0.4219
G1 X158.228 Y119.1 E0.01949
G1 X158.228 Y94.5 E1.39795
G1 X158.015 Y93.985 E0.03166
G1 X154.958 Y90.934 E0.24545
G1 X145.558 Y83.334 E0.68693
G1 X145.1 Y83.172 E0.02758
G1 X141.962 Y83.173 E0.17831
G1 X103.462 Y85.173 E2.1908
G1 X103.083 Y85.304 E0.02281
G1 X95.083 Y90.904 E0.55493
G1 X93.428 Y92.543 E0.13237
;WIPE_START
G1 F8640
M204 S1250
G1 X95.083 Y90.904 E-0.53783
G1 X95.871 Y90.352 E-0.22217
;WIPE_END
G1 E-0.04 F2100
G1 Z0.7 F10800
; printing object lrs_200_psu_bracket_x2.stl id:0 copy 0
EXCLUDE_OBJECT_START NAME=lrs_200_psu_bracket_x2_stl_id_0_copy_0
; acceleration to travel
M204 S1500
G1 X99.523 Y94.937
; decel to extrusion
M204 S1000
G1 X100.406 Y96.045
; end travel
G1 Z0.3
G1 E0.8 F2100
;TYPE:Internal perimeter
;WIDTH:0.42
G1 F900
G1 X100.358 Y96.093 E0.003
G1 X100.358 Y99.421 E0.14759
G1 X102.453 Y101.516 E0.13141
G1 X127.913 Y101.516 E1.12929
G1 X130.008 Y99.421 E0.13141
G1 X130.008 Y96.093 E0.14759
G1 X127.913 Y93.998 E0.13141
G1 X113.465 Y93.998 E0.64084
G1 X110.465 Y90.998 E0.18818
G1 X106.093 Y90.998 E0.19393
G1 X104.998 Y92.093 E0.06868
G1 X104.998 Y93.593 E0.06653
G1 X104.593 Y93.998 E0.02541
G1 X102.453 Y93.998 E0.09493
G1 X100.448 Y96.003 E0.12575
G1 X100.714 Y96.24 F10800
;TYPE:External perimeter
G1 F900
G1 X100.714 Y99.273 E0.13453
G1 X102.6 Y101.16 E0.11834
G1 X127.766 Y101.16 E1.11623
G1 X129.653 Y99.273 E0.11834
G1 X129.653 Y96.24 E0.13453
G1 X127.766 Y94.354 E0.11834
G1 X113.318 Y94.354 E0.64084
G1 X110.318 Y91.354 E0.18818
G1 X106.24 Y91.354 E0.18086
G1 X105.354 Y92.24 E0.05562
G1 X105.354 Y93.74 E0.06653
G1 X104.74 Y94.354 E0.03848
G1 X102.6 Y94.354 E0.09493
G1 X100.756 Y96.198 E0.11568
;WIPE_START
M204 S1250
G1 X100.327 Y96.344 F10800
;WIPE_END
;WIPE_START
G1 F8640
G1 X100.514 Y99.356 E-0.69688
G1 X100.707 Y99.55 E-0.06312
;WIPE_END
G1 E-0.04 F2100
G1 Z0.7 F10800
; acceleration to travel
M204 S1500
G1 X102.126 Y93.846
; decel to extrusion
M204 S1000
G1 X102.468 Y92.468
; end travel
G1 Z0.3
G1 E0.8 F2100
;TYPE:Internal perimeter
G1 F900
G1 X103.516 Y91.421 E0.06568
G1 X103.516 Y87.321 E0.18185
G1 X103.921 Y86.915 E0.02545
G1 X105.047 Y86.912 E0.04993
G1 X105.583 Y86.89 E0.02381
G1 X105.489 Y87.923 E0.04603
G1 X105.482 Y89.516 E0.07064
G1 X111.079 Y89.516 E0.24828
G1 X114.079 Y92.516 E0.18818
G1 X133.921 Y92.516 E0.88006
G1 X136.921 Y89.516 E0.18818
G1 X139.579 Y89.516 E0.11792
G1 X139.984 Y89.921 E0.02541
G1 X139.984 Y90.854 E0.04141
G1 X139.579 Y91.259 E0.02541
G1 X138.579 Y91.259 E0.04435
G1 X134.034 Y95.805 E0.28511
G1 X134.847 Y97.766 E0.09414
M73 P1 R80
G1 X136.033 Y97.765 E0.05262
G1 X133.228 Y100.57 E0.17596
G1 X133.619 Y101.516 E0.04538
G1 X152.884 Y101.516 E0.8545
G1 X152.884 Y102.484 E0.04297
G1 X95.116 Y102.484 E2.56232
G1 X95.116 Y93.321 E0.40645
G1 X95.921 Y92.516 E0.0505
G1 X102.421 Y92.516 E0.28831
G1 X102.426 Y92.51 E0.00034
;WIPE_START
G1 F8640
M204 S1250
G1 X102.421 Y92.516 E-0.00175
G1 X99.137 Y92.516 E-0.75825
;WIPE_END
G1 E-0.04 F2100
G1 Z0.7 F10800
; acceleration to travel
M204 S1500
G1 X134.864 Y93.191
; decel to extrusion
M204 S1000
G1 X143.498 Y93.354
; end travel
G1 Z0.3
G1 E0.8 F2100
G1 F900
G1 X143.498 Y97.002 E0.16181
G1 X154.002 Y97.002 E0.46589
G1 X154.002 Y94.535 E0.10943
G1 X152.465 Y92.998 E0.09639
G1 X143.498 Y92.998 E0.39773
G1 X143.498 Y93.294 E0.01311
G1 X143.854 Y93.354 F10800
;TYPE:External perimeter
G1 F900
G1 X143.854 Y96.646 E0.14604
G1 X153.646 Y96.646 E0.43434
G1 X153.646 Y94.682 E0.08712
G1 X152.318 Y93.354 E0.08332
G1 X143.914 Y93.354 E0.37276
;WIPE_START
M204 S1250
G1 X143.454 Y93.354 F10800
;WIPE_END
;WIPE_START
G1 F8640
G1 X143.642 Y96.64 E-0.76
;WIPE_END
G1 E-0.04 F2100
G1 Z0.7 F10800
; acceleration to travel
M204 S1500
G1 X142.735 Y92.099
; decel to extrusion
M204 S1000
G1 X142.516 Y91.002
; end travel
G1 Z0.3
G1 E0.8 F2100
;TYPE:Internal perimeter
G1 F900
G1 X142.516 Y86.384 E0.2048
G1 X141.466 Y86.384 E0.04657
G1 X141.466 Y85.871 E0.02279
G1 X142.423 Y84.914 E0.06002
G1 X143.936 Y84.902 E0.06712
G1 X144.001 Y85.097 E0.00914
G1 X143.774 Y85.267 E0.01258
G1 X143.735 Y86.614 E0.05976
G1 X143.734 Y91.421 E0.21321
G1 X144.829 Y92.516 E0.06868
G1 X154.079 Y92.516 E0.41028
G1 X156.484 Y94.921 E0.15086
G1 X156.484 Y96.079 E0.05139
G1 X155.079 Y97.484 E0.08814
G1 X141.7 Y97.484 E0.59342
G1 X142.516 Y96.669 E0.05114
G1 X142.516 Y91.062 E0.24871
;WIPE_START
G1 F8640
M204 S1250
G1 X142.516 Y94.353 E-0.76
;WIPE_END
G1 E-0.04 F2100
G1 Z0.7 F10800
; acceleration to travel
M204 S1500
G1 X140.763 Y91.654
; decel to extrusion
M204 S1000
G1 X140.34 Y91.002
; end travel
G1 Z0.3
G1 E0.8 F2100
;TYPE:External perimeter
G1 F900
G1 X139.727 Y91.615 E0.03848
G1 X138.727 Y91.615 E0.04435
G1 X134.454 Y95.888 E0.26804
G1 X135.084 Y97.41 E0.07306
G1 X141.273 Y97.408 E0.27453
G1 X142.16 Y96.522 E0.05561
G1 X142.16 Y86.74 E0.43386
G1 X141.11 Y86.74 E0.04657
G1 X141.11 Y85.723 E0.04509
G1 X142.274 Y84.559 E0.07302
G1 X144.041 Y84.546 E0.07836
G1 X144.921 Y84.459 E0.03925
G1 X145.212 Y84.663 E0.01574
G1 X145.84 Y85.291 E0.03938
G1 X145.837 Y85.676 E0.01711
G1 X145.029 Y84.879 E0.05035
G1 X144.556 Y85.127 E0.02369
G1 X144.125 Y85.449 E0.02389
G1 X144.09 Y86.619 E0.05192
G1 X144.09 Y91.273 E0.20644
G1 X144.977 Y92.16 E0.05562
G1 X154.227 Y92.16 E0.41028
G1 X156.84 Y94.773 E0.16393
G1 X156.84 Y96.227 E0.06446
G1 X155.227 Y97.84 E0.1012
G1 X136.461 Y97.84 E0.83235
G1 X133.647 Y100.654 E0.1765
G1 X133.857 Y101.16 E0.0243
G1 X153.24 Y101.16 E0.85974
G1 X153.24 Y102.84 E0.07452
G1 X94.76 Y102.84 E2.59387
G1 X94.76 Y93.173 E0.42876
G1 X95.773 Y92.16 E0.06357
G1 X102.273 Y92.16 E0.28831
G1 X103.16 Y91.273 E0.05562
G1 X103.16 Y87.173 E0.18185
G1 X103.774 Y86.56 E0.03849
G1 X105.039 Y86.556 E0.05613
G1 X105.526 Y86.536 E0.02163
G1 X106.494 Y86.439 E0.04311
G1 X106.96 Y86.36 E0.02099
G1 X107.389 Y86.36 E0.01904
G1 X107.093 Y86.656 E0.01859
G1 X106.817 Y86.857 E0.01511
G1 X106.585 Y86.834 E0.01036
G1 X105.946 Y86.825 E0.02832
G1 X105.845 Y87.94 E0.04966
G1 X105.839 Y89.16 E0.05412
G1 X111.227 Y89.16 E0.23897
G1 X114.227 Y92.16 E0.18818
G1 X133.773 Y92.16 E0.86699
G1 X136.773 Y89.16 E0.18818
G1 X139.727 Y89.16 E0.13099
G1 X140.34 Y89.773 E0.03848
G1 X140.34 Y90.942 E0.05182
;WIPE_START
M204 S1250
G1 X139.94 Y91.002 F10800
;WIPE_END
;WIPE_START
G1 F8640
G1 X139.644 Y91.415 E-0.11743
G1 X138.644 Y91.415 E-0.2309
G1 X137.383 Y92.676 E-0.41167
;WIPE_END
G1 E-0.04 F2100
G1 Z0.7 F10800
; acceleration to travel
M204 S1500
G1 X142.434 Y86.896
; decel to extrusion
M204 S1000
G1 X143.661 Y85.492
; end travel
G1 Z0.3
G1 E0.8 F2100
;TYPE:Solid infill
;WIDTH:0.546
G1 F1200
G1 X143.335 Y85.166 E0.02657
G1 X142.836 Y85.17 E0.02878
G1 X143.498 Y85.832 E0.05397
G1 X143.484 Y86.321 E0.02818
G1 X142.433 Y85.27 E0.08565
G1 X142.182 Y85.522 E0.02051
G1 X143.475 Y86.815 E0.10546
G1 X143.475 Y87.318 E0.029
G1 X142.775 Y86.618 E0.05707
G1 X142.775 Y86.125 E0.02843
G1 X142.282 Y86.125 E0.02843
G1 X141.93 Y85.773 E0.02868
G1 X141.725 Y85.978 E0.01673
G1 X141.725 Y86.071 E0.00534
G1 X141.932 Y86.278 E0.01687
G1 X142.622 Y86.968 F10800
G1 F1200
G1 X143.475 Y87.821 E0.06954
G1 X143.475 Y88.324 E0.029
G1 X142.775 Y87.624 E0.05707
G1 X142.775 Y88.127 E0.029
G1 X143.475 Y88.826 E0.05706
G1 X143.475 Y89.329 E0.029
G1 X142.775 Y88.63 E0.05706
G1 X142.775 Y89.133 E0.029
G1 X143.475 Y89.832 E0.05706
G1 X143.475 Y90.335 E0.029
G1 X142.775 Y89.635 E0.05706
G1 X142.775 Y90.138 E0.029
G1 X143.475 Y90.838 E0.05705
G1 X143.475 Y91.341 E0.029
G1 X142.775 Y90.641 E0.05705
G1 X142.775 Y91.144 E0.029
G1 X144.37 Y92.739 E0.13001
G1 X143.867 Y92.739 E0.029
G1 X142.775 Y91.647 E0.089
G1 X142.775 Y92.15 E0.029
G1 X143.364 Y92.739 E0.04799
G1 X143.239 Y92.739 E0.00722
G1 X143.239 Y93.116 E0.02178
G1 X142.775 Y92.653 E0.03779
G1 X142.775 Y93.156 E0.029
G1 X143.239 Y93.619 E0.03779
G1 X143.239 Y94.122 E0.029
G1 X142.775 Y93.659 E0.03779
G1 X142.775 Y94.162 E0.029
G1 X143.239 Y94.625 E0.03779
G1 X143.239 Y95.128 E0.029
G1 X142.775 Y94.665 E0.03779
G1 X142.775 Y95.168 E0.029
G1 X143.239 Y95.631 E0.03779
G1 X143.239 Y96.134 E0.029
G1 X142.775 Y95.67 E0.03779
G1 X142.775 Y96.173 E0.029
G1 X143.239 Y96.637 E0.03779
G1 X143.239 Y97.14 E0.029
G1 X142.775 Y96.676 E0.03779
G1 X142.775 Y96.776 E0.00577
G1 X142.574 Y96.978 E0.01642
G1 X142.974 Y97.378 E0.03261
;WIPE_START
G1 F8640
M204 S1250
G1 X142.574 Y96.978 E-0.13057
G1 X142.775 Y96.776 E-0.06577
G1 X142.775 Y96.676 E-0.02311
G1 X143.239 Y97.14 E-0.15132
G1 X143.239 Y96.637 E-0.11613
G1 X142.775 Y96.173 E-0.15132
G1 X142.775 Y95.67 E-0.11613
G1 X142.792 Y95.688 E-0.00565
;WIPE_END
G1 E-0.04 F2100
G1 Z0.7 F10800
; acceleration to travel
M204 S1500
G1 X151.655 Y93.222
; decel to extrusion
M204 S1000
G1 X153.809 Y92.622
; end travel
G1 Z0.3
G1 E0.8 F2100
G1 F1200
G1 X156.225 Y95.038 E0.19702
G1 X156.225 Y95.541 E0.029
G1 X153.459 Y92.775 E0.22556
G1 X152.956 Y92.775 E0.029
G1 X156.189 Y96.008 E0.26362
G1 X155.937 Y96.259 E0.02051
G1 X154.261 Y94.584 E0.13665
G1 X154.261 Y95.087 E0.029
G1 X155.686 Y96.511 E0.11614
G1 X155.434 Y96.762 E0.02051
G1 X154.261 Y95.59 E0.09564
G1 X154.261 Y96.092 E0.029
G1 X155.183 Y97.014 E0.07513
G1 X154.972 Y97.225 E0.0172
G1 X154.891 Y97.225 E0.00467
G1 X154.261 Y96.595 E0.05133
G1 X154.261 Y97.098 E0.029
G1 X154.541 Y97.378 E0.02279
;WIPE_START
G1 F8640
M204 S1250
G1 X154.261 Y97.098 E-0.09125
G1 X154.261 Y96.595 E-0.11613
G1 X154.891 Y97.225 E-0.20554
G1 X154.972 Y97.225 E-0.01869
G1 X155.183 Y97.014 E-0.0689
G1 X154.388 Y96.219 E-0.2595
;WIPE_END
G1 E-0.04 F2100
G1 Z0.7 F10800
; acceleration to travel
M204 S1500
G1 X153.093 Y101.144
; decel to extrusion
M204 S1000
G1 X152.778 Y102.341
; end travel
G1 Z0.3
G1 E0.8 F2100
;WIDTH:0.42646
G1 F1200
G1 X152.212 Y101.775 E0.03605
G1 X151.709 Y101.775 E0.02265
G1 X152.158 Y102.225 E0.02864
G1 X151.656 Y102.225 E0.02265
G1 X151.206 Y101.775 E0.02864
G1 X150.703 Y101.775 E0.02265
G1 X151.153 Y102.225 E0.02864
G1 X150.65 Y102.225 E0.02265
M73 P1 R79
G1 X150.2 Y101.775 E0.02864
G1 X149.697 Y101.775 E0.02265
G1 X150.147 Y102.225 E0.02864
G1 X149.644 Y102.225 E0.02265
G1 X149.194 Y101.775 E0.02864
G1 X148.691 Y101.775 E0.02265
G1 X149.141 Y102.225 E0.02864
G1 X148.638 Y102.225 E0.02265
G1 X148.188 Y101.775 E0.02864
G1 X147.685 Y101.775 E0.02265
G1 X148.135 Y102.225 E0.02864
G1 X147.632 Y102.225 E0.02265
G1 X147.183 Y101.775 E0.02864
G1 X146.68 Y101.775 E0.02265
G1 X147.129 Y102.225 E0.02864
G1 X146.626 Y102.225 E0.02265
G1 X146.177 Y101.775 E0.02864
G1 X145.674 Y101.775 E0.02265
G1 X146.123 Y102.225 E0.02864
G1 X145.62 Y102.225 E0.02265
G1 X145.171 Y101.775 E0.02864
G1 X144.668 Y101.775 E0.02265
G1 X145.118 Y102.225 E0.02864
G1 X144.615 Y102.225 E0.02265
G1 X144.165 Y101.775 E0.02864
G1 X143.662 Y101.775 E0.02265
G1 X144.112 Y102.225 E0.02864
G1 X143.609 Y102.225 E0.02265
G1 X143.159 Y101.775 E0.02864
G1 X142.656 Y101.775 E0.02265
G1 X143.106 Y102.225 E0.02864
G1 X142.603 Y102.225 E0.02265
G1 X142.153 Y101.775 E0.02864
G1 X141.65 Y101.775 E0.02265
G1 X142.1 Y102.225 E0.02864
G1 X141.597 Y102.225 E0.02265
G1 X141.147 Y101.775 E0.02864
G1 X140.645 Y101.775 E0.02265
G1 X141.094 Y102.225 E0.02864
G1 X140.591 Y102.225 E0.02265
G1 X140.142 Y101.775 E0.02864
G1 X139.639 Y101.775 E0.02265
G1 X140.088 Y102.225 E0.02864
G1 X139.585 Y102.225 E0.02265
G1 X139.136 Y101.775 E0.02864
G1 X138.633 Y101.775 E0.02265
G1 X139.083 Y102.225 E0.02864
G1 X138.58 Y102.225 E0.02265
G1 X138.13 Y101.775 E0.02864
G1 X137.627 Y101.775 E0.02265
G1 X138.077 Y102.225 E0.02864
G1 X137.574 Y102.225 E0.02265
G1 X137.124 Y101.775 E0.02864
G1 X136.621 Y101.775 E0.02265
G1 X137.071 Y102.225 E0.02864
G1 X136.568 Y102.225 E0.02265
G1 X136.118 Y101.775 E0.02864
G1 X135.615 Y101.775 E0.02265
G1 X136.065 Y102.225 E0.02864
G1 X135.562 Y102.225 E0.02265
G1 X135.112 Y101.775 E0.02864
G1 X134.61 Y101.775 E0.02265
G1 X135.059 Y102.225 E0.02864
G1 X134.556 Y102.225 E0.02265
G1 X133.954 Y101.622 E0.03838
;WIPE_START
G1 F8640
M204 S1250
G1 X134.556 Y102.225 E-0.19676
G1 X135.059 Y102.225 E-0.11613
G1 X134.61 Y101.775 E-0.14682
G1 X135.112 Y101.775 E-0.11613
G1 X135.562 Y102.225 E-0.14682
G1 X135.724 Y102.225 E-0.03734
;WIPE_END
G1 E-0.04 F2100
G1 Z0.7 F10800
; acceleration to travel
M204 S1500
G1 X135.547 Y98.941
; decel to extrusion
M204 S1000
G1 X135.504 Y98.143
; end travel
G1 Z0.3
G1 E0.8 F2100
G1 F1200
G1 X135.233 Y97.872 E0.01727
;WIPE_START
G1 F8640
M204 S1250
G1 X135.504 Y98.143 E-0.08855
;WIPE_END
G1 E-0.71145 F2100
G1 Z0.7 F10800
; acceleration to travel
M204 S1500
G1 X139.023 Y91.952
; decel to extrusion
M204 S1000
G1 X139.878 Y90.447
; end travel
G1 Z0.3
G1 E0.8 F2100
G1 F1200
G1 X139.206 Y89.775 E0.04279
G1 X138.703 Y89.775 E0.02265
G1 X139.7 Y90.772 E0.06348
G1 X139.472 Y91 E0.01452
G1 X139.425 Y91 E0.00212
G1 X138.2 Y89.775 E0.078
G1 X137.697 Y89.775 E0.02265
G1 X138.922 Y91 E0.078
G1 X138.472 Y91 E0.02027
G1 X138.445 Y91.026 E0.00169
G1 X137.194 Y89.775 E0.07969
G1 X137.028 Y89.775 E0.00748
G1 X136.86 Y89.944 E0.01073
G1 X138.194 Y91.278 E0.08497
G1 X137.942 Y91.529 E0.01602
G1 X136.608 Y90.195 E0.08497
G1 X136.357 Y90.447 E0.01602
G1 X137.691 Y91.781 E0.08497
G1 X137.439 Y92.032 E0.01602
G1 X136.105 Y90.698 E0.08497
