; generated by SuperSlicer 2.5.59 on 2023-05-04 at 15:20:17 UTC

; 

; external perimeters extrusion width = 0.45mm
; perimeters extrusion width = 0.45mm
; infill extrusion width = 0.45mm
; solid infill extrusion width = 0.45mm
; top infill extrusion width = 0.40mm
; first layer extrusion width = 0.42mm

; object:{"name":"Shape-Box","id":"Shape-Box id:0 copy 0","object_center":[125.000000,105.000000,0.000000],"boundingbox_center":[125.000000,105.000000,0.250000],"boundingbox_size":[69.000000,69.000000,0.500000]}
EXCLUDE_OBJECT_DEFINE NAME=Shape_Box_id_0_copy_0 CENTER=125.000000,105.000000 POLYGON=[[90.500000,70.500000],[159.500000,70.500000],[159.500000,139.500000],[90.500000,139.500000],[90.500000,70.500000]]
; plater:{"center":[125.000000,105.000000,0.000000],"boundingbox_center":[125.000000,105.000000,0.250000],"boundingbox_size":[69.000000,69.000000,0.500000]}

M73 P0 R17
;TYPE:Custom
Start : M104 S0
M140 S0
PRINT_START EXTRUDER_TEMP=220 BED_TEMP=70
M107
G21 ; set units to millimeters
G90 ; use absolute coordinates
M83 ; use relative distances for extrusion
M900 K0.05 ; Filament gcode LA 1.5
M900 K30 ; Filament gcode LA 1.0
;_TOOLCHANGE 0
M104 S220 ; set temperature
M109 S220 ; set temperature and wait for it to be reached
M107
;LAYER_CHANGE
;Z:0.2
;HEIGHT:0.2
;BEFORE_LAYER_CHANGE
G92 E0.0
;0.2
TIMELAPSE_TAKE_FRAME

G1 E-0.8 F2100
M73 P1 R17
G1 Z0.4 F10800
;AFTER_LAYER_CHANGE
;0.2
G1 Z0.6
M204 S1000
G1 X89.761 Y70.5
G1 Z0.2
M73 P2 R17
G1 E0.8 F2100
;TYPE:Skirt
;WIDTH:0.52
G1 F900
G1 X89.761 Y139.5 E2.73718
G1 X90.5 Y140.239 E0.04143
G1 X159.5 Y140.239 E2.73718
G1 X160.239 Y139.5 E0.04143
G1 X160.239 Y70.5 E2.73718
M73 P3 R16
G1 X159.5 Y69.761 E0.04143
G1 X90.5 Y69.761 E2.73718
G1 X89.804 Y70.458 E0.03905
;WIPE_START
G1 F8640
G1 X90.5 Y69.761 E-0.22731
G1 X92.807 Y69.761 E-0.53269
;WIPE_END
G1 E-0.04 F2100
G1 Z0.6 F10800
; printing object Shape-Box id:0 copy 0
EXCLUDE_OBJECT_START NAME=Shape_Box_id_0_copy_0
; acceleration to travel
M204 S1500
G1 X92.165 Y71.672
; decel to extrusion
M204 S800
G1 X92.041 Y72.041
; end travel
G1 Z0.2
G1 E0.8 F2100
;TYPE:Internal perimeter
;WIDTH:0.42
G1 F900
G1 X157.959 Y72.041 E2.0668
M73 P4 R16
G1 X157.959 Y137.959 E2.0668
G1 X92.041 Y137.959 E2.0668
M73 P5 R16
G1 X92.041 Y72.101 E2.06492
G1 X91.664 Y71.664 F10800
G1 F900
G1 X158.336 Y71.664 E2.09044
G1 X158.336 Y138.336 E2.09044
M73 P6 R16
G1 X91.664 Y138.336 E2.09044
G1 X91.664 Y71.724 E2.08856
M73 P7 R16
G1 X91.287 Y71.287 F10800
G1 F900
G1 X158.713 Y71.287 E2.11409
G1 X158.713 Y138.713 E2.11409
M73 P8 R16
G1 X91.287 Y138.713 E2.11409
G1 X91.287 Y71.347 E2.11221
M73 P8 R15
G1 X90.91 Y70.91 F10800
;TYPE:External perimeter
G1 F900
G1 X159.09 Y70.91 E2.13774
M73 P9 R15
G1 X159.09 Y139.09 E2.13774
G1 X90.91 Y139.09 E2.13774
M73 P10 R15
G1 X90.91 Y70.97 E2.13585
;WIPE_START
M204 S1000
G1 X91.256 Y71.11 F10800
;WIPE_END
;WIPE_START
G1 F8640
G1 X94.548 Y71.11 E-0.76
;WIPE_END
G1 E-0.04 F2100
G1 Z0.6 F10800
; acceleration to travel
M204 S1500
G1 X144.858 Y71.95
; decel to extrusion
M204 S1000
G1 X157.083 Y72.154
; end travel
G1 Z0.2
G1 E0.8 F2100
;TYPE:Solid infill
;WIDTH:0.420154
G1 F1200
G1 X157.684 Y72.754 E0.02662
G1 X157.684 Y73.288 E0.01673
G1 X156.712 Y72.316 E0.04308
G1 X156.179 Y72.316 E0.01673
G1 X157.684 Y73.821 E0.06674
G1 X157.684 Y74.354 E0.01673
G1 X155.646 Y72.316 E0.09039
G1 X155.112 Y72.316 E0.01673
G1 X157.684 Y74.888 E0.11405
G1 X157.684 Y75.421 E0.01673
G1 X154.579 Y72.316 E0.1377
G1 X154.046 Y72.316 E0.01673
G1 X157.684 Y75.954 E0.16136
G1 X157.684 Y76.487 E0.01673
G1 X153.513 Y72.316 E0.18501
G1 X152.979 Y72.316 E0.01673
G1 X157.684 Y77.021 E0.20867
G1 X157.684 Y77.554 E0.01673
G1 X152.446 Y72.316 E0.23232
G1 X151.913 Y72.316 E0.01673
G1 X157.684 Y78.087 E0.25598
G1 X157.684 Y78.62 E0.01673
G1 X151.38 Y72.316 E0.27963
M73 P11 R15
G1 X150.846 Y72.316 E0.01673
G1 X157.684 Y79.154 E0.30329
G1 X157.684 Y79.687 E0.01673
G1 X150.313 Y72.316 E0.32694
G1 X149.78 Y72.316 E0.01673
G1 X157.684 Y80.22 E0.35059
G1 X157.684 Y80.754 E0.01673
G1 X149.246 Y72.316 E0.37425
G1 X148.713 Y72.316 E0.01673
G1 X157.684 Y81.287 E0.3979
G1 X157.684 Y81.82 E0.01673
G1 X148.18 Y72.316 E0.42156
G1 X147.647 Y72.316 E0.01673
G1 X157.684 Y82.353 E0.44521
G1 X157.684 Y82.887 E0.01673
G1 X147.113 Y72.316 E0.46887
G1 X146.58 Y72.316 E0.01673
G1 X157.684 Y83.42 E0.49252
G1 X157.684 Y83.953 E0.01673
G1 X146.047 Y72.316 E0.51618
G1 X145.514 Y72.316 E0.01673
G1 X157.684 Y84.486 E0.53983
G1 X157.684 Y85.02 E0.01673
G1 X144.98 Y72.316 E0.56349
G1 X144.447 Y72.316 E0.01673
G1 X157.684 Y85.553 E0.58714
G1 X157.684 Y86.086 E0.01673
G1 X143.914 Y72.316 E0.6108
M73 P12 R15
G1 X143.381 Y72.316 E0.01673
G1 X157.684 Y86.619 E0.63445
G1 X157.684 Y87.153 E0.01673
G1 X142.847 Y72.316 E0.65811
G1 X142.314 Y72.316 E0.01673
G1 X157.684 Y87.686 E0.68176
G1 X157.684 Y88.219 E0.01673
G1 X141.781 Y72.316 E0.70542
G1 X141.247 Y72.316 E0.01673
G1 X157.684 Y88.753 E0.72907
G1 X157.684 Y89.286 E0.01673
G1 X140.714 Y72.316 E0.75273
G1 X140.181 Y72.316 E0.01673
G1 X157.684 Y89.819 E0.77638
G1 X157.684 Y90.352 E0.01673
G1 X139.648 Y72.316 E0.80004
G1 X139.114 Y72.316 E0.01673
G1 X157.684 Y90.886 E0.82369
M73 P13 R15
G1 X157.684 Y91.419 E0.01673
G1 X138.581 Y72.316 E0.84735
G1 X138.048 Y72.316 E0.01673
G1 X157.684 Y91.952 E0.871
G1 X157.684 Y92.485 E0.01673
G1 X137.515 Y72.316 E0.89465
G1 X136.981 Y72.316 E0.01673
G1 X157.684 Y93.019 E0.91831
G1 X157.684 Y93.552 E0.01673
G1 X136.448 Y72.316 E0.94196
G1 X135.915 Y72.316 E0.01673
G1 X157.684 Y94.085 E0.96562
G1 X157.684 Y94.619 E0.01673
G1 X135.381 Y72.316 E0.98927
M73 P14 R15
G1 X134.848 Y72.316 E0.01673
G1 X157.684 Y95.152 E1.01293
G1 X157.684 Y95.685 E0.01673
G1 X134.315 Y72.316 E1.03658
M73 P14 R14
G1 X133.782 Y72.316 E0.01673
G1 X157.684 Y96.218 E1.06024
G1 X157.684 Y96.752 E0.01673
G1 X133.248 Y72.316 E1.08389
G1 X132.715 Y72.316 E0.01673
G1 X157.684 Y97.285 E1.10755
G1 X157.684 Y97.818 E0.01673
G1 X132.182 Y72.316 E1.1312
M73 P15 R14
G1 X131.649 Y72.316 E0.01673
G1 X157.684 Y98.351 E1.15486
G1 X157.684 Y98.885 E0.01673
G1 X131.115 Y72.316 E1.17851
G1 X130.582 Y72.316 E0.01673
G1 X157.684 Y99.418 E1.20217
G1 X157.684 Y99.951 E0.01673
G1 X130.049 Y72.316 E1.22582
G1 X129.515 Y72.316 E0.01673
G1 X157.684 Y100.485 E1.24948
M73 P16 R14
G1 X157.684 Y101.018 E0.01673
G1 X128.982 Y72.316 E1.27313
G1 X128.449 Y72.316 E0.01673
G1 X157.684 Y101.551 E1.29679
G1 X157.684 Y102.084 E0.01673
G1 X127.916 Y72.316 E1.32044
G1 X127.382 Y72.316 E0.01673
G1 X157.684 Y102.618 E1.3441
G1 X157.684 Y103.151 E0.01673
G1 X126.849 Y72.316 E1.36775
M73 P17 R14
G1 X126.316 Y72.316 E0.01673
G1 X157.684 Y103.684 E1.3914
G1 X157.684 Y104.217 E0.01673
G1 X125.783 Y72.316 E1.41506
G1 X125.249 Y72.316 E0.01673
G1 X157.684 Y104.751 E1.43871
G1 X157.684 Y105.284 E0.01673
G1 X124.716 Y72.316 E1.46237
G1 X124.183 Y72.316 E0.01673
G1 X157.684 Y105.817 E1.48602
M73 P18 R14
G1 X157.684 Y106.35 E0.01673
G1 X123.65 Y72.316 E1.50968
G1 X123.116 Y72.316 E0.01673
G1 X157.684 Y106.884 E1.53333
G1 X157.684 Y107.417 E0.01673
G1 X122.583 Y72.316 E1.55699
G1 X122.05 Y72.316 E0.01673
G1 X157.684 Y107.95 E1.58064
M73 P19 R14
G1 X157.684 Y108.484 E0.01673
G1 X121.516 Y72.316 E1.6043
G1 X120.983 Y72.316 E0.01673
G1 X157.684 Y109.017 E1.62795
G1 X157.684 Y109.55 E0.01673
G1 X120.45 Y72.316 E1.65161
G1 X119.917 Y72.316 E0.01673
G1 X157.684 Y110.083 E1.67526
M73 P20 R13
G1 X157.684 Y110.617 E0.01673
G1 X119.383 Y72.316 E1.69892
G1 X118.85 Y72.316 E0.01673
G1 X157.684 Y111.15 E1.72257
G1 X157.684 Y111.683 E0.01673
G1 X118.317 Y72.316 E1.74623
G1 X117.784 Y72.316 E0.01673
G1 X157.684 Y112.216 E1.76988
M73 P21 R13
G1 X157.684 Y112.75 E0.01673
G1 X117.25 Y72.316 E1.79354
G1 X116.717 Y72.316 E0.01673
G1 X157.684 Y113.283 E1.81719
G1 X157.684 Y113.816 E0.01673
G1 X116.184 Y72.316 E1.84085
M73 P22 R13
G1 X115.65 Y72.316 E0.01673
G1 X157.684 Y114.35 E1.8645
G1 X157.684 Y114.883 E0.01673
G1 X115.117 Y72.316 E1.88816
G1 X114.584 Y72.316 E0.01673
G1 X157.684 Y115.416 E1.91181
G1 X157.684 Y115.949 E0.01673
G1 X114.051 Y72.316 E1.93546
M73 P23 R13
G1 X113.517 Y72.316 E0.01673
G1 X157.684 Y116.483 E1.95912
G1 X157.684 Y117.016 E0.01673
G1 X112.984 Y72.316 E1.98277
G1 X112.451 Y72.316 E0.01673
G1 X157.684 Y117.549 E2.00643
M73 P24 R13
G1 X157.684 Y118.082 E0.01673
G1 X111.918 Y72.316 E2.03008
G1 X111.384 Y72.316 E0.01673
G1 X157.684 Y118.616 E2.05374
G1 X157.684 Y119.149 E0.01673
G1 X110.851 Y72.316 E2.07739
M73 P25 R13
G1 X110.318 Y72.316 E0.01673
G1 X157.684 Y119.682 E2.10105
G1 X157.684 Y120.216 E0.01673
G1 X109.784 Y72.316 E2.1247
G1 X109.251 Y72.316 E0.01673
G1 X157.684 Y120.749 E2.14836
M73 P26 R12
G1 X157.684 Y121.282 E0.01673
G1 X108.718 Y72.316 E2.17201
G1 X108.185 Y72.316 E0.01673
G1 X157.684 Y121.815 E2.19567
G1 X157.684 Y122.349 E0.01673
G1 X107.651 Y72.316 E2.21932
M73 P27 R12
G1 X107.118 Y72.316 E0.01673
G1 X157.684 Y122.882 E2.24298
G1 X157.684 Y123.415 E0.01673
G1 X106.585 Y72.316 E2.26663
G1 X106.052 Y72.316 E0.01673
G1 X157.684 Y123.948 E2.29029
M73 P28 R12
G1 X157.684 Y124.482 E0.01673
G1 X105.518 Y72.316 E2.31394
G1 X104.985 Y72.316 E0.01673
G1 X157.684 Y125.015 E2.3376
G1 X157.684 Y125.548 E0.01673
G1 X104.452 Y72.316 E2.36125
M73 P29 R12
G1 X103.919 Y72.316 E0.01673
G1 X157.684 Y126.081 E2.38491
G1 X157.684 Y126.615 E0.01673
G1 X103.385 Y72.316 E2.40856
G1 X102.852 Y72.316 E0.01673
G1 X157.684 Y127.148 E2.43222
M73 P30 R12
G1 X157.684 Y127.681 E0.01673
G1 X102.319 Y72.316 E2.45587
G1 X101.785 Y72.316 E0.01673
G1 X157.684 Y128.215 E2.47952
M73 P31 R12
G1 X157.684 Y128.748 E0.01673
G1 X101.252 Y72.316 E2.50318
G1 X100.719 Y72.316 E0.01673
G1 X157.684 Y129.281 E2.52683
M73 P31 R11
G1 X157.684 Y129.814 E0.01673
G1 X100.186 Y72.316 E2.55049
M73 P32 R11
G1 X99.652 Y72.316 E0.01673
G1 X157.684 Y130.348 E2.57414
G1 X157.684 Y130.881 E0.01673
G1 X99.119 Y72.316 E2.5978
G1 X98.586 Y72.316 E0.01673
G1 X157.684 Y131.414 E2.62145
M73 P33 R11
G1 X157.684 Y131.947 E0.01673
G1 X98.053 Y72.316 E2.64511
G1 X97.519 Y72.316 E0.01673
G1 X157.684 Y132.481 E2.66876
M73 P34 R11
G1 X157.684 Y133.014 E0.01673
G1 X96.986 Y72.316 E2.69242
G1 X96.453 Y72.316 E0.01673
G1 X157.684 Y133.547 E2.71607
M73 P35 R11
G1 X157.684 Y134.081 E0.01673
G1 X95.919 Y72.316 E2.73973
G1 X95.386 Y72.316 E0.01673
G1 X157.684 Y134.614 E2.76338
G1 X157.684 Y135.147 E0.01673
G1 X94.853 Y72.316 E2.78704
M73 P36 R11
G1 X94.32 Y72.316 E0.01673
G1 X157.684 Y135.68 E2.81069
G1 X157.684 Y136.214 E0.01673
G1 X93.786 Y72.316 E2.83435
M73 P37 R11
G1 X93.253 Y72.316 E0.01673
G1 X157.684 Y136.747 E2.858
M73 P37 R10
G1 X157.684 Y137.28 E0.01673
G1 X92.72 Y72.316 E2.88166
M73 P38 R10
G1 X92.316 Y72.316 E0.01265
G1 X92.316 Y72.446 E0.00407
G1 X157.554 Y137.684 E2.89379
G1 X157.02 Y137.684 E0.01673
G1 X92.316 Y72.98 E2.87013
G1 X92.316 Y73.513 E0.01673
G1 X156.487 Y137.684 E2.84648
M73 P39 R10
G1 X155.954 Y137.684 E0.01673
G1 X92.316 Y74.046 E2.82282
G1 X92.316 Y74.579 E0.01673
G1 X155.421 Y137.684 E2.79917
M73 P40 R10
G1 X154.887 Y137.684 E0.01673
G1 X92.316 Y75.113 E2.77551
G1 X92.316 Y75.646 E0.01673
G1 X154.354 Y137.684 E2.75186
M73 P41 R10
G1 X153.821 Y137.684 E0.01673
G1 X92.316 Y76.179 E2.7282
G1 X92.316 Y76.713 E0.01673
G1 X153.287 Y137.684 E2.70455
G1 X152.754 Y137.684 E0.01673
G1 X92.316 Y77.246 E2.68089
M73 P42 R10
G1 X92.316 Y77.779 E0.01673
G1 X152.221 Y137.684 E2.65724
G1 X151.688 Y137.684 E0.01673
G1 X92.316 Y78.312 E2.63358
M73 P43 R9
G1 X92.316 Y78.846 E0.01673
G1 X151.154 Y137.684 E2.60993
G1 X150.621 Y137.684 E0.01673
G1 X92.316 Y79.379 E2.58627
G1 X92.316 Y79.912 E0.01673
G1 X150.088 Y137.684 E2.56262
M73 P44 R9
G1 X149.555 Y137.684 E0.01673
G1 X92.316 Y80.445 E2.53896
G1 X92.316 Y80.979 E0.01673
G1 X149.021 Y137.684 E2.51531
M73 P45 R9
G1 X148.488 Y137.684 E0.01673
G1 X92.316 Y81.512 E2.49165
G1 X92.316 Y82.045 E0.01673
G1 X147.955 Y137.684 E2.468
G1 X147.421 Y137.684 E0.01673
G1 X92.316 Y82.579 E2.44434
M73 P46 R9
G1 X92.316 Y83.112 E0.01673
G1 X146.888 Y137.684 E2.42069
G1 X146.355 Y137.684 E0.01673
G1 X92.316 Y83.645 E2.39703
G1 X92.316 Y84.178 E0.01673
G1 X145.822 Y137.684 E2.37338
M73 P47 R9
G1 X145.288 Y137.684 E0.01673
G1 X92.316 Y84.712 E2.34973
G1 X92.316 Y85.245 E0.01673
G1 X144.755 Y137.684 E2.32607
M73 P48 R9
G1 X144.222 Y137.684 E0.01673
G1 X92.316 Y85.778 E2.30242
G1 X92.316 Y86.311 E0.01673
G1 X143.689 Y137.684 E2.27876
M73 P48 R8
G1 X143.155 Y137.684 E0.01673
G1 X92.316 Y86.845 E2.25511
M73 P49 R8
G1 X92.316 Y87.378 E0.01673
G1 X142.622 Y137.684 E2.23145
G1 X142.089 Y137.684 E0.01673
G1 X92.316 Y87.911 E2.2078
G1 X92.316 Y88.445 E0.01673
G1 X141.555 Y137.684 E2.18414
M73 P50 R8
G1 X141.022 Y137.684 E0.01673
G1 X92.316 Y88.978 E2.16049
G1 X92.316 Y89.511 E0.01673
G1 X140.489 Y137.684 E2.13683
G1 X139.956 Y137.684 E0.01673
G1 X92.316 Y90.044 E2.11318
M73 P51 R8
G1 X92.316 Y90.578 E0.01673
G1 X139.422 Y137.684 E2.08952
G1 X138.889 Y137.684 E0.01673
G1 X92.316 Y91.111 E2.06587
G1 X92.316 Y91.644 E0.01673
G1 X138.356 Y137.684 E2.04221
M73 P52 R8
G1 X137.823 Y137.684 E0.01673
G1 X92.316 Y92.177 E2.01856
G1 X92.316 Y92.711 E0.01673
G1 X137.289 Y137.684 E1.9949
G1 X136.756 Y137.684 E0.01673
G1 X92.316 Y93.244 E1.97125
G1 X92.316 Y93.777 E0.01673
G1 X136.223 Y137.684 E1.94759
M73 P53 R8
G1 X135.69 Y137.684 E0.01673
G1 X92.316 Y94.31 E1.92394
G1 X92.316 Y94.844 E0.01673
G1 X135.156 Y137.684 E1.90028
G1 X134.623 Y137.684 E0.01673
G1 X92.316 Y95.377 E1.87663
M73 P54 R8
G1 X92.316 Y95.91 E0.01673
G1 X134.09 Y137.684 E1.85298
M73 P54 R7
G1 X133.556 Y137.684 E0.01673
G1 X92.316 Y96.444 E1.82932
G1 X92.316 Y96.977 E0.01673
G1 X133.023 Y137.684 E1.80567
G1 X132.49 Y137.684 E0.01673
G1 X92.316 Y97.51 E1.78201
M73 P55 R7
G1 X92.316 Y98.043 E0.01673
G1 X131.957 Y137.684 E1.75836
G1 X131.423 Y137.684 E0.01673
G1 X92.316 Y98.577 E1.7347
G1 X92.316 Y99.11 E0.01673
G1 X130.89 Y137.684 E1.71105
M73 P56 R7
G1 X130.357 Y137.684 E0.01673
G1 X92.316 Y99.643 E1.68739
G1 X92.316 Y100.176 E0.01673
G1 X129.824 Y137.684 E1.66374
G1 X129.29 Y137.684 E0.01673
G1 X92.316 Y100.71 E1.64008
G1 X92.316 Y101.243 E0.01673
G1 X128.757 Y137.684 E1.61643
M73 P57 R7
G1 X128.224 Y137.684 E0.01673
G1 X92.316 Y101.776 E1.59277
G1 X92.316 Y102.31 E0.01673
G1 X127.69 Y137.684 E1.56912
G1 X127.157 Y137.684 E0.01673
G1 X92.316 Y102.843 E1.54546
G1 X92.316 Y103.376 E0.01673
G1 X126.624 Y137.684 E1.52181
G1 X126.091 Y137.684 E0.01673
G1 X92.316 Y103.909 E1.49815
M73 P58 R7
G1 X92.316 Y104.443 E0.01673
G1 X125.557 Y137.684 E1.4745
G1 X125.024 Y137.684 E0.01673
G1 X92.316 Y104.976 E1.45084
G1 X92.316 Y105.509 E0.01673
G1 X124.491 Y137.684 E1.42719
G1 X123.958 Y137.684 E0.01673
G1 X92.316 Y106.042 E1.40353
M73 P59 R7
G1 X92.316 Y106.576 E0.01673
G1 X123.424 Y137.684 E1.37988
G1 X122.891 Y137.684 E0.01673
G1 X92.316 Y107.109 E1.35622
G1 X92.316 Y107.642 E0.01673
G1 X122.358 Y137.684 E1.33257
G1 X121.824 Y137.684 E0.01673
G1 X92.316 Y108.176 E1.30892
G1 X92.316 Y108.709 E0.01673
G1 X121.291 Y137.684 E1.28526
M73 P60 R6
G1 X120.758 Y137.684 E0.01673
G1 X92.316 Y109.242 E1.26161
G1 X92.316 Y109.775 E0.01673
G1 X120.225 Y137.684 E1.23795
G1 X119.691 Y137.684 E0.01673
G1 X92.316 Y110.309 E1.2143
G1 X92.316 Y110.842 E0.01673
G1 X119.158 Y137.684 E1.19064
G1 X118.625 Y137.684 E0.01673
G1 X92.316 Y111.375 E1.16699
M73 P61 R6
G1 X92.316 Y111.908 E0.01673
G1 X118.092 Y137.684 E1.14333
G1 X117.558 Y137.684 E0.01673
G1 X92.316 Y112.442 E1.11968
G1 X92.316 Y112.975 E0.01673
G1 X117.025 Y137.684 E1.09602
G1 X116.492 Y137.684 E0.01673
G1 X92.316 Y113.508 E1.07237
G1 X92.316 Y114.041 E0.01673
G1 X115.959 Y137.684 E1.04871
G1 X115.425 Y137.684 E0.01673
G1 X92.316 Y114.575 E1.02506
M73 P62 R6
G1 X92.316 Y115.108 E0.01673
G1 X114.892 Y137.684 E1.0014
G1 X114.359 Y137.684 E0.01673
G1 X92.316 Y115.641 E0.97775
G1 X92.316 Y116.175 E0.01673
G1 X113.825 Y137.684 E0.95409
G1 X113.292 Y137.684 E0.01673
G1 X92.316 Y116.708 E0.93044
G1 X92.316 Y117.241 E0.01673
G1 X112.759 Y137.684 E0.90678
G1 X112.226 Y137.684 E0.01673
G1 X92.316 Y117.774 E0.88313
G1 X92.316 Y118.308 E0.01673
G1 X111.692 Y137.684 E0.85947
M73 P63 R6
G1 X111.159 Y137.684 E0.01673
