; generated by A3dp-Slicer 2.5 on 2024-04-23 at 06:14:59 UTC


;
;

;
;
; 

; external perimeters extrusion width = 0.45mm
; perimeters extrusion width = 0.45mm
; infill extrusion width = 0.45mm
; solid infill extrusion width = 0.45mm
; top infill extrusion width = 0.45mm
; first layer extrusion width = 0.45mm

; object:{"name":"Voron_Design_Cube_v7","id":"Voron_Design_Cube_v7 id:0 copy 0","object_center":[150.000000,150.000000,0.000000],"boundingbox_center":[150.000000,150.000000,10.000000],"boundingbox_size":[20.000000,20.000000,20.000000]}
EXCLUDE_OBJECT_DEFINE NAME=Voron_Design_Cube_v7_id_0_copy_0 CENTER=150.000000,150.000000 POLYGON=[[140.000000,140.000000],[160.000000,140.000000],[160.000000,160.000000],[140.000000,160.000000],[140.000000,140.000000]]
; plater:{"center":[150.000000,150.000000,0.000000],"boundingbox_center":[150.000000,150.000000,10.000000],"boundingbox_size":[20.000000,20.000000,20.000000]}

M73 P0 R15
;TYPE:Custom
; custom gcode: start_gcode
M190 S0
M104 S0
PRINT_START EXTRUDER_TEMP=260 BED_TEMP=110 FILAMENT=ABS SIZE=134.511_134.511_165.489_165.489 ENCLOSURE_TEMP=0
; custom gcode end: start_gcode
M107
G21 ; set units to millimeters
G90 ; use absolute coordinates
M83 ; use relative distances for extrusion
;_BEFORE_TOOLCHANGE 0
;_TOOLCHANGE 0
;LAYER_CHANGE
;Z:0.25
;HEIGHT:0.25
G1 E-0.6 F9600
M73 P2 R15
G1 Z0.1 F27000
G1 Z0.25
; custom gcode: layer_gcode
;DISPLAY_PROGRESS TOTAL_LAYERS=100 CURRENT_LAYER=0
; custom gcode end: layer_gcode

G92 E0
SET_PRESSURE_ADVANCE ADVANCE=0.000105
G1 Z0.35
M204 S2000
G1 X138.328 Y138.328
G1 Z0.25
G1 E0.6 F3600
; custom gcode: feature_gcode
; External perimeter
;Skirt
SET_VELOCITY_LIMIT ACCEL=7000 ACCEL_TO_DECEL=7000 SQUARE_CORNER_VELOCITY=8

; Support material
; custom gcode end: feature_gcode

;TYPE:Skirt
;WIDTH:0.45
G1 F1800
G1 X136.425 Y140.232 E0.10094
G1 X135.304 Y141.908 E0.07559
G1 X134.907 Y143.895 E0.07594
G1 X134.907 Y156.105 E0.45772
G1 X135.3 Y158.083 E0.07559
G1 X136.425 Y159.768 E0.07594
G1 X140.232 Y163.575 E0.20188
G1 X141.908 Y164.696 E0.07559
G1 X143.895 Y165.093 E0.07594
G1 X156.105 Y165.093 E0.45772
G1 X158.083 Y164.7 E0.07559
G1 X159.768 Y163.575 E0.07594
G1 X163.575 Y159.768 E0.20188
G1 X164.696 Y158.092 E0.07559
G1 X165.093 Y156.105 E0.07594
G1 X165.093 Y143.895 E0.45772
G1 X164.7 Y141.917 E0.07559
G1 X163.575 Y140.232 E0.07594
G1 X159.768 Y136.425 E0.20188
G1 X158.092 Y135.304 E0.07559
G1 X156.105 Y134.907 E0.07594
G1 X143.895 Y134.907 E0.45772
G1 X141.917 Y135.3 E0.07559
G1 X140.232 Y136.425 E0.07594
G1 X138.371 Y138.286 E0.09869
G1 X138.651 Y138.566 F27000
G1 F1800
G1 X136.705 Y140.513 E0.10319
G1 X135.7 Y141.99 E0.06698
G1 X135.304 Y143.895 E0.07295
G1 X135.304 Y156.105 E0.45772
G1 X135.637 Y157.86 E0.06698
G1 X136.705 Y159.487 E0.07295
G1 X140.513 Y163.295 E0.20188
G1 X141.99 Y164.3 E0.06698
G1 X143.895 Y164.696 E0.07295
G1 X156.105 Y164.696 E0.45772
G1 X157.86 Y164.363 E0.06698
G1 X159.487 Y163.295 E0.07295
G1 X163.295 Y159.487 E0.20188
G1 X164.3 Y158.01 E0.06698
G1 X164.696 Y156.105 E0.07295
G1 X164.696 Y143.895 E0.45772
G1 X164.363 Y142.14 E0.06698
G1 X163.295 Y140.513 E0.07295
G1 X159.487 Y136.705 E0.20188
G1 X158.01 Y135.7 E0.06698
G1 X156.105 Y135.304 E0.07295
G1 X143.895 Y135.304 E0.45772
G1 X142.14 Y135.637 E0.06698
G1 X140.513 Y136.705 E0.07295
G1 X138.694 Y138.524 E0.09644
G1 X138.974 Y138.804 F27000
G1 F1800
G1 X136.985 Y140.793 E0.10544
G1 X136.096 Y142.075 E0.05849
G1 X135.7 Y143.895 E0.06983
G1 X135.7 Y156.105 E0.45772
G1 X135.978 Y157.64 E0.05849
G1 X136.985 Y159.207 E0.06983
G1 X140.793 Y163.015 E0.20188
M73 P3 R15
G1 X142.075 Y163.904 E0.05849
G1 X143.895 Y164.3 E0.06983
G1 X156.105 Y164.3 E0.45772
G1 X157.64 Y164.022 E0.05849
G1 X159.207 Y163.015 E0.06983
G1 X163.015 Y159.207 E0.20188
G1 X163.904 Y157.925 E0.05849
G1 X164.3 Y156.105 E0.06983
G1 X164.3 Y143.895 E0.45772
G1 X164.022 Y142.36 E0.05849
G1 X163.015 Y140.793 E0.06983
G1 X159.207 Y136.985 E0.20188
G1 X157.925 Y136.096 E0.05849
G1 X156.105 Y135.7 E0.06983
G1 X143.895 Y135.7 E0.45772
G1 X142.36 Y135.978 E0.05849
G1 X140.793 Y136.985 E0.06983
G1 X139.016 Y138.762 E0.09419
G1 X139.297 Y139.042 F27000
G1 F1800
G1 X137.265 Y141.073 E0.10769
G1 X136.491 Y142.164 E0.05014
G1 X136.096 Y143.895 E0.06656
G1 X136.096 Y156.105 E0.45772
G1 X136.321 Y157.423 E0.05014
G1 X137.265 Y158.927 E0.06656
G1 X141.073 Y162.735 E0.20188
G1 X142.164 Y163.509 E0.05014
G1 X143.895 Y163.904 E0.06656
G1 X156.105 Y163.904 E0.45772
G1 X157.423 Y163.679 E0.05014
G1 X158.927 Y162.735 E0.06656
G1 X162.735 Y158.927 E0.20188
G1 X163.509 Y157.836 E0.05014
G1 X163.904 Y156.105 E0.06656
G1 X163.904 Y143.895 E0.45772
G1 X163.679 Y142.577 E0.05014
G1 X162.735 Y141.073 E0.06656
G1 X158.927 Y137.265 E0.20188
G1 X157.836 Y136.491 E0.05014
G1 X156.105 Y136.096 E0.06656
G1 X143.895 Y136.096 E0.45772
G1 X142.577 Y136.321 E0.05014
G1 X141.073 Y137.265 E0.06656
G1 X139.339 Y139 E0.09194
G1 X139.619 Y139.28 F27000
G1 F1800
G1 X137.546 Y141.353 E0.10994
G1 X136.887 Y142.258 E0.04194
G1 X136.493 Y143.895 E0.06313
G1 X136.493 Y156.105 E0.45772
G1 X136.667 Y157.21 E0.04194
G1 X137.546 Y158.647 E0.06313
G1 X141.353 Y162.454 E0.20188
G1 X142.258 Y163.113 E0.04194
G1 X143.895 Y163.507 E0.06313
G1 X156.105 Y163.507 E0.45772
G1 X157.21 Y163.333 E0.04194
G1 X158.647 Y162.454 E0.06313
G1 X162.454 Y158.647 E0.20188
G1 X163.113 Y157.742 E0.04194
G1 X163.507 Y156.105 E0.06313
G1 X163.507 Y143.895 E0.45772
G1 X163.333 Y142.79 E0.04194
G1 X162.454 Y141.353 E0.06313
G1 X158.647 Y137.546 E0.20188
G1 X157.742 Y136.887 E0.04194
G1 X156.105 Y136.493 E0.06313
G1 X143.895 Y136.493 E0.45772
G1 X142.79 Y136.667 E0.04194
G1 X141.353 Y137.546 E0.06313
G1 X139.662 Y139.237 E0.08969
G1 X139.942 Y139.518 F27000
G1 F1800
G1 X137.826 Y141.634 E0.11219
G1 X137.283 Y142.358 E0.03393
G1 X136.889 Y143.895 E0.05949
G1 X136.889 Y156.105 E0.45772
G1 X137.017 Y157.001 E0.03393
G1 X137.826 Y158.366 E0.05949
G1 X141.634 Y162.174 E0.20188
M73 P4 R15
G1 X142.358 Y162.717 E0.03393
G1 X143.895 Y163.111 E0.05949
G1 X156.105 Y163.111 E0.45772
G1 X157.001 Y162.983 E0.03393
G1 X158.366 Y162.174 E0.05949
G1 X162.174 Y158.366 E0.20188
G1 X162.717 Y157.642 E0.03393
G1 X163.111 Y156.105 E0.05949
G1 X163.111 Y143.895 E0.45772
G1 X162.983 Y142.999 E0.03393
G1 X162.174 Y141.634 E0.05949
G1 X158.366 Y137.826 E0.20188
G1 X157.642 Y137.283 E0.03393
G1 X156.105 Y136.889 E0.05949
G1 X143.895 Y136.889 E0.45772
G1 X142.999 Y137.017 E0.03393
G1 X141.634 Y137.826 E0.05949
G1 X139.984 Y139.475 E0.08744
M104 S260 ; set temperature
SET_PRESSURE_ADVANCE ADVANCE=0.0001
G1 E-0.6 F9600
M204 S6000
G1 Z0.35 F27000
; printing object Voron_Design_Cube_v7 id:0 copy 0
EXCLUDE_OBJECT_START NAME=Voron_Design_Cube_v7_id_0_copy_0
; acceleration to travel
M204 S10000
G1 X143.939 Y151.024
; decel to extrusion
M204 S2000
G1 X144.729 Y153.333
; end travel
G1 Z0.25
G1 E0.6 F3600
; custom gcode: feature_gcode
; External perimeter
;Perimeter
SET_VELOCITY_LIMIT ACCEL=2000 ACCEL_TO_DECEL=2000 SQUARE_CORNER_VELOCITY=8

; Overhang perimeter
; custom gcode end: feature_gcode

;TYPE:Internal perimeter
G1 F1800
G1 X144.744 Y153.358 E0.00109
G1 X144.942 Y153.65 E0.01322
G1 X145.337 Y154.144 E0.02372
G1 X145.792 Y154.605 E0.02426
G1 X146.292 Y155.016 E0.02427
G1 X146.831 Y155.374 E0.02426
G1 X147.393 Y155.667 E0.02377
G1 X147.734 Y155.811 E0.01388
G1 X148.317 Y156.007 E0.02304
G1 X148.948 Y156.149 E0.02424
G1 X149.59 Y156.225 E0.02426
G1 X150.238 Y156.234 E0.02427
G1 X150.882 Y156.176 E0.02426
G1 X151.517 Y156.051 E0.02426
G1 X152.123 Y155.865 E0.02377
G1 X152.468 Y155.728 E0.01388
G1 X153.02 Y155.459 E0.02304
G1 X153.569 Y155.117 E0.02423
G1 X154.08 Y154.719 E0.02427
G1 X154.547 Y154.271 E0.02426
G1 X154.965 Y153.777 E0.02427
G1 X155.329 Y153.242 E0.02426
G1 X155.637 Y152.673 E0.02426
G1 X155.883 Y152.074 E0.02426
G1 X156.066 Y151.454 E0.02426
G1 X156.182 Y150.831 E0.02375
G1 X156.22 Y150.461 E0.01392
G1 X156.236 Y149.828 E0.02375
G1 X156.184 Y149.183 E0.02426
G1 X156.066 Y148.546 E0.02426
G1 X155.883 Y147.926 E0.02423
G1 X155.65 Y147.358 E0.02305
G1 X155.483 Y147.027 E0.01389
G1 X155.154 Y146.485 E0.02376
G1 X154.762 Y145.97 E0.02426
G1 X154.319 Y145.499 E0.02426
G1 X153.829 Y145.075 E0.02426
G1 X153.298 Y144.705 E0.02427
G1 X152.733 Y144.392 E0.02423
G1 X152.167 Y144.151 E0.02304
G1 X151.816 Y144.033 E0.01388
G1 X151.201 Y143.879 E0.02377
G1 X150.561 Y143.787 E0.02426
G1 X149.914 Y143.762 E0.02426
G1 X149.591 Y143.784 E0.01213
G1 X149.268 Y143.805 E0.01213
G1 X148.63 Y143.914 E0.02426
G1 X148.008 Y144.089 E0.02424
G1 X147.436 Y144.314 E0.02303
G1 X147.103 Y144.476 E0.01388
G1 X146.557 Y144.798 E0.02377
G1 X146.036 Y145.183 E0.02426
G1 X145.559 Y145.619 E0.02426
G1 X145.129 Y146.103 E0.02426
G1 X144.751 Y146.629 E0.02426
G1 X144.43 Y147.191 E0.02426
G1 X144.169 Y147.783 E0.02427
G1 X143.971 Y148.399 E0.02426
G1 X143.837 Y149.033 E0.02426
G1 X143.77 Y149.676 E0.02426
G1 X143.77 Y150.324 E0.02427
G1 X143.837 Y150.967 E0.02426
G1 X143.971 Y151.601 E0.02426
G1 X144.169 Y152.217 E0.02426
G1 X144.43 Y152.809 E0.02427
G1 X144.7 Y153.281 E0.02038
G1 X145.073 Y153.136 F27000
G1 F1800
G1 X145.08 Y153.148 E0.00055
G1 X145.261 Y153.415 E0.01206
G1 X145.634 Y153.881 E0.02237
G1 X146.06 Y154.312 E0.02272
G1 X146.528 Y154.697 E0.02272
G1 X147.033 Y155.032 E0.02272
G1 X147.563 Y155.308 E0.0224
G1 X147.875 Y155.44 E0.01271
G1 X148.424 Y155.625 E0.0217
G1 X149.015 Y155.758 E0.0227
G1 X149.616 Y155.829 E0.02272
G1 X150.223 Y155.837 E0.02272
G1 X150.826 Y155.783 E0.02272
G1 X151.421 Y155.666 E0.02272
G1 X151.992 Y155.491 E0.0224
G1 X152.307 Y155.366 E0.01272
G1 X152.828 Y155.111 E0.02171
G1 X153.342 Y154.791 E0.0227
G1 X153.82 Y154.419 E0.02272
G1 X154.257 Y154 E0.02272
G1 X154.649 Y153.537 E0.02272
G1 X154.99 Y153.036 E0.02272
G1 X155.278 Y152.503 E0.02272
G1 X155.509 Y151.942 E0.02272
G1 X155.681 Y151.361 E0.02272
G1 X155.789 Y150.774 E0.02239
G1 X155.825 Y150.436 E0.01274
G1 X155.839 Y149.839 E0.02239
G1 X155.791 Y149.235 E0.02272
G1 X155.681 Y148.639 E0.02272
G1 X155.509 Y148.058 E0.0227
G1 X155.289 Y147.522 E0.02171
G1 X155.137 Y147.219 E0.01272
G1 X154.826 Y146.709 E0.02239
G1 X154.459 Y146.227 E0.02272
G1 X154.044 Y145.785 E0.02272
G1 X153.586 Y145.389 E0.02272
G1 X153.088 Y145.042 E0.02272
G1 X152.559 Y144.749 E0.0227
G1 X152.026 Y144.522 E0.02171
G1 X151.705 Y144.413 E0.01271
G1 X151.125 Y144.268 E0.0224
G1 X150.525 Y144.182 E0.02272
G1 X149.919 Y144.159 E0.02272
G1 X149.617 Y144.179 E0.01136
G1 X149.315 Y144.199 E0.01136
G1 X148.717 Y144.301 E0.02272
G1 X148.134 Y144.465 E0.0227
G1 X147.596 Y144.677 E0.0217
G1 X147.291 Y144.825 E0.01271
G1 X146.776 Y145.129 E0.0224
G1 X146.289 Y145.489 E0.02272
G1 X145.841 Y145.898 E0.02272
G1 X145.438 Y146.351 E0.02272
G1 X145.085 Y146.843 E0.02272
G1 X144.784 Y147.37 E0.02272
G1 X144.54 Y147.924 E0.02272
G1 X144.354 Y148.501 E0.02272
G1 X144.229 Y149.094 E0.02272
G1 X144.166 Y149.697 E0.02272
G1 X144.166 Y150.303 E0.02272
G1 X144.229 Y150.906 E0.02272
G1 X144.354 Y151.499 E0.02272
G1 X144.54 Y152.076 E0.02272
G1 X144.784 Y152.63 E0.02272
G1 X145.043 Y153.084 E0.01957
M204 S1000
SET_PRESSURE_ADVANCE ADVANCE=0.000105
G1 X145.417 Y152.938 F27000
; custom gcode: feature_gcode
; External perimeter
;ExternalPerimeter
SET_VELOCITY_LIMIT ACCEL=1000 ACCEL_TO_DECEL=1000 SQUARE_CORNER_VELOCITY=8

; Perimeter
; custom gcode end: feature_gcode

;TYPE:External perimeter
G1 F1800
G1 X145.58 Y153.179 E0.01091
G1 X145.931 Y153.617 E0.02102
G1 X146.327 Y154.019 E0.02118
G1 X146.763 Y154.378 E0.02118
G1 X147.234 Y154.69 E0.02117
G1 X147.732 Y154.949 E0.02103
G1 X148.016 Y155.069 E0.01155
G1 X148.531 Y155.242 E0.02037
G1 X149.082 Y155.366 E0.02117
G1 X149.643 Y155.433 E0.02118
G1 X150.207 Y155.441 E0.02118
G1 X150.77 Y155.39 E0.02117
G1 X151.324 Y155.281 E0.02118
G1 X151.861 Y155.116 E0.02103
G1 X152.147 Y155.003 E0.01155
G1 X152.635 Y154.764 E0.02037
G1 X153.114 Y154.466 E0.02117
G1 X153.56 Y154.119 E0.02118
G1 X153.968 Y153.728 E0.02118
G1 X154.333 Y153.297 E0.02118
G1 X154.651 Y152.83 E0.02118
G1 X154.919 Y152.333 E0.02117
G1 X155.135 Y151.811 E0.02118
G1 X155.295 Y151.269 E0.02118
G1 X155.397 Y150.717 E0.02103
G1 X155.429 Y150.411 E0.01156
G1 X155.442 Y149.85 E0.02103
G1 X155.397 Y149.287 E0.02118
G1 X155.295 Y148.731 E0.02118
G1 X155.135 Y148.19 E0.02117
G1 X154.928 Y147.687 E0.02038
G1 X154.79 Y147.412 E0.01155
G1 X154.498 Y146.933 E0.02103
G1 X154.156 Y146.483 E0.02118
G1 X153.769 Y146.071 E0.02118
G1 X153.342 Y145.702 E0.02118
G1 X152.879 Y145.379 E0.02118
G1 X152.385 Y145.105 E0.02117
G1 X151.885 Y144.892 E0.02037
G1 X151.593 Y144.794 E0.01155
G1 X151.049 Y144.657 E0.02103
G1 X150.489 Y144.578 E0.02118
G1 X149.925 Y144.556 E0.02118
G1 X149.643 Y144.575 E0.01059
G1 X149.361 Y144.593 E0.01059
G1 X148.804 Y144.688 E0.02118
G1 X148.261 Y144.841 E0.02117
G1 X147.755 Y145.04 E0.02037
G1 X147.478 Y145.175 E0.01155
G1 X146.995 Y145.46 E0.02103
G1 X146.541 Y145.796 E0.02118
G1 X146.124 Y146.177 E0.02118
G1 X145.748 Y146.599 E0.02118
G1 X145.419 Y147.058 E0.02118
G1 X145.139 Y147.548 E0.02118
G1 X144.911 Y148.065 E0.02118
G1 X144.738 Y148.603 E0.02118
G1 X144.621 Y149.156 E0.02118
G1 X144.563 Y149.718 E0.02118
G1 X144.563 Y150.282 E0.02118
G1 X144.621 Y150.844 E0.02118
G1 X144.738 Y151.397 E0.02118
G1 X144.911 Y151.935 E0.02118
G1 X145.139 Y152.452 E0.02118
G1 X145.387 Y152.886 E0.01877
;WIPE_START
M204 S6000
G1 X145.233 Y153.294 F27000
;WIPE_END
SET_PRESSURE_ADVANCE ADVANCE=0.0001
G1 E-0.6 F9600
G1 Z0.35 F27000
; acceleration to travel
M204 S10000
G1 X153.942 Y143.136
; decel to extrusion
M204 S2000
G1 X155.683 Y141.105
; end travel
G1 Z0.25
G1 E0.6 F3600
; custom gcode: feature_gcode
; External perimeter
;Perimeter
SET_VELOCITY_LIMIT ACCEL=2000 ACCEL_TO_DECEL=2000 SQUARE_CORNER_VELOCITY=8

; Overhang perimeter
; custom gcode end: feature_gcode

;TYPE:Internal perimeter
G1 F1800
G1 X158.895 Y144.317 E0.17027
G1 X158.895 Y155.683 E0.42611
G1 X155.683 Y158.895 E0.17027
G1 X144.317 Y158.895 E0.42611
G1 X141.105 Y155.683 E0.17027
G1 X141.105 Y144.317 E0.42611
G1 X144.317 Y141.105 E0.17027
G1 X155.623 Y141.105 E0.42386
G1 X155.847 Y140.709 F27000
G1 F1800
G1 X155.988 Y140.849 E0.00743
G1 X159.291 Y144.153 E0.17515
G1 X159.291 Y155.847 E0.43842
G1 X155.847 Y159.291 E0.18258
G1 X144.153 Y159.291 E0.43842
M73 P5 R15
G1 X140.709 Y155.847 E0.18258
G1 X140.709 Y144.153 E0.43842
G1 X144.153 Y140.709 E0.18258
M73 P5 R14
G1 X155.787 Y140.709 E0.43617
M204 S1000
SET_PRESSURE_ADVANCE ADVANCE=0.000105
G1 X156.012 Y140.312 F27000
; custom gcode: feature_gcode
; External perimeter
;ExternalPerimeter
SET_VELOCITY_LIMIT ACCEL=1000 ACCEL_TO_DECEL=1000 SQUARE_CORNER_VELOCITY=8

; Perimeter
; custom gcode end: feature_gcode

;TYPE:External perimeter
G1 F1800
G1 X156.268 Y140.569 E0.01359
G1 X159.688 Y143.988 E0.1813
G1 X159.688 Y156.012 E0.45073
G1 X156.012 Y159.688 E0.19489
G1 X143.988 Y159.688 E0.45073
G1 X140.312 Y156.012 E0.19489
G1 X140.312 Y143.988 E0.45073
G1 X143.988 Y140.312 E0.19489
G1 X155.952 Y140.312 E0.44848
;WIPE_START
M204 S6000
G1 X156.012 Y140.712 F27000
;WIPE_END
M204 S2000
SET_PRESSURE_ADVANCE ADVANCE=0.0001
G1 X155.382 Y141.224
; custom gcode: feature_gcode
; External perimeter
;SolidInfill
SET_VELOCITY_LIMIT ACCEL=4000 ACCEL_TO_DECEL=4000 SQUARE_CORNER_VELOCITY=8

; Bridge infill
; custom gcode end: feature_gcode

;TYPE:Solid infill
;WIDTH:0.460297
G1 F3600
G1 X158.776 Y144.618 E0.18408
G1 X158.776 Y145.179 F27000
G1 F3600
G1 X154.821 Y141.224 E0.21447
G1 X154.261 Y141.224 F27000
G1 F3600
G1 X158.776 Y145.739 E0.24487
G1 X158.776 Y146.3 F27000
G1 F3600
G1 X153.7 Y141.224 E0.27527
G1 X153.14 Y141.224 F27000
G1 F3600
G1 X158.776 Y146.86 E0.30566
G1 X158.776 Y147.421 F27000
G1 F3600
G1 X152.579 Y141.224 E0.33606
G1 X152.019 Y141.224 F27000
G1 F3600
G1 X158.776 Y147.981 E0.36646
G1 X158.776 Y148.542 F27000
G1 F3600
G1 X151.458 Y141.224 E0.39685
G1 X150.898 Y141.224 F27000
G1 F3600
G1 X158.776 Y149.102 E0.42725
G1 X158.776 Y149.663 F27000
G1 F3600
G1 X150.337 Y141.224 E0.45765
G1 X149.777 Y141.224 F27000
G1 F3600
G1 X152.903 Y144.351 E0.16957
G1 X151.962 Y143.97 F27000
G1 F3600
