; generated by SuperSlicer 2.5.59 on 2022-08-26 at 02:34:11 UTC

; 

; external perimeters extrusion width = 0.42mm
; perimeters extrusion width = 0.44mm
; infill extrusion width = 0.44mm
; solid infill extrusion width = 0.44mm
; top infill extrusion width = 0.42mm
; first layer extrusion width = 0.56mm

; object:{"name":"3DBenchy","id":"3DBenchy.stl id:0 copy 0","object_center":[117.500000,117.500000,0.000000],"boundingbox_center":[117.500000,117.500000,24.000000],"boundingbox_size":[60.000999,31.004000,48.000000]}
; plater:{"center":[117.500000,117.500000,0.000000],"boundingbox_center":[117.500000,117.500000,24.000000],"boundingbox_size":[60.000999,31.004000,48.000000]}

;TYPE:Custom
print_start EXTRUDER=220 BED=70 CHAMBER=0
M107
G21 ; set units to millimeters
G90 ; use absolute coordinates
M82 ; use absolute distances for extrusion
G92 E0
; Filament gcode
;_TOOLCHANGE 0
M104 S220 ; set temperature
M109 S220 ; set temperature and wait for it to be reached
M190 S70 ; set bed temperature and wait for it to be reached
M107
;LAYER_CHANGE
;Z:0.3
;HEIGHT:0.3
G1 Z0.3 F36000
G1 E-2 F2400
G1 X88.416 Y106.293 F36000
G1 E0 F2400
;TYPE:Skirt
;WIDTH:0.52
G1 F1800
G1 X87.389 Y107.261 E0.08022
G1 X86.724 Y108.123 E0.14207
G1 X86.154 Y109.134 E0.208
G1 X85.748 Y110.177 E0.27162
G1 X85.511 Y111.17 E0.32967
G1 X85.38 Y112.498 E0.40549
G1 X85.405 Y123.036 E1.00433
G1 X85.545 Y124.03 E1.06139
G1 X85.826 Y125.059 E1.12199
G1 X86.251 Y126.065 E1.18406
G1 X87.049 Y127.322 E1.26866
G1 X87.962 Y128.323 E1.34566
G1 X88.655 Y128.889 E1.39648
G1 X89.56 Y129.456 E1.45719
G1 X90.753 Y129.974 E1.53111
G1 X92.199 Y130.315 E1.6155
G1 X117.422 Y131.86 E3.05156
G1 X118.791 Y131.825 E3.12938
G1 X120.975 Y131.583 E3.25426
G1 X122.736 Y131.216 E3.35649
G1 X124.076 Y130.831 E3.43574
G1 X125.399 Y130.354 E3.51563
G1 X127.526 Y129.366 E3.6489
G1 X129.263 Y128.331 E3.76381
G1 X130.814 Y127.198 E3.87297
G1 X132.531 Y125.657 E4.00408
G1 X134.221 Y123.751 E4.14881
G1 X135.608 Y121.754 E4.28701
G1 X136.448 Y120.064 E4.39426
G1 X136.857 Y118.306 E4.49682
G1 X136.841 Y116.556 E4.59627
G1 X136.474 Y115 E4.68709
G1 X135.866 Y113.686 E4.7694
G1 X134.333 Y111.395 E4.92604
G1 X132.55 Y109.363 E5.07969
G1 X130.746 Y107.75 E5.21716
G1 X128.37 Y106.11 E5.38126
G1 X125.859 Y104.836 E5.54126
G1 X123.164 Y103.897 E5.70344
G1 X120.433 Y103.335 E5.86189
G1 X117.78 Y103.142 E6.01304
G1 X116.281 Y103.175 E6.09826
G1 X92.872 Y104.606 E7.43101
G1 X91.899 Y104.732 E7.48677
G1 X90.665 Y105.061 E7.55934
G1 X89.331 Y105.672 E7.6427
G1 X88.466 Y106.259 E7.70215
G92 E0
G1 E-2 F2400
; printing object 3DBenchy.stl id:0 copy 0
G1 X127.496 Y118.833 F36000
G1 E0 F2400
;TYPE:Internal perimeter
;WIDTH:0.56
G1 F1800
G1 X128.24 Y117.776 E0.0799
G1 X128.51 Y117.363 E0.11041
G1 X128.66 Y117.025 E0.13326
G1 X128.736 Y116.62 E0.15876
G1 X128.714 Y116.222 E0.18336
G1 X128.664 Y116.074 E0.19305
G1 X128.969 Y115.918 E0.21425
G1 X129.385 Y116.506 E0.25871
G1 X129.842 Y117.259 E0.31317
G1 X129.881 Y117.365 E0.32017
G1 X129.899 Y117.486 E0.32772
G1 X129.889 Y117.596 E0.3346
G1 X129.838 Y117.747 E0.34445
G1 X129.575 Y118.197 E0.37665
G1 X129.165 Y118.818 E0.42265
G1 X128.674 Y119.484 E0.47379
G1 X128.482 Y119.215 E0.49422
G1 X128.228 Y119.023 E0.51387
G1 X127.82 Y118.869 E0.54083
G1 X127.555 Y118.839 E0.55731
G92 E0
G1 E-2 F2400
G1 X115.599 Y115.691 F36000
G1 E0 F2400
G1 F1800
G1 X115.388 Y116.181 E0.03292
G1 X115.415 Y116.669 E0.06317
G1 X115.539 Y117.037 E0.08714
G1 X116.131 Y118.104 E0.1626
G1 X116.23 Y118.262 E0.17413
G1 X116.046 Y118.523 E0.19388
G1 X115.816 Y118.925 E0.22252
G1 X115.453 Y118.538 E0.25533
G1 X115.203 Y118.352 E0.27457
G1 X114.922 Y118.21 E0.29403
G1 X114.602 Y118.116 E0.31471
G1 X114.167 Y118.088 E0.34166
G1 X113.871 Y118.133 E0.36012
G1 X113.897 Y117.48 E0.40055
G1 X113.875 Y116.918 E0.4353
G1 X113.77 Y116.253 E0.47695
G1 X113.678 Y115.924 E0.49805
G1 X113.507 Y115.491 E0.52684
G1 X113.211 Y114.985 E0.56307
G1 X112.873 Y114.591 E0.59516
G1 X112.441 Y114.246 E0.62935
G1 X111.956 Y114.009 E0.66268
G1 X111.397 Y113.863 E0.69838
G1 X110.88 Y113.796 E0.73065
G1 X109.205 Y113.757 E0.83423
G1 X108.797 Y113.8 E0.85956
G1 X108.338 Y113.978 E0.88999
G1 X107.953 Y114.353 E0.92321
G1 X107.748 Y115.092 E0.97062
G1 X107.369 Y114.47 E1.01563
G1 X107.103 Y114.184 E1.03977
G1 X106.87 Y114.004 E1.05796
G1 X106.53 Y113.821 E1.08184
G1 X106.25 Y113.721 E1.10024
G1 X105.859 Y113.637 E1.12496
G1 X105.518 Y113.6 E1.14615
G1 X105.041 Y113.599 E1.17562
G1 X104.67 Y113.64 E1.19872
G1 X104.267 Y113.73 E1.22424
G1 X103.894 Y113.877 E1.24904
G1 X103.641 Y114.018 E1.26693
G1 X103.291 Y114.283 E1.29409
G1 X102.926 Y113.956 E1.32436
G1 X102.61 Y113.814 E1.34576
G1 X102.339 Y113.769 E1.36273
G1 X99.002 Y113.78 E1.56905
G1 X98.301 Y113.734 E1.61245
G1 X97.94 Y113.799 E1.63515
G1 X97.617 Y113.97 E1.65777
G1 X97.213 Y114.397 E1.69409
G1 X96.736 Y114.032 E1.73122
G1 X96.379 Y113.838 E1.75633
G1 X95.972 Y113.697 E1.78296
G1 X95.503 Y113.614 E1.81242
G1 X94.804 Y113.606 E1.85562
G1 X94.434 Y113.655 E1.87873
G1 X94.044 Y113.751 E1.90353
G1 X93.517 Y113.973 E1.93888
G1 X93.143 Y114.214 E1.9664
G1 X92.898 Y114.417 E1.98606
G1 X92.382 Y114.966 E2.03264
G1 X92.383 Y112.56 E2.18142
G1 X92.423 Y112.297 E2.19784
G1 X92.464 Y112.173 E2.20589
G1 X92.528 Y112.043 E2.21486
G1 X92.595 Y111.945 E2.22219
G1 X92.684 Y111.849 E2.23029
G1 X92.782 Y111.769 E2.23812
G1 X92.874 Y111.714 E2.24473
G1 X93.08 Y111.635 E2.25837
G1 X93.337 Y111.595 E2.27445
G1 X116.696 Y110.167 E3.72112
G1 X117.557 Y110.142 E3.77436
G1 X118.589 Y110.178 E3.83819
G1 X119.361 Y110.256 E3.88615
G1 X120.149 Y110.381 E3.93547
G1 X121.201 Y110.619 E4.00214
G1 X121.973 Y110.848 E4.05194
G1 X122.991 Y111.225 E4.11904
G1 X123.814 Y111.599 E4.17494
G1 X124.694 Y112.071 E4.23663
G1 X125.387 Y112.502 E4.28709
G1 X126.27 Y113.137 E4.35433
G1 X127.036 Y113.779 E4.41612
G1 X127.685 Y114.401 E4.47167
G1 X128.321 Y115.092 E4.52976
G1 X128.171 Y115.346 E4.54797
G1 X127.618 Y115.21 E4.58316
G1 X125.387 Y115.205 E4.72108
G1 X125.104 Y115.225 E4.73863
G1 X124.771 Y115.297 E4.75966
G1 X124.435 Y115.463 E4.78285
G1 X124.278 Y115.626 E4.79684
G1 X123.912 Y115.34 E4.8256
G1 X123.529 Y115.203 E4.85073
G1 X123.11 Y115.226 E4.87666
G1 X122.751 Y115.401 E4.90134
G1 X122.484 Y115.655 E4.92415
G1 X122.272 Y115.965 E4.94733
G1 X122.055 Y116.427 E4.97891
G1 X121.797 Y115.85 E5.01802
G1 X121.559 Y115.558 E5.04128
G1 X121.233 Y115.344 E5.06537
G1 X120.901 Y115.233 E5.08698
G1 X120.503 Y115.199 E5.11167
G1 X120.025 Y115.322 E5.14218
G1 X119.673 Y115.618 E5.17062
G1 X119.085 Y115.242 E5.21378
G1 X118.542 Y115.197 E5.24745
G1 X118.088 Y115.393 E5.27804
G1 X117.667 Y115.742 E5.31183
G1 X117.38 Y115.464 E5.33658
G1 X117.139 Y115.312 E5.35417
G1 X116.805 Y115.209 E5.37579
G1 X116.476 Y115.205 E5.39611
G1 X116.008 Y115.351 E5.42645
G1 X115.645 Y115.653 E5.45563
G92 E0
G1 E-2 F2400
G1 X97.474 Y116.009 F36000
G1 E0 F2400
G1 F1800
G1 X97.915 Y116.257 E0.03124
G1 X98.298 Y116.326 E0.05532
G1 X99.03 Y116.25 E0.10083
G1 X99.007 Y116.629 E0.12435
G1 X99.024 Y119.413 E0.29642
G1 X98.98 Y120.123 E0.3404
G1 X99.063 Y120.479 E0.36296
G1 X99.245 Y120.788 E0.38516
G1 X99.645 Y121.08 E0.41577
G1 X100.169 Y121.197 E0.44899
G1 X100.665 Y121.131 E0.47991
G1 X101.031 Y120.931 E0.5057
G1 X101.303 Y120.624 E0.53106
G1 X101.453 Y120.278 E0.55436
G1 X101.518 Y119.913 E0.57724
G1 X101.503 Y116.273 E0.80227
G1 X102.01 Y116.281 E0.83365
G1 X102.427 Y116.237 E0.85958
G1 X102.788 Y116.125 E0.88295
G1 X103.133 Y115.861 E0.9098
G1 X103.313 Y116.111 E0.92879
G1 X103.806 Y116.499 E0.96757
G1 X103.699 Y116.72 E0.98278
G1 X103.608 Y117.082 E1.00583
G1 X103.615 Y117.47 E1.02983
G1 X103.761 Y117.885 E1.05701
G1 X104.288 Y118.384 E1.1019
G1 X103.698 Y118.489 E1.1389
G1 X103.256 Y118.766 E1.1712
G1 X102.974 Y119.233 E1.2049
G1 X102.919 Y119.754 E1.23726
G1 X103.009 Y120.17 E1.2636
G1 X103.23 Y120.578 E1.29228
G1 X103.525 Y120.864 E1.31767
G1 X103.847 Y121.06 E1.34097
G1 X104.221 Y121.202 E1.36569
G1 X104.607 Y121.289 E1.39019
G1 X104.912 Y121.324 E1.40913
G1 X105.383 Y121.331 E1.43824
G1 X105.837 Y121.286 E1.46643
G1 X106.361 Y121.144 E1.50004
G1 X106.856 Y120.881 E1.53466
G1 X107.28 Y120.518 E1.5692
G1 X107.778 Y119.843 E1.62104
G1 X107.972 Y120.496 E1.66318
G1 X108.169 Y120.82 E1.68662
G1 X108.461 Y121.057 E1.70983
G1 X108.757 Y121.168 E1.72939
G1 X109.091 Y121.196 E1.75012
G1 X109.556 Y121.152 E1.779
G1 X110.362 Y121.16 E1.82881
G1 X110.931 Y121.13 E1.86407
G1 X111.546 Y121.031 E1.90252
G1 X112.066 Y120.856 E1.93651
G1 X112.615 Y120.547 E1.97539
G1 X112.826 Y120.908 E2.00124
G1 X113.096 Y121.203 E2.02597
G1 X113.394 Y121.415 E2.04859
G1 X113.691 Y121.547 E2.06862
G1 X113.994 Y121.621 E2.08793
G1 X114.306 Y121.642 E2.10728
G1 X114.618 Y121.609 E2.12667
G1 X114.938 Y121.515 E2.14727
G1 X115.32 Y121.301 E2.1743
G1 X115.637 Y121.018 E2.20061
G1 X116.185 Y121.319 E2.23931
G1 X116.727 Y121.372 E2.27293
G1 X117.201 Y121.155 E2.3052
G1 X117.633 Y120.726 E2.34278
G1 X117.845 Y121.02 E2.36517
G1 X118.16 Y121.256 E2.38953
G1 X118.548 Y121.374 E2.41461
G1 X118.95 Y121.365 E2.43947
G1 X119.345 Y121.237 E2.46513
G1 X119.728 Y120.928 E2.49553
G1 X119.927 Y120.53 E2.52303
G1 X119.977 Y120.123 E2.54835
G1 X119.917 Y119.719 E2.57363
G1 X119.736 Y119.316 E2.6009
G1 X119.067 Y118.202 E2.68128
G1 X119.612 Y117.279 E2.74751
G1 X119.901 Y117.982 E2.7945
G1 X120.497 Y119.592 E2.90064
G1 X120.768 Y120.212 E2.94243
G1 X120.571 Y120.622 E2.97058
G1 X120.362 Y121.169 E3.00678
G1 X120.296 Y121.28 E3.01474
G1 X120.225 Y121.34 E3.02054
G1 X120.173 Y121.363 E3.02405
G1 X119.652 Y121.514 E3.05753
G1 X119.321 Y121.728 E3.08196
G1 X119.083 Y122.075 E3.10796
G1 X119.005 Y122.456 E3.132
G1 X119.021 Y122.73 E3.14896
G1 X119.086 Y122.995 E3.1658
G1 X119.252 Y123.346 E3.18979
G1 X119.573 Y123.677 E3.2183
G1 X119.874 Y123.828 E3.2391
G1 X120.226 Y123.899 E3.26132
G1 X120.59 Y123.883 E3.28386
G1 X120.964 Y123.798 E3.30756
G1 X121.248 Y123.7 E3.32611
G1 X121.606 Y123.524 E3.35078
G1 X121.985 Y123.217 E3.38091
G1 X122.222 Y122.913 E3.40475
G1 X122.373 Y122.659 E3.42301
G1 X122.663 Y122.021 E3.46636
G1 X123.052 Y121.017 E3.53291
G1 X123.656 Y119.331 E3.64364
G1 X124.009 Y118.344 E3.7084
G1 X124.217 Y117.715 E3.74937
G1 X124.345 Y117.423 E3.76906
G1 X124.707 Y117.62 E3.79455
G1 X125.158 Y117.754 E3.82365
G1 X124.327 Y118.9 E3.91115
G1 X124.12 Y119.239 E3.93573
G1 X123.981 Y119.579 E3.95841
G1 X123.917 Y119.947 E3.98154
G1 X123.946 Y120.345 E4.00617
G1 X124.119 Y120.817 E4.0373
G1 X124.487 Y121.201 E4.07012
G1 X124.856 Y121.346 E4.09465
G1 X125.131 Y121.38 E4.1118
G1 X125.744 Y121.35 E4.14969
G1 X126.487 Y121.352 E4.19566
G1 X126.578 Y121.62 E4.21315
G1 X125.963 Y122.096 E4.26126
G1 X125.468 Y122.445 E4.29865
G1 X124.969 Y122.765 E4.33531
G1 X124.346 Y123.126 E4.37985
G1 X123.539 Y123.533 E4.4357
G1 X122.676 Y123.901 E4.49369
G1 X121.792 Y124.21 E4.55162
G1 X120.889 Y124.46 E4.60951
G1 X119.967 Y124.652 E4.66772
G1 X119.123 Y124.772 E4.72043
G1 X118.252 Y124.842 E4.77447
G1 X117.327 Y124.857 E4.83161
G1 X116.674 Y124.832 E4.87207
G1 X93.342 Y123.406 E6.31706
G1 X93.037 Y123.353 E6.33617
G1 X92.94 Y123.319 E6.3425
G1 X92.826 Y123.26 E6.35044
G1 X92.727 Y123.191 E6.35793
G1 X92.651 Y123.119 E6.36436
G1 X92.517 Y122.937 E6.37836
G1 X92.465 Y122.828 E6.38582
G1 X92.42 Y122.691 E6.39475
G1 X92.391 Y122.538 E6.40439
G1 X92.38 Y122.368 E6.41492
G1 X92.381 Y119.969 E6.56317
G1 X92.859 Y120.476 E6.60624
G1 X93.204 Y120.762 E6.63391
G1 X93.693 Y121.043 E6.66879
G1 X93.994 Y121.162 E6.68879
G1 X94.325 Y121.253 E6.71005
G1 X94.646 Y121.307 E6.73018
G1 X95.133 Y121.333 E6.76032
G1 X95.595 Y121.303 E6.78894
G1 X96.014 Y121.221 E6.8153
G1 X96.398 Y121.084 E6.84052
G1 X96.658 Y120.948 E6.85866
G1 X96.974 Y120.722 E6.88265
G1 X97.261 Y120.424 E6.90827
G1 X97.531 Y119.982 E6.94027
G1 X97.678 Y119.47 E6.97317
G1 X97.501 Y118.9 E7.01007
G1 X97.13 Y118.513 E7.04324
G1 X96.664 Y118.302 E7.07484
G1 X96.261 Y118.256 E7.09987
G1 X95.898 Y118.317 E7.12263
G1 X95.644 Y118.432 E7.13992
G1 X95.435 Y118.588 E7.156
G1 X95.303 Y118.744 E7.16864
G1 X95.162 Y118.779 E7.1776
G1 X94.98 Y118.78 E7.18884
G1 X94.869 Y118.757 E7.19589
G1 X94.712 Y118.688 E7.20644
G1 X94.612 Y118.61 E7.2143
G1 X94.522 Y118.491 E7.22354
G1 X94.456 Y118.347 E7.23331
G1 X94.395 Y118.129 E7.24735
G1 X94.355 Y117.846 E7.26496
G1 X94.338 Y117.426 E7.291
G1 X94.359 Y117.044 E7.31461
G1 X94.402 Y116.774 E7.33153
G1 X94.46 Y116.574 E7.34442
G1 X94.522 Y116.441 E7.35346
G1 X94.619 Y116.31 E7.36355
G1 X94.683 Y116.256 E7.36874
G1 X94.781 Y116.201 E7.37563
G1 X94.884 Y116.166 E7.3824
G1 X95.025 Y116.151 E7.39113
G1 X95.118 Y116.17 E7.39702
G1 X95.784 Y116.546 E7.44432
G1 X96.138 Y116.658 E7.46728
G1 X96.523 Y116.679 E7.49111
G1 X96.925 Y116.556 E7.51708
G1 X97.24 Y116.315 E7.54163
G1 X97.438 Y116.057 E7.56169
G92 E0
G1 E-2 F2400
G1 X115.889 Y116.27 F36000
G1 E0 F2400
;TYPE:External perimeter
G1 F1800
G1 X115.906 Y116.574 E0.01887
G1 X115.994 Y116.835 E0.03589
G1 X116.558 Y117.852 E0.10774
G1 X116.813 Y118.258 E0.13742
G1 X116.787 Y118.333 E0.14234
G1 X116.464 Y118.789 E0.17688
G1 X115.932 Y119.722 E0.24322
G1 X115.863 Y119.897 E0.25491
G1 X115.819 Y120.119 E0.26887
G1 X115.824 Y120.285 E0.27913
G1 X115.896 Y120.492 E0.29272
G1 X116.059 Y120.685 E0.30831
G1 X116.335 Y120.836 E0.32775
G1 X116.642 Y120.866 E0.34679
G1 X116.914 Y120.741 E0.36535
G1 X117.092 Y120.565 E0.38082
G1 X117.303 Y120.266 E0.40342
G1 X117.498 Y119.933 E0.42728
G1 X117.611 Y119.685 E0.44413
G1 X118.006 Y120.396 E0.49443
G1 X118.203 Y120.669 E0.51519
G1 X118.388 Y120.808 E0.52951
G1 X118.616 Y120.877 E0.54426
G1 X118.866 Y120.871 E0.55972
G1 X119.105 Y120.793 E0.57525
G1 X119.333 Y120.61 E0.59333
G1 X119.445 Y120.384 E0.60891
G1 X119.477 Y120.13 E0.62478
G1 X119.437 Y119.86 E0.64165
G1 X119.296 Y119.546 E0.66288
G1 X118.615 Y118.412 E0.7447
G1 X118.573 Y118.302 E0.75196
G1 X118.565 Y118.202 E0.75817
G1 X118.585 Y118.088 E0.76528
G1 X118.653 Y117.927 E0.7761
G1 X119.343 Y116.76 E0.85992
G1 X119.426 Y116.432 E0.88079
G1 X119.354 Y116.128 E0.90012
G1 X119.183 Y115.893 E0.91812
G1 X118.922 Y115.726 E0.93727
G1 X118.625 Y115.701 E0.95569
G1 X118.35 Y115.82 E0.97422
G1 X118.15 Y115.985 E0.99022
G1 X117.958 Y116.218 E1.00886
G1 X117.804 Y116.495 E1.02849
G1 X117.686 Y116.763 E1.04658
G1 X117.48 Y116.363 E1.07441
G1 X117.247 Y116.025 E1.09977
G1 X117.072 Y115.856 E1.11484
G1 X116.93 Y115.766 E1.1252
G1 X116.727 Y115.703 E1.13833
G1 X116.549 Y115.702 E1.14935
G1 X116.249 Y115.795 E1.16878
G1 X116.007 Y115.997 E1.18825
G1 X115.913 Y116.215 E1.20292
;WIPE_START
G1 X115.525 Y116.434 F36000
;WIPE_END
G92 E0
G1 E-2 F2400
G1 X120.085 Y115.92 F36000
G1 E0 F2400
G1 F1800
G1 X119.994 Y116.074 E0.01109
G1 X119.934 Y116.365 E0.02945
G1 X119.968 Y116.741 E0.05281
G1 X120.062 Y117.07 E0.07392
G1 X120.363 Y117.802 E0.12285
G1 X120.957 Y119.407 E0.22864
G1 X121.229 Y120.029 E0.27064
G1 X121.268 Y120.225 E0.28295
G1 X121.213 Y120.431 E0.29613
G1 X121.027 Y120.818 E0.32271
G1 X120.81 Y121.387 E0.36035
G1 X120.679 Y121.605 E0.37606
G1 X120.491 Y121.765 E0.39133
G1 X120.343 Y121.83 E0.40134
G1 X119.86 Y121.969 E0.43238
G1 X119.673 Y122.09 E0.44614
G1 X119.548 Y122.273 E0.45978
G1 X119.504 Y122.492 E0.47362
G1 X119.513 Y122.657 E0.48382
G1 X119.555 Y122.828 E0.49474
G1 X119.665 Y123.06 E0.51057
G1 X119.87 Y123.272 E0.52883
G1 X120.037 Y123.355 E0.54031
G1 X120.265 Y123.401 E0.5547
G1 X120.524 Y123.39 E0.57074
G1 X120.828 Y123.321 E0.59003
G1 X121.057 Y123.242 E0.60496
G1 X121.337 Y123.103 E0.6243
G1 X121.629 Y122.868 E0.64752
G1 X121.812 Y122.633 E0.66589
G1 X121.933 Y122.43 E0.68052
G1 X122.206 Y121.829 E0.72133
G1 X122.588 Y120.844 E0.78662
G1 X123.54 Y118.183 E0.96132
G1 X123.753 Y117.537 E1.00335
G1 X124.041 Y116.882 E1.04761
G1 X124.113 Y116.581 E1.06671
G1 X124.095 Y116.357 E1.08064
G1 X124.003 Y116.122 E1.09624
G1 X123.857 Y115.926 E1.11132
G1 X123.669 Y115.78 E1.12605
G1 X123.457 Y115.703 E1.14003
G1 X123.238 Y115.716 E1.15359
G1 X123.037 Y115.813 E1.16738
G1 X122.863 Y115.978 E1.1822
G1 X122.704 Y116.212 E1.19966
G1 X122.564 Y116.509 E1.21999
G1 X122.075 Y117.963 E1.31479
