; generated by SuperSlicer 2.4 on 2022-08-09 at 18:31:16 UTC

; 

; external perimeters extrusion width = 0.40mm
; perimeters extrusion width = 0.48mm
; infill extrusion width = 0.72mm
; solid infill extrusion width = 0.56mm
; top infill extrusion width = 0.40mm
; first layer extrusion width = 0.48mm

; object:{"name":"belt grabber","id":"belt grabber.stl id:0 copy 0","object_center":[117.500000,117.500000,0.000000],"boundingbox_center":[117.500000,117.500000,2.700000],"boundingbox_size":[9.999999,22.500000,5.400000]}
; Total objects to print: 1
M486 T1
; plater:{"center":[117.500000,117.500000,0.000000],"boundingbox_center":[117.500000,117.500000,2.700000],"boundingbox_size":[9.999999,22.500000,5.400000]}

M140 S65 ; set bed temperature
M104 S220 ; set temperature
;TYPE:Custom
print_start EXTRUDER=220 BED=65 CHAMBER=0
M107
G21 ; set units to millimeters
G90 ; use absolute coordinates
M82 ; use absolute distances for extrusion
G92 E0
; Filament gcode
M109 S220 ; set temperature and wait for it to be reached
M190 S65 ; set bed temperature and wait for it to be reached
M107
;LAYER_CHANGE
;Z:0.25
;HEIGHT:0.25
G1 Z0.25 F27000
; INIT printing object belt grabber.stl id:0 copy 0
G1 E-2 F2400
; printing object belt grabber.stl id:0 copy 0
M486 S0
M204 P1500 T1500
G1 X115.579 Y112.184 F27000
G1 E0 F2400
;TYPE:Internal perimeter
;WIDTH:0.48
G1 F1800
G1 X115.701 Y112.208 E0.00551
G1 X116.399 Y112.208 E0.03645
G1 X116.959 Y112.098 E0.06174
G1 X117.605 Y111.834 E0.09267
G1 X118.082 Y111.52 E0.11796
G1 X118.419 Y111.19 E0.13889
G1 X118.944 Y111.622 E0.16903
G1 X119.386 Y111.906 E0.1923
G1 X119.858 Y112.135 E0.21556
G1 X120.354 Y112.307 E0.23883
G1 X120.551 Y112.35 E0.24777
G1 X120.881 Y112.79 E0.27212
G1 X120.881 Y122.21 E0.68958
G1 X120.551 Y122.65 E0.71393
G1 X120.354 Y122.693 E0.72287
G1 X119.858 Y122.865 E0.74614
G1 X119.386 Y123.094 E0.76941
G1 X118.944 Y123.378 E0.79267
G1 X118.448 Y123.787 E0.82116
G1 X117.77 Y123.261 E0.85918
G1 X117.26 Y123.005 E0.88447
G1 X116.557 Y122.809 E0.91681
G1 X115.796 Y122.78 E0.95056
G1 X115.08 Y122.92 E0.9829
G1 X114.551 Y123.136 E1.00819
G1 X114.119 Y123.421 E1.03112
G1 X114.119 Y111.59 E1.55538
G1 X114.665 Y111.92 E1.58367
G1 X115.172 Y112.104 E1.60755
G1 X115.52 Y112.172 E1.62327
G1 X115.661 Y111.766 F27000
G1 F1800
G1 X115.742 Y111.782 E1.62694
G1 X116.358 Y111.782 E1.6542
G1 X116.836 Y111.688 E1.67582
G1 X117.406 Y111.455 E1.70308
G1 X117.813 Y111.187 E1.72469
G1 X118.269 Y110.74 E1.75299
G1 X118.411 Y110.514 E1.7648
G1 X118.816 Y110.964 E1.79162
G1 X119.196 Y111.277 E1.81343
G1 X119.595 Y111.534 E1.83445
G1 X120.021 Y111.741 E1.85547
G1 X120.47 Y111.896 E1.87649
G1 X120.797 Y111.967 E1.89134
G1 X121.307 Y112.648 E1.92902
G1 X121.307 Y122.352 E2.35908
G1 X120.797 Y123.033 E2.39677
G1 X120.47 Y123.104 E2.41162
G1 X120.021 Y123.259 E2.43264
G1 X119.595 Y123.466 E2.45365
G1 X119.196 Y123.723 E2.47468
G1 X118.816 Y124.036 E2.49648
G1 X118.419 Y124.477 E2.52278
G1 X118.046 Y124.015 E2.5491
G1 X117.542 Y123.624 E2.5774
G1 X117.106 Y123.405 E2.59901
G1 X116.491 Y123.233 E2.62731
G1 X115.829 Y123.208 E2.65664
G1 X115.203 Y123.331 E2.68493
G1 X114.751 Y123.515 E2.70655
G1 X114.237 Y123.853 E2.73381
G1 X113.693 Y124.387 E2.7676
G1 X113.693 Y110.604 E3.37838
G1 X114.304 Y111.203 E3.4163
G1 X114.85 Y111.533 E3.44459
G1 X115.287 Y111.692 E3.46517
G1 X115.602 Y111.754 E3.47942
G1 X115.825 Y111.355 F27000
G1 F1800
G1 X116.316 Y111.355 E3.50117
G1 X116.713 Y111.277 E3.5191
G1 X117.206 Y111.076 E3.54269
G1 X117.544 Y110.853 E3.56063
G1 X117.935 Y110.47 E3.58488
G1 X118.227 Y110.007 E3.60912
G1 X118.355 Y109.675 E3.62491
G1 X118.702 Y110.2 E3.65281
G1 X119.112 Y110.655 E3.67995
G1 X119.447 Y110.932 E3.69923
G1 X119.804 Y111.161 E3.718
G1 X120.185 Y111.346 E3.73677
G1 X120.585 Y111.485 E3.75555
G1 X121.043 Y111.584 E3.7763
G1 X121.734 Y112.505 E3.82732
G1 X121.734 Y122.495 E4.26998
G1 X121.043 Y123.416 E4.32099
G1 X120.585 Y123.515 E4.34175
G1 X120.185 Y123.654 E4.36052
G1 X119.804 Y123.839 E4.3793
G1 X119.447 Y124.068 E4.39807
G1 X119.112 Y124.345 E4.41735
G1 X118.702 Y124.8 E4.44449
G1 X118.376 Y125.293 E4.47066
G1 X118.089 Y124.747 E4.49797
G1 X117.746 Y124.321 E4.52222
G1 X117.313 Y123.986 E4.54647
G1 X116.951 Y123.804 E4.56441
G1 X116.424 Y123.658 E4.58866
G1 X115.862 Y123.636 E4.61358
G1 X115.325 Y123.741 E4.63783
G1 X114.951 Y123.894 E4.65576
G1 X114.506 Y124.187 E4.67935
G1 X114.228 Y124.46 E4.69662
G1 X113.995 Y124.772 E4.7139
G1 X113.765 Y125.252 E4.73748
G1 X113.664 Y125.645 E4.75542
G1 X113.633 Y126.191 E4.77967
G1 X113.728 Y126.73 E4.80392
G1 X113.868 Y127.093 E4.8212
G1 X114.063 Y127.431 E4.83848
G1 X114.555 Y127.993 E4.87158
G1 X113.82 Y127.986 E4.90414
G1 X113.266 Y127.433 E4.93884
G1 X113.266 Y107.567 E5.81914
G1 X113.82 Y107.014 E5.85381
G1 X114.587 Y107.008 E5.88783
G1 X114.228 Y107.359 E5.91008
G1 X113.995 Y107.672 E5.92738
G1 X113.765 Y108.152 E5.95097
G1 X113.664 Y108.545 E5.96891
G1 X113.633 Y109.091 E5.99316
G1 X113.73 Y109.645 E6.01808
G1 X113.947 Y110.147 E6.04232
G1 X114.176 Y110.481 E6.06026
G1 X114.567 Y110.864 E6.08451
G1 X115.035 Y111.147 E6.10876
G1 X115.401 Y111.28 E6.12604
G1 X115.766 Y111.352 E6.14249
; acceleration to travel
G1 X115.844 Y118.979 F27000
; decel to extrusion
G1 X115.896 Y124.064
; end travel
;TYPE:External perimeter
G1 F1800
M204 P1000 T1500
G1 X115.448 Y124.152 E6.1627
G1 X115.256 Y124.23 E6.17188
G1 X115.15 Y124.273 E6.17696
G1 X114.775 Y124.52 E6.19687
G1 X114.55 Y124.741 E6.21084
G1 X114.362 Y124.994 E6.2248
G1 X114.168 Y125.399 E6.24471
G1 X114.088 Y125.711 E6.25897
G1 X114.061 Y126.166 E6.27918
G1 X114.14 Y126.615 E6.29938
G1 X114.254 Y126.909 E6.31335
G1 X114.411 Y127.182 E6.32732
G1 X114.712 Y127.526 E6.34756
G1 X114.948 Y127.692 E6.36035
G1 X115.085 Y127.789 E6.36781
G1 X115.376 Y127.917 E6.38186
G1 X115.682 Y127.993 E6.39587
G1 X115.716 Y127.995 E6.39734
G1 X116.118 Y128.012 E6.41517
G1 X116.429 Y127.993 E6.42899
G1 X116.869 Y127.861 E6.44936
G1 X117.263 Y127.628 E6.46963
G1 X117.498 Y127.416 E6.48364
G1 X117.549 Y127.353 E6.48724
G1 X117.696 Y127.171 E6.49762
G1 X117.909 Y126.768 E6.51783
G1 X117.948 Y126.615 E6.52482
G1 X118.022 Y126.326 E6.53803
G1 X118.041 Y126.005 E6.5523
G1 X117.98 Y125.56 E6.5722
G1 X117.878 Y125.261 E6.58617
G1 X117.773 Y125.061 E6.59619
G1 X117.731 Y124.982 E6.60014
G1 X117.536 Y124.741 E6.6139
G1 X117.445 Y124.628 E6.62034
G1 X117.085 Y124.348 E6.64055
G1 X116.797 Y124.204 E6.65481
G1 X116.703 Y124.178 E6.65912
G1 X116.358 Y124.082 E6.67501
G1 X115.956 Y124.066 E6.69285
;WIPE_START
M204 P1500 T1500
G1 X115.657 Y123.743 F27000
;WIPE_END
; acceleration to travel
G1 X115.758 Y116.054
; decel to extrusion
G1 X115.825 Y110.929
; end travel
G1 F1800
M204 P1000 T1500
G1 X116.275 Y110.929 E6.71276
G1 X116.59 Y110.867 E6.72703
G1 X117.006 Y110.697 E6.74693
G1 X117.275 Y110.52 E6.7612
G1 X117.601 Y110.201 E6.7814
G1 X117.844 Y109.815 E6.8016
G1 X117.96 Y109.515 E6.81587
G1 X118.038 Y109.072 E6.83578
G1 X118.035 Y108.925 E6.84229
G1 X118.032 Y108.757 E6.84974
G1 X117.977 Y108.447 E6.86371
G1 X117.92 Y108.299 E6.87073
G1 X117.815 Y108.028 E6.88362
G1 X117.643 Y107.755 E6.89789
G1 X117.334 Y107.429 E6.91781
G1 X117.071 Y107.242 E6.93214
G1 X116.863 Y107.151 E6.94217
G1 X116.656 Y107.06 E6.95221
G1 X116.521 Y107.034 E6.95829
G1 X116.342 Y106.999 E6.9664
G1 X115.901 Y106.99 E6.98595
G1 X115.458 Y107.058 E7.00581
G1 X115.155 Y107.175 E7.0202
G1 X114.776 Y107.42 E7.04017
G1 X114.55 Y107.641 E7.05418
G1 X114.362 Y107.894 E7.06815
G1 X114.168 Y108.299 E7.08806
G1 X114.16 Y108.329 E7.08942
G1 X114.088 Y108.611 E7.10233
G1 X114.061 Y109.066 E7.12253
G1 X114.141 Y109.521 E7.14303
G1 X114.322 Y109.94 E7.16323
G1 X114.504 Y110.205 E7.1775
G1 X114.648 Y110.347 E7.18643
G1 X114.83 Y110.525 E7.1977
G1 X115.22 Y110.76 E7.2179
G1 X115.516 Y110.868 E7.23187
G1 X115.671 Y110.898 E7.23886
G1 X115.766 Y110.917 E7.24318
;WIPE_START
M204 P1500 T1500
G1 X116.003 Y111.287 F27000
;WIPE_END
G92 E0
G1 E-2 F2400
M204 P1000 T1000
G1 X112.84 Y107.391 F27000
G1 E0 F2400
G1 F1800
G1 X113.642 Y106.589 E0.05024
G1 X116.197 Y106.569 E0.16349
G1 X116.596 Y106.582 E0.18119
G1 X116.646 Y106.583 E0.18337
G1 X117.188 Y106.586 E0.20741
G1 X117.83 Y106.589 E0.23583
G1 X118.473 Y107.448 E0.28338
G1 X118.435 Y107.647 E0.29236
G1 X118.41 Y108.019 E0.30888
G1 X118.428 Y108.391 E0.32541
G1 X118.491 Y108.764 E0.34216
G1 X118.662 Y109.285 E0.36648
G1 X118.832 Y109.623 E0.38323
G1 X119.04 Y109.939 E0.39998
G1 X119.407 Y110.347 E0.42431
G1 X119.699 Y110.587 E0.44106
G1 X120.013 Y110.789 E0.45758
G1 X120.348 Y110.952 E0.47411
G1 X120.701 Y111.074 E0.49063
G1 X121.065 Y111.153 E0.50716
G1 X121.084 Y111.155 E0.50802
G1 X121.267 Y111.172 E0.51614
G1 X122.16 Y112.363 E0.58211
G1 X122.16 Y122.637 E1.03736
G1 X121.267 Y123.828 E1.10334
G1 X121.095 Y123.844 E1.11098
G1 X121.065 Y123.847 E1.11231
G1 X120.701 Y123.926 E1.12884
G1 X120.348 Y124.048 E1.14537
G1 X120.013 Y124.211 E1.16189
G1 X119.699 Y124.413 E1.17842
G1 X119.407 Y124.653 E1.19517
G1 X119.04 Y125.061 E1.21949
G1 X118.832 Y125.377 E1.23624
G1 X118.662 Y125.715 E1.25299
G1 X118.491 Y126.236 E1.27732
G1 X118.428 Y126.609 E1.29407
G1 X118.413 Y126.909 E1.30738
G1 X118.41 Y126.981 E1.31059
G1 X118.423 Y127.171 E1.31902
G1 X118.435 Y127.353 E1.32712
G1 X118.473 Y127.552 E1.33609
G1 X117.829 Y128.412 E1.3837
G1 X116.199 Y128.436 E1.45591
G1 X113.642 Y128.411 E1.56925
G1 X112.84 Y127.609 E1.6195
G1 X112.84 Y107.451 E2.5128
;WIPE_START
M204 P1500 T1000
G1 X113.24 Y107.391 F27000
;WIPE_END
G1 X114.022 Y107.209
;TYPE:Gap fill
;WIDTH:0.186019
G1 F1800
G1 X113.935 Y107.29 E2.51444
;WIDTH:0.215054
G1 X113.84 Y107.4 E2.51687
;WIDTH:0.261561
G1 X113.745 Y107.51 E2.52001
G1 X113.668 Y107.616 E2.52285
;WIDTH:0.313662
G1 X113.604 Y107.707 E2.52586
G1 X113.563 Y107.847 E2.52981
;WIDTH:0.197272
G1 X113.521 Y107.987 E2.53199
G1 X113.502 Y108.084 E2.53346
G1 X113.476 Y108.222 E2.53556
G92 E0
G1 E-2 F2400
G1 X116.666 Y106.819 F27000
G1 E0 F2400
;WIDTH:0.169029
G1 F1800
G1 X116.712 Y106.824 E0.00055
G1 X116.899 Y106.862 E0.00284
;WIDTH:0.25329
G1 X117.064 Y106.897 E0.00633
;WIDTH:0.334877
G1 X117.228 Y106.932 E0.01126
;WIDTH:0.414421
G1 X117.26 Y106.941 E0.01245
G1 X117.429 Y106.995 E0.01896
;WIDTH:0.542476
G1 X117.598 Y107.049 E0.02798
;WIDTH:0.566806
G1 X117.65 Y107.104 E0.032
G1 X117.807 Y107.291 E0.04504
;WIDTH:0.511711
G1 X117.965 Y107.478 E0.05667
G1 X118.019 Y107.553 E0.0611
;WIDTH:0.467728
G1 X118.057 Y107.713 E0.06818
;WIDTH:0.347806
G1 X118.097 Y107.872 E0.0732
;WIDTH:0.272852
G1 X118.119 Y108.01 E0.07638
;WIDTH:0.238185
G1 X118.151 Y108.163 E0.07938
;WIDTH:0.146009
G1 X118.181 Y108.305 E0.08077
G1 X118.191 Y108.35 E0.08121
G1 X120.817 Y112.979 F27000
;TYPE:Solid infill
;WIDTH:0.463752
G1 F3600
G1 X120.383 Y112.545 E0.10748
G1 X119.281 Y112.047 E0.15926
G1 X120.634 Y113.399 E0.24114
G1 X120.634 Y114.002 E0.26695
G1 X118.23 Y111.598 E0.41248
G1 X117.859 Y111.83 E0.43122
G1 X120.634 Y114.605 E0.59925
G1 X120.634 Y115.208 E0.62507
G1 X117.487 Y112.061 E0.8156
G1 X117.115 Y112.292 E0.83435
G1 X120.634 Y115.811 E1.04739
G1 X120.634 Y116.414 E1.07321
G1 X116.598 Y112.378 E1.31757
G1 X116.043 Y112.426 E1.3414
G1 X120.634 Y117.017 E1.61934
G1 X120.634 Y117.619 E1.64515
G1 X115.351 Y112.337 E1.96503
G1 X114.366 Y111.952 E2.01028
G1 X120.634 Y118.222 E2.38985
G1 X120.634 Y118.825 E2.41566
G1 X114.366 Y112.558 E2.79514
G1 X114.366 Y113.161 E2.82095
G1 X120.634 Y119.428 E3.20043
G1 X120.634 Y120.031 E3.22625
G1 X114.366 Y113.764 E3.60572
G1 X114.366 Y114.367 E3.63154
G1 X120.634 Y120.634 E4.01102
G1 X120.634 Y121.237 E4.03683
G1 X114.366 Y114.97 E4.41631
G1 X114.366 Y115.573 E4.44212
G1 X120.634 Y121.84 E4.8216
G1 X120.634 Y122.076 E4.83169
G1 X120.411 Y122.22 E4.84306
G1 X114.366 Y116.176 E5.20905
G1 X114.366 Y116.779 E5.23486
G1 X120.045 Y122.457 E5.57869
G1 X119.679 Y122.694 E5.59736
G1 X114.366 Y117.382 E5.91904
G1 X114.366 Y117.985 E5.94485
G1 X119.313 Y122.931 E6.24438
G1 X118.947 Y123.169 E6.26304
G1 X114.366 Y118.587 E6.54042
G1 X114.366 Y119.19 E6.56623
G1 X118.581 Y123.406 E6.82145
G1 X118.434 Y123.501 E6.82897
G1 X117.689 Y123.116 E6.86487
G1 X114.366 Y119.793 E7.06606
G1 X114.366 Y120.396 E7.09187
G1 X116.533 Y122.563 E7.22307
G1 X115.972 Y122.605 E7.24715
G1 X114.366 Y120.999 E7.34439
G1 X114.366 Y121.602 E7.3702
G1 X115.412 Y122.648 E7.43349
G1 X115.011 Y122.678 E7.45071
G1 X114.898 Y122.736 E7.45616
G1 X114.366 Y122.205 E7.48833
G1 X114.366 Y122.808 E7.51415
G1 X114.637 Y123.079 E7.53054
G1 X113.462 Y126.798 F27000
;TYPE:Gap fill
;WIDTH:0.219563
G1 F1800
G1 X113.501 Y126.943 E7.53313
G1 X113.541 Y127.091 E7.53576
G1 X113.585 Y127.253 E7.53865
;WIDTH:0.27616
G1 X113.599 Y127.295 E7.53968
;WIDTH:0.311917
G1 X113.713 Y127.442 E7.54468
;WIDTH:0.247104
G1 X113.826 Y127.59 E7.54843
G1 X113.936 Y127.709 E7.55169
;WIDTH:0.192079
G1 X114.035 Y127.793 E7.55355
G1 X116.576 Y128.195 F27000
;WIDTH:0.162385
G1 F1800
G1 X116.622 Y128.188 E7.55407
G1 X116.799 Y128.16 E7.55609
;WIDTH:0.227885
G1 X116.976 Y128.133 E7.55933
;WIDTH:0.252747
G1 X117.071 Y128.108 E7.56137
;WIDTH:0.320424
G1 X117.213 Y128.068 E7.56548
;WIDTH:0.409172
G1 X117.356 Y128.028 E7.57095
;WIDTH:0.49792
G1 X117.499 Y127.988 E7.57779
;WIDTH:0.552797
G1 X117.595 Y127.952 E7.58311
;WIDTH:0.587573
G1 X117.697 Y127.84 E7.59155
;WIDTH:0.513298
G1 X117.8 Y127.728 E7.59881
G1 X117.922 Y127.573 E7.60821
G1 X118.02 Y127.447 E7.61585
;WIDTH:0.482904
G1 X118.039 Y127.373 E7.61926
;WIDTH:0.413699
G1 X118.079 Y127.181 E7.62659
;WIDTH:0.285053
G1 X118.119 Y126.99 E7.6313
;WIDTH:0.214713
G1 X118.152 Y126.87 E7.63338
;WIDTH:0.14601
G1 X118.182 Y126.674 E7.63528
G1 X118.189 Y126.629 E7.63572
; INIT stop printing object belt grabber.stl id:0 copy 0
M106 S81.6
;LAYER_CHANGE
;Z:0.45
;HEIGHT:0.2
; stop printing object belt grabber.stl id:0 copy 0
M486 S-1
G1 Z0.45 F27000
; INIT printing object belt grabber.stl id:0 copy 0
; printing object belt grabber.stl id:0 copy 0
M486 S0
G1 X116.268 Y112.127
;TYPE:Internal perimeter
;WIDTH:0.48
G1 F9000
G1 X116.391 Y112.127 E7.64022
G1 X116.936 Y112.02 E7.66038
G1 X117.567 Y111.762 E7.68518
G1 X118.031 Y111.457 E7.70535
G1 X118.437 Y111.059 E7.72601
G1 X118.576 Y111.214 E7.7336
G1 X118.992 Y111.557 E7.75317
G1 X119.426 Y111.835 E7.7719
G1 X119.889 Y112.06 E7.79063
G1 X120.384 Y112.232 E7.80967
G1 X120.595 Y112.273 E7.81749
G1 X120.962 Y112.763 E7.83971
G1 X120.962 Y122.237 E8.18406
G1 X120.595 Y122.727 E8.20628
G1 X120.384 Y122.768 E8.2141
G1 X119.889 Y122.94 E8.23314
G1 X119.425 Y123.165 E8.25187
G1 X118.992 Y123.443 E8.2706
G1 X118.576 Y123.786 E8.29017
G1 X118.433 Y123.945 E8.29794
G1 X118.29 Y123.767 E8.30627
G1 X117.726 Y123.33 E8.33216
G1 X117.231 Y123.081 E8.35233
G1 X116.544 Y122.89 E8.37822
G1 X115.802 Y122.861 E8.40521
G1 X115.103 Y122.999 E8.4311
G1 X114.589 Y123.208 E8.45127
G1 X114.038 Y123.571 E8.47526
G1 X114.038 Y111.446 E8.91592
G1 X114.701 Y111.846 E8.94405
G1 X115.194 Y112.026 E8.96313
G1 X115.709 Y112.127 E8.9822
G1 X116.208 Y112.127 E9.00033
G1 X116.268 Y111.69 F27000
G1 F9000
G1 X116.349 Y111.69 E9.00328
G1 X116.81 Y111.599 E9.02035
G1 X117.363 Y111.373 E9.04206
G1 X117.755 Y111.115 E9.05913
G1 X118.197 Y110.682 E9.08163
G1 X118.398 Y110.362 E9.09534
G1 X118.88 Y110.898 E9.12151
G1 X119.25 Y111.203 E9.13894
G1 X119.64 Y111.453 E9.15579
G1 X120.057 Y111.656 E9.17263
G1 X120.499 Y111.809 E9.18962
G1 X120.844 Y111.877 E9.20243
G1 X121.399 Y112.617 E9.23604
G1 X121.399 Y122.383 E9.59098
G1 X120.844 Y123.123 E9.62458
G1 X120.499 Y123.191 E9.63739
G1 X120.057 Y123.344 E9.65439
G1 X119.64 Y123.547 E9.67123
G1 X119.25 Y123.797 E9.68807
G1 X118.88 Y124.102 E9.70551
G1 X118.415 Y124.619 E9.73075
G1 X117.981 Y124.081 E9.75586
G1 X117.492 Y123.702 E9.77835
G1 X117.072 Y123.491 E9.79543
G1 X116.476 Y123.325 E9.81792
G1 X115.836 Y123.3 E9.8412
G1 X115.229 Y123.419 E9.86369
G1 X114.794 Y123.597 E9.88077
G1 X114.295 Y123.925 E9.90247
G1 X113.975 Y124.239 E9.91877
G1 X113.841 Y124.42 E9.92695
G1 X113.601 Y124.34 E9.93612
G1 X113.601 Y110.669 E10.43299
G1 X113.847 Y110.593 E10.44235
G1 X113.918 Y110.697 E10.44694
G1 X114.36 Y111.13 E10.46944
