; generated by SuperSlicer 2.4 on 2022-08-09 at 21:47:11 UTC

; 

; external perimeters extrusion width = 0.40mm
; perimeters extrusion width = 0.48mm
; infill extrusion width = 0.72mm
; solid infill extrusion width = 0.56mm
; top infill extrusion width = 0.40mm
; first layer extrusion width = 0.48mm

; object:{"name":"Body1","id":"Body1.stl id:0 copy 0","object_center":[117.500000,117.500000,0.000000],"boundingbox_center":[117.500000,117.500000,11.509186],"boundingbox_size":[145.456963,22.500000,23.018372]}
; Total objects to print: 1
M486 T1
; plater:{"center":[117.500000,117.500000,0.000000],"boundingbox_center":[117.500000,117.500000,11.509186],"boundingbox_size":[145.456963,22.500000,23.018372]}

M140 S110 ; set bed temperature
M104 S260 ; set temperature
;TYPE:Custom
print_start EXTRUDER=260 BED=110 CHAMBER=50
M107
G21 ; set units to millimeters
G90 ; use absolute coordinates
M82 ; use absolute distances for extrusion
G92 E0
; Filament gcode
SET_PRESSURE_ADVANCE ADVANCE=0.065
M109 S260 ; set temperature and wait for it to be reached
M190 S110 ; set bed temperature and wait for it to be reached
M107
;LAYER_CHANGE
;Z:0.25
;HEIGHT:0.25
G1 Z0.25 F27000
; INIT printing object Body1.stl id:0 copy 0
G1 E-2 F2400
; printing object Body1.stl id:0 copy 0
M486 S0
M204 P1500 T1500
G1 X96.048 Y117.359 F27000
G1 E0 F2400
;TYPE:Internal perimeter
;WIDTH:0.48
G1 F1800
G1 X95.678 Y117.714 E0.02202
G1 X95.308 Y118.206 E0.04847
G1 X95.022 Y118.751 E0.07493
G1 X94.828 Y119.335 E0.10138
G1 X94.729 Y119.942 E0.12783
G1 X94.729 Y120.558 E0.15429
G1 X94.828 Y121.165 E0.18075
G1 X95.022 Y121.749 E0.2072
G1 X95.308 Y122.294 E0.23366
G1 X95.678 Y122.786 E0.26011
G1 X96.122 Y123.212 E0.28657
G1 X96.629 Y123.562 E0.31302
G1 X97.185 Y123.826 E0.33948
G1 X97.776 Y123.997 E0.36593
G1 X98.387 Y124.071 E0.39239
G1 X99.002 Y124.046 E0.41884
G1 X99.605 Y123.923 E0.4453
G1 X100.18 Y123.705 E0.47175
G1 X100.713 Y123.397 E0.49821
G1 X101.19 Y123.008 E0.52466
G1 X101.598 Y122.547 E0.55112
G1 X101.927 Y122.027 E0.57757
G1 X102.168 Y121.461 E0.60403
G1 X102.316 Y120.863 E0.63048
G1 X102.365 Y120.25 E0.65694
G1 X102.316 Y119.637 E0.6834
G1 X102.168 Y119.039 E0.70985
G1 X101.927 Y118.473 E0.7363
G1 X101.598 Y117.953 E0.76276
G1 X101.19 Y117.492 E0.78922
G1 X100.713 Y117.103 E0.81567
G1 X100.18 Y116.795 E0.84213
G1 X99.605 Y116.577 E0.86858
G1 X99.002 Y116.454 E0.89504
G1 X98.387 Y116.429 E0.92149
G1 X97.83 Y116.496 E0.94561
G1 X97.194 Y116.67 E0.97394
G1 X96.629 Y116.938 E1.00084
G1 X96.122 Y117.288 E1.02729
G1 X96.091 Y117.318 E1.02915
G1 X96.343 Y117.667 F27000
G1 F1800
G1 X95.998 Y117.998 E1.04969
G1 X95.67 Y118.435 E1.07318
G1 X95.416 Y118.919 E1.09668
G1 X95.243 Y119.437 E1.12018
G1 X95.155 Y119.977 E1.14367
G1 X95.155 Y120.523 E1.16717
G1 X95.243 Y121.063 E1.19066
G1 X95.416 Y121.581 E1.21416
G1 X95.67 Y122.065 E1.23766
G1 X95.998 Y122.502 E1.26115
G1 X96.393 Y122.881 E1.28465
G1 X96.842 Y123.192 E1.30815
G1 X97.336 Y123.426 E1.33164
G1 X97.861 Y123.578 E1.35514
G1 X98.404 Y123.644 E1.37864
G1 X98.95 Y123.622 E1.40213
G1 X99.486 Y123.512 E1.42563
G1 X99.997 Y123.319 E1.44912
G1 X100.47 Y123.045 E1.47262
G1 X100.894 Y122.7 E1.49612
G1 X101.256 Y122.29 E1.51961
G1 X101.548 Y121.828 E1.54311
G1 X101.763 Y121.326 E1.5666
G1 X101.893 Y120.795 E1.5901
G1 X101.937 Y120.25 E1.6136
G1 X101.893 Y119.705 E1.63709
G1 X101.763 Y119.174 E1.66059
G1 X101.548 Y118.672 E1.68409
G1 X101.256 Y118.21 E1.70758
G1 X100.894 Y117.8 E1.73108
G1 X100.47 Y117.455 E1.75457
G1 X99.997 Y117.181 E1.77807
G1 X99.486 Y116.988 E1.80157
G1 X98.95 Y116.878 E1.82506
G1 X98.404 Y116.856 E1.84856
G1 X97.912 Y116.916 E1.86986
G1 X97.342 Y117.071 E1.89524
G1 X96.842 Y117.308 E1.91903
G1 X96.386 Y117.625 E1.9429
G1 X96.638 Y117.974 F27000
G1 F1800
G1 X96.319 Y118.281 E1.96196
G1 X96.032 Y118.663 E1.98249
G1 X95.809 Y119.086 E2.00303
G1 X95.658 Y119.54 E2.02357
G1 X95.582 Y120.011 E2.0441
G1 X95.582 Y120.489 E2.06464
G1 X95.658 Y120.96 E2.08518
G1 X95.809 Y121.414 E2.10572
G1 X96.032 Y121.837 E2.12626
G1 X96.319 Y122.219 E2.14679
G1 X96.663 Y122.55 E2.16733
G1 X97.056 Y122.821 E2.18787
G1 X97.488 Y123.026 E2.2084
G1 X97.947 Y123.159 E2.22894
G1 X98.421 Y123.216 E2.24948
G1 X98.899 Y123.197 E2.27002
G1 X99.367 Y123.102 E2.29055
G1 X99.813 Y122.932 E2.31109
G1 X100.227 Y122.693 E2.33163
G1 X100.597 Y122.391 E2.35216
G1 X100.914 Y122.034 E2.3727
G1 X101.17 Y121.63 E2.39324
G1 X101.357 Y121.19 E2.41378
G1 X101.471 Y120.726 E2.43431
G1 X101.51 Y120.25 E2.45485
G1 X101.471 Y119.774 E2.47539
G1 X101.357 Y119.31 E2.49593
G1 X101.17 Y118.87 E2.51646
G1 X100.914 Y118.466 E2.537
G1 X100.597 Y118.109 E2.55754
G1 X100.227 Y117.807 E2.57808
G1 X99.813 Y117.568 E2.59861
G1 X99.367 Y117.398 E2.61915
G1 X98.899 Y117.303 E2.63969
G1 X98.421 Y117.284 E2.66022
G1 X97.994 Y117.335 E2.67871
G1 X97.491 Y117.473 E2.70113
G1 X97.056 Y117.679 E2.72182
G1 X96.684 Y117.936 E2.74125
M204 P1000 T1000
G1 X96.934 Y118.282 F27000
;TYPE:External perimeter
G1 F1800
G1 X96.639 Y118.565 E2.75883
G1 X96.428 Y118.845 E2.77388
G1 X96.393 Y118.892 E2.77641
G1 X96.203 Y119.254 E2.79399
G1 X96.073 Y119.642 E2.81157
G1 X96.008 Y120.046 E2.82914
G1 X96.008 Y120.454 E2.84672
G1 X96.073 Y120.858 E2.8643
G1 X96.203 Y121.246 E2.88188
G1 X96.393 Y121.608 E2.89946
G1 X96.639 Y121.935 E2.91704
G1 X96.934 Y122.218 E2.93461
G1 X97.27 Y122.451 E2.95219
G1 X97.64 Y122.626 E2.96977
G1 X98.032 Y122.74 E2.98735
G1 X98.076 Y122.745 E2.98925
G1 X98.438 Y122.789 E3.00493
G1 X98.627 Y122.781 E3.01306
G1 X98.847 Y122.773 E3.02251
G1 X99.248 Y122.691 E3.04009
G1 X99.63 Y122.546 E3.05766
G1 X99.984 Y122.341 E3.07524
G1 X100.301 Y122.083 E3.09282
G1 X100.572 Y121.777 E3.1104
G1 X100.791 Y121.431 E3.12798
G1 X100.951 Y121.055 E3.14556
G1 X101.049 Y120.658 E3.16313
G1 X101.082 Y120.25 E3.18071
G1 X101.049 Y119.842 E3.19829
G1 X100.957 Y119.468 E3.21487
G1 X100.951 Y119.445 E3.21587
G1 X100.791 Y119.069 E3.23345
G1 X100.572 Y118.723 E3.25103
G1 X100.301 Y118.417 E3.26861
G1 X99.984 Y118.159 E3.28618
G1 X99.63 Y117.954 E3.30376
G1 X99.248 Y117.809 E3.32134
G1 X98.847 Y117.727 E3.33892
G1 X98.627 Y117.719 E3.34836
G1 X98.438 Y117.711 E3.3565
G1 X98.076 Y117.755 E3.37217
G1 X98.032 Y117.76 E3.37408
G1 X97.64 Y117.874 E3.39165
G1 X97.27 Y118.049 E3.40923
G1 X96.983 Y118.248 E3.42423
;WIPE_START
M204 P1500 T1000
G1 X96.556 Y118.15 F27000
;WIPE_END
G92 E0
G1 E-2 F2400
G1 X134.729 Y120.046 F27000
G1 E0 F2400
;TYPE:Internal perimeter
G1 F1800
G1 X134.729 Y120.558 E0.02202
G1 X134.828 Y121.165 E0.04847
G1 X135.022 Y121.749 E0.07493
G1 X135.308 Y122.294 E0.10138
G1 X135.678 Y122.786 E0.12784
G1 X136.122 Y123.212 E0.15429
G1 X136.629 Y123.562 E0.18075
G1 X137.185 Y123.826 E0.2072
G1 X137.776 Y123.997 E0.23366
G1 X138.387 Y124.071 E0.26011
G1 X139.002 Y124.046 E0.28657
G1 X139.605 Y123.923 E0.31302
G1 X140.18 Y123.705 E0.33948
G1 X140.713 Y123.397 E0.36594
G1 X141.19 Y123.008 E0.39239
G1 X141.598 Y122.547 E0.41884
G1 X141.927 Y122.027 E0.4453
G1 X142.168 Y121.461 E0.47176
G1 X142.316 Y120.863 E0.49821
G1 X142.365 Y120.25 E0.52467
G1 X142.316 Y119.637 E0.55112
G1 X142.168 Y119.039 E0.57758
G1 X141.927 Y118.473 E0.60403
G1 X141.598 Y117.953 E0.63049
G1 X141.19 Y117.492 E0.65694
G1 X140.713 Y117.103 E0.6834
G1 X140.18 Y116.795 E0.70985
G1 X139.605 Y116.577 E0.73631
G1 X139.002 Y116.454 E0.76276
G1 X138.387 Y116.429 E0.78922
G1 X137.83 Y116.496 E0.81333
G1 X137.194 Y116.67 E0.84167
G1 X136.629 Y116.938 E0.86856
G1 X136.122 Y117.288 E0.89502
G1 X135.678 Y117.714 E0.92147
G1 X135.308 Y118.206 E0.94793
G1 X135.022 Y118.751 E0.97438
G1 X134.828 Y119.335 E1.00084
G1 X134.729 Y119.942 E1.02729
G1 X134.729 Y119.986 E1.02915
G1 X135.155 Y120.046 F27000
G1 F1800
G1 X135.155 Y120.523 E1.04969
G1 X135.243 Y121.063 E1.07319
G1 X135.416 Y121.581 E1.09668
G1 X135.67 Y122.065 E1.12018
G1 X135.998 Y122.502 E1.14367
G1 X136.393 Y122.881 E1.16717
G1 X136.842 Y123.192 E1.19067
G1 X137.336 Y123.426 E1.21416
G1 X137.861 Y123.578 E1.23766
G1 X138.404 Y123.644 E1.26116
G1 X138.95 Y123.622 E1.28465
G1 X139.486 Y123.512 E1.30815
G1 X139.997 Y123.319 E1.33164
G1 X140.47 Y123.045 E1.35514
G1 X140.894 Y122.7 E1.37864
G1 X141.256 Y122.29 E1.40213
G1 X141.548 Y121.828 E1.42563
G1 X141.763 Y121.326 E1.44913
G1 X141.893 Y120.795 E1.47262
G1 X141.937 Y120.25 E1.49612
G1 X141.893 Y119.705 E1.51961
G1 X141.763 Y119.174 E1.54311
G1 X141.548 Y118.672 E1.56661
G1 X141.256 Y118.21 E1.5901
G1 X140.894 Y117.8 E1.6136
G1 X140.47 Y117.455 E1.63709
G1 X139.997 Y117.181 E1.66059
G1 X139.486 Y116.988 E1.68409
G1 X138.95 Y116.878 E1.70758
G1 X138.404 Y116.856 E1.73108
G1 X137.912 Y116.916 E1.75238
G1 X137.342 Y117.071 E1.77776
G1 X136.842 Y117.308 E1.80155
G1 X136.393 Y117.619 E1.82504
G1 X135.998 Y117.998 E1.84854
G1 X135.67 Y118.435 E1.87204
G1 X135.416 Y118.919 E1.89553
G1 X135.243 Y119.437 E1.91903
G1 X135.155 Y119.986 E1.9429
G1 X135.582 Y120.046 F27000
G1 F1800
G1 X135.582 Y120.489 E1.96196
G1 X135.658 Y120.96 E1.9825
G1 X135.809 Y121.414 E2.00303
G1 X136.032 Y121.837 E2.02357
G1 X136.319 Y122.219 E2.04411
G1 X136.663 Y122.55 E2.06464
G1 X137.056 Y122.821 E2.08518
G1 X137.488 Y123.026 E2.10572
G1 X137.947 Y123.159 E2.12626
G1 X138.421 Y123.216 E2.14679
G1 X138.899 Y123.197 E2.16733
G1 X139.367 Y123.102 E2.18787
G1 X139.813 Y122.932 E2.20841
G1 X140.227 Y122.693 E2.22894
G1 X140.597 Y122.391 E2.24948
G1 X140.914 Y122.034 E2.27002
G1 X141.17 Y121.63 E2.29056
G1 X141.357 Y121.19 E2.31109
G1 X141.471 Y120.726 E2.33163
G1 X141.51 Y120.25 E2.35217
G1 X141.471 Y119.774 E2.3727
G1 X141.357 Y119.31 E2.39324
G1 X141.17 Y118.87 E2.41378
G1 X140.914 Y118.466 E2.43432
G1 X140.597 Y118.109 E2.45485
G1 X140.227 Y117.807 E2.47539
G1 X139.813 Y117.568 E2.49593
G1 X139.367 Y117.398 E2.51647
G1 X138.899 Y117.303 E2.537
G1 X138.421 Y117.284 E2.55754
G1 X137.994 Y117.335 E2.57603
G1 X137.491 Y117.473 E2.59845
G1 X137.056 Y117.679 E2.61913
G1 X136.663 Y117.95 E2.63967
G1 X136.319 Y118.281 E2.6602
G1 X136.032 Y118.663 E2.68074
G1 X135.809 Y119.086 E2.70128
G1 X135.658 Y119.54 E2.72182
G1 X135.586 Y119.986 E2.74125
M204 P1000 T1000
G1 X136.008 Y120.046 F27000
;TYPE:External perimeter
G1 F1800
G1 X136.008 Y120.454 E2.75883
G1 X136.073 Y120.858 E2.77641
G1 X136.203 Y121.246 E2.79399
G1 X136.393 Y121.608 E2.81157
G1 X136.639 Y121.935 E2.82915
G1 X136.934 Y122.218 E2.84672
G1 X137.27 Y122.451 E2.8643
G1 X137.64 Y122.626 E2.88188
G1 X138.032 Y122.74 E2.89946
G1 X138.076 Y122.745 E2.90136
G1 X138.438 Y122.789 E2.91704
G1 X138.627 Y122.781 E2.92517
G1 X138.847 Y122.773 E2.93462
G1 X139.248 Y122.691 E2.9522
G1 X139.63 Y122.546 E2.96977
G1 X139.984 Y122.341 E2.98735
G1 X140.301 Y122.083 E3.00493
G1 X140.572 Y121.777 E3.02251
G1 X140.791 Y121.431 E3.04009
G1 X140.951 Y121.055 E3.05767
G1 X140.979 Y120.941 E3.0627
G1 X141.049 Y120.658 E3.07524
G1 X141.082 Y120.25 E3.09282
G1 X141.049 Y119.842 E3.1104
G1 X140.951 Y119.445 E3.12798
G1 X140.791 Y119.069 E3.14556
G1 X140.572 Y118.723 E3.16314
G1 X140.301 Y118.417 E3.18072
G1 X139.984 Y118.159 E3.19829
G1 X139.63 Y117.954 E3.21587
G1 X139.248 Y117.809 E3.23345
G1 X138.847 Y117.727 E3.25103
G1 X138.627 Y117.719 E3.26047
G1 X138.438 Y117.711 E3.26861
G1 X138.076 Y117.755 E3.28428
G1 X138.032 Y117.76 E3.28618
G1 X137.64 Y117.874 E3.30376
G1 X137.27 Y118.049 E3.32134
G1 X136.934 Y118.282 E3.33892
G1 X136.639 Y118.565 E3.3565
G1 X136.428 Y118.845 E3.37155
G1 X136.393 Y118.892 E3.37408
G1 X136.203 Y119.254 E3.39166
G1 X136.073 Y119.642 E3.40923
G1 X136.018 Y119.986 E3.42423
;WIPE_START
M204 P1500 T1000
G1 X135.651 Y120.227 F27000
;WIPE_END
G92 E0
G1 E-2 F2400
G1 X46.18 Y107.869 F27000
G1 E0 F2400
;TYPE:Internal perimeter
G1 F1800
G1 X188.82 Y107.869 E6.13128
G1 X188.058 Y108.631 E6.1776
G1 X160.148 Y108.631 E7.37728
G1 X159.565 Y108.664 E7.4024
G1 X158.944 Y108.77 E7.42946
G1 X158.339 Y108.944 E7.45652
G1 X157.757 Y109.186 E7.48359
G1 X157.209 Y109.488 E7.51051
G1 X156.698 Y109.85 E7.53743
G1 X156.257 Y110.244 E7.56284
G1 X148.535 Y117.966 E8.03224
G1 X148.146 Y118.402 E8.05738
G1 X147.781 Y118.916 E8.08448
G1 X147.476 Y119.468 E8.11158
G1 X147.235 Y120.05 E8.13868
G1 X147.06 Y120.656 E8.16578
G1 X146.954 Y121.277 E8.19287
G1 X146.922 Y121.861 E8.21802
G1 X146.922 Y124.844 E8.34621
G1 X146.893 Y125.039 E8.35469
G1 X146.834 Y125.155 E8.36031
G1 X146.765 Y125.236 E8.36486
G1 X145.037 Y126.964 E8.46993
G1 X144.879 Y127.082 E8.47841
G1 X144.754 Y127.123 E8.48403
G1 X144.649 Y127.131 E8.48858
G1 X92.433 Y127.131 E10.73305
G1 X92.327 Y127.123 E10.7376
G1 X92.203 Y127.082 E10.74322
G1 X92.045 Y126.964 E10.7517
G1 X90.326 Y125.246 E10.85616
G1 X90.209 Y125.088 E10.86464
G1 X90.168 Y124.964 E10.87026
G1 X90.16 Y124.858 E10.87481
G1 X90.16 Y121.861 E11.00361
G1 X90.127 Y121.277 E11.02875
G1 X90.021 Y120.656 E11.05585
G1 X89.847 Y120.05 E11.08295
G1 X89.606 Y119.468 E11.11005
G1 X89.301 Y118.916 E11.13714
G1 X88.936 Y118.402 E11.16424
G1 X88.546 Y117.966 E11.18939
G1 X80.824 Y110.244 E11.65879
G1 X80.383 Y109.85 E11.6842
G1 X79.872 Y109.488 E11.71112
G1 X79.324 Y109.186 E11.73803
G1 X78.743 Y108.945 E11.76507
G1 X78.139 Y108.77 E11.79211
G1 X77.518 Y108.664 E11.81916
G1 X76.93 Y108.631 E11.84449
G1 X46.942 Y108.631 E13.1335
G1 X46.223 Y107.911 E13.17724
G1 X45.964 Y107.443 F27000
G1 F1800
G1 X189.036 Y107.443 E19.32709
G1 X189.036 Y108.256 E19.36205
G1 X188.234 Y109.057 E19.41076
G1 X160.16 Y109.057 E20.61751
G1 X159.613 Y109.088 E20.64108
G1 X159.039 Y109.186 E20.66609
G1 X158.48 Y109.347 E20.6911
G1 X157.943 Y109.57 E20.71611
G1 X157.436 Y109.85 E20.74098
G1 X156.964 Y110.185 E20.76585
G1 X156.55 Y110.554 E20.78971
G1 X148.845 Y118.259 E21.25807
G1 X148.479 Y118.668 E21.28167
G1 X148.142 Y119.143 E21.30671
G1 X147.861 Y119.653 E21.33175
G1 X147.638 Y120.191 E21.35679
G1 X147.476 Y120.751 E21.38183
G1 X147.379 Y121.325 E21.40687
G1 X147.348 Y121.873 E21.43047
G1 X147.348 Y124.875 E21.55948
G1 X147.334 Y125.047 E21.56692
G1 X147.305 Y125.17 E21.57234
G1 X147.257 Y125.286 E21.57776
G1 X147.191 Y125.394 E21.58318
G1 X147.078 Y125.526 E21.59062
G1 X145.316 Y127.288 E21.69774
G1 X145.185 Y127.4 E21.70518
G1 X145.077 Y127.466 E21.7106
G1 X144.961 Y127.514 E21.71602
G1 X144.838 Y127.544 E21.72144
G1 X144.665 Y127.557 E21.72889
G1 X92.416 Y127.557 E23.9748
G1 X92.243 Y127.544 E23.98224
G1 X92.121 Y127.514 E23.98766
G1 X92.004 Y127.466 E23.99308
G1 X91.897 Y127.4 E23.9985
G1 X91.765 Y127.288 E24.00594
G1 X90.003 Y125.526 E24.11306
G1 X89.891 Y125.394 E24.1205
G1 X89.825 Y125.286 E24.12592
G1 X89.776 Y125.17 E24.13134
G1 X89.747 Y125.047 E24.13676
G1 X89.733 Y124.875 E24.14421
G1 X89.733 Y121.873 E24.27322
G1 X89.703 Y121.325 E24.29681
G1 X89.605 Y120.751 E24.32185
G1 X89.444 Y120.191 E24.34689
G1 X89.221 Y119.653 E24.37193
G1 X88.939 Y119.143 E24.39697
G1 X88.602 Y118.668 E24.42201
G1 X88.236 Y118.259 E24.44561
G1 X80.532 Y110.554 E24.91397
G1 X80.117 Y110.185 E24.93784
G1 X79.645 Y109.85 E24.9627
G1 X79.139 Y109.57 E24.98757
G1 X78.602 Y109.348 E25.01255
G1 X78.043 Y109.187 E25.03754
G1 X77.47 Y109.089 E25.06253
G1 X76.918 Y109.057 E25.08632
G1 X46.766 Y109.057 E26.38239
G1 X45.964 Y108.256 E26.43111
G1 X45.964 Y107.503 E26.46349
G1 X45.538 Y107.016 F27000
G1 F1800
G1 X189.462 Y107.016 E32.64999
G1 X189.462 Y108.433 E32.71087
G1 X188.411 Y109.484 E32.77476
G1 X160.173 Y109.484 E33.98858
G1 X159.661 Y109.513 E34.01061
G1 X159.135 Y109.602 E34.03356
G1 X158.622 Y109.751 E34.05651
G1 X158.128 Y109.955 E34.07947
G1 X157.663 Y110.212 E34.10229
G1 X157.23 Y110.519 E34.12511
G1 X156.843 Y110.864 E34.14742
G1 X149.155 Y118.552 E34.61475
G1 X148.813 Y118.934 E34.6368
G1 X148.504 Y119.37 E34.65978
G1 X148.245 Y119.838 E34.68276
G1 X148.041 Y120.332 E34.70575
G1 X147.893 Y120.846 E34.72873
G1 X147.803 Y121.373 E34.75171
G1 X147.774 Y121.885 E34.77376
G1 X147.774 Y124.891 E34.90298
G1 X147.757 Y125.114 E34.91258
G1 X147.712 Y125.302 E34.92089
G1 X147.638 Y125.481 E34.92919
G1 X147.537 Y125.645 E34.9375
G1 X147.392 Y125.815 E34.9471
G1 X145.606 Y127.601 E35.05566
G1 X145.436 Y127.746 E35.06527
G1 X145.271 Y127.847 E35.07357
G1 X145.093 Y127.921 E35.08187
G1 X144.905 Y127.966 E35.09018
