; generated by SuperSlicer 2.5.59 on 2022-09-09 at 23:08:55 UTC

; 

; external perimeters extrusion width = 0.45mm
; perimeters extrusion width = 0.45mm
; infill extrusion width = 0.56mm
; solid infill extrusion width = 0.56mm
; top infill extrusion width = 0.40mm
; support material extrusion width = 0.45mm
; first layer extrusion width = 0.48mm

; object:{"name":"Calibration Flower v7","id":"Calibration Flower v7.stl id:0 copy 0","object_center":[117.500001,117.500000,0.000000],"boundingbox_center":[117.500001,117.500000,2.500000],"boundingbox_size":[107.480231,111.015765,5.000000]}
; plater:{"center":[117.500001,117.500000,0.000000],"boundingbox_center":[117.500001,117.500000,2.500000],"boundingbox_size":[107.480231,111.015765,5.000000]}

;TYPE:Custom
PRINT_START EXTRUDER=260 BED=110 CHAMBER=55
M107
G21 ; set units to millimeters
G90 ; use absolute coordinates
M82 ; use absolute distances for extrusion
G92 E0
;T400 PA
SET_PRESSURE_ADVANCE ADVANCE=0.025
SET_PRESSURE_ADVANCE SMOOTH=0.04
;_TOOLCHANGE 0
M109 S260 ; set temperature and wait for it to be reached
M190 S110 ; set bed temperature and wait for it to be reached
M107
;LAYER_CHANGE
;Z:0.24
;HEIGHT:0.24
G1 Z0.24 F24000
G1 E-0.8 F2400
M204 S2000
G1 X75.483 Y75.483 F24000
G1 E0 F2400
;TYPE:Skirt
;WIDTH:0.6
G1 F3190.5452
G1 X74.437 Y76.53 E0.07533
G1 X73.924 Y77.166 E0.1169
G1 X61.196 Y96.965 E1.31489
G1 X60.589 Y99.032 E1.42455
G1 X60.589 Y135.968 E3.30455
G1 X61.196 Y138.035 E3.41421
G1 X73.924 Y157.834 E4.61221
G1 X74.437 Y158.47 E4.65378
G1 X91.025 Y175.059 E5.84784
G1 X92.037 Y175.784 E5.91117
G1 X93.728 Y176.179 E5.99959
G1 X96.369 Y176.162 E6.13401
G1 X134.553 Y172.627 E8.0858
G1 X136.268 Y172.036 E8.17811
G1 X156.067 Y159.308 E9.37611
G1 X156.703 Y158.796 E9.41768
G1 X173.291 Y142.207 E10.61174
G1 X174.016 Y141.196 E10.67507
G1 X174.411 Y139.504 E10.76349
G1 X174.411 Y95.496 E13.0034
G1 X174.208 Y94.269 E13.06672
G1 X173.291 Y92.793 E13.15515
G1 X156.703 Y76.204 E14.34921
G1 X156.067 Y75.692 E14.39078
G1 X136.268 Y62.964 E15.58878
G1 X134.553 Y62.373 E15.68109
G1 X96.369 Y58.838 E17.63289
G1 X93.728 Y58.821 E17.7673
G1 X92.501 Y59.024 E17.83062
G1 X91.025 Y59.941 E17.91905
G1 X75.526 Y75.441 E19.03473
G1 X75.913 Y75.829 F24000
G1 F3190.5452
G1 X74.825 Y76.918 E19.11311
G1 X74.386 Y77.462 E19.14872
G1 X61.658 Y97.261 E20.34672
G1 X61.138 Y99.032 E20.44064
G1 X61.138 Y135.968 E22.32064
G1 X61.658 Y137.739 E22.41456
G1 X74.386 Y157.538 E23.61256
G1 X74.825 Y158.082 E23.64817
G1 X91.413 Y174.671 E24.84223
G1 X92.171 Y175.236 E24.89036
G1 X93.728 Y175.63 E24.97211
G1 X96.319 Y175.616 E25.10394
G1 X134.502 Y172.081 E27.05574
G1 X135.971 Y171.575 E27.13481
G1 X155.77 Y158.847 E28.3328
G1 X156.315 Y158.408 E28.36841
G1 X172.903 Y141.819 E29.56247
G1 X173.468 Y141.061 E29.6106
G1 X173.862 Y139.504 E29.69235
G1 X173.862 Y95.496 E31.93225
G1 X173.726 Y94.56 E31.98038
G1 X172.903 Y93.181 E32.06213
G1 X156.315 Y76.592 E33.25619
G1 X155.77 Y76.153 E33.2918
G1 X135.971 Y63.425 E34.48979
G1 X134.502 Y62.919 E34.56886
G1 X96.319 Y59.384 E36.52065
G1 X93.728 Y59.37 E36.65249
G1 X92.793 Y59.506 E36.70062
G1 X91.413 Y60.329 E36.78237
G1 X75.956 Y75.786 E37.895
G92 E0
G1 E-0.8 F2400
; printing object Calibration Flower v7.stl id:0 copy 0
G1 X95.917 Y172.116 F24000
G1 E0 F2400
;TYPE:External perimeter
;WIDTH:0.48
G1 F4500
G1 X93.828 Y172.116 E0.08308
G1 X77.38 Y155.668 E1.008
G1 X77.38 Y153.578 E1.09108
G1 X79.871 Y151.088 E1.23115
G1 X79.786 Y151.003 E1.23543
G1 X79.616 Y150.833 E1.24448
G1 X64.652 Y135.869 E2.08596
G1 X64.652 Y133.779 E2.16904
G1 X66.624 Y131.807 E2.27995
G1 X66.624 Y103.193 E3.41772
G1 X64.652 Y101.221 E3.52863
G1 X64.652 Y99.131 E3.61171
G1 X79.871 Y83.912 E4.4675
G1 X79.786 Y83.828 E4.47178
G1 X79.616 Y83.658 E4.48083
G1 X77.38 Y81.422 E4.60658
G1 X77.38 Y79.332 E4.68967
G1 X93.828 Y62.884 E5.61459
G1 X95.917 Y62.884 E5.69767
G1 X96.162 Y63.129 E5.71143
G1 X101.425 Y68.392 E6.00739
G1 X130.039 Y68.392 E7.14516
G1 X132.012 Y66.42 E7.25607
G1 X134.101 Y66.42 E7.33915
G1 X149.32 Y81.638 E8.19494
G1 X149.405 Y81.554 E8.19922
G1 X149.574 Y81.384 E8.20828
G1 X151.811 Y79.148 E8.33403
G1 X153.9 Y79.148 E8.41711
G1 X170.348 Y95.596 E9.34203
G1 X170.348 Y97.685 E9.42511
G1 X164.84 Y103.193 E9.73483
G1 X164.84 Y131.807 E10.8726
G1 X170.348 Y137.315 E11.18233
G1 X170.348 Y139.404 E11.26541
G1 X153.9 Y155.852 E12.19033
G1 X151.811 Y155.852 E12.27341
G1 X149.32 Y153.362 E12.41348
G1 X149.235 Y153.446 E12.41776
G1 X149.065 Y153.616 E12.42681
G1 X134.101 Y168.58 E13.26828
G1 X132.012 Y168.58 E13.35137
G1 X130.039 Y166.608 E13.46228
G1 X101.425 Y166.608 E14.60005
G1 X95.96 Y172.073 E14.90738
;WIPE_START
M204 S5000
G1 X95.634 Y171.833 F24000
;WIPE_END
M204 S2000
G1 X95.634 Y171.687
;TYPE:Internal perimeter
G1 F4500
G1 X94.005 Y171.687 E14.97216
G1 X77.808 Y155.49 E15.88297
G1 X77.808 Y153.756 E15.95193
G1 X80.477 Y151.088 E16.10198
G1 X65.08 Y135.691 E16.96775
G1 X65.08 Y133.957 E17.03672
G1 X67.053 Y131.985 E17.14763
G1 X67.053 Y103.015 E18.29951
G1 X65.08 Y101.043 E18.41042
G1 X65.08 Y99.309 E18.47939
G1 X80.477 Y83.912 E19.34516
G1 X77.808 Y81.244 E19.49521
G1 X77.808 Y79.51 E19.56418
G1 X94.005 Y63.313 E20.47498
G1 X95.74 Y63.313 E20.54395
G1 X95.859 Y63.432 E20.55065
G1 X101.248 Y68.82 E20.85367
G1 X130.217 Y68.82 E22.00555
G1 X132.189 Y66.848 E22.11647
G1 X133.924 Y66.848 E22.18543
G1 X149.32 Y82.244 E23.0512
G1 X151.988 Y79.576 E23.20125
G1 X153.723 Y79.576 E23.27022
G1 X169.92 Y95.773 E24.18102
G1 X169.92 Y97.508 E24.24999
G1 X164.412 Y103.015 E24.55971
G1 X164.412 Y131.985 E25.7116
G1 X169.92 Y137.492 E26.02132
G1 X169.92 Y139.227 E26.09029
G1 X153.723 Y155.424 E27.00109
G1 X151.988 Y155.424 E27.07006
G1 X149.32 Y152.756 E27.22011
G1 X133.924 Y168.152 E28.08588
G1 X132.189 Y168.152 E28.15484
G1 X130.217 Y166.18 E28.26576
G1 X101.248 Y166.18 E29.41764
G1 X95.74 Y171.687 E29.72736
G1 X95.694 Y171.687 E29.72917
G1 X95.562 Y171.259 F24000
G1 F4500
G1 X94.183 Y171.259 E29.78402
G1 X78.237 Y155.313 E30.68071
G1 X78.237 Y153.933 E30.73556
G1 X81.083 Y151.088 E30.89559
G1 X65.509 Y135.514 E31.77134
G1 X65.509 Y134.134 E31.82619
G1 X67.481 Y132.162 E31.9371
G1 X67.481 Y102.838 E33.1031
G1 X65.509 Y100.866 E33.21401
G1 X65.509 Y99.486 E33.26887
G1 X81.083 Y83.912 E34.14462
G1 X78.237 Y81.067 E34.30464
G1 X78.237 Y79.687 E34.3595
G1 X94.183 Y63.741 E35.25619
G1 X95.562 Y63.741 E35.31104
G1 X101.07 Y69.249 E35.62076
G1 X130.394 Y69.249 E36.78676
G1 X132.367 Y67.277 E36.89767
G1 X133.746 Y67.277 E36.95252
G1 X149.32 Y82.85 E37.82828
G1 X152.166 Y80.005 E37.9883
G1 X153.545 Y80.005 E38.04316
G1 X169.491 Y95.951 E38.93984
G1 X169.491 Y97.33 E38.9947
G1 X163.983 Y102.838 E39.30442
G1 X163.983 Y132.162 E40.47042
G1 X169.491 Y137.67 E40.78014
G1 X169.491 Y139.049 E40.835
G1 X153.545 Y154.995 E41.73169
G1 X152.166 Y154.995 E41.78654
G1 X149.32 Y152.15 E41.94656
G1 X133.746 Y167.723 E42.82232
G1 X132.367 Y167.723 E42.87717
G1 X130.394 Y165.751 E42.98808
G1 X101.07 Y165.751 E44.15408
G1 X95.605 Y171.216 E44.46142
G1 X95.385 Y170.83 F24000
G1 F4500
G1 X94.36 Y170.83 E44.50216
G1 X78.665 Y155.135 E45.38473
G1 X78.665 Y154.111 E45.42547
G1 X81.689 Y151.088 E45.59547
G1 X65.937 Y135.336 E46.48121
G1 X65.937 Y134.312 E46.52195
G1 X67.91 Y132.339 E46.63286
G1 X67.91 Y102.661 E47.81297
G1 X65.937 Y100.688 E47.92388
G1 X65.937 Y99.664 E47.96462
G1 X81.689 Y83.912 E48.85035
G1 X78.665 Y80.889 E49.02036
G1 X78.665 Y79.865 E49.0611
G1 X94.36 Y64.17 E49.94367
G1 X95.385 Y64.17 E49.98441
G1 X100.893 Y69.677 E50.29413
G1 X130.572 Y69.677 E51.47425
G1 X132.544 Y67.705 E51.58516
G1 X133.569 Y67.705 E51.62589
G1 X149.32 Y83.456 E52.51163
G1 X152.343 Y80.433 E52.68163
G1 X153.368 Y80.433 E52.72237
G1 X169.063 Y96.128 E53.60495
G1 X169.063 Y97.153 E53.64569
G1 X163.555 Y102.661 E53.95541
G1 X163.555 Y132.339 E55.13552
G1 X169.063 Y137.847 E55.44525
G1 X169.063 Y138.872 E55.48598
G1 X153.368 Y154.567 E56.36856
G1 X152.343 Y154.567 E56.4093
G1 X149.32 Y151.544 E56.5793
G1 X133.569 Y167.295 E57.46504
G1 X132.544 Y167.295 E57.50577
G1 X130.572 Y165.323 E57.61668
G1 X100.893 Y165.323 E58.7968
G1 X95.427 Y170.788 E59.10414
G92 E0
G1 E-0.8 F2400
G1 X121.036 Y109.923 F24000
G1 E0 F2400
;TYPE:External perimeter
G1 F4500
G1 X129.368 Y101.59 E0.46856
G1 X129.283 Y101.505 E0.47282
G1 X129.114 Y101.336 E0.48185
G1 X112.197 Y84.419 E1.43313
G1 X112.112 Y84.504 E1.43741
G1 X111.942 Y84.673 E1.44646
G1 X108.494 Y88.121 E1.64034
G1 X98.561 Y98.055 E2.19893
G1 X98.646 Y98.139 E2.20321
G1 X98.815 Y98.309 E2.21226
G1 X110.429 Y109.923 E2.86532
G1 X110.514 Y109.838 E2.8696
G1 X110.683 Y109.668 E2.87865
G1 X115.732 Y104.619 E3.16256
G1 X115.817 Y104.704 E3.16684
G1 X115.987 Y104.874 E3.17589
G1 X120.993 Y109.88 E3.45741
;WIPE_START
M204 S5000
G1 X121.318 Y110.205 F24000
;WIPE_END
M204 S2000
G1 X121.036 Y110.529
;TYPE:Internal perimeter
G1 F4500
G1 X129.974 Y101.59 E3.96005
G1 X112.197 Y83.813 E4.95972
G1 X108.191 Y87.818 E5.18494
G1 X97.955 Y98.055 E5.76058
G1 X110.429 Y110.529 E6.46203
G1 X115.732 Y105.225 E6.76025
G1 X120.993 Y110.486 E7.05608
G1 X121.036 Y111.135 F24000
G1 F4500
G1 X130.58 Y101.59 E7.59279
G1 X112.197 Y83.207 E8.62654
G1 X107.888 Y87.515 E8.8688
G1 X97.349 Y98.055 E9.46147
G1 X110.429 Y111.135 E10.197
G1 X115.732 Y105.831 E10.49522
G1 X120.993 Y111.092 E10.79105
G1 X121.036 Y111.741 F24000
G1 F4500
G1 X131.186 Y101.59 E11.36184
G1 X112.197 Y82.601 E12.42967
G1 X107.585 Y87.212 E12.68897
G1 X96.743 Y98.055 E13.29868
G1 X110.429 Y111.741 E14.06828
G1 X115.732 Y106.437 E14.3665
G1 X120.993 Y111.698 E14.66233
G92 E0
G1 E-0.8 F2400
G1 X82.145 Y148.814 F24000
G1 E0 F2400
;TYPE:External perimeter
G1 F4500
G1 X97.548 Y133.41 E0.86619
G1 X97.463 Y133.325 E0.87045
G1 X97.294 Y133.155 E0.87948
G1 X84.282 Y120.144 E1.61117
G1 X82.836 Y120.144 E1.66867
G1 X68.155 Y134.824 E2.4942
G1 X68.24 Y134.909 E2.49848
G1 X68.41 Y135.079 E2.50753
G1 X82.102 Y148.771 E3.27749
;WIPE_START
M204 S5000
G1 X82.428 Y149.096 F24000
;WIPE_END
M204 S2000
G1 X82.145 Y149.419
;TYPE:Internal perimeter
G1 F4500
G1 X98.154 Y133.41 E4.17776
G1 X84.459 Y119.715 E4.94786
G1 X82.658 Y119.715 E5.01947
G1 X67.549 Y134.824 E5.86909
G1 X82.102 Y149.377 E6.68745
G1 X82.145 Y150.025 F24000
G1 F4500
G1 X98.76 Y133.41 E7.62179
G1 X84.637 Y119.287 E8.41598
G1 X82.481 Y119.287 E8.50171
G1 X66.943 Y134.824 E9.37543
G1 X82.102 Y149.983 E10.22786
G1 X82.145 Y150.631 F24000
G1 F4500
G1 X99.366 Y133.41 E11.19628
G1 X84.814 Y118.858 E12.01457
G1 X82.303 Y118.858 E12.11441
G1 X66.337 Y134.824 E13.01223
G1 X82.102 Y150.589 E13.89873
G92 E0
G1 E-0.8 F2400
G1 X117.5 Y163.392 F24000
G1 E0 F2400
;TYPE:External perimeter
G1 F4500
G1 X126.23 Y163.392 E0.34711
G1 X126.276 Y163.281 E0.3517
G1 X126.367 Y163.059 E0.36106
G1 X126.403 Y162.972 E0.36481
G1 X126.319 Y162.887 E0.3694
G1 X126.149 Y162.718 E0.37876
G1 X115.732 Y152.301 E0.96452
G1 X115.647 Y152.386 E0.96878
G1 X115.478 Y152.556 E0.97781
G1 X105.564 Y162.469 E1.53528
G1 X105.061 Y162.972 E1.56357
G1 X105.107 Y163.083 E1.56815
G1 X105.199 Y163.305 E1.57751
G1 X105.235 Y163.392 E1.58126
G1 X105.355 Y163.392 E1.58585
G1 X105.595 Y163.392 E1.59521
G1 X117.44 Y163.392 E2.0662
;WIPE_START
M204 S5000
G1 X117.7 Y163.738 F24000
;WIPE_END
M204 S2000
G1 X117.7 Y163.82
;TYPE:Internal perimeter
G1 F4500
G1 X126.516 Y163.82 E2.41675
G1 X126.909 Y162.872 E2.45758
G1 X115.732 Y151.695 E3.08608
G1 X105.261 Y162.166 E3.67491
G1 X104.556 Y162.872 E3.71458
G1 X104.949 Y163.82 E3.75541
G1 X117.64 Y163.82 E4.26006
G1 X117.64 Y164.249 F24000
G1 F4500
G1 X126.802 Y164.249 E4.62437
G1 X127.414 Y162.771 E4.68798
G1 X115.732 Y151.089 E5.3449
G1 X104.958 Y161.863 E5.95076
G1 X104.05 Y162.771 E6.00182
G1 X104.662 Y164.249 E6.06542
G1 X117.58 Y164.249 E6.57906
G1 X117.58 Y164.677 F24000
G1 F4500
G1 X127.089 Y164.677 E6.95715
G1 X127.92 Y162.671 E7.04352
G1 X115.732 Y150.483 E7.72886
G1 X104.655 Y161.56 E8.35177
G1 X103.545 Y162.671 E8.4142
G1 X104.376 Y164.677 E8.50058
G1 X117.52 Y164.677 E9.02322
G92 E0
G1 E-0.8 F2400
G1 X94.873 Y168.613 F24000
G1 E0 F2400
;TYPE:External perimeter
G1 F4500
G1 X110.276 Y153.209 E0.86619
G1 X110.191 Y153.124 E0.87045
G1 X110.022 Y152.954 E0.87948
G1 X96.287 Y139.219 E1.65183
G1 X96.202 Y139.304 E1.65611
G1 X96.032 Y139.474 E1.66516
G1 X95.699 Y139.807 E1.68388
G1 X80.883 Y154.623 E2.51703
G1 X80.968 Y154.708 E2.52129
G1 X81.138 Y154.878 E2.53032
G1 X94.83 Y168.57 E3.30028
;WIPE_START
M204 S5000
G1 X95.155 Y168.895 F24000
;WIPE_END
M204 S2000
G1 X94.873 Y169.218
;TYPE:Internal perimeter
G1 F4500
G1 X110.882 Y153.209 E4.20055
G1 X96.287 Y138.614 E5.02129
G1 X95.396 Y139.504 E5.07136
G1 X80.277 Y154.623 E5.92155
G1 X94.83 Y169.176 E6.7399
G1 X94.873 Y169.824 F24000
G1 F4500
G1 X111.488 Y153.209 E7.67424
G1 X96.287 Y138.008 E8.52906
G1 X95.093 Y139.201 E8.59617
G1 X79.671 Y154.623 E9.4634
G1 X94.83 Y169.782 E10.31583
G1 X94.873 Y170.43 F24000
G1 F4500
G1 X112.094 Y153.209 E11.28424
G1 X96.287 Y137.402 E12.17314
G1 X94.79 Y138.898 E12.25728
G1 X79.065 Y154.623 E13.14155
G1 X94.83 Y170.388 E14.02806
G92 E0
G1 E-0.8 F2400
G1 X112.197 Y150.581 F24000
G1 E0 F2400
;TYPE:External perimeter
G1 F4500
G1 X129.368 Y133.41 E0.96559
G1 X129.283 Y133.325 E0.96985
G1 X129.114 Y133.155 E0.97888
G1 X121.036 Y125.077 E1.43313
G1 X120.951 Y125.162 E1.43741
G1 X120.781 Y125.332 E1.44646
G1 X120.442 Y125.671 E1.46555
G1 X115.732 Y130.381 E1.73037
G1 X115.647 Y130.296 E1.73465
G1 X115.478 Y130.126 E1.7437
G1 X110.429 Y125.077 E2.0276
G1 X110.344 Y125.162 E2.03188
G1 X110.174 Y125.332 E2.04094
G1 X98.561 Y136.945 E2.694
G1 X98.646 Y137.03 E2.69826
G1 X98.815 Y137.2 E2.70729
G1 X112.154 Y150.539 E3.45737
;WIPE_START
M204 S5000
G1 X112.48 Y150.864 F24000
;WIPE_END
M204 S2000
G1 X112.197 Y151.187
;TYPE:Internal perimeter
G1 F4500
G1 X129.974 Y133.41 E4.45704
G1 X121.036 Y124.471 E4.95968
G1 X120.139 Y125.368 E5.01012
G1 X115.732 Y129.775 E5.2579
G1 X110.429 Y124.471 E5.55612
G1 X97.955 Y136.945 E6.25757
G1 X112.154 Y151.145 E7.05604
G1 X112.197 Y151.793 F24000
G1 F4500
G1 X130.58 Y133.41 E8.08978
G1 X121.036 Y123.865 E8.6265
G1 X115.732 Y129.169 E8.92472
G1 X110.429 Y123.865 E9.22294
G1 X97.349 Y136.945 E9.95846
G1 X112.154 Y151.751 E10.79101
G1 X112.197 Y152.399 F24000
G1 F4500
G1 X131.186 Y133.41 E11.85884
G1 X121.036 Y123.259 E12.42963
G1 X115.732 Y128.563 E12.72784
G1 X110.429 Y123.259 E13.02606
G1 X96.743 Y136.945 E13.79567
G1 X112.154 Y152.357 E14.66229
G92 E0
G1 E-0.8 F2400
G1 X99.822 Y131.136 F24000
G1 E0 F2400
;TYPE:External perimeter
G1 F4500
G1 X108.155 Y122.803 E0.46856
G1 X108.07 Y122.718 E0.47284
G1 X107.9 Y122.549 E0.48189
G1 X103.896 Y118.545 E0.70705
G1 X103.896 Y116.455 E0.79013
G1 X108.155 Y112.197 E1.0296
G1 X108.07 Y112.112 E1.03388
G1 X107.9 Y111.942 E1.04293
G1 X99.822 Y103.864 E1.49718
G1 X99.737 Y103.949 E1.50144
G1 X99.568 Y104.119 E1.51047
G1 X86.773 Y116.913 E2.22995
G1 X86.186 Y117.5 E2.26294
G1 X86.271 Y117.585 E2.2672
G1 X86.441 Y117.755 E2.27623
G1 X99.78 Y131.093 E3.02631
;WIPE_START
M204 S5000
G1 X100.105 Y131.419 F24000
;WIPE_END
M204 S2000
G1 X99.822 Y131.742
;TYPE:Internal perimeter
G1 F4500
G1 X108.761 Y122.803 E3.52895
G1 X104.325 Y118.367 E3.7784
G1 X104.325 Y116.633 E3.84737
G1 X108.761 Y112.197 E4.09682
G1 X99.822 Y103.258 E4.59946
G1 X86.47 Y116.61 E5.35029
G1 X85.581 Y117.5 E5.40032
G1 X99.78 Y131.699 E6.19879
G1 X99.822 Y132.348 F24000
G1 F4500
G1 X109.367 Y122.803 E6.7355
G1 X104.753 Y118.19 E6.99494
G1 X104.753 Y116.81 E7.04979
G1 X109.367 Y112.197 E7.30922
G1 X99.822 Y102.652 E7.84593
G1 X86.167 Y116.307 E8.61381
G1 X84.975 Y117.5 E8.68087
G1 X99.78 Y132.305 E9.51342
G1 X99.822 Y132.954 F24000
G1 F4500
G1 X109.973 Y122.803 E10.08421
G1 X105.182 Y118.012 E10.35362
G1 X105.182 Y116.988 E10.39436
G1 X109.973 Y112.197 E10.66377
G1 X99.822 Y102.046 E11.23456
G1 X85.864 Y116.004 E12.01947
G1 X84.369 Y117.5 E12.10357
G1 X99.78 Y132.911 E12.9702
G92 E0
G1 E-0.8 F2400
G1 X70.26 Y128.171 F24000
G1 E0 F2400
;TYPE:External perimeter
G1 F4500
G1 X80.931 Y117.5 E0.60007
G1 X80.846 Y117.415 E0.60433
G1 X80.677 Y117.245 E0.61337
G1 X70.26 Y106.829 E1.19913
G1 X70.149 Y106.875 E1.20371
