; generated by SuperSlicer 2.5.59 on 2022-09-09 at 22:45:16 UTC

; 

; external perimeters extrusion width = 0.42mm
; perimeters extrusion width = 0.45mm
; infill extrusion width = 0.56mm
; solid infill extrusion width = 0.56mm
; top infill extrusion width = 0.40mm
; support material extrusion width = 0.42mm
; first layer extrusion width = 0.48mm

; object:{"name":"Calibration Flower v7","id":"Calibration Flower v7.stl id:0 copy 0","object_center":[119.267767,117.500000,0.000000],"boundingbox_center":[119.267767,117.500000,2.500000],"boundingbox_size":[107.480231,111.015765,5.000000]}
; plater:{"center":[119.267767,117.500000,0.000000],"boundingbox_center":[119.267767,117.500000,2.500000],"boundingbox_size":[107.480231,111.015765,5.000000]}

;TYPE:Custom
print_start EXTRUDER=260 BED=110 CHAMBER=55
M107
G21 ; set units to millimeters
G90 ; use absolute coordinates
M82 ; use absolute distances for extrusion
G92 E0
;T400 PA
;_TOOLCHANGE 0
M104 S260 ; set temperature
M109 S260 ; set temperature and wait for it to be reached
M190 S110 ; set bed temperature and wait for it to be reached
M107
;LAYER_CHANGE
;Z:0.24
;HEIGHT:0.24
G1 Z0.24 F24000
G1 E-2 F2400
M204 S2000
G1 X76.367 Y76.367 F24000
G1 E0 F2400
;TYPE:Skirt
;WIDTH:0.6
G1 F6836.8825
G1 X76.204 Y76.53 E0.0117
G1 X75.692 Y77.166 E0.05327
G1 X62.964 Y96.965 E1.25127
G1 X62.357 Y99.032 E1.36093
G1 X62.357 Y135.968 E3.24093
G1 X62.964 Y138.035 E3.35059
G1 X75.692 Y157.834 E4.54859
G1 X76.204 Y158.47 E4.59016
G1 X92.793 Y175.059 E5.78422
G1 X93.804 Y175.784 E5.84755
G1 X95.496 Y176.179 E5.93597
G1 X98.137 Y176.162 E6.07038
G1 X136.321 Y172.627 E8.02218
G1 X138.035 Y172.036 E8.11449
G1 X157.834 Y159.308 E9.31249
G1 X158.47 Y158.796 E9.35406
G1 X175.059 Y142.207 E10.54812
G1 X175.784 Y141.196 E10.61145
G1 X176.179 Y139.504 E10.69987
G1 X176.179 Y95.496 E12.93977
G1 X175.976 Y94.269 E13.0031
G1 X175.059 Y92.793 E13.09153
G1 X158.47 Y76.204 E14.28559
G1 X157.834 Y75.692 E14.32716
G1 X138.035 Y62.964 E15.52516
G1 X136.321 Y62.373 E15.61747
G1 X98.137 Y58.838 E17.56926
G1 X95.496 Y58.821 E17.70367
G1 X94.269 Y59.024 E17.767
G1 X92.793 Y59.941 E17.85543
G1 X76.409 Y76.325 E19.03473
G1 X76.797 Y76.712 F24000
G1 F6836.8825
G1 X76.592 Y76.918 E19.04949
G1 X76.153 Y77.462 E19.0851
G1 X63.425 Y97.261 E20.28309
G1 X62.905 Y99.032 E20.37702
G1 X62.905 Y135.968 E22.25702
G1 X63.425 Y137.739 E22.35094
G1 X76.153 Y157.538 E23.54894
G1 X76.592 Y158.082 E23.58455
G1 X93.181 Y174.671 E24.77861
G1 X93.939 Y175.236 E24.82674
G1 X95.496 Y175.63 E24.90849
G1 X98.086 Y175.616 E25.04032
G1 X136.27 Y172.081 E26.99212
G1 X137.739 Y171.575 E27.07118
G1 X157.538 Y158.847 E28.26918
G1 X158.082 Y158.408 E28.30479
G1 X174.671 Y141.819 E29.49885
G1 X175.236 Y141.061 E29.54698
G1 X175.63 Y139.504 E29.62873
G1 X175.63 Y95.496 E31.86863
G1 X175.494 Y94.56 E31.91676
G1 X174.671 Y93.181 E31.99851
G1 X158.082 Y76.592 E33.19257
G1 X157.538 Y76.153 E33.22817
G1 X137.739 Y63.425 E34.42617
G1 X136.27 Y62.919 E34.50524
G1 X98.086 Y59.384 E36.45703
G1 X95.496 Y59.37 E36.58887
G1 X94.56 Y59.506 E36.637
G1 X93.181 Y60.329 E36.71875
G1 X76.84 Y76.67 E37.895
G92 E0
G1 E-2 F2400
; printing object Calibration Flower v7.stl id:0 copy 0
G1 X133.915 Y165.986 F24000
G1 E0 F2400
;TYPE:Internal perimeter
;WIDTH:0.48
G1 F17503.099
G1 X134.824 Y166.895 E0.05111
G1 X150.631 Y151.088 E0.94001
G1 X133.41 Y133.866 E1.90842
G1 X131.914 Y135.362 E1.99253
G1 X117.603 Y149.673 E2.79731
G1 X133.873 Y165.944 E3.71223
G1 X134.824 Y166.289 F24000
G1 F17503.099
G1 X150.025 Y151.088 E4.56704
G1 X133.41 Y134.472 E5.50138
G1 X132.217 Y135.665 E5.56846
G1 X118.209 Y149.673 E6.3562
G1 X134.782 Y166.247 E7.28815
G1 X134.824 Y165.683 F24000
G1 F17503.099
G1 X149.419 Y151.088 E8.10889
G1 X133.41 Y135.078 E9.00916
G1 X132.52 Y135.968 E9.05919
G1 X118.815 Y149.673 E9.82989
G1 X134.782 Y165.641 E10.72777
G1 X134.824 Y165.077 F24000
;TYPE:External perimeter
G1 F17503.099
G1 X148.814 Y151.088 E11.51444
G1 X148.729 Y151.003 E11.5187
G1 X148.559 Y150.833 E11.52773
G1 X133.41 Y135.684 E12.3796
G1 X133.325 Y135.769 E12.38388
G1 X133.155 Y135.939 E12.39293
G1 X132.823 Y136.271 E12.41161
G1 X119.421 Y149.673 E13.16528
G1 X119.505 Y149.758 E13.16956
G1 X119.675 Y149.928 E13.17861
G1 X134.782 Y165.035 E14.0281
;WIPE_START
M204 S10000
G1 X135.107 Y165.36 F24000
;WIPE_END
G92 E0
G1 E-2 F2400
M204 S2000
G1 X155.532 Y153.258 F24000
G1 E0 F2400
;TYPE:Internal perimeter
G1 F17503.099
G1 X170.43 Y138.36 E0.83778
G1 X153.209 Y121.138 E1.80619
G1 X151.713 Y122.634 E1.8903
G1 X137.402 Y136.945 E2.69508
G1 X154.623 Y154.167 E3.6635
G1 X155.49 Y153.3 E3.71223
G1 X154.623 Y153.561 F24000
G1 F17503.099
G1 X169.824 Y138.36 E4.56704
G1 X153.209 Y121.744 E5.50138
G1 X152.016 Y122.937 E5.56846
G1 X138.008 Y136.945 E6.3562
G1 X154.581 Y153.519 E7.28815
G1 X154.623 Y152.955 F24000
G1 F17503.099
G1 X169.218 Y138.36 E8.10889
G1 X153.209 Y122.35 E9.00916
G1 X152.319 Y123.24 E9.05919
G1 X138.614 Y136.945 E9.82989
G1 X154.581 Y152.913 E10.72777
G1 X154.623 Y152.349 F24000
;TYPE:External perimeter
G1 F17503.099
G1 X168.612 Y138.36 E11.51443
G1 X168.528 Y138.275 E11.51871
G1 X168.358 Y138.105 E11.52777
G1 X153.209 Y122.956 E12.37964
G1 X153.124 Y123.041 E12.38392
G1 X152.954 Y123.211 E12.39297
G1 X152.622 Y123.543 E12.41165
G1 X139.219 Y136.945 E13.16532
G1 X139.304 Y137.03 E13.16958
G1 X139.474 Y137.2 E13.17861
G1 X154.581 Y152.307 E14.0281
;WIPE_START
M204 S10000
G1 X154.906 Y152.632 F24000
;WIPE_END
G92 E0
G1 E-2 F2400
M204 S2000
G1 X162.671 Y129.688 F24000
G1 E0 F2400
;TYPE:Internal perimeter
G1 F17503.099
G1 X164.677 Y128.856 E0.08637
G1 X164.677 Y106.144 E0.98949
G1 X162.671 Y105.312 E1.07586
G1 X153.597 Y114.386 E1.58609
G1 X153.209 Y114.787 E1.60827
G1 X152.807 Y114.373 E1.6312
G1 X136.945 Y98.511 E2.52316
G1 X135.451 Y100.005 E2.6072
G1 X123.259 Y112.197 E3.29277
G1 X128.05 Y116.988 E3.56218
G1 X128.05 Y118.012 E3.60292
G1 X123.259 Y122.803 E3.87233
G1 X136.945 Y136.489 E4.64193
G1 X152.807 Y120.627 E5.5339
G1 X153.209 Y120.213 E5.55682
G1 X153.597 Y120.614 E5.579
G1 X162.628 Y129.645 E6.08685
G1 X162.771 Y129.182 F24000
G1 F17503.099
G1 X164.249 Y128.57 E6.15045
G1 X164.249 Y106.43 E7.0308
G1 X162.771 Y105.818 E7.0944
G1 X153.902 Y114.687 E7.59312
G1 X153.209 Y115.402 E7.63273
G1 X152.502 Y114.673 E7.67309
G1 X136.945 Y99.117 E8.54789
G1 X135.754 Y100.308 E8.61489
G1 X123.865 Y112.197 E9.28342
G1 X128.479 Y116.81 E9.54285
G1 X128.479 Y118.19 E9.5977
G1 X123.865 Y122.803 E9.85714
G1 X136.945 Y135.883 E10.59266
G1 X152.502 Y120.327 E11.46746
G1 X153.209 Y119.598 E11.50782
G1 X153.902 Y120.313 E11.54744
G1 X162.729 Y129.14 E12.04377
G1 X162.872 Y128.677 F24000
G1 F17503.099
G1 X163.82 Y128.284 E12.0846
G1 X163.82 Y106.716 E12.94218
G1 X162.872 Y106.323 E12.98301
G1 X162.163 Y107.032 E13.02287
G1 X154.208 Y114.987 E13.47021
G1 X153.513 Y115.704 E13.50989
G1 X153.209 Y116.046 E13.52812
G1 X152.9 Y115.699 E13.5466
G1 X152.197 Y114.974 E13.58676
G1 X136.945 Y99.723 E14.44439
G1 X136.057 Y100.611 E14.49435
G1 X124.471 Y112.197 E15.14584
G1 X128.907 Y116.633 E15.39529
G1 X128.907 Y118.367 E15.46426
G1 X124.471 Y122.803 E15.71371
G1 X136.945 Y135.277 E16.41516
G1 X152.197 Y120.026 E17.27279
G1 X152.9 Y119.301 E17.31296
G1 X153.209 Y118.954 E17.33143
G1 X153.513 Y119.296 E17.34966
G1 X154.208 Y120.013 E17.38934
G1 X162.829 Y128.634 E17.87415
G92 E0
G1 E-2 F2400
G1 X136.945 Y134.671 F24000
G1 E0 F2400
;TYPE:External perimeter
G1 F17503.099
G1 X151.892 Y119.725 E0.84047
G1 X152.586 Y119.009 E0.88012
G1 X152.995 Y118.55 E0.90458
G1 X152.995 Y116.45 E0.98805
G1 X152.586 Y115.991 E1.0125
G1 X151.892 Y115.275 E1.05216
G1 X136.945 Y100.329 E1.89263
G1 X136.861 Y100.413 E1.89689
G1 X136.691 Y100.583 E1.90592
G1 X136.36 Y100.914 E1.92453
G1 X125.077 Y112.197 E2.55898
G1 X125.162 Y112.282 E2.56326
G1 X125.332 Y112.451 E2.57231
G1 X129.336 Y116.455 E2.79746
G1 X129.336 Y118.545 E2.88055
G1 X125.077 Y122.803 E3.12002
G1 X125.162 Y122.888 E3.1243
G1 X125.332 Y123.058 E3.13335
G1 X136.903 Y134.629 E3.78402
;WIPE_START
M204 S10000
G1 X137.228 Y134.954 F24000
;WIPE_END
G92 E0
G1 E-2 F2400
M204 S2000
G1 X162.972 Y128.171 F24000
G1 E0 F2400
G1 F17503.099
G1 X163.392 Y127.997 E0.01807
G1 X163.392 Y127.877 E0.02265
G1 X163.392 Y127.637 E0.03201
G1 X163.392 Y107.003 E0.8525
G1 X163.281 Y106.957 E0.85709
G1 X163.059 Y106.865 E0.86645
G1 X162.972 Y106.829 E0.8702
G1 X162.887 Y106.914 E0.87479
G1 X162.718 Y107.083 E0.88415
G1 X162.466 Y107.335 E0.89831
G1 X154.513 Y115.288 E1.34552
G1 X153.827 Y115.995 E1.38469
G1 X153.423 Y116.451 E1.4089
G1 X153.423 Y118.549 E1.49235
G1 X153.827 Y119.005 E1.51656
G1 X154.513 Y119.712 E1.55573
G1 X162.93 Y128.129 E2.02903
;WIPE_START
M204 S10000
G1 X163.172 Y128.518 F24000
;WIPE_END
G92 E0
G1 E-2 F2400
M204 S2000
G1 X154.118 Y112.953 F24000
G1 E0 F2400
;TYPE:Internal perimeter
G1 F17503.099
G1 X170.43 Y96.64 E0.9173
G1 X154.623 Y80.833 E1.80619
G1 X153.127 Y82.329 E1.89034
G1 X137.402 Y98.055 E2.77461
G1 X153.209 Y113.862 E3.6635
G1 X154.075 Y112.995 E3.71223
G1 X153.209 Y113.256 F24000
G1 F17503.099
G1 X169.824 Y96.64 E4.64657
G1 X154.623 Y81.439 E5.50138
G1 X153.43 Y82.632 E5.56849
G1 X138.008 Y98.055 E6.43572
G1 X153.166 Y113.214 E7.28815
G1 X153.209 Y112.65 F24000
G1 F17503.099
G1 X169.218 Y96.64 E8.18842
G1 X154.623 Y82.045 E9.00916
G1 X153.733 Y82.935 E9.05923
G1 X138.614 Y98.055 E9.90942
G1 X153.166 Y112.608 E10.72777
G1 X153.209 Y112.044 F24000
;TYPE:External perimeter
G1 F17503.099
G1 X168.612 Y96.64 E11.59396
G1 X168.528 Y96.555 E11.59824
G1 X168.358 Y96.386 E11.60729
G1 X154.623 Y82.651 E12.37964
G1 X154.538 Y82.736 E12.38392
G1 X154.369 Y82.906 E12.39297
G1 X154.036 Y83.238 E12.41169
G1 X139.219 Y98.055 E13.24484
G1 X139.304 Y98.139 E13.2491
G1 X139.474 Y98.309 E13.25813
G1 X153.166 Y112.002 E14.0281
;WIPE_START
M204 S10000
G1 X153.492 Y112.327 F24000
;WIPE_END
G92 E0
G1 E-2 F2400
M204 S2000
G1 X132.501 Y100.225 F24000
G1 E0 F2400
;TYPE:Internal perimeter
G1 F17503.099
G1 X133.41 Y101.134 E0.05111
G1 X150.631 Y83.912 E1.01953
G1 X134.824 Y68.105 E1.90842
G1 X133.328 Y69.602 E1.99257
G1 X117.603 Y85.327 E2.87684
G1 X132.458 Y100.183 E3.71223
G1 X133.41 Y100.528 F24000
G1 F17503.099
G1 X150.025 Y83.912 E4.64657
G1 X134.824 Y68.711 E5.50138
G1 X133.631 Y69.905 E5.56849
G1 X118.209 Y85.327 E6.43572
G1 X133.367 Y100.486 E7.28815
G1 X133.41 Y99.922 F24000
G1 F17503.099
G1 X149.419 Y83.912 E8.18842
G1 X134.824 Y69.317 E9.00916
G1 X133.934 Y70.207 E9.05923
G1 X118.815 Y85.327 E9.90942
G1 X133.367 Y99.88 E10.72777
G1 X133.41 Y99.316 F24000
;TYPE:External perimeter
G1 F17503.099
G1 X148.814 Y83.912 E11.59396
G1 X148.729 Y83.828 E11.59822
G1 X148.559 Y83.658 E11.60725
G1 X134.824 Y69.923 E12.3796
G1 X134.739 Y70.008 E12.38388
G1 X134.57 Y70.178 E12.39293
G1 X134.237 Y70.51 E12.41165
G1 X119.421 Y85.327 E13.2448
G1 X119.505 Y85.411 E13.24908
G1 X119.675 Y85.581 E13.25814
G1 X133.367 Y99.274 E14.0281
;WIPE_START
M204 S10000
G1 X133.693 Y99.599 F24000
;WIPE_END
G92 E0
G1 E-2 F2400
M204 S2000
G1 X118.409 Y83.608 F24000
G1 E0 F2400
;TYPE:Internal perimeter
G1 F17503.099
G1 X129.688 Y72.329 E0.63423
G1 X128.856 Y70.323 E0.7206
G1 X106.144 Y70.323 E1.62371
G1 X105.312 Y72.329 E1.71009
G1 X117.5 Y84.517 E2.39543
G1 X118.367 Y83.65 E2.44416
G1 X117.5 Y83.911 F24000
G1 F17503.099
G1 X129.182 Y72.229 E3.10108
G1 X128.57 Y70.751 E3.16468
G1 X106.43 Y70.751 E4.04502
G1 X105.818 Y72.229 E4.10863
G1 X117.458 Y83.869 E4.76316
G1 X117.5 Y83.305 F24000
G1 F17503.099
G1 X128.677 Y72.128 E5.39166
G1 X128.284 Y71.18 E5.4325
G1 X106.716 Y71.18 E6.29007
G1 X106.323 Y72.128 E6.33091
G1 X117.458 Y83.263 E6.95702
G1 X117.5 Y82.699 F24000
;TYPE:External perimeter
G1 F17503.099
G1 X128.171 Y72.028 E7.55709
G1 X128.125 Y71.917 E7.56168
G1 X128.033 Y71.695 E7.57104
G1 X127.997 Y71.608 E7.57479
G1 X127.877 Y71.608 E7.57938
G1 X127.637 Y71.608 E7.58874
G1 X107.003 Y71.608 E8.40923
G1 X106.957 Y71.719 E8.41381
G1 X106.865 Y71.941 E8.42317
G1 X106.829 Y72.028 E8.42692
G1 X106.914 Y72.113 E8.43151
G1 X107.083 Y72.282 E8.44087
G1 X117.458 Y82.657 E9.02424
;WIPE_START
M204 S10000
G1 X117.783 Y82.982 F24000
;WIPE_END
G92 E0
G1 E-2 F2400
M204 S2000
G1 X97.146 Y96.689 F24000
G1 E0 F2400
;TYPE:Internal perimeter
G1 F17503.099
G1 X98.055 Y97.598 E0.05111
G1 X113.862 Y81.791 E0.94001
G1 X96.64 Y64.57 E1.90842
G1 X95.145 Y66.065 E1.99253
G1 X80.833 Y80.377 E2.79731
G1 X97.103 Y96.647 E3.71223
G1 X98.055 Y96.992 F24000
G1 F17503.099
G1 X113.256 Y81.791 E4.56704
G1 X96.64 Y65.176 E5.50138
G1 X95.448 Y66.368 E5.56846
G1 X81.439 Y80.377 E6.3562
G1 X98.012 Y96.95 E7.28815
G1 X98.055 Y96.386 F24000
G1 F17503.099
G1 X112.65 Y81.791 E8.10889
G1 X96.64 Y65.782 E9.00916
G1 X95.751 Y66.671 E9.05919
G1 X82.045 Y80.377 E9.82989
G1 X98.012 Y96.344 E10.72777
G1 X98.055 Y95.781 F24000
;TYPE:External perimeter
G1 F17503.099
G1 X112.044 Y81.791 E11.51444
G1 X111.959 Y81.706 E11.5187
G1 X111.789 Y81.537 E11.52773
G1 X96.64 Y66.388 E12.3796
G1 X96.555 Y66.472 E12.38388
G1 X96.386 Y66.642 E12.39293
G1 X96.054 Y66.974 E12.41161
G1 X82.651 Y80.377 E13.16528
G1 X82.736 Y80.462 E13.16954
G1 X82.906 Y80.631 E13.17857
G1 X98.012 Y95.738 E14.02806
;WIPE_START
M204 S10000
G1 X98.337 Y96.063 F24000
;WIPE_END
G92 E0
G1 E-2 F2400
M204 S2000
G1 X86.582 Y116.142 F24000
G1 E0 F2400
;TYPE:Internal perimeter
G1 F17503.099
G1 X101.134 Y101.59 E0.81829
G1 X83.912 Y84.369 E1.78671
G1 X82.417 Y85.864 E1.87082
G1 X68.105 Y100.176 E2.6756
G1 X84.071 Y116.142 E3.57341
G1 X86.522 Y116.142 E3.67087
G1 X86.405 Y115.713 F24000
G1 F17503.099
G1 X100.528 Y101.59 E4.46507
G1 X83.912 Y84.975 E5.39941
G1 X82.72 Y86.167 E5.46648
G1 X68.711 Y100.176 E6.25422
G1 X84.249 Y115.713 E7.12794
G1 X86.345 Y115.713 E7.21129
G1 X86.05 Y115.285 F24000
G1 F17503.099
G1 X86.227 Y115.285 E7.21834
G1 X99.922 Y101.59 E7.98844
G1 X83.912 Y85.581 E8.88871
G1 X83.023 Y86.47 E8.93874
G1 X69.317 Y100.176 E9.70945
G1 X84.426 Y115.285 E10.55907
G1 X85.99 Y115.285 E10.62124
G1 X86.05 Y114.856 F24000
;TYPE:External perimeter
G1 F17503.099
G1 X99.316 Y101.59 E11.36725
G1 X99.231 Y101.505 E11.37151
G1 X99.061 Y101.336 E11.38054
G1 X83.912 Y86.186 E12.23241
G1 X83.828 Y86.271 E12.23669
G1 X83.658 Y86.441 E12.24574
G1 X83.326 Y86.773 E12.26443
G1 X69.923 Y100.176 E13.01809
G1 X70.008 Y100.261 E13.02237
G1 X70.178 Y100.43 E13.03142
G1 X84.604 Y114.856 E13.84264
G1 X85.99 Y114.856 E13.89775
;WIPE_START
M204 S10000
G1 X86.396 Y115.056 F24000
;WIPE_END
G92 E0
G1 E-2 F2400
M204 S2000
G1 X72.329 Y129.688 F24000
G1 E0 F2400
;TYPE:Internal perimeter
G1 F17503.099
G1 X84.517 Y117.5 E0.68534
G1 X72.329 Y105.312 E1.37068
G1 X70.323 Y106.144 E1.45706
G1 X70.323 Y128.856 E2.36017
G1 X72.274 Y129.665 E2.44416
G1 X70.751 Y128.57 F24000
G1 F17503.099
G1 X72.229 Y129.182 E2.50776
G1 X83.911 Y117.5 E3.16468
G1 X72.229 Y105.818 E3.8216
G1 X70.751 Y106.43 E3.88521
G1 X70.751 Y128.51 E4.76316
G1 X71.18 Y128.284 F24000
G1 F17503.099
G1 X72.128 Y128.677 E4.804
G1 X83.305 Y117.5 E5.4325
G1 X72.128 Y106.323 E6.06099
G1 X71.18 Y106.716 E6.10183
G1 X71.18 Y128.224 E6.95702
G1 X72.028 Y128.171 F24000
;TYPE:External perimeter
G1 F17503.099
G1 X82.699 Y117.5 E7.55709
G1 X82.614 Y117.415 E7.56135
G1 X82.444 Y117.245 E7.57038
G1 X72.028 Y106.829 E8.15614
G1 X71.917 Y106.875 E8.16073
G1 X71.695 Y106.967 E8.17009
G1 X71.608 Y107.003 E8.17384
G1 X71.608 Y107.123 E8.17843
G1 X71.608 Y107.363 E8.18779
G1 X71.608 Y127.997 E9.00828
G1 X71.719 Y128.043 E9.01287
G1 X71.941 Y128.135 E9.02222
G1 X71.972 Y128.148 E9.02359
;WIPE_START
M204 S10000
G1 X72.345 Y128.415 F24000
;WIPE_END
G92 E0
G1 E-2 F2400
M204 S2000
G1 X102.499 Y132.045 F24000
G1 E0 F2400
;TYPE:Internal perimeter
G1 F17503.099
G1 X111.741 Y122.803 E0.51968
G1 X106.95 Y118.012 E0.78909
G1 X106.95 Y116.988 E0.82983
G1 X111.741 Y112.197 E1.09924
G1 X101.59 Y102.046 E1.67003
G1 X87.632 Y116.004 E2.45494
G1 X86.136 Y117.5 E2.53904
G1 X101.59 Y132.954 E3.40805
G1 X102.457 Y132.087 E3.45678
G1 X101.59 Y132.348 F24000
G1 F17503.099
G1 X111.135 Y122.803 E3.99349
G1 X106.521 Y118.19 E4.25293
G1 X106.521 Y116.81 E4.30778
G1 X111.135 Y112.197 E4.56721
