; generated by SuperSlicer 2.5.59 on 2022-08-25 at 08:13:29 UTC

; 

; external perimeters extrusion width = 0.42mm
; perimeters extrusion width = 0.45mm
; infill extrusion width = 0.56mm
; solid infill extrusion width = 0.56mm
; top infill extrusion width = 0.40mm
; first layer extrusion width = 0.48mm

; object:{"name":"dingding","id":"dingding.stl id:0 copy 0","object_center":[117.500000,117.500000,0.000000],"boundingbox_center":[117.500000,117.500000,19.852133],"boundingbox_size":[30.784620,29.276433,39.704266]}
; plater:{"center":[117.500000,117.500000,0.000000],"boundingbox_center":[117.500000,117.500000,19.852133],"boundingbox_size":[30.784620,29.276433,39.704266]}

;TYPE:Custom
print_start EXTRUDER=220 BED=70 CHAMBER=0
M107
G21 ; set units to millimeters
G90 ; use absolute coordinates
M82 ; use absolute distances for extrusion
G92 E0
; Filament gcode
;_TOOLCHANGE 0
M104 S220 ; set temperature
M109 S220 ; set temperature and wait for it to be reached
M190 S70 ; set bed temperature and wait for it to be reached
M107
;LAYER_CHANGE
;Z:0.24
;HEIGHT:0.24
G1 Z0.24 F30000
G1 E-2 F2400
M204 S1500
G1 X101.852 Y101.261 F30000
G1 E0 F2400
;TYPE:Skirt
;WIDTH:0.45
G1 F4500
G1 X101.343 Y101.828 E0.03031
G1 X100.29 Y103.499 E0.10883
G1 X99.826 Y104.637 E0.15769
G1 X99.59 Y105.483 E0.19264
G1 X99.403 Y106.624 E0.23859
G1 X99.359 Y107.516 E0.2741
G1 X99.622 Y118.33 E0.70421
G1 X99.822 Y120.117 E0.77573
G1 X100.245 Y122.21 E0.86061
G1 X100.798 Y124.11 E0.93929
G1 X101.596 Y126.185 E1.0277
G1 X102.573 Y128.084 E1.11262
G1 X103.454 Y129.434 E1.17671
G1 X104.308 Y130.519 E1.23161
G1 X105.708 Y131.891 E1.30957
G1 X107.059 Y132.872 E1.37595
G1 X108.096 Y133.458 E1.42331
G1 X109.098 Y133.929 E1.46732
G1 X110.744 Y134.514 E1.53679
G1 X112.462 Y134.944 E1.6072
G1 X114.309 Y135.205 E1.68138
G1 X120.272 Y135.234 E1.9185
G1 X122.041 Y135.034 E1.98928
G1 X123.21 Y134.795 E2.03672
G1 X124.482 Y134.447 E2.08916
G1 X126.197 Y133.8 E2.16203
G1 X127.592 Y133.081 E2.22442
G1 X129.007 Y132.124 E2.29237
G1 X130.102 Y131.15 E2.35061
G1 X130.97 Y130.185 E2.40223
G1 X131.901 Y128.92 E2.46469
G1 X132.893 Y127.246 E2.54206
G1 X133.87 Y125.037 E2.63813
G1 X134.46 Y123.283 E2.7117
G1 X134.985 Y121.19 E2.7975
G1 X135.301 Y119.187 E2.87811
G1 X135.418 Y117.381 E2.95009
G1 X135.64 Y107.552 E3.34102
G1 X135.606 Y106.703 E3.3748
G1 X135.367 Y105.299 E3.43143
G1 X134.977 Y104.092 E3.48185
G1 X134.14 Y102.501 E3.55334
G1 X133.127 Y101.244 E3.61752
G1 X131.959 Y100.29 E3.6775
G1 X130.502 Y99.515 E3.74311
G1 X129.258 Y99.039 E3.79605
G1 X127.885 Y98.66 E3.85271
G1 X126.162 Y98.46 E3.92168
G1 X108.917 Y98.458 E4.60736
G1 X107.334 Y98.613 E4.67062
G1 X106.107 Y98.918 E4.72088
G1 X104.485 Y99.518 E4.78967
G1 X103.357 Y100.094 E4.84003
G1 X102.628 Y100.575 E4.87473
G1 X101.897 Y101.221 E4.91355
G1 X102.161 Y101.52 F30000
G1 F4500
G1 X102.129 Y101.548 E4.91527
G1 X101.658 Y102.073 E4.9433
G1 X100.779 Y103.42 E5.00724
G1 X100.404 Y104.224 E5.04251
G1 X99.981 Y105.558 E5.09819
G1 X99.8 Y106.656 E5.14242
G1 X99.758 Y107.507 E5.1763
G1 X100.019 Y118.297 E5.60546
G1 X100.214 Y120.048 E5.67551
G1 X100.633 Y122.12 E5.75957
G1 X101.174 Y123.977 E5.83649
G1 X101.963 Y126.032 E5.92401
G1 X102.465 Y127.065 E5.96966
G1 X103.449 Y128.729 E6.04654
G1 X104.322 Y129.919 E6.10521
G1 X105.455 Y131.137 E6.17136
G1 X106.619 Y132.095 E6.23128
G1 X108.005 Y132.961 E6.29627
G1 X109.245 Y133.559 E6.35102
G1 X110.848 Y134.13 E6.41868
G1 X112.544 Y134.554 E6.48821
G1 X114.351 Y134.809 E6.56075
G1 X120.259 Y134.835 E6.79567
G1 X121.983 Y134.64 E6.86467
G1 X123.108 Y134.41 E6.91033
G1 X124.355 Y134.069 E6.96173
G1 X126.027 Y133.44 E7.03277
G1 X127.399 Y132.732 E7.09415
G1 X128.755 Y131.816 E7.15921
G1 X129.826 Y130.863 E7.21621
G1 X130.656 Y129.94 E7.26555
G1 X131.564 Y128.709 E7.32638
G1 X132.544 Y127.055 E7.40284
G1 X133.501 Y124.888 E7.49703
G1 X134.08 Y123.165 E7.56931
G1 X134.593 Y121.117 E7.65326
G1 X134.905 Y119.139 E7.73286
G1 X135.02 Y117.372 E7.80328
G1 X135.242 Y107.543 E8.19418
G1 X135.208 Y106.727 E8.22665
G1 X134.977 Y105.381 E8.28095
G1 X134.604 Y104.232 E8.32898
G1 X133.804 Y102.715 E8.3972
G1 X132.85 Y101.531 E8.45764
G1 X131.75 Y100.629 E8.5142
G1 X130.334 Y99.876 E8.57798
G1 X129.144 Y99.421 E8.62865
G1 X127.813 Y99.052 E8.68356
G1 X126.162 Y98.858 E8.74966
G1 X108.917 Y98.857 E9.43534
G1 X107.397 Y99.006 E9.49607
G1 X106.23 Y99.297 E9.54389
G1 X104.634 Y99.887 E9.61158
G1 X103.548 Y100.443 E9.66007
G1 X102.875 Y100.888 E9.69217
G1 X102.206 Y101.48 E9.72767
G1 X102.511 Y101.794 F30000
G1 F4500
G1 X101.972 Y102.317 E9.75753
G1 X101.133 Y103.602 E9.81857
G1 X100.778 Y104.362 E9.85192
G1 X100.372 Y105.633 E9.90497
G1 X100.198 Y106.688 E9.94748
G1 X100.156 Y107.498 E9.97973
G1 X100.404 Y118.062 E10.39989
G1 X100.607 Y119.978 E10.47652
G1 X101.022 Y122.03 E10.55975
G1 X101.55 Y123.845 E10.63492
G1 X102.331 Y125.879 E10.72154
G1 X102.814 Y126.872 E10.76544
G1 X103.777 Y128.502 E10.84071
G1 X104.638 Y129.675 E10.89859
G1 X105.719 Y130.838 E10.96171
G1 X106.857 Y131.775 E11.02032
G1 X108.2 Y132.614 E11.0833
G1 X109.392 Y133.188 E11.13592
G1 X110.952 Y133.745 E11.20177
G1 X112.627 Y134.164 E11.27043
G1 X114.393 Y134.412 E11.34133
G1 X120.246 Y134.437 E11.57406
G1 X121.925 Y134.246 E11.64127
G1 X123.006 Y134.025 E11.68514
G1 X124.228 Y133.692 E11.73551
G1 X125.858 Y133.079 E11.80472
G1 X127.207 Y132.383 E11.8651
G1 X128.502 Y131.507 E11.92726
G1 X129.55 Y130.575 E11.98301
G1 X130.341 Y129.695 E12.03007
G1 X131.226 Y128.497 E12.08928
G1 X132.195 Y126.863 E12.16484
G1 X133.131 Y124.738 E12.25715
G1 X133.699 Y123.046 E12.32812
G1 X134.201 Y121.043 E12.41022
G1 X134.51 Y119.091 E12.48883
G1 X134.622 Y117.363 E12.55767
G1 X134.843 Y107.535 E12.94854
G1 X134.81 Y106.752 E12.97972
G1 X134.587 Y105.464 E13.03168
G1 X134.231 Y104.373 E13.07732
G1 X133.468 Y102.929 E13.14227
G1 X132.573 Y101.818 E13.19897
G1 X131.542 Y100.969 E13.2521
G1 X130.165 Y100.237 E13.31407
G1 X129.029 Y99.803 E13.36246
G1 X127.741 Y99.444 E13.41563
G1 X126.162 Y99.256 E13.47885
G1 X108.917 Y99.255 E14.16453
G1 X107.461 Y99.4 E14.22273
G1 X106.354 Y99.676 E14.2681
G1 X104.783 Y100.257 E14.3347
G1 X103.739 Y100.793 E14.38133
G1 X103.121 Y101.201 E14.41081
G1 X102.554 Y101.752 E14.44223
G1 X102.829 Y102.036 F30000
G1 F4500
G1 X102.287 Y102.561 E14.47225
G1 X101.487 Y103.785 E14.53039
G1 X101.152 Y104.501 E14.56182
G1 X100.764 Y105.708 E14.61224
G1 X100.595 Y106.72 E14.65303
G1 X100.554 Y107.489 E14.68365
G1 X100.802 Y118.047 E15.10358
G1 X100.999 Y119.909 E15.17802
G1 X101.41 Y121.941 E15.26044
G1 X101.926 Y123.713 E15.33385
G1 X102.699 Y125.726 E15.41957
G1 X103.163 Y126.679 E15.46173
G1 X104.104 Y128.275 E15.53538
G1 X104.953 Y129.432 E15.59246
G1 X105.982 Y130.539 E15.65256
G1 X107.095 Y131.455 E15.70986
G1 X108.396 Y132.267 E15.77083
G1 X109.54 Y132.818 E15.82132
G1 X111.056 Y133.36 E15.88536
G1 X112.71 Y133.775 E15.95314
G1 X114.435 Y134.016 E16.0224
G1 X120.233 Y134.039 E16.25294
G1 X121.868 Y133.852 E16.31837
G1 X122.904 Y133.64 E16.36045
G1 X124.102 Y133.314 E16.40979
G1 X125.688 Y132.718 E16.47717
G1 X127.015 Y132.034 E16.53654
G1 X128.25 Y131.199 E16.59581
G1 X129.274 Y130.288 E16.65031
G1 X130.027 Y129.45 E16.6951
G1 X130.888 Y128.286 E16.75268
G1 X131.845 Y126.671 E16.82733
G1 X132.762 Y124.589 E16.91777
G1 X133.319 Y122.928 E16.98744
G1 X133.809 Y120.97 E17.06768
G1 X134.114 Y119.042 E17.1453
G1 X134.223 Y117.354 E17.21257
G1 X134.445 Y107.527 E17.6034
G1 X134.331 Y106.178 E17.65724
G1 X134.024 Y104.953 E17.70744
G1 X133.47 Y103.704 E17.76178
G1 X132.696 Y102.551 E17.81697
G1 X132.034 Y101.851 E17.8553
G1 X130.945 Y101.07 E17.90857
G1 X129.206 Y100.284 E17.98447
G1 X127.669 Y99.836 E18.04813
G1 X126.162 Y99.655 E18.10849
G1 X108.917 Y99.654 E18.79416
G1 X107.524 Y99.793 E18.84984
G1 X106.477 Y100.055 E18.89276
G1 X104.932 Y100.626 E18.95827
G1 X103.931 Y101.142 E19.00303
G1 X103.367 Y101.514 E19.0299
G1 X102.872 Y101.994 E19.05729
G1 X103.118 Y102.263 F30000
G1 F4500
G1 X102.958 Y102.409 E19.06591
G1 X102.492 Y102.948 E19.09424
G1 X101.841 Y103.968 E19.14235
G1 X101.525 Y104.64 E19.17186
G1 X101.155 Y105.783 E19.21965
G1 X100.992 Y106.752 E19.25872
G1 X100.953 Y107.48 E19.28771
G1 X101.2 Y118.032 E19.70741
G1 X101.391 Y119.84 E19.77967
G1 X101.798 Y121.851 E19.86126
G1 X102.302 Y123.581 E19.93292
G1 X103.067 Y125.572 E20.01773
G1 X103.512 Y126.486 E20.05815
G1 X104.431 Y128.047 E20.13019
G1 X105.269 Y129.189 E20.18648
G1 X106.246 Y130.24 E20.24355
G1 X107.332 Y131.136 E20.29954
G1 X108.591 Y131.919 E20.35849
G1 X109.687 Y132.448 E20.40686
G1 X111.16 Y132.976 E20.46908
G1 X112.792 Y133.385 E20.536
G1 X114.477 Y133.62 E20.60362
G1 X120.219 Y133.64 E20.83195
G1 X121.143 Y133.555 E20.86883
G1 X122.596 Y133.303 E20.92747
G1 X123.975 Y132.936 E20.98421
G1 X125.519 Y132.358 E21.04976
G1 X126.823 Y131.685 E21.10813
G1 X127.728 Y131.091 E21.15117
G1 X128.598 Y130.384 E21.19573
G1 X129.551 Y129.399 E21.25022
G1 X130.419 Y128.27 E21.30683
G1 X131.163 Y127.085 E21.36251
G1 X131.969 Y125.488 E21.43363
G1 X132.666 Y123.675 E21.51084
G1 X133.26 Y121.611 E21.59624
G1 X133.629 Y119.724 E21.67269
G1 X133.825 Y117.345 E21.76763
G1 X134.046 Y107.519 E22.15843
G1 X133.941 Y106.26 E22.20864
G1 X133.651 Y105.094 E22.25646
G1 X133.116 Y103.887 E22.30891
G1 X132.381 Y102.795 E22.36129
G1 X131.757 Y102.138 E22.39729
G1 X130.737 Y101.41 E22.44714
G1 X129.063 Y100.656 E22.52014
G1 X127.597 Y100.228 E22.58086
G1 X126.162 Y100.053 E22.63835
G1 X108.917 Y100.052 E23.32402
G1 X108.096 Y100.105 E23.35675
G1 X107.24 Y100.26 E23.39133
G1 X106.077 Y100.604 E23.43958
G1 X105.081 Y100.996 E23.48214
G1 X104.122 Y101.492 E23.52503
G1 X103.48 Y101.933 E23.55603
G1 X103.162 Y102.223 E23.57312
G92 E0
G1 E-2 F2400
; printing object dingding.stl id:0 copy 0
; acceleration to travel
M204 S10000
G1 X115.65 Y125.276 F30000
; decel to extrusion
M204 S1500
G1 X117.499 Y128.69
; end travel
G1 E0 F2400
;TYPE:Internal perimeter
;WIDTH:0.48
G1 F3000
G1 X117.038 Y128.815 E0.02043
G1 X116.853 Y128.939 E0.02996
G1 X116.436 Y129.113 E0.04929
G1 X116.15 Y129.198 E0.06202
G1 X115.909 Y129.243 E0.07252
G1 X115.346 Y129.286 E0.09666
G1 X114.911 Y129.274 E0.11526
G1 X114.307 Y129.21 E0.14123
G1 X113.683 Y129.109 E0.16827
G1 X113.262 Y129.02 E0.18665
G1 X112.32 Y128.765 E0.22839
G1 X111.836 Y128.602 E0.25022
G1 X111.324 Y128.398 E0.27376
G1 X110.717 Y128.104 E0.30262
G1 X110.316 Y127.878 E0.32227
G1 X109.925 Y127.621 E0.34229
G1 X109.63 Y127.401 E0.35801
G1 X109.161 Y126.987 E0.38479
G1 X108.709 Y126.498 E0.41324
G1 X108.342 Y126.021 E0.43897
G1 X108.027 Y125.568 E0.46257
G1 X107.781 Y125.182 E0.48213
G1 X107.343 Y124.389 E0.5209
G1 X107.091 Y123.875 E0.54536
G1 X106.729 Y123.004 E0.5857
G1 X106.429 Y122.15 E0.62436
G1 X106.05 Y120.849 E0.6823
G1 X105.862 Y120.036 E0.71798
G1 X105.695 Y119.092 E0.75897
G1 X105.621 Y118.54 E0.78281
G1 X105.565 Y117.856 E0.81214
G1 X105.54 Y117.183 E0.84094
G1 X105.544 Y116.302 E0.8786
G1 X105.625 Y113.563 E0.99575
G1 X105.677 Y112.515 E1.04064
G1 X105.809 Y110.978 E1.10658
G1 X105.817 Y110.177 E1.14082
G1 X105.772 Y109.676 E1.16233
G1 X105.698 Y109.302 E1.17862
G1 X105.386 Y108.116 E1.23105
G1 X105.337 Y107.79 E1.24515
G1 X105.321 Y107.41 E1.26144
G1 X105.343 Y107.139 E1.27303
G1 X105.435 Y106.659 E1.29394
G1 X105.606 Y106.197 E1.315
G1 X105.709 Y105.998 E1.32458
G1 X105.961 Y105.601 E1.34472
G1 X106.019 Y105.527 E1.34872
G1 X106.282 Y105.288 E1.36391
G1 X106.75 Y105.032 E1.38673
G1 X107.449 Y104.75 E1.41895
G1 X107.932 Y104.593 E1.44066
G1 X108.314 Y104.494 E1.45752
G1 X108.731 Y104.426 E1.47557
G1 X109.157 Y104.435 E1.49381
G1 X109.371 Y104.485 E1.5032
G1 X109.444 Y104.527 E1.50682
G1 X109.626 Y104.665 E1.51658
G1 X109.719 Y104.759 E1.52224
G1 X109.951 Y105.073 E1.53894
G1 X110.125 Y105.389 E1.55432
G1 X110.477 Y106.158 E1.59052
G1 X110.706 Y106.533 E1.60932
G1 X110.959 Y106.811 E1.62536
G1 X111.292 Y107.054 E1.64298
G1 X111.744 Y107.211 E1.66343
G1 X112.077 Y107.241 E1.67773
G1 X112.477 Y107.232 E1.69486
G1 X113.277 Y107.123 E1.72939
G1 X114.363 Y106.935 E1.77647
G1 X115.252 Y106.839 E1.81473
G1 X115.636 Y106.834 E1.83113
G1 X115.934 Y106.855 E1.84392
G1 X116.233 Y106.907 E1.85687
G1 X117.121 Y107.131 E1.89607
G1 X117.575 Y107.158 E1.91548
G1 X118.018 Y107.099 E1.93462
G1 X118.609 Y106.945 E1.96071
G1 X118.963 Y106.872 E1.97617
G1 X119.362 Y106.835 E1.99329
G1 X119.756 Y106.84 E2.01015
G1 X120.201 Y106.879 E2.02925
G1 X122.435 Y107.229 E2.12592
G1 X122.982 Y107.24 E2.14935
G1 X123.298 Y107.198 E2.16295
G1 X123.686 Y107.064 E2.18052
G1 X123.967 Y106.878 E2.19491
G1 X124.313 Y106.513 E2.21642
G1 X124.572 Y106.069 E2.23839
G1 X124.982 Y105.19 E2.27986
G1 X125.068 Y105.046 E2.28704
G1 X125.306 Y104.743 E2.30351
G1 X125.49 Y104.58 E2.31402
G1 X125.636 Y104.488 E2.32137
G1 X125.75 Y104.454 E2.3265
G1 X126.153 Y104.423 E2.34375
G1 X126.352 Y104.44 E2.35229
G1 X126.772 Y104.517 E2.37055
G1 X127.518 Y104.741 E2.40387
G1 X128.005 Y104.929 E2.42619
G1 X128.484 Y105.152 E2.44876
G1 X128.777 Y105.332 E2.46347
G1 X128.952 Y105.501 E2.47387
G1 X129.128 Y105.728 E2.48615
G1 X129.254 Y105.926 E2.49621
G1 X129.411 Y106.23 E2.51081
G1 X129.545 Y106.585 E2.52705
G1 X129.658 Y107.118 E2.55035
G1 X129.679 Y107.457 E2.56484
G1 X129.674 Y107.688 E2.57473
G1 X129.617 Y108.092 E2.59217
G1 X129.294 Y109.307 E2.64596
G1 X129.19 Y109.957 E2.67408
G1 X129.177 Y110.601 E2.70164
G1 X129.197 Y111.095 E2.72276
G1 X129.318 Y112.483 E2.78235
G1 X129.437 Y115.25 E2.90076
G1 X129.458 Y117.244 E2.986
G1 X129.381 Y118.483 E3.03908
G1 X129.297 Y119.173 E3.06879
G1 X129.127 Y120.083 E3.10837
G1 X129.001 Y120.641 E3.13283
G1 X128.764 Y121.523 E3.1719
G1 X128.543 Y122.234 E3.20373
G1 X128.337 Y122.818 E3.23021
G1 X127.927 Y123.833 E3.27699
G1 X127.659 Y124.392 E3.30348
G1 X127.345 Y124.964 E3.33143
G1 X126.863 Y125.733 E3.3702
G1 X126.28 Y126.504 E3.41153
G1 X125.956 Y126.866 E3.43233
G1 X125.593 Y127.214 E3.45382
G1 X125.255 Y127.491 E3.47251
G1 X124.691 Y127.873 E3.50162
G1 X124.093 Y128.202 E3.53079
G1 X123.681 Y128.396 E3.55027
G1 X123.091 Y128.625 E3.57731
G1 X122.605 Y128.789 E3.59924
G1 X121.704 Y129.027 E3.63909
G1 X121.157 Y129.139 E3.66297
G1 X120.525 Y129.231 E3.69026
G1 X120.053 Y129.276 E3.71053
G1 X119.7 Y129.288 E3.72566
G1 X119.066 Y129.24 E3.75284
G1 X118.842 Y129.197 E3.76259
G1 X118.622 Y129.129 E3.77245
G1 X118.222 Y128.974 E3.79077
G1 X117.937 Y128.808 E3.80487
G1 X117.557 Y128.706 E3.82169
G1 X117.499 Y129.134 F30000
;TYPE:External perimeter
G1 F3000
G1 X117.218 Y129.21 E3.83416
G1 X117.056 Y129.318 E3.84246
G1 X116.58 Y129.517 E3.86452
G1 X116.251 Y129.616 E3.87923
G1 X115.964 Y129.668 E3.89169
G1 X115.356 Y129.715 E3.91775
G1 X114.882 Y129.701 E3.93803
G1 X114.25 Y129.635 E3.9652
G1 X113.604 Y129.53 E3.99319
G1 X113.162 Y129.436 E4.01252
G1 X112.195 Y129.175 E4.05532
G1 X111.688 Y129.004 E4.07819
G1 X111.151 Y128.791 E4.1029
G1 X110.518 Y128.484 E4.133
G1 X110.093 Y128.244 E4.15384
G1 X109.679 Y127.972 E4.17502
G1 X109.36 Y127.734 E4.19203
G1 X108.861 Y127.294 E4.22051
G1 X108.382 Y126.775 E4.25072
G1 X107.996 Y126.275 E4.27772
G1 X107.67 Y125.805 E4.30213
G1 X107.413 Y125.401 E4.32263
G1 X106.962 Y124.586 E4.36243
G1 X106.701 Y124.051 E4.3879
G1 X106.328 Y123.157 E4.42931
G1 X106.021 Y122.282 E4.46899
G1 X105.635 Y120.958 E4.52795
G1 X105.442 Y120.122 E4.56462
G1 X105.271 Y119.158 E4.60647
G1 X105.195 Y118.586 E4.63117
G1 X105.137 Y117.882 E4.66137
G1 X105.111 Y117.19 E4.69096
G1 X105.115 Y116.295 E4.72923
G1 X105.197 Y113.546 E4.8468
G1 X105.25 Y112.486 E4.8922
G1 X105.38 Y110.958 E4.95778
G1 X105.388 Y110.194 E4.99042
G1 X105.347 Y109.737 E5.01003
G1 X105.28 Y109.399 E5.02478
G1 X104.965 Y108.203 E5.07766
G1 X104.91 Y107.831 E5.09372
G1 X104.892 Y107.402 E5.11211
G1 X104.917 Y107.082 E5.12583
G1 X105.02 Y106.543 E5.14926
G1 X105.213 Y106.024 E5.17295
G1 X105.337 Y105.785 E5.18447
G1 X105.611 Y105.354 E5.20629
G1 X105.703 Y105.234 E5.21276
G1 X106.032 Y104.937 E5.23172
G1 X106.567 Y104.644 E5.25777
G1 X107.303 Y104.347 E5.2917
G1 X107.812 Y104.182 E5.31459
G1 X108.225 Y104.074 E5.33286
G1 X108.701 Y103.997 E5.35346
