; generated by SuperSlicer 2.5.59 on 2022-08-25 at 06:30:11 UTC

; 

; external perimeters extrusion width = 0.42mm
; perimeters extrusion width = 0.45mm
; infill extrusion width = 0.56mm
; solid infill extrusion width = 0.56mm
; top infill extrusion width = 0.40mm
; first layer extrusion width = 0.48mm

; object:{"name":"dingding","id":"dingding.stl id:0 copy 0","object_center":[117.500000,117.500000,0.000000],"boundingbox_center":[117.500000,117.500000,19.852133],"boundingbox_size":[30.784620,29.276433,39.704266]}
; Total objects to print: 1
M486 T1
; plater:{"center":[117.500000,117.500000,0.000000],"boundingbox_center":[117.500000,117.500000,19.852133],"boundingbox_size":[30.784620,29.276433,39.704266]}

M140 S70 ; set bed temperature
M104 S235 ; set temperature
;TYPE:Custom
print_start EXTRUDER=235 BED=70 CHAMBER=0
M107
G21 ; set units to millimeters
G90 ; use absolute coordinates
M82 ; use absolute distances for extrusion
G92 E0
; Filament gcode
;_TOOLCHANGE 0
M109 S235 ; set temperature and wait for it to be reached
M190 S70 ; set bed temperature and wait for it to be reached
M107
;LAYER_CHANGE
;Z:0.24
;HEIGHT:0.24
G1 Z0.24 F30000
G1 E-2 F2400
M204 P1500 T1500
G1 X101.852 Y101.261 F30000
G1 E0 F2400
;TYPE:Skirt
;WIDTH:0.45
G1 F4500
G1 X101.343 Y101.828 E0.03031
G1 X100.29 Y103.499 E0.10883
G1 X99.826 Y104.637 E0.15769
G1 X99.59 Y105.483 E0.19264
G1 X99.403 Y106.624 E0.23859
G1 X99.359 Y107.516 E0.2741
G1 X99.622 Y118.33 E0.70421
G1 X99.822 Y120.117 E0.77573
G1 X100.245 Y122.21 E0.86061
G1 X100.798 Y124.11 E0.93929
G1 X101.596 Y126.185 E1.0277
G1 X102.573 Y128.084 E1.11262
G1 X103.454 Y129.434 E1.17671
G1 X104.308 Y130.519 E1.23161
G1 X105.708 Y131.891 E1.30957
G1 X107.059 Y132.872 E1.37595
G1 X108.096 Y133.458 E1.42331
G1 X109.098 Y133.929 E1.46732
G1 X110.744 Y134.514 E1.53679
G1 X112.462 Y134.944 E1.6072
G1 X114.309 Y135.205 E1.68138
G1 X120.272 Y135.234 E1.9185
G1 X122.041 Y135.034 E1.98928
G1 X123.21 Y134.795 E2.03672
G1 X124.482 Y134.447 E2.08916
G1 X126.197 Y133.8 E2.16203
G1 X127.592 Y133.081 E2.22442
G1 X129.007 Y132.124 E2.29237
G1 X130.102 Y131.15 E2.35061
G1 X130.97 Y130.185 E2.40223
G1 X131.901 Y128.92 E2.46469
G1 X132.893 Y127.246 E2.54206
G1 X133.87 Y125.037 E2.63813
G1 X134.46 Y123.283 E2.7117
G1 X134.985 Y121.19 E2.7975
G1 X135.301 Y119.187 E2.87811
G1 X135.418 Y117.381 E2.95009
G1 X135.64 Y107.552 E3.34102
G1 X135.606 Y106.703 E3.3748
G1 X135.367 Y105.299 E3.43143
G1 X134.977 Y104.092 E3.48185
G1 X134.14 Y102.501 E3.55334
G1 X133.127 Y101.244 E3.61752
G1 X131.959 Y100.29 E3.6775
G1 X130.502 Y99.515 E3.74311
G1 X129.258 Y99.039 E3.79605
G1 X127.885 Y98.66 E3.85271
G1 X126.162 Y98.46 E3.92168
G1 X108.917 Y98.458 E4.60736
G1 X107.334 Y98.613 E4.67062
G1 X106.107 Y98.918 E4.72088
G1 X104.485 Y99.518 E4.78967
G1 X103.357 Y100.094 E4.84003
G1 X102.628 Y100.575 E4.87473
G1 X101.897 Y101.221 E4.91355
G1 X102.161 Y101.52 F30000
G1 F4500
G1 X102.129 Y101.548 E4.91527
G1 X101.658 Y102.073 E4.9433
G1 X100.779 Y103.42 E5.00724
G1 X100.404 Y104.224 E5.04251
G1 X99.981 Y105.558 E5.09819
G1 X99.8 Y106.656 E5.14242
G1 X99.758 Y107.507 E5.1763
G1 X100.019 Y118.297 E5.60546
G1 X100.214 Y120.048 E5.67551
G1 X100.633 Y122.12 E5.75957
G1 X101.174 Y123.977 E5.83649
G1 X101.963 Y126.032 E5.92401
G1 X102.465 Y127.065 E5.96966
G1 X103.449 Y128.729 E6.04654
G1 X104.322 Y129.919 E6.10521
G1 X105.455 Y131.137 E6.17136
G1 X106.619 Y132.095 E6.23128
G1 X108.005 Y132.961 E6.29627
G1 X109.245 Y133.559 E6.35102
G1 X110.848 Y134.13 E6.41868
G1 X112.544 Y134.554 E6.48821
G1 X114.351 Y134.809 E6.56075
G1 X120.259 Y134.835 E6.79567
G1 X121.983 Y134.64 E6.86467
G1 X123.108 Y134.41 E6.91033
G1 X124.355 Y134.069 E6.96173
G1 X126.027 Y133.44 E7.03277
G1 X127.399 Y132.732 E7.09415
G1 X128.755 Y131.816 E7.15921
G1 X129.826 Y130.863 E7.21621
G1 X130.656 Y129.94 E7.26555
G1 X131.564 Y128.709 E7.32638
G1 X132.544 Y127.055 E7.40284
G1 X133.501 Y124.888 E7.49703
G1 X134.08 Y123.165 E7.56931
G1 X134.593 Y121.117 E7.65326
G1 X134.905 Y119.139 E7.73286
G1 X135.02 Y117.372 E7.80328
G1 X135.242 Y107.543 E8.19418
G1 X135.208 Y106.727 E8.22665
G1 X134.977 Y105.381 E8.28095
G1 X134.604 Y104.232 E8.32898
G1 X133.804 Y102.715 E8.3972
G1 X132.85 Y101.531 E8.45764
G1 X131.75 Y100.629 E8.5142
G1 X130.334 Y99.876 E8.57798
G1 X129.144 Y99.421 E8.62865
G1 X127.813 Y99.052 E8.68356
G1 X126.162 Y98.858 E8.74966
G1 X108.917 Y98.857 E9.43534
G1 X107.397 Y99.006 E9.49607
G1 X106.23 Y99.297 E9.54389
G1 X104.634 Y99.887 E9.61158
G1 X103.548 Y100.443 E9.66007
G1 X102.875 Y100.888 E9.69217
G1 X102.206 Y101.48 E9.72767
G1 X102.511 Y101.794 F30000
G1 F4500
G1 X101.972 Y102.317 E9.75753
G1 X101.133 Y103.602 E9.81857
G1 X100.778 Y104.362 E9.85192
G1 X100.372 Y105.633 E9.90497
G1 X100.198 Y106.688 E9.94748
G1 X100.156 Y107.498 E9.97973
G1 X100.404 Y118.062 E10.39989
G1 X100.607 Y119.978 E10.47652
G1 X101.022 Y122.03 E10.55975
G1 X101.55 Y123.845 E10.63492
G1 X102.331 Y125.879 E10.72154
G1 X102.814 Y126.872 E10.76544
G1 X103.777 Y128.502 E10.84071
G1 X104.638 Y129.675 E10.89859
G1 X105.719 Y130.838 E10.96171
G1 X106.857 Y131.775 E11.02032
G1 X108.2 Y132.614 E11.0833
G1 X109.392 Y133.188 E11.13592
G1 X110.952 Y133.745 E11.20177
G1 X112.627 Y134.164 E11.27043
G1 X114.393 Y134.412 E11.34133
G1 X120.246 Y134.437 E11.57406
G1 X121.925 Y134.246 E11.64127
G1 X123.006 Y134.025 E11.68514
G1 X124.228 Y133.692 E11.73551
G1 X125.858 Y133.079 E11.80472
G1 X127.207 Y132.383 E11.8651
G1 X128.502 Y131.507 E11.92726
G1 X129.55 Y130.575 E11.98301
G1 X130.341 Y129.695 E12.03007
G1 X131.226 Y128.497 E12.08928
G1 X132.195 Y126.863 E12.16484
G1 X133.131 Y124.738 E12.25715
G1 X133.699 Y123.046 E12.32812
G1 X134.201 Y121.043 E12.41022
G1 X134.51 Y119.091 E12.48883
G1 X134.622 Y117.363 E12.55767
G1 X134.843 Y107.535 E12.94854
G1 X134.81 Y106.752 E12.97972
G1 X134.587 Y105.464 E13.03168
G1 X134.231 Y104.373 E13.07732
G1 X133.468 Y102.929 E13.14227
G1 X132.573 Y101.818 E13.19897
G1 X131.542 Y100.969 E13.2521
G1 X130.165 Y100.237 E13.31407
G1 X129.029 Y99.803 E13.36246
G1 X127.741 Y99.444 E13.41563
G1 X126.162 Y99.256 E13.47885
G1 X108.917 Y99.255 E14.16453
G1 X107.461 Y99.4 E14.22273
G1 X106.354 Y99.676 E14.2681
G1 X104.783 Y100.257 E14.3347
G1 X103.739 Y100.793 E14.38133
G1 X103.121 Y101.201 E14.41081
G1 X102.554 Y101.752 E14.44223
G1 X102.829 Y102.036 F30000
G1 F4500
G1 X102.287 Y102.561 E14.47225
G1 X101.487 Y103.785 E14.53039
G1 X101.152 Y104.501 E14.56182
G1 X100.764 Y105.708 E14.61224
G1 X100.595 Y106.72 E14.65303
G1 X100.554 Y107.489 E14.68365
G1 X100.802 Y118.047 E15.10358
G1 X100.999 Y119.909 E15.17802
G1 X101.41 Y121.941 E15.26044
G1 X101.926 Y123.713 E15.33385
G1 X102.699 Y125.726 E15.41957
G1 X103.163 Y126.679 E15.46173
G1 X104.104 Y128.275 E15.53538
G1 X104.953 Y129.432 E15.59246
G1 X105.982 Y130.539 E15.65256
G1 X107.095 Y131.455 E15.70986
G1 X108.396 Y132.267 E15.77083
G1 X109.54 Y132.818 E15.82132
G1 X111.056 Y133.36 E15.88536
G1 X112.71 Y133.775 E15.95314
G1 X114.435 Y134.016 E16.0224
G1 X120.233 Y134.039 E16.25294
G1 X121.868 Y133.852 E16.31837
G1 X122.904 Y133.64 E16.36045
G1 X124.102 Y133.314 E16.40979
G1 X125.688 Y132.718 E16.47717
G1 X127.015 Y132.034 E16.53654
G1 X128.25 Y131.199 E16.59581
G1 X129.274 Y130.288 E16.65031
G1 X130.027 Y129.45 E16.6951
G1 X130.888 Y128.286 E16.75268
G1 X131.845 Y126.671 E16.82733
G1 X132.762 Y124.589 E16.91777
G1 X133.319 Y122.928 E16.98744
G1 X133.809 Y120.97 E17.06768
G1 X134.114 Y119.042 E17.1453
G1 X134.223 Y117.354 E17.21257
G1 X134.445 Y107.527 E17.6034
G1 X134.331 Y106.178 E17.65724
G1 X134.024 Y104.953 E17.70744
G1 X133.47 Y103.704 E17.76178
G1 X132.696 Y102.551 E17.81697
G1 X132.034 Y101.851 E17.8553
G1 X130.945 Y101.07 E17.90857
G1 X129.206 Y100.284 E17.98447
G1 X127.669 Y99.836 E18.04813
G1 X126.162 Y99.655 E18.10849
G1 X108.917 Y99.654 E18.79416
G1 X107.524 Y99.793 E18.84984
G1 X106.477 Y100.055 E18.89276
G1 X104.932 Y100.626 E18.95827
G1 X103.931 Y101.142 E19.00303
G1 X103.367 Y101.514 E19.0299
G1 X102.872 Y101.994 E19.05729
G1 X103.118 Y102.263 F30000
G1 F4500
G1 X102.958 Y102.409 E19.06591
G1 X102.492 Y102.948 E19.09424
G1 X101.841 Y103.968 E19.14235
G1 X101.525 Y104.64 E19.17186
G1 X101.155 Y105.783 E19.21965
G1 X100.992 Y106.752 E19.25872
G1 X100.953 Y107.48 E19.28771
G1 X101.2 Y118.032 E19.70741
G1 X101.391 Y119.84 E19.77967
G1 X101.798 Y121.851 E19.86126
G1 X102.302 Y123.581 E19.93292
G1 X103.067 Y125.572 E20.01773
G1 X103.512 Y126.486 E20.05815
G1 X104.431 Y128.047 E20.13019
G1 X105.269 Y129.189 E20.18648
G1 X106.246 Y130.24 E20.24355
G1 X107.332 Y131.136 E20.29954
G1 X108.591 Y131.919 E20.35849
G1 X109.687 Y132.448 E20.40686
G1 X111.16 Y132.976 E20.46908
G1 X112.792 Y133.385 E20.536
G1 X114.477 Y133.62 E20.60362
G1 X120.219 Y133.64 E20.83195
G1 X121.143 Y133.555 E20.86883
G1 X122.596 Y133.303 E20.92747
G1 X123.975 Y132.936 E20.98421
G1 X125.519 Y132.358 E21.04976
G1 X126.823 Y131.685 E21.10813
G1 X127.728 Y131.091 E21.15117
G1 X128.598 Y130.384 E21.19573
G1 X129.551 Y129.399 E21.25022
G1 X130.419 Y128.27 E21.30683
G1 X131.163 Y127.085 E21.36251
G1 X131.969 Y125.488 E21.43363
G1 X132.666 Y123.675 E21.51084
G1 X133.26 Y121.611 E21.59624
G1 X133.629 Y119.724 E21.67269
G1 X133.825 Y117.345 E21.76763
G1 X134.046 Y107.519 E22.15843
G1 X133.941 Y106.26 E22.20864
G1 X133.651 Y105.094 E22.25646
G1 X133.116 Y103.887 E22.30891
G1 X132.381 Y102.795 E22.36129
G1 X131.757 Y102.138 E22.39729
G1 X130.737 Y101.41 E22.44714
G1 X129.063 Y100.656 E22.52014
G1 X127.597 Y100.228 E22.58086
G1 X126.162 Y100.053 E22.63835
G1 X108.917 Y100.052 E23.32402
G1 X108.096 Y100.105 E23.35675
G1 X107.24 Y100.26 E23.39133
G1 X106.077 Y100.604 E23.43958
G1 X105.081 Y100.996 E23.48214
G1 X104.122 Y101.492 E23.52503
G1 X103.48 Y101.933 E23.55603
G1 X103.162 Y102.223 E23.57312
G92 E0
G1 E-2 F2400
; printing object dingding.stl id:0 copy 0
M486 S0
; acceleration to travel
M204 P7000 T10000
G1 X115.65 Y124.503 F30000
; decel to extrusion
G1 X117.499 Y127.802
; end travel
G1 E0 F2400
;TYPE:Internal perimeter
;WIDTH:0.48
G1 F3000
M204 P1500 T10000
G1 X116.679 Y128.024 E0.03634
G1 X116.445 Y128.18 E0.04834
G1 X116.156 Y128.301 E0.06174
G1 X115.785 Y128.393 E0.07809
G1 X115.325 Y128.428 E0.09781
G1 X114.969 Y128.418 E0.11307
G1 X114.429 Y128.361 E0.13627
G1 X113.451 Y128.183 E0.17877
G1 X112.568 Y127.944 E0.21786
G1 X112.131 Y127.797 E0.23758
G1 X111.67 Y127.614 E0.25879
G1 X111.115 Y127.344 E0.28519
G1 X110.763 Y127.146 E0.30246
G1 X110.417 Y126.919 E0.32015
G1 X110.171 Y126.735 E0.33328
G1 X109.761 Y126.373 E0.35666
G1 X109.365 Y125.945 E0.38161
G1 X109.034 Y125.515 E0.40481
G1 X108.741 Y125.093 E0.42676
G1 X108.518 Y124.744 E0.44446
G1 X108.103 Y123.993 E0.48116
G1 X107.873 Y123.521 E0.5036
G1 X107.529 Y122.696 E0.5418
G1 X107.245 Y121.888 E0.57843
G1 X106.879 Y120.633 E0.63434
G1 X106.702 Y119.865 E0.66803
G1 X106.542 Y118.961 E0.70729
G1 X106.473 Y118.448 E0.72943
G1 X106.42 Y117.805 E0.75699
G1 X106.397 Y117.169 E0.78421
G1 X106.401 Y116.317 E0.82065
G1 X106.481 Y113.597 E0.93696
G1 X106.532 Y112.573 E0.98084
G1 X106.665 Y111.019 E1.0475
G1 X106.674 Y110.143 E1.08494
G1 X106.622 Y109.554 E1.11025
G1 X106.533 Y109.109 E1.12962
G1 X106.226 Y107.944 E1.18116
G1 X106.191 Y107.709 E1.19133
G1 X106.179 Y107.426 E1.20342
G1 X106.193 Y107.255 E1.21076
G1 X106.263 Y106.89 E1.22662
G1 X106.387 Y106.557 E1.24182
G1 X106.649 Y106.119 E1.26368
G1 X106.786 Y105.989 E1.27173
G1 X107.118 Y105.808 E1.28788
G1 X107.737 Y105.558 E1.31645
G1 X108.498 Y105.332 E1.35037
G1 X108.79 Y105.285 E1.36302
G1 X109.036 Y105.29 E1.37355
G1 X109.23 Y105.541 E1.38711
G1 X109.358 Y105.774 E1.39848
G1 X109.719 Y106.562 E1.43553
G1 X110.018 Y107.05 E1.46001
G1 X110.384 Y107.452 E1.48322
G1 X110.889 Y107.822 E1.51003
G1 X111.562 Y108.055 E1.54046
G1 X112.048 Y108.099 E1.56133
G1 X112.545 Y108.087 E1.58259
G1 X113.408 Y107.97 E1.61983
G1 X114.482 Y107.784 E1.66642
G1 X115.304 Y107.695 E1.70176
G1 X115.611 Y107.691 E1.71489
G1 X115.831 Y107.707 E1.72431
G1 X116.055 Y107.745 E1.73403
G1 X116.99 Y107.982 E1.77527
G1 X117.606 Y108.019 E1.80167
G1 X118.176 Y107.943 E1.82624
G1 X119.104 Y107.72 E1.86705
G1 X119.396 Y107.692 E1.8796
G1 X119.713 Y107.696 E1.89316
G1 X120.097 Y107.73 E1.90965
G1 X122.359 Y108.085 E2.00755
G1 X123.031 Y108.098 E2.03626
G1 X123.496 Y108.036 E2.05633
G1 X124.069 Y107.839 E2.08223
G1 X124.522 Y107.538 E2.10548
G1 X125.003 Y107.03 E2.13541
G1 X125.331 Y106.467 E2.16326
G1 X125.732 Y105.61 E2.20373
G1 X125.961 Y105.297 E2.22029
G1 X126.149 Y105.283 E2.22834
G1 X126.237 Y105.29 E2.23215
G1 X126.571 Y105.351 E2.24663
G1 X127.241 Y105.553 E2.27655
G1 X127.67 Y105.718 E2.29623
G1 X128.077 Y105.908 E2.31543
G1 X128.249 Y106.013 E2.32405
G1 X128.312 Y106.074 E2.32778
G1 X128.412 Y106.203 E2.33476
G1 X128.633 Y106.594 E2.35395
G1 X128.72 Y106.826 E2.36457
G1 X128.807 Y107.234 E2.38239
G1 X128.821 Y107.474 E2.39267
G1 X128.818 Y107.619 E2.39886
G1 X128.776 Y107.921 E2.41191
G1 X128.455 Y109.129 E2.46536
G1 X128.334 Y109.88 E2.49787
G1 X128.32 Y110.61 E2.52908
G1 X128.341 Y111.15 E2.55218
G1 X128.463 Y112.539 E2.61183
G1 X128.58 Y115.273 E2.72882
G1 X128.601 Y117.222 E2.81214
G1 X128.527 Y118.404 E2.8628
G1 X128.45 Y119.039 E2.89013
G1 X128.168 Y120.44 E2.95125
G1 X127.942 Y121.281 E2.98848
G1 X127.533 Y122.519 E3.04421
G1 X127.143 Y123.487 E3.08884
G1 X126.897 Y124 E3.11315
G1 X126.605 Y124.53 E3.13903
G1 X126.157 Y125.246 E3.17514
G1 X125.618 Y125.959 E3.21334
G1 X125.339 Y126.27 E3.23123
G1 X125.024 Y126.573 E3.2499
G1 X124.742 Y126.803 E3.26547
G1 X124.243 Y127.141 E3.29123
G1 X123.704 Y127.438 E3.31754
G1 X123.342 Y127.608 E3.33463
G1 X122.799 Y127.82 E3.35955
G1 X122.359 Y127.967 E3.3794
G1 X121.509 Y128.192 E3.417
G1 X121.009 Y128.294 E3.43881
G1 X120.434 Y128.379 E3.46366
G1 X119.703 Y128.428 E3.495
G1 X119.191 Y128.39 E3.51695
G1 X118.893 Y128.315 E3.53009
G1 X118.595 Y128.2 E3.54375
G1 X118.27 Y128.011 E3.55982
G1 X117.557 Y127.818 E3.59138
G1 X117.499 Y128.246 F30000
G1 F3000
G1 X116.858 Y128.419 E3.61976
G1 X116.649 Y128.559 E3.63053
G1 X116.291 Y128.709 E3.64712
G1 X116.05 Y128.781 E3.65787
G1 X115.853 Y128.817 E3.66642
G1 X115.335 Y128.857 E3.68864
G1 X114.94 Y128.846 E3.70556
G1 X114.368 Y128.785 E3.73015
G1 X113.356 Y128.601 E3.7741
G1 X112.444 Y128.354 E3.81451
G1 X111.983 Y128.2 E3.83529
G1 X111.497 Y128.006 E3.85767
G1 X110.916 Y127.724 E3.8853
G1 X110.54 Y127.512 E3.90375
G1 X110.171 Y127.27 E3.92261
G1 X109.901 Y127.068 E3.93704
G1 X109.461 Y126.68 E3.96212
G1 X109.037 Y126.221 E3.98882
G1 X108.688 Y125.768 E4.01328
G1 X108.384 Y125.331 E4.03606
G1 X108.15 Y124.963 E4.05469
G1 X107.723 Y124.191 E4.09242
G1 X107.482 Y123.698 E4.11587
G1 X107.129 Y122.85 E4.15514
G1 X106.837 Y122.019 E4.19278
G1 X106.464 Y120.741 E4.24971
G1 X106.282 Y119.951 E4.28439
G1 X106.118 Y119.027 E4.32452
G1 X106.047 Y118.494 E4.34751
G1 X105.992 Y117.831 E4.37596
G1 X105.968 Y117.176 E4.40396
G1 X105.972 Y116.309 E4.44102
G1 X106.053 Y113.58 E4.55775
G1 X106.105 Y112.544 E4.60213
G1 X106.237 Y110.999 E4.66843
G1 X106.246 Y110.16 E4.70427
G1 X106.197 Y109.615 E4.72768
G1 X106.115 Y109.206 E4.74551
G1 X105.806 Y108.03 E4.7975
G1 X105.764 Y107.749 E4.80963
G1 X105.75 Y107.418 E4.82382
G1 X105.768 Y107.197 E4.83328
G1 X105.849 Y106.775 E4.85167
G1 X105.999 Y106.371 E4.87009
G1 X106.081 Y106.212 E4.87775
G1 X106.312 Y105.848 E4.8962
G1 X106.334 Y105.819 E4.89773
G1 X106.532 Y105.64 E4.90915
G1 X106.934 Y105.42 E4.92873
G1 X107.596 Y105.153 E4.95924
G1 X108.053 Y105.005 E4.97979
G1 X108.402 Y104.913 E4.99523
G1 X108.76 Y104.856 E5.01073
G1 X109.104 Y104.863 E5.02544
G1 X109.193 Y104.883 E5.02934
G1 X109.348 Y104.992 E5.03743
G1 X109.392 Y105.038 E5.04016
G1 X109.59 Y105.305 E5.05435
G1 X109.742 Y105.581 E5.06783
G1 X110.098 Y106.36 E5.10446
G1 X110.362 Y106.792 E5.12609
G1 X110.671 Y107.131 E5.14572
G1 X111.091 Y107.438 E5.16794
G1 X111.653 Y107.633 E5.19337
G1 X112.062 Y107.67 E5.21096
G1 X112.511 Y107.659 E5.23016
G1 X113.343 Y107.547 E5.26604
G1 X114.422 Y107.359 E5.31288
G1 X115.278 Y107.267 E5.34968
G1 X115.623 Y107.263 E5.36444
G1 X115.882 Y107.281 E5.37555
