; generated by SuperSlicer 2.5.59 on 2022-08-26 at 01:02:54 UTC

; 

; external perimeters extrusion width = 0.42mm
; perimeters extrusion width = 0.44mm
; infill extrusion width = 0.44mm
; solid infill extrusion width = 0.44mm
; top infill extrusion width = 0.42mm
; first layer extrusion width = 0.56mm

; object:{"name":"dingding","id":"dingding.stl id:0 copy 0","object_center":[117.499674,117.500304,0.000000],"boundingbox_center":[117.499674,117.500304,19.852133],"boundingbox_size":[33.414320,33.417095,39.704266]}
; plater:{"center":[117.499674,117.500304,0.000000],"boundingbox_center":[117.499674,117.500304,19.852133],"boundingbox_size":[33.414320,33.417095,39.704266]}

;TYPE:Custom
print_start EXTRUDER=220 BED=70 CHAMBER=0
M107
G21 ; set units to millimeters
G90 ; use absolute coordinates
M82 ; use absolute distances for extrusion
G92 E0
; Filament gcode
;_TOOLCHANGE 0
M109 S220 ; set temperature and wait for it to be reached
M190 S70 ; set bed temperature and wait for it to be reached
M107
;LAYER_CHANGE
;Z:0.3
;HEIGHT:0.3
G1 Z0.3 F36000
G1 E-2 F2400
G1 X106.462 Y101.525 F36000
G1 E0 F2400
;TYPE:Skirt
;WIDTH:0.52
G1 F1800
G1 X101.804 Y106.411 E0.38363
G1 X100.377 Y108.236 E0.51526
G1 X99.444 Y109.663 E0.61215
G1 X97.868 Y112.674 E0.80528
G1 X97.296 Y114.1 E0.89258
G1 X96.777 Y115.788 E0.99298
G1 X96.396 Y117.629 E1.0998
G1 X96.236 Y119.077 E1.18259
G1 X96.22 Y120.44 E1.26003
G1 X96.364 Y121.917 E1.34438
G1 X96.732 Y123.593 E1.44187
G1 X97.294 Y125.231 E1.54028
G1 X97.938 Y126.622 E1.62741
G1 X98.789 Y128.105 E1.72458
G1 X99.654 Y129.356 E1.81096
G1 X100.614 Y130.514 E1.89648
G1 X104.534 Y134.431 E2.21138
G1 X106.051 Y135.645 E2.32181
G1 X107.153 Y136.371 E2.39679
G1 X108.834 Y137.288 E2.50561
G1 X110.606 Y138.019 E2.61453
G1 X112.913 Y138.61 E2.74986
G1 X114.501 Y138.778 E2.84059
G1 X116.075 Y138.755 E2.93007
G1 X117.523 Y138.58 E3.01296
G1 X119.032 Y138.271 E3.10049
G1 X120.954 Y137.683 E3.21472
G1 X122.664 Y136.977 E3.31987
G1 X124.267 Y136.173 E3.42175
G1 X125.693 Y135.335 E3.51574
G1 X127.321 Y134.226 E3.62768
G1 X129.373 Y132.48 E3.78079
G1 X137.09 Y125.014 E4.39098
G1 X138.047 Y123.663 E4.48507
G1 X138.725 Y122.303 E4.57139
G1 X139.21 Y120.751 E4.66382
G1 X139.421 Y119.407 E4.7411
G1 X139.434 Y118.16 E4.81201
G1 X139.289 Y117.047 E4.87576
G1 X138.756 Y115.281 E4.98058
G1 X138.209 Y114.048 E5.05727
G1 X137.565 Y112.871 E5.13349
G1 X136.987 Y112.023 E5.1918
G1 X136.209 Y111.107 E5.26012
G1 X123.308 Y98.267 E6.29447
G1 X121.861 Y97.273 E6.39422
G1 X119.836 Y96.287 E6.52223
G1 X118.24 Y95.782 E6.61733
G1 X116.775 Y95.559 E6.70155
G1 X115.026 Y95.644 E6.8011
G1 X113.516 Y95.992 E6.88911
G1 X111.966 Y96.608 E6.98391
G1 X110.573 Y97.461 E7.07674
G1 X109.139 Y98.718 E7.18511
G1 X106.504 Y101.482 E7.40211
G92 E0
G1 E-2 F2400
; printing object dingding.stl id:0 copy 0
G1 X111.291 Y107 F36000
G1 E0 F2400
;TYPE:Internal perimeter
;WIDTH:0.56
G1 F1800
G1 X112.134 Y106.306 E0.06753
G1 X112.749 Y105.714 E0.12031
G1 X113.045 Y105.364 E0.14862
G1 X113.295 Y104.997 E0.17612
G1 X113.918 Y103.923 E0.25285
G1 X114.175 Y103.586 E0.27905
G1 X114.403 Y103.353 E0.29921
G1 X114.562 Y103.217 E0.31212
G1 X114.957 Y102.947 E0.34167
G1 X115.183 Y102.829 E0.35748
G1 X115.423 Y102.731 E0.37346
G1 X115.92 Y102.594 E0.40534
G1 X116.113 Y102.563 E0.41745
G1 X116.335 Y102.549 E0.43117
G1 X116.469 Y102.558 E0.4395
G1 X117.037 Y102.713 E0.47591
G1 X117.281 Y102.807 E0.49202
G1 X118.015 Y103.149 E0.54207
G1 X118.448 Y103.388 E0.57264
G1 X118.803 Y103.63 E0.59921
G1 X118.991 Y103.79 E0.61447
G1 X119.177 Y103.99 E0.63137
G1 X119.294 Y104.154 E0.64384
G1 X119.333 Y104.302 E0.6533
G1 X119.362 Y104.507 E0.66608
G1 X119.36 Y104.648 E0.67481
G1 X119.287 Y105.09 E0.70249
G1 X119.192 Y105.401 E0.72261
G1 X118.879 Y106.248 E0.77842
G1 X118.781 Y106.811 E0.81373
G1 X118.832 Y107.327 E0.8458
G1 X118.938 Y107.589 E0.86324
G1 X119.08 Y107.838 E0.88098
G1 X119.338 Y108.138 E0.90546
G1 X119.912 Y108.607 E0.95126
G1 X121.155 Y109.5 E1.04592
G1 X121.529 Y109.791 E1.07518
G1 X121.801 Y110.022 E1.09726
G1 X122.049 Y110.266 E1.11875
G1 X122.271 Y110.515 E1.13938
G1 X122.423 Y110.723 E1.15528
G1 X122.912 Y111.544 E1.21437
G1 X123.208 Y111.881 E1.24209
G1 X123.613 Y112.187 E1.27348
G1 X124.114 Y112.478 E1.30929
G1 X124.459 Y112.708 E1.33493
G1 X124.697 Y112.916 E1.35443
G1 X124.979 Y113.201 E1.37922
G1 X125.473 Y113.811 E1.42773
G1 X126.59 Y115.357 E1.54567
G1 X126.79 Y115.589 E1.56461
G1 X127.2 Y115.949 E1.59832
G1 X127.68 Y116.171 E1.63102
G1 X128.035 Y116.22 E1.65318
G1 X128.402 Y116.201 E1.67588
G1 X128.882 Y116.084 E1.70645
G1 X129.584 Y115.818 E1.75284
G1 X129.934 Y115.708 E1.77555
G1 X130.37 Y115.646 E1.80275
G1 X130.544 Y115.649 E1.8135
G1 X130.804 Y115.702 E1.82991
G1 X130.922 Y115.764 E1.83818
G1 X131.066 Y115.879 E1.84954
G1 X131.231 Y116.035 E1.86359
G1 X131.465 Y116.331 E1.8869
G1 X131.642 Y116.608 E1.90726
G1 X132.001 Y117.29 E1.95488
G1 X132.187 Y117.709 E1.98325
G1 X132.378 Y118.233 E2.01772
G1 X132.438 Y118.502 E2.03472
G1 X132.448 Y118.75 E2.05012
G1 X132.424 Y118.988 E2.06489
G1 X132.362 Y119.282 E2.08345
G1 X132.259 Y119.612 E2.10483
G1 X132.172 Y119.82 E2.11879
G1 X131.954 Y120.21 E2.14639
G1 X131.81 Y120.413 E2.16175
G1 X131.588 Y120.665 E2.18251
G1 X131.41 Y120.834 E2.19769
G1 X131.061 Y121.095 E2.2246
G1 X129.998 Y121.702 E2.30031
G1 X129.469 Y122.085 E2.34064
G1 X129.264 Y122.276 E2.35802
G1 X128.583 Y122.989 E2.41892
G1 X127.979 Y123.733 E2.47819
G1 X127.119 Y124.703 E2.55831
G1 X125.849 Y126.079 E2.67405
G1 X125.288 Y126.657 E2.72385
G1 X124.528 Y127.423 E2.79055
G1 X124.136 Y127.785 E2.82353
G1 X123.56 Y128.275 E2.87025
G1 X123.024 Y128.695 E2.91235
G1 X121.82 Y129.5 E3.00189
G1 X120.998 Y129.979 E3.06074
G1 X120.322 Y130.334 E3.10795
G1 X119.663 Y130.649 E3.15307
G1 X118.722 Y131.044 E3.21617
G1 X117.776 Y131.358 E3.27778
G1 X117.249 Y131.498 E3.31151
G1 X116.556 Y131.644 E3.35529
G1 X115.671 Y131.763 E3.41047
G1 X115.198 Y131.789 E3.43977
G1 X114.689 Y131.777 E3.47125
G1 X114.223 Y131.73 E3.5002
G1 X113.627 Y131.613 E3.53772
G1 X112.954 Y131.42 E3.58098
G1 X112.516 Y131.263 E3.60978
G1 X111.936 Y131.01 E3.64888
G1 X111.429 Y130.757 E3.68393
G1 X110.697 Y130.331 E3.73628
G1 X110.222 Y130.019 E3.77138
G1 X109.641 Y129.585 E3.81622
G1 X109.311 Y129.31 E3.8428
G1 X109.068 Y129.082 E3.86333
G1 X108.65 Y128.602 E3.90269
G1 X108.422 Y128.234 E3.9295
G1 X108.23 Y127.813 E3.95809
G1 X108.152 Y127.507 E3.9776
G1 X107.926 Y127.075 E4.00777
G1 X107.48 Y126.841 E4.03888
G1 X107.274 Y126.801 E4.05187
G1 X106.871 Y126.638 E4.07873
G1 X106.614 Y126.498 E4.09681
G1 X106.392 Y126.345 E4.11347
G1 X106.006 Y126.019 E4.14473
G1 X105.691 Y125.691 E4.17283
G1 X105.279 Y125.184 E4.21324
G1 X105.035 Y124.853 E4.23863
G1 X104.644 Y124.262 E4.28243
G1 X104.206 Y123.497 E4.33696
G1 X103.948 Y122.976 E4.37284
G1 X103.739 Y122.491 E4.40552
G1 X103.48 Y121.716 E4.45603
G1 X103.398 Y121.421 E4.47497
G1 X103.296 Y120.92 E4.50657
G1 X103.246 Y120.559 E4.52911
G1 X103.212 Y120.032 E4.56172
G1 X103.234 Y119.343 E4.60437
G1 X103.336 Y118.573 E4.65234
G1 X103.517 Y117.69 E4.70807
G1 X103.753 Y116.867 E4.76098
G1 X103.923 Y116.365 E4.79376
G1 X104.215 Y115.635 E4.84239
G1 X104.659 Y114.69 E4.9069
G1 X105.029 Y113.989 E4.9559
G1 X105.348 Y113.43 E4.99571
G1 X106.021 Y112.383 E5.07262
G1 X106.701 Y111.464 E5.14331
G1 X107.135 Y110.952 E5.1848
G1 X107.598 Y110.454 E5.22686
G1 X108.816 Y109.253 E5.33256
G1 X110.505 Y107.691 E5.47476
G1 X111.246 Y107.04 E5.53574
G1 X110.969 Y106.622 F36000
;TYPE:External perimeter
G1 F1800
G1 X111.805 Y105.936 E5.60257
G1 X112.387 Y105.374 E5.6526
G1 X112.65 Y105.064 E5.67775
G1 X112.876 Y104.733 E5.70252
G1 X113.505 Y103.648 E5.78007
G1 X113.799 Y103.261 E5.81009
G1 X114.065 Y102.99 E5.83356
G1 X114.261 Y102.823 E5.84946
G1 X114.701 Y102.522 E5.88242
G1 X114.975 Y102.379 E5.90152
G1 X115.263 Y102.261 E5.92078
G1 X115.814 Y102.109 E5.9561
G1 X116.058 Y102.07 E5.97136
G1 X116.337 Y102.052 E5.98863
G1 X116.553 Y102.067 E6.00204
G1 X117.193 Y102.242 E6.04304
G1 X117.475 Y102.351 E6.06175
G1 X118.239 Y102.707 E6.11385
G1 X118.707 Y102.965 E6.14691
G1 X119.104 Y103.235 E6.17655
G1 X119.334 Y103.431 E6.19526
G1 X119.562 Y103.677 E6.21596
G1 X119.713 Y103.889 E6.23207
G1 X119.765 Y103.996 E6.2394
G1 X119.819 Y104.204 E6.25274
G1 X119.858 Y104.475 E6.26964
G1 X119.855 Y104.692 E6.28302
G1 X119.771 Y105.204 E6.3151
G1 X119.662 Y105.56 E6.33816
G1 X119.359 Y106.378 E6.39203
G1 X119.281 Y106.829 E6.42038
G1 X119.318 Y107.207 E6.44385
G1 X119.385 Y107.372 E6.45483
G1 X119.487 Y107.551 E6.4676
G1 X119.685 Y107.782 E6.48641
G1 X120.213 Y108.214 E6.52856
G1 X121.452 Y109.103 E6.62283
G1 X121.842 Y109.406 E6.65336
G1 X122.136 Y109.656 E6.67723
G1 X122.408 Y109.924 E6.70083
G1 X122.658 Y110.204 E6.724
G1 X122.837 Y110.45 E6.7428
G1 X123.314 Y111.251 E6.80047
G1 X123.547 Y111.516 E6.82227
G1 X123.888 Y111.774 E6.84867
G1 X124.376 Y112.057 E6.88357
G1 X124.761 Y112.313 E6.91218
G1 X125.037 Y112.554 E6.9348
G1 X125.349 Y112.87 E6.96221
G1 X125.866 Y113.509 E7.01309
G1 X126.978 Y115.049 E7.13052
G1 X127.143 Y115.239 E7.14603
G1 X127.473 Y115.53 E7.17322
G1 X127.82 Y115.69 E7.19687
G1 X128.056 Y115.722 E7.21158
G1 X128.33 Y115.709 E7.22852
G1 X128.735 Y115.61 E7.25429
G1 X129.422 Y115.349 E7.29971
G1 X129.824 Y115.224 E7.32578
G1 X130.339 Y115.149 E7.35793
G1 X130.598 Y115.154 E7.37395
G1 X130.972 Y115.23 E7.39752
G1 X131.195 Y115.347 E7.41311
G1 X131.391 Y115.504 E7.42863
G1 X131.598 Y115.699 E7.44619
G1 X131.869 Y116.043 E7.47329
G1 X132.071 Y116.359 E7.49645
G1 X132.447 Y117.074 E7.54637
G1 X132.647 Y117.524 E7.57681
G1 X132.855 Y118.094 E7.61432
G1 X132.932 Y118.438 E7.6361
G1 X132.945 Y118.766 E7.65642
G1 X132.914 Y119.064 E7.67495
G1 X132.843 Y119.407 E7.69658
G1 X132.725 Y119.783 E7.72094
G1 X132.617 Y120.038 E7.73807
G1 X132.373 Y120.475 E7.76902
G1 X132.199 Y120.721 E7.78764
G1 X131.946 Y121.008 E7.8113
G1 X131.731 Y121.213 E7.82966
G1 X131.334 Y121.51 E7.86032
G1 X130.267 Y122.12 E7.93627
G1 X129.785 Y122.468 E7.97305
G1 X129.612 Y122.629 E7.98762
G1 X128.956 Y123.317 E8.04642
G1 X128.357 Y124.054 E8.10512
G1 X127.486 Y125.035 E8.1862
G1 X126.209 Y126.42 E8.30263
G1 X125.642 Y127.004 E8.35299
G1 X124.872 Y127.779 E8.42053
G1 X124.465 Y128.156 E8.45479
G1 X123.874 Y128.659 E8.50275
G1 X123.315 Y129.096 E8.54663
G1 X122.083 Y129.92 E8.63826
G1 X121.238 Y130.413 E8.69874
G1 X120.544 Y130.778 E8.74722
G1 X119.866 Y131.101 E8.79364
G1 X118.896 Y131.509 E8.85866
G1 X117.918 Y131.833 E8.92238
G1 X117.363 Y131.981 E8.95785
G1 X116.64 Y132.132 E9.00356
G1 X115.718 Y132.257 E9.06109
G1 X115.205 Y132.285 E9.09279
G1 X114.658 Y132.272 E9.12665
G1 X114.15 Y132.22 E9.15822
G1 X113.511 Y132.096 E9.19845
G1 X112.802 Y131.892 E9.24405
G1 X112.333 Y131.723 E9.27488
G1 X111.727 Y131.459 E9.31576
G1 X111.193 Y131.193 E9.35259
G1 X110.436 Y130.752 E9.40677
G1 X109.938 Y130.425 E9.44361
G1 X109.334 Y129.974 E9.49019
G1 X108.982 Y129.681 E9.51849
G1 X108.711 Y129.427 E9.54148
G1 X108.25 Y128.897 E9.58486
G1 X107.984 Y128.468 E9.6161
G1 X107.761 Y127.978 E9.64939
G1 X107.687 Y127.685 E9.66803
G1 X107.559 Y127.442 E9.68505
G1 X107.315 Y127.314 E9.70205
G1 X107.133 Y127.279 E9.71353
G1 X106.659 Y127.087 E9.74514
G1 X106.354 Y126.921 E9.76657
G1 X106.091 Y126.739 E9.78635
G1 X105.666 Y126.381 E9.82071
G1 X105.32 Y126.019 E9.85167
G1 X104.887 Y125.487 E9.89406
G1 X104.629 Y125.137 E9.92096
G1 X104.222 Y124.522 E9.96653
G1 X103.768 Y123.73 E10.02297
G1 X103.498 Y123.184 E10.0606
G1 X103.276 Y122.668 E10.09536
G1 X103.005 Y121.861 E10.14799
G1 X102.916 Y121.536 E10.1688
G1 X102.808 Y121.004 E10.20237
G1 X102.752 Y120.609 E10.22702
G1 X102.716 Y120.04 E10.26226
G1 X102.74 Y119.302 E10.3079
G1 X102.847 Y118.491 E10.35848
G1 X103.036 Y117.572 E10.41647
G1 X103.28 Y116.72 E10.47129
G1 X103.458 Y116.194 E10.50561
G1 X103.76 Y115.437 E10.55598
G1 X104.216 Y114.469 E10.62209
G1 X104.594 Y113.75 E10.67231
G1 X104.925 Y113.173 E10.71344
G1 X105.613 Y112.101 E10.79216
G1 X106.313 Y111.156 E10.86488
G1 X106.764 Y110.623 E10.90807
G1 X107.243 Y110.108 E10.95151
G1 X108.474 Y108.895 E11.05837
G1 X110.173 Y107.323 E11.20142
G1 X110.924 Y106.662 E11.2633
;WIPE_START
G1 X111.345 Y106.759 F36000
;WIPE_END
G92 E0
G1 E-2 F2400
G1 X129.865 Y115.891 F36000
G1 E0 F2400
;TYPE:Solid infill
;WIDTH:0.557916
G1 F1800
G1 X131.844 Y117.87 E0.17237
G1 X132.026 Y118.326 E0.20259
G1 X132.082 Y118.746 E0.22868
G1 X132.073 Y118.801 E0.23212
G1 X129.515 Y116.242 E0.45498
G1 X128.998 Y116.427 E0.48876
G1 X131.946 Y119.374 E0.7455
G1 X131.841 Y119.671 E0.76486
G1 X131.733 Y119.863 E0.77842
G1 X128.229 Y116.359 E1.0836
G92 E0
G1 E-2 F2400
G1 X119.208 Y104.534 F36000
G1 E0 F2400
G1 F1800
G1 X118.695 Y104.021 E0.04469
G1 X118.252 Y103.693 E0.07866
G1 X117.853 Y103.473 E0.10669
G1 X117.119 Y103.146 E0.15621
G1 X118.939 Y104.965 E0.31469
G1 X118.933 Y105.006 E0.31723
G1 X118.763 Y105.49 E0.34884
G1 X116.21 Y102.938 E0.57116
G1 X115.981 Y102.953 E0.58532
G1 X115.623 Y103.051 E0.60818
G1 X118.58 Y106.008 E0.86571
G1 X118.528 Y106.156 E0.87538
G1 X118.453 Y106.583 E0.90203
G1 X115.135 Y103.264 E1.19108
G1 X114.791 Y103.5 E1.21676
G1 X114.728 Y103.559 E1.22205
G1 X118.465 Y107.295 E1.5475
G1 X118.477 Y107.415 E1.55489
G1 X118.612 Y107.747 E1.57696
G1 X118.783 Y108.047 E1.59824
G1 X119.084 Y108.398 E1.62675
G1 X119.69 Y108.893 E1.67495
G1 X121.079 Y109.909 E1.78091
G1 X122.162 Y110.992 E1.87521
G1 X122.618 Y111.758 E1.93014
G1 X122.961 Y112.147 E1.96207
G1 X123.409 Y112.486 E1.99666
G1 X124.051 Y112.881 E2.04307
G1 X125.121 Y113.952 E2.13632
G1 X125.185 Y114.03 E2.14257
G1 X126.306 Y115.582 E2.26044
G1 X126.533 Y115.844 E2.28182
G1 X127 Y116.255 E2.32014
G1 X127.577 Y116.523 E2.3593
G1 X127.71 Y116.541 E2.36758
G1 X131.44 Y120.271 E2.69246
G1 X131.33 Y120.408 E2.70333
G1 X131.081 Y120.612 E2.72314
G1 X114.381 Y103.912 E4.17761
G1 X114.22 Y104.124 E4.19399
G1 X114.1 Y104.332 E4.20878
G1 X130.67 Y120.902 E5.65198
G1 X130.224 Y121.157 E5.68362
G1 X113.842 Y104.775 E7.11039
G1 X113.597 Y105.198 E7.14047
G1 X113.583 Y105.217 E7.14193
G1 X129.78 Y121.414 E8.55265
G1 X129.386 Y121.721 E8.5834
G1 X113.28 Y105.614 E9.98624
G1 X113.02 Y105.955 E10.01261
G1 X112.969 Y106.005 E10.017
G1 X128.996 Y122.032 E11.41296
G1 X128.654 Y122.391 E11.44349
G1 X112.612 Y106.349 E12.84072
G1 X112.377 Y106.575 E12.86078
G1 X112.247 Y106.685 E12.87128
G1 X128.312 Y122.75 E14.27046
G1 X127.989 Y123.128 E14.30108
G1 X111.869 Y107.007 E15.70511
G1 X111.49 Y107.329 E15.73574
G1 X127.666 Y123.506 E17.14463
G1 X127.343 Y123.883 E17.17525
G1 X111.111 Y107.651 E18.58901
G1 X110.733 Y107.974 E18.61963
G1 X127.02 Y124.261 E20.0382
G1 X126.849 Y124.461 E20.05441
G1 X126.689 Y124.632 E20.06878
G1 X110.368 Y108.311 E21.49029
G1 X110.004 Y108.647 E21.52083
G1 X126.35 Y124.994 E22.94452
G1 X126.012 Y125.356 E22.97506
G1 X109.64 Y108.984 E24.40095
G1 X109.276 Y109.321 E24.43149
G1 X125.673 Y125.717 E25.85957
G1 X125.334 Y126.079 E25.89011
G1 X108.917 Y109.662 E27.31996
G1 X108.564 Y110.01 E27.35049
G1 X124.993 Y126.44 E28.78143
G1 X124.639 Y126.786 E28.81195
G1 X108.211 Y110.358 E30.24279
G1 X107.858 Y110.706 E30.27331
G1 X124.285 Y127.133 E31.70402
G1 X123.93 Y127.48 E31.73455
G1 X107.528 Y111.078 E33.16312
G1 X107.198 Y111.449 E33.1937
G1 X123.548 Y127.798 E34.61769
G1 X123.163 Y128.114 E34.64836
G1 X106.88 Y111.831 E36.06656
G1 X106.581 Y112.234 E36.09742
G1 X122.774 Y128.427 E37.50777
G1 X122.354 Y128.707 E37.53889
G1 X106.286 Y112.639 E38.93837
G1 X106.012 Y113.066 E38.96962
G1 X121.934 Y128.988 E40.35639
G1 X121.628 Y129.193 E40.37905
G1 X121.508 Y129.263 E40.38763
G1 X105.738 Y113.493 E41.76115
G1 X105.66 Y113.615 E41.77005
G1 X105.483 Y113.939 E41.79279
G1 X121.065 Y129.521 E43.14999
G1 X120.826 Y129.661 E43.16709
G1 X120.612 Y129.768 E43.18182
G1 X105.235 Y114.392 E44.52107
G1 X104.987 Y114.845 E44.55288
G1 X120.145 Y130.002 E45.87305
G1 X119.678 Y130.237 E45.90521
G1 X104.763 Y115.321 E47.20429
G1 X104.547 Y115.779 E47.23545
G1 X104.539 Y115.799 E47.23677
G1 X119.194 Y130.454 E48.51314
G1 X118.701 Y130.661 E48.54611
