; generated by SuperSlicer 2.5.59 on 2022-09-11 at 03:38:41 UTC

; 

; external perimeters extrusion width = 0.40mm
; perimeters extrusion width = 0.40mm
; infill extrusion width = 0.50mm
; solid infill extrusion width = 0.56mm
; top infill extrusion width = 0.60mm
; support material extrusion width = 0.50mm
; first layer extrusion width = 0.80mm

; object:{"name":"Duct part cooling","id":"Duct part cooling.STL id:0 copy 0","object_center":[117.499890,117.499889,0.000000],"boundingbox_center":[117.499890,117.499889,13.932563],"boundingbox_size":[36.678724,36.678724,27.865127]}
; plater:{"center":[117.499890,117.499889,0.000000],"boundingbox_center":[117.499890,117.499889,13.932563],"boundingbox_size":[36.678724,36.678724,27.865127]}

;TYPE:Custom
PRINT_START EXTRUDER=260 BED=110 CHAMBER=55
M107
G21 ; set units to millimeters
G90 ; use absolute coordinates
M82 ; use absolute distances for extrusion
G92 E0
;T400 PA
SET_PRESSURE_ADVANCE ADVANCE=0.025
SET_PRESSURE_ADVANCE SMOOTH=0.04
;_TOOLCHANGE 0
M109 S260 ; set temperature and wait for it to be reached
M190 S110 ; set bed temperature and wait for it to be reached
M107
;LAYER_CHANGE
;Z:0.25
;HEIGHT:0.25
G1 Z0.25 F39000
G1 E-0.8 F2400
M204 S2000
G1 X108.683 Y108.683 F39000
G1 E0 F2400
;TYPE:Skirt
;WIDTH:0.6
G1 F3184.7741
G1 X100.102 Y117.264 E0.62712
G1 X97.665 Y119.845 E0.81053
G1 X96.672 Y121.867 E0.92695
G1 X95.403 Y129.883 E1.34633
G1 X95.558 Y131.706 E1.44089
G1 X96.474 Y133.181 E1.53063
G1 X101.815 Y138.521 E1.9209
G1 X103.703 Y139.553 E2.03209
G1 X105.439 Y139.527 E2.12183
G1 X109.681 Y138.469 E2.34772
G1 X111.412 Y137.509 E2.45001
G1 X115.731 Y133.331 E2.76054
G1 X133.331 Y115.732 E4.0467
G1 X137.509 Y111.412 E4.3573
G1 X138.469 Y109.681 E4.45959
G1 X139.527 Y105.439 E4.68547
G1 X139.438 Y103.29 E4.79666
G1 X138.521 Y101.815 E4.8864
G1 X133.181 Y96.474 E5.27667
G1 X131.615 Y95.528 E5.37124
G1 X129.883 Y95.403 E5.46097
G1 X121.867 Y96.672 E5.88035
G1 X119.845 Y97.665 E5.99676
G1 X117.264 Y100.102 E6.18018
G1 X108.726 Y108.641 E6.8042
G1 X109.112 Y109.027 F39000
G1 F3184.7741
G1 X100.488 Y117.651 E7.43442
G1 X98.063 Y120.22 E7.617
G1 X97.212 Y121.953 E7.71676
G1 X95.942 Y129.968 E8.13614
G1 X96.038 Y131.416 E8.21109
G1 X96.861 Y132.795 E8.29407
G1 X102.201 Y138.135 E8.68434
G1 X103.701 Y138.991 E8.77361
G1 X105.307 Y138.997 E8.85659
G1 X109.549 Y137.939 E9.08248
G1 X111.032 Y137.116 E9.17014
G1 X115.345 Y132.945 E9.48021
G1 X132.944 Y115.346 E10.76636
G1 X137.116 Y111.032 E11.07648
G1 X137.939 Y109.549 E11.16413
G1 X138.997 Y105.307 E11.39002
G1 X138.957 Y103.58 E11.47929
G1 X138.135 Y102.201 E11.56227
G1 X132.795 Y96.861 E11.95254
G1 X131.568 Y96.088 E12.02749
G1 X129.968 Y95.942 E12.11047
G1 X121.953 Y97.212 E12.52985
G1 X120.22 Y98.063 E12.6296
G1 X117.651 Y100.488 E12.81219
G1 X109.154 Y108.985 E13.43311
G92 E0
G1 E-0.8 F2400
; printing object Duct part cooling.STL id:0 copy 0
; acceleration to travel
M204 S10000
G1 X122.819 Y105.066 F39000
; decel to extrusion
M204 S2000
G1 X125.571 Y104.277
; end travel
G1 E0 F2400
;TYPE:Internal perimeter
;WIDTH:0.8
G1 F4500
G1 X123.492 Y102.198 E0.20753
G1 X126.194 Y101.77 E0.40065
G1 X125.874 Y102.399 E0.45048
G1 X125.673 Y103.102 E0.50205
G1 X125.576 Y104.217 E0.5811
G92 E0
G1 E-0.8 F2400
G1 X130.547 Y108.198 F39000
G1 E0 F2400
G1 F2583.9229
G1 X131.251 Y107.975 E0.05212
G1 X131.464 Y108.326 E0.08106
G1 X131.069 Y108.72 E0.12044
G1 X130.589 Y108.24 E0.16838
G1 X128.952 Y107.658 F39000
G1 F4500
G1 X130.191 Y107.527 E0.25634
G1 X130.934 Y107.292 E0.31137
G1 X131.581 Y106.934 E0.36356
G1 X132.14 Y106.464 E0.41513
G1 X132.6 Y105.896 E0.4667
G1 X132.946 Y105.243 E0.51889
G1 X133.157 Y104.529 E0.57145
G1 X133.725 Y105.097 E0.62813
G1 X133.054 Y107.79 E0.82409
G1 X131.029 Y109.817 E1.02631
G1 X130.833 Y109.539 E1.05033
G1 X128.994 Y107.701 E1.23385
G1 X128.787 Y106.783 F39000
G1 F4500
G1 X128.859 Y106.804 E1.23915
G1 X129.449 Y106.855 E1.28096
G1 X130.038 Y106.793 E1.32277
G1 X130.638 Y106.603 E1.36719
G1 X131.156 Y106.316 E1.409
G1 X131.605 Y105.939 E1.45042
G1 X131.974 Y105.482 E1.49185
G1 X132.252 Y104.959 E1.53366
G1 X132.43 Y104.356 E1.57808
G1 X132.482 Y103.766 E1.61989
G1 X132.367 Y102.683 E1.69674
G1 X134.551 Y104.867 E1.91481
G1 X133.728 Y108.171 E2.15518
G1 X130.791 Y111.112 E2.44856
G1 X130.6 Y110.502 E2.49363
G1 X130.26 Y110.022 E2.53518
G1 X123.189 Y102.951 E3.2411
G1 X122.846 Y102.698 E3.27119
G1 X122.15 Y102.372 E3.3254
G1 X123.01 Y101.519 E3.41087
G1 X127.677 Y100.78 E3.74442
G1 X127.841 Y101.141 E3.77246
G1 X127.232 Y101.653 E3.82866
G1 X126.84 Y102.146 E3.87308
G1 X126.572 Y102.674 E3.91489
G1 X126.41 Y103.238 E3.95631
G1 X126.36 Y103.823 E3.99774
G1 X126.421 Y104.406 E4.03916
G1 X126.593 Y104.967 E4.08058
G1 X126.871 Y105.49 E4.12239
G1 X127.272 Y105.975 E4.16681
G1 X127.732 Y106.348 E4.20862
G1 X128.256 Y106.626 E4.25044
G1 X128.729 Y106.766 E4.28531
G92 E0
G1 E-0.8 F2400
; acceleration to travel
M204 S10000
G1 X106.262 Y122.966 F39000
; decel to extrusion
M204 S2000
G1 X101.768 Y126.206
; end travel
G1 E0 F2400
G1 F4500
G1 X102.198 Y123.491 E0.19409
G1 X104.264 Y125.556 E0.40029
G1 X103.024 Y125.687 E0.48831
G1 X102.28 Y125.922 E0.54334
G1 X101.821 Y126.177 E0.58043
G92 E0
G1 E-0.8 F2400
G1 X108.72 Y131.07 F39000
G1 E0 F2400
G1 F2553.2738
G1 X108.344 Y131.446 E0.03757
G1 X107.995 Y131.24 E0.06611
G1 X108.195 Y130.544 E0.11726
G1 X108.678 Y131.027 E0.16549
G92 E0
G1 E-0.8 F2400
G1 X104.708 Y133.108 F39000
G1 E0 F2400
G1 F4500
G1 X105.308 Y132.919 E0.04442
G1 X105.954 Y132.56 E0.0966
G1 X106.52 Y132.085 E0.14879
G1 X107.005 Y131.474 E0.20382
G1 X107.341 Y130.815 E0.25601
G1 X107.542 Y130.113 E0.30758
G1 X107.644 Y128.937 E0.39088
G1 X109.499 Y130.792 E0.57606
G1 X109.81 Y131.036 E0.60396
G1 X107.79 Y133.054 E0.80548
G1 X105.097 Y133.725 E1.00145
G1 X104.535 Y133.163 E1.05755
G1 X104.651 Y133.126 E1.06616
G1 X104.483 Y132.397 F39000
G1 F4500
G1 X105.011 Y132.23 E1.10527
G1 X105.529 Y131.942 E1.14707
G1 X105.983 Y131.561 E1.18889
G1 X106.374 Y131.069 E1.23331
G1 X106.643 Y130.541 E1.27512
G1 X106.804 Y129.977 E1.31654
G1 X106.856 Y129.387 E1.35835
G1 X106.784 Y128.762 E1.40277
G1 X106.601 Y128.198 E1.44458
G1 X106.316 Y127.685 E1.486
G1 X105.939 Y127.236 E1.52742
G1 X105.482 Y126.867 E1.56885
G1 X104.964 Y126.592 E1.61028
G1 X104.398 Y126.419 E1.65208
G1 X103.771 Y126.359 E1.6965
G1 X103.504 Y126.387 E1.71548
G1 X103.177 Y126.422 E1.7387
G1 X102.577 Y126.611 E1.78311
G1 X102.059 Y126.899 E1.82493
G1 X101.605 Y127.28 E1.86674
G1 X101.145 Y127.859 E1.91893
G1 X100.777 Y127.696 E1.94737
G1 X101.519 Y123.01 E2.28234
G1 X102.43 Y122.092 E2.37361
G1 X102.587 Y122.656 E2.41497
G1 X102.925 Y123.162 E2.45786
G1 X109.994 Y130.233 E3.1637
G1 X110.322 Y130.489 E3.19306
G1 X111.055 Y130.847 E3.25066
G1 X108.171 Y133.728 E3.53841
G1 X104.867 Y134.551 E3.77878
G1 X102.69 Y132.374 E3.99614
G1 X103.817 Y132.482 E4.07605
G1 X104.426 Y132.415 E4.1193
G92 E0
G1 E-0.8 F2400
G1 X111.397 Y130.067 F39000
G1 E0 F2400
;TYPE:External perimeter
G1 F4500
G1 X111.843 Y130.013 E0.03173
G1 X112.199 Y129.821 E0.06032
G1 X112.479 Y129.615 E0.08485
G1 X129.604 Y112.491 E1.79439
G1 X129.884 Y112.107 E1.82797
G1 X130.049 Y111.711 E1.85828
G1 X130.055 Y111.259 E1.8902
G1 X129.923 Y110.837 E1.92138
G1 X129.687 Y110.505 E1.95014
G1 X122.701 Y103.518 E2.64762
G1 X122.462 Y103.342 E2.66854
G1 X122.2 Y103.219 E2.68903
G1 X121.89 Y103.156 E2.71136
G1 X121.604 Y103.157 E2.73154
G1 X121.318 Y103.224 E2.75225
G1 X121.075 Y103.352 E2.77163
G1 X120.716 Y103.618 E2.80319
G1 X103.611 Y120.723 E4.51083
G1 X103.33 Y121.107 E4.5444
G1 X103.167 Y121.501 E4.57451
G1 X103.156 Y121.919 E4.60405
G1 X103.274 Y122.341 E4.63495
G1 X103.505 Y122.686 E4.66424
G1 X110.49 Y129.673 E5.36169
G1 X110.72 Y129.853 E5.3823
G1 X110.987 Y129.983 E5.40329
G1 X111.338 Y130.055 E5.42855
;WIPE_START
M204 S5000
G1 X111.601 Y130.411 F39000
;WIPE_END
G92 E0
G1 E-0.8 F2400
; acceleration to travel
M204 S10000
G1 X126.099 Y110.124 F39000
; decel to extrusion
M204 S2000
G1 X128.998 Y106.067
; end travel
G1 E0 F2400
G1 F4500
G1 X129.442 Y106.105 E0.03143
G1 X129.885 Y106.059 E0.06286
G1 X130.341 Y105.914 E0.09667
G1 X130.731 Y105.698 E0.1281
G1 X131.07 Y105.413 E0.15938
G1 X131.349 Y105.069 E0.19066
G1 X131.557 Y104.676 E0.22209
G1 X131.693 Y104.216 E0.2559
G1 X131.732 Y103.773 E0.28733
G1 X131.685 Y103.332 E0.3186
G1 X131.555 Y102.908 E0.34988
G1 X131.346 Y102.515 E0.38131
G1 X131.041 Y102.146 E0.41512
G1 X130.695 Y101.866 E0.44655
G1 X130.302 Y101.657 E0.47799
G1 X129.843 Y101.521 E0.51179
G1 X129.399 Y101.483 E0.54322
G1 X128.956 Y101.53 E0.57466
G1 X128.5 Y101.674 E0.60846
G1 X128.11 Y101.89 E0.6399
G1 X127.769 Y102.176 E0.67133
G1 X127.471 Y102.551 E0.70513
G1 X127.27 Y102.948 E0.73657
G1 X127.148 Y103.374 E0.76784
G1 X127.109 Y103.816 E0.79912
G1 X127.156 Y104.256 E0.83039
G1 X127.286 Y104.68 E0.86167
G1 X127.495 Y105.073 E0.89311
G1 X127.8 Y105.442 E0.92691
G1 X128.146 Y105.722 E0.95834
G1 X128.539 Y105.931 E0.98978
G1 X128.941 Y106.05 E1.01935
;WIPE_START
M204 S5000
G1 X129.143 Y106.44 F39000
;WIPE_END
G92 E0
G1 E-0.8 F2400
; acceleration to travel
M204 S10000
G1 X108.406 Y127.477 F39000
; decel to extrusion
M204 S2000
G1 X104.258 Y131.685
; end travel
G1 E0 F2400
G1 F4500
G1 X104.715 Y131.541 E0.0338
G1 X105.104 Y131.325 E0.06524
G1 X105.445 Y131.038 E0.09667
G1 X105.743 Y130.663 E0.13048
G1 X105.945 Y130.266 E0.16191
G1 X106.067 Y129.84 E0.19319
G1 X106.106 Y129.397 E0.22462
G1 X106.051 Y128.921 E0.25843
G1 X105.913 Y128.498 E0.28986
G1 X105.698 Y128.11 E0.32113
G1 X105.413 Y127.771 E0.35241
G1 X105.069 Y127.492 E0.38369
G1 X104.677 Y127.285 E0.41497
G1 X104.252 Y127.155 E0.4464
G1 X103.775 Y127.109 E0.4802
G1 X103.582 Y127.129 E0.49388
G1 X103.33 Y127.156 E0.51179
G1 X102.873 Y127.3 E0.5456
G1 X102.484 Y127.516 E0.57703
G1 X102.143 Y127.803 E0.60846
G1 X101.845 Y128.178 E0.64227
G1 X101.643 Y128.575 E0.6737
G1 X101.521 Y129.001 E0.70498
G1 X101.483 Y129.444 E0.73641
G1 X101.537 Y129.92 E0.77022
G1 X101.675 Y130.343 E0.80165
G1 X101.89 Y130.731 E0.83293
G1 X102.175 Y131.07 E0.86421
G1 X102.519 Y131.349 E0.89548
G1 X102.911 Y131.556 E0.92676
G1 X103.337 Y131.686 E0.95819
G1 X103.813 Y131.732 E0.992
G1 X104.199 Y131.691 E1.01935
;WIPE_START
M204 S5000
G1 X104.535 Y131.974 F39000
;WIPE_END
G92 E0
G1 E-0.8 F2400
M204 S2000
G1 X104.638 Y135.378 F39000
G1 E0 F2400
G1 F4500
G1 X99.602 Y130.342 E0.50277
G1 X100.82 Y122.655 E1.05217
G1 X102.108 Y121.356 E1.18131
G1 X102.454 Y120.972 E1.2178
G1 X102.763 Y120.588 E1.25261
G1 X103.089 Y120.244 E1.28605
G1 X120.244 Y103.089 E2.99869
G1 X120.588 Y102.763 E3.03214
G1 X120.972 Y102.454 E3.06694
G1 X121.356 Y102.108 E3.10343
G1 X122.655 Y100.82 E3.23258
G1 X130.342 Y99.602 E3.78197
G1 X130.5 Y99.76 E3.79778
G1 X135.378 Y104.638 E4.28475
G1 X134.402 Y108.552 E4.56952
G1 X131.33 Y111.627 E4.87633
G1 X130.976 Y112.001 E4.91268
G1 X130.335 Y112.761 E4.98285
G1 X112.76 Y130.335 E6.73735
G1 X112.001 Y130.976 E6.80751
G1 X111.627 Y131.33 E6.84385
G1 X108.552 Y134.402 E7.15067
G1 X104.696 Y135.363 E7.4312
;WIPE_START
M204 S5000
G1 X104.606 Y134.979 F39000
;WIPE_END
G92 E0
G1 E-0.8 F2400
M204 S2000
G1 X105.767 Y133.134 F39000
G1 E0 F2400
;TYPE:Gap fill
;WIDTH:0.197784
G1 F4500
G1 X105.838 Y133.106 E0.00105
G1 X106.026 Y133.032 E0.00379
;WIDTH:0.312643
G1 X106.213 Y132.958 E0.00873
G1 X106.237 Y132.948 E0.00936
G1 X106.36 Y132.885 E0.01274
;WIDTH:0.396445
G1 X106.483 Y132.822 E0.01722
;WIDTH:0.471075
G1 X106.606 Y132.76 E0.02267
;WIDTH:0.545705
G1 X106.729 Y132.697 E0.02909
;WIDTH:0.620335
G1 X106.852 Y132.634 E0.03649
;WIDTH:0.694965
G1 X106.975 Y132.571 E0.04487
G1 X107.034 Y132.537 E0.04904
;WIDTH:0.765234
G1 X107.17 Y132.45 E0.05993
;WIDTH:0.895316
G1 F3990.3899
G1 X107.306 Y132.362 E0.0728
;WIDTH:0.992877
G1 F3575.8905
G1 X107.374 Y132.318 E0.07999
G1 X107.512 Y132.164 E0.09838
;WIDTH:1.04028
G1 F3404.0889
G1 X107.65 Y132.009 E0.1177
;WIDTH:0.980311
G1 F3624.3846
G1 X107.742 Y131.903 E0.13002
G1 X107.811 Y131.817 E0.13963
;WIDTH:1.058016
G1 F3343.9759
G1 X107.926 Y131.681 E0.15662
G1 X107.97 Y131.626 E0.16336
G92 E0
G1 E-0.8 F2400
G1 X102.869 Y131.976 F39000
G1 E0 F2400
;WIDTH:0.205411
G1 F4500
G1 X102.74 Y131.95 E0.0019
G1 X102.615 Y131.912 E0.00376
;WIDTH:0.287408
G1 X102.491 Y131.875 E0.00663
;WIDTH:0.354959
G1 X102.367 Y131.837 E0.01033
;WIDTH:0.424607
G1 X102.207 Y131.788 E0.0162
;WIDTH:0.470654
G1 X102.053 Y131.725 E0.02277
;WIDTH:0.590822
G1 X101.898 Y131.662 E0.03125
;WIDTH:0.686863
G1 X101.739 Y131.556 E0.04267
G1 X101.697 Y131.515 E0.04621
G1 X101.353 Y131.139 E0.07675
G1 X101.312 Y131.09 E0.08058
G1 X101.157 Y130.884 E0.09599
;WIDTH:0.867628
G1 F4126.1226
G1 X101.002 Y130.679 E0.11579
G1 X100.956 Y130.612 E0.12202
G1 X100.901 Y130.522 E0.13014
;WIDTH:0.95934
G1 F3708.306
G1 X100.846 Y130.432 E0.13918
;WIDTH:1.020854
G1 F3472.4573
G1 X100.791 Y130.342 E0.14883
;WIDTH:1.082368
G1 F3264.8149
G1 X100.736 Y130.252 E0.1591
;WIDTH:1.143883
G1 F3080.604
G1 X100.681 Y130.162 E0.16998
;WIDTH:1.191448
G1 F2951.8195
G1 X100.604 Y130.016 E0.18775
;WIDTH:1.24164
G1 F2827.1056
G1 X100.609 Y129.762 E0.21627
;WIDTH:1.104439
G1 F3196.2393
G1 X100.615 Y129.509 E0.2415
G1 X100.622 Y129.404 E0.25191
G1 X100.653 Y129.149 E0.27742
;WIDTH:1.050417
G1 F3369.4666
G1 X100.685 Y128.895 E0.30163
G1 X100.701 Y128.8 E0.31064
G1 X100.742 Y128.616 E0.32848
G1 X100.79 Y128.438 E0.34579
G1 X100.838 Y128.261 E0.36309
G1 X100.882 Y128.119 E0.37714
G92 E0
G1 E-0.8 F2400
; acceleration to travel
M204 S10000
G1 X126.509 Y111.304 F39000
; decel to extrusion
M204 S2000
G1 X131.633 Y107.942
; end travel
G1 E0 F2400
;WIDTH:1.067966
G1 F3311.1705
G1 X131.824 Y107.795 E0.02313
;WIDTH:0.933748
G1 F3816.1351
G1 X132.016 Y107.648 E0.0432
;WIDTH:0.990668
G1 F3584.3206
G1 X132.087 Y107.588 E0.05146
G1 X132.319 Y107.375 E0.07939
G1 X132.373 Y107.289 E0.08837
;WIDTH:0.912435
G1 F3910.845
G1 X132.427 Y107.203 E0.0966
;WIDTH:0.834201
G1 F4302.8233
G1 X132.48 Y107.117 E0.10409
;WIDTH:0.755968
G1 F4500
G1 X132.534 Y107.031 E0.11082
;WIDTH:0.650957
G1 X132.588 Y106.945 E0.11654
G1 X132.678 Y106.771 E0.12764
;WIDTH:0.575341
G1 X132.739 Y106.649 E0.13435
;WIDTH:0.504768
G1 X132.799 Y106.527 E0.14016
;WIDTH:0.434194
G1 X132.86 Y106.405 E0.14505
;WIDTH:0.363621
G1 X132.921 Y106.284 E0.14904
;WIDTH:0.285799
G1 X132.981 Y106.162 E0.15203
G1 X133.048 Y105.991 E0.15605
;WIDTH:0.198415
G1 X133.105 Y105.841 E0.15825
G1 X133.133 Y105.77 E0.1593
G92 E0
G1 E-0.8 F2400
G1 X131.968 Y102.842 F39000
G1 E0 F2400
;WIDTH:0.203033
G1 F4500
G1 X131.946 Y102.738 E0.0015
G1 X131.908 Y102.613 E0.00334
;WIDTH:0.28078
G1 X131.869 Y102.488 E0.00615
;WIDTH:0.347272
G1 X131.831 Y102.363 E0.00978
;WIDTH:0.415914
G1 X131.78 Y102.203 E0.01556
;WIDTH:0.463256
G1 X131.713 Y102.043 E0.02226
;WIDTH:0.587941
G1 X131.646 Y101.883 E0.03101
;WIDTH:0.681454
G1 X131.612 Y101.804 E0.03615
G1 X131.478 Y101.661 E0.04777
G1 X131.287 Y101.489 E0.06302
;WIDTH:0.723011
G1 X131.097 Y101.317 E0.07929
G1 X131.046 Y101.276 E0.08341
G1 X130.837 Y101.122 E0.09983
;WIDTH:0.889787
G1 F4016.7737
G1 X130.629 Y100.968 E0.12035
G1 X130.556 Y100.919 E0.12725
G1 X130.459 Y100.861 E0.13619
;WIDTH:0.994011
G1 F3571.5784
G1 X130.362 Y100.804 E0.14626
;WIDTH:1.063699
G1 F3325.1586
G1 X130.265 Y100.746 E0.15706
;WIDTH:1.133387
G1 F3110.5475
G1 X130.167 Y100.688 E0.16862
;WIDTH:1.208879
G1 F2907.2809
G1 X130.017 Y100.601 E0.18759
G1 X129.958 Y100.601 E0.19411
G1 X129.699 Y100.61 E0.22236
;WIDTH:1.092649
G1 F3232.5086
G1 X129.441 Y100.619 E0.24776
G1 X129.342 Y100.628 E0.2575
G1 X129.088 Y100.661 E0.28272
;WIDTH:1.051376
G1 F3366.231
G1 X128.833 Y100.695 E0.30694
G1 X128.735 Y100.713 E0.3164
G1 X128.601 Y100.744 E0.32935
G1 X128.267 Y100.836 E0.36205
G1 X128.091 Y100.859 E0.37878
;LAYER_CHANGE
;Z:0.45
;HEIGHT:0.2
; stop printing object Duct part cooling.STL id:0 copy 0
M204 S5000
G1 Z0.45 F39000
G92 E0
G1 E-0.8 F2400
; printing object Duct part cooling.STL id:0 copy 0
; acceleration to travel
M204 S10000
G1 X118.144 Y118.826 F39000
; decel to extrusion
M204 S5000
G1 X111.871 Y130.156
; end travel
G1 E0 F2400
;TYPE:Internal perimeter
;WIDTH:0.4
