; generated by SuperSlicer 2.5.59 on 2022-09-11 at 07:17:49 UTC


;
;

;
;
; 

; external perimeters extrusion width = 0.40mm
; perimeters extrusion width = 0.40mm
; infill extrusion width = 0.50mm
; solid infill extrusion width = 0.56mm
; top infill extrusion width = 0.40mm
; support material extrusion width = 0.50mm
; first layer extrusion width = 0.80mm

; object:{"name":"3DBenchy","id":"3DBenchy.stl id:0 copy 0","object_center":[117.500000,117.500000,0.000000],"boundingbox_center":[117.500000,117.500000,24.000000],"boundingbox_size":[50.826130,50.826130,48.000000]}
; plater:{"center":[117.500000,117.500000,0.000000],"boundingbox_center":[117.500000,117.500000,24.000000],"boundingbox_size":[50.826130,50.826130,48.000000]}

;TYPE:Custom
PRINT_START EXTRUDER=260 BED=110 CHAMBER=55
M107
G21 ; set units to millimeters
G90 ; use absolute coordinates
M82 ; use absolute distances for extrusion
G92 E0
;T400 PA
SET_PRESSURE_ADVANCE ADVANCE=0.0
SET_PRESSURE_ADVANCE SMOOTH=0.04
;_TOOLCHANGE 0
M104 S260 ; set temperature
M109 S260 ; set temperature and wait for it to be reached
M190 S110 ; set bed temperature and wait for it to be reached
M107
;LAYER_CHANGE
;Z:0.25
;HEIGHT:0.25
G1 Z0.25 F39000
G1 E-0.8 F2400
M204 S2000
G1 X99.372 Y99.215 F39000
G1 E0 F2400
;TYPE:Skirt
;WIDTH:0.6
G1 F3184.7741
G1 X97.414 Y101.176 E0.14323
G1 X95.45 Y103.336 E0.29405
G1 X94.924 Y104.129 E0.34322
G1 X94.576 Y104.9 E0.38695
G1 X94.294 Y106.094 E0.45036
G1 X94.258 Y106.983 E0.49632
G1 X94.361 Y107.812 E0.53949
G1 X94.651 Y108.761 E0.59078
G1 X95.044 Y109.55 E0.63632
G1 X95.643 Y110.366 E0.68862
G1 X111.449 Y128.217 E1.92074
G1 X112.929 Y129.666 E2.02777
G1 X115.236 Y131.391 E2.17665
G1 X117.266 Y132.509 E2.29641
G1 X119.336 Y133.34 E2.41166
G1 X121.251 Y133.868 E2.51432
G1 X124.031 Y134.356 E2.66018
G1 X125.868 Y134.391 E2.75509
G1 X127.781 Y134.232 E2.85433
G1 X130.139 Y133.652 E2.97978
G1 X131.485 Y133.055 E3.05584
G1 X132.627 Y132.065 E3.13397
G1 X133.118 Y131.38 E3.17754
G1 X133.459 Y130.698 E3.21691
G1 X133.89 Y129.155 E3.29973
G1 X134.103 Y127.972 E3.36186
G1 X134.301 Y125.338 E3.49834
G1 X134.137 Y122.788 E3.63038
G1 X133.656 Y120.387 E3.75693
G1 X132.65 Y117.57 E3.91149
G1 X131.516 Y115.436 E4.03637
G1 X130.148 Y113.501 E4.15886
G1 X128.215 Y111.446 E4.30461
G1 X110.366 Y95.643 E5.53656
G1 X109.13 Y94.818 E5.61333
G1 X108.267 Y94.475 E5.66134
G1 X107.301 Y94.285 E5.71223
G1 X106.489 Y94.262 E5.7542
G1 X105.359 Y94.435 E5.81327
G1 X104.226 Y94.873 E5.876
G1 X103.335 Y95.452 E5.93094
G1 X101.145 Y97.44 E6.08378
G1 X99.414 Y99.173 E6.21032
G1 X99.801 Y99.559 F39000
G1 F3184.7741
G1 X97.803 Y101.56 E6.35646
G1 X95.89 Y103.661 E6.5033
G1 X95.409 Y104.38 E6.54798
G1 X95.094 Y105.074 E6.58737
G1 X94.834 Y106.175 E6.64587
G1 X94.804 Y106.97 E6.68695
G1 X94.899 Y107.714 E6.7257
G1 X95.164 Y108.571 E6.77209
G1 X95.517 Y109.277 E6.81287
G1 X96.052 Y110.004 E6.8595
G1 X111.844 Y127.84 E8.09054
G1 X113.279 Y129.247 E8.19443
G1 X115.538 Y130.936 E8.34019
G1 X117.487 Y132.009 E8.45513
G1 X119.496 Y132.817 E8.56706
G1 X121.381 Y133.337 E8.6681
G1 X124.067 Y133.811 E8.80902
G1 X125.838 Y133.846 E8.90057
G1 X127.721 Y133.689 E8.99819
G1 X129.999 Y133.124 E9.11952
G1 X131.201 Y132.588 E9.18749
G1 X132.218 Y131.703 E9.2572
G1 X132.957 Y130.483 E9.33089
G1 X133.36 Y129.025 E9.40903
G1 X133.565 Y127.879 E9.4692
G1 X133.755 Y125.349 E9.6003
G1 X133.598 Y122.876 E9.72833
G1 X133.132 Y120.541 E9.85141
G1 X132.147 Y117.784 E10.00271
G1 X130.936 Y115.539 E10.13452
G1 X129.731 Y113.854 E10.24156
G1 X127.839 Y111.843 E10.38423
G1 X110.004 Y96.052 E11.61522
G1 X108.873 Y95.3 E11.68541
G1 X108.1 Y94.996 E11.72835
G1 X107.227 Y94.826 E11.77426
G1 X106.186 Y94.834 E11.82809
G1 X105.221 Y95.045 E11.87915
G1 X104.466 Y95.363 E11.92144
G1 X103.659 Y95.892 E11.97133
G1 X101.531 Y97.826 E12.1199
G1 X99.843 Y99.516 E12.24332
G92 E0
G1 E-0.8 F2400
; printing object 3DBenchy.stl id:0 copy 0
; acceleration to travel
M204 S10000
G1 X122.647 Y124.349 F39000
; decel to extrusion
M204 S2000
G1 X127.238 Y129.349
; end travel
G1 E0 F2400
;TYPE:Internal perimeter
;WIDTH:0.595941
G1 F4500
G1 X127.203 Y128.995 E0.01824
G1 X127.112 Y128.689 E0.03458
G1 X127.289 Y128.674 E0.0437
G1 X127.466 Y128.659 E0.05282
G1 X128.049 Y128.529 E0.08343
G1 X128.631 Y128.399 E0.11404
G1 X129.119 Y128.121 E0.14282
G1 X128.981 Y128.687 E0.17271
G1 X128.896 Y128.901 E0.1845
G1 X128.704 Y128.965 E0.1949
G1 X128.511 Y129.029 E0.20531
G1 X127.875 Y129.189 E0.23897
G1 X127.296 Y129.334 E0.26955
G1 X125.933 Y130.198 F39000
;TYPE:External perimeter
;WIDTH:0.67364
G1 F4500
G1 X125.779 Y130.211 E0.27863
G1 X125.625 Y130.224 E0.28771
G92 E0
G1 E-0.8 F2400
G1 X122.562 Y128.919 F39000
G1 E0 F2400
;TYPE:Internal perimeter
;WIDTH:1.034403
G1 F4500
G1 X122.342 Y128.874 E0.02084
G1 X121.471 Y128.65 E0.10424
G1 X120.862 Y128.462 E0.16344
G1 X120.069 Y128.16 E0.24209
G1 X120.212 Y128.135 E0.25553
G1 X120.86 Y127.913 E0.31912
G1 X121.414 Y127.682 E0.3748
G1 X122.146 Y127.357 E0.44907
G1 X122.105 Y127.767 E0.48728
G1 X122.162 Y128.178 E0.52579
G1 X122.425 Y128.745 E0.58373
G1 X122.525 Y128.872 E0.59874
G92 E0
G1 E-0.8 F2400
G1 X117.427 Y120.801 F39000
G1 E0 F2400
;TYPE:External perimeter
;WIDTH:0.845678
G1 F4500
G1 X117.309 Y120.884 E0.01076
G1 X117.192 Y120.967 E0.02153
G92 E0
G1 E-0.8 F2400
; acceleration to travel
M204 S10000
G1 X111.904 Y111.516 F39000
; decel to extrusion
M204 S2000
G1 X110.846 Y109.625
; end travel
G1 E0 F2400
;TYPE:Internal perimeter
;WIDTH:1.030016
G1 F4500
G1 X110.76 Y109.674 E0.00916
G1 X110.31 Y109.963 E0.05847
G1 X110.003 Y110.323 E0.10222
G1 X109.873 Y110.64 E0.13383
G1 X109.478 Y110.597 E0.17057
G1 X109.352 Y110.646 E0.18296
;WIDTH:0.963988
G1 X109.227 Y110.694 E0.19452
;WIDTH:0.897961
G1 X109.102 Y110.743 E0.20523
;WIDTH:0.831933
G1 X108.977 Y110.791 E0.21511
;WIDTH:0.765906
G1 X108.852 Y110.84 E0.22416
;WIDTH:0.699878
G1 X108.727 Y110.888 E0.23236
G1 X108.471 Y111.084 E0.25205
;WIDTH:0.61719
G1 X108.215 Y111.28 E0.26922
G1 X108.038 Y111.472 E0.28316
;WIDTH:0.746349
G1 X107.86 Y111.664 E0.3003
G1 X107.779 Y111.816 E0.31156
G1 X107.699 Y111.968 E0.32282
G1 X107.586 Y112.542 E0.36119
G1 X107.659 Y113.169 E0.40255
G1 X107.818 Y113.614 E0.43347
G1 X108.145 Y114.167 E0.47558
G1 X108.784 Y114.881 E0.53835
G1 X109.222 Y115.22 E0.57464
G1 X109.847 Y115.535 E0.62052
G1 X110.461 Y115.696 E0.66207
G1 X111.043 Y115.704 E0.70023
G1 X110.966 Y116.024 E0.72176
G1 X110.987 Y116.559 E0.75688
G1 X111.227 Y117.078 E0.79435
G1 X111.464 Y117.364 E0.8187
G1 X111.854 Y117.705 E0.85261
G1 X112.417 Y118.276 E0.90519
G1 X112.803 Y118.621 E0.93908
G1 X113.248 Y118.942 E0.97506
G1 X113.824 Y119.236 E1.01739
G1 X114.317 Y119.349 E1.05051
G1 X114.232 Y120.062 E1.09755
G1 X114.329 Y120.52 E1.12825
G1 X114.489 Y120.879 E1.15396
G1 X114.673 Y121.165 E1.17626
G1 X115.055 Y121.518 E1.21035
G1 X115.309 Y121.689 E1.23041
G1 X115.742 Y121.811 E1.25987
G1 X116.282 Y121.906 E1.29579
G1 X116.478 Y122.406 E1.33096
G1 X116.675 Y122.723 E1.35539
G1 X116.952 Y122.95 E1.37889
G1 X117.319 Y123.103 E1.40494
G1 X117.738 Y123.172 E1.43276
G1 X117.776 Y123.616 E1.46195
G1 X117.896 Y123.916 E1.4831
G1 X118.212 Y124.311 E1.51627
G1 X117.959 Y124.403 E1.53391
G1 X117.494 Y124.772 E1.57281
G1 X117.257 Y125.111 E1.59992
G1 X117.048 Y125.607 E1.63514
G1 X117.022 Y126.217 E1.67519
G1 X117.162 Y126.695 E1.70778
G1 X116.726 Y126.369 E1.74342
G1 X116.14 Y125.878 E1.7935
G1 X115.598 Y125.371 E1.84212
G1 X115.054 Y124.802 E1.89368
G1 X101.204 Y109.156 E3.26275
G1 X101.147 Y109.053 E3.27043
;WIDTH:0.815047
G1 X101.091 Y108.95 E3.27888
;WIDTH:0.883746
G1 X101.034 Y108.847 E3.28809
;WIDTH:0.952444
G1 X100.978 Y108.745 E3.29806
G1 X100.893 Y108.627 E3.31036
;WIDTH:1.026223
G1 X100.808 Y108.51 E3.32368
G1 X100.522 Y108.193 E3.36295
G1 X100.237 Y107.876 E3.40223
G1 X100.06 Y107.664 E3.42758
G1 X99.883 Y107.453 E3.45292
G1 X99.66 Y107.162 E3.48666
;WIDTH:1.079559
G1 X99.437 Y106.871 E3.52224
G1 X99.409 Y106.669 E3.542
G1 X99.521 Y106.464 E3.56469
G1 X100.239 Y105.74 E3.66361
G1 X100.265 Y105.884 E3.67782
G1 X100.504 Y106.526 E3.74427
G1 X100.596 Y106.672 E3.761
;WIDTH:1.021103
G1 X100.687 Y106.818 E3.77678
G1 X101.161 Y107.428 E3.8475
G1 X101.4 Y107.669 E3.87849
G1 X101.638 Y107.91 E3.90948
;WIDTH:0.952444
G1 X101.714 Y107.924 E3.91607
G1 X101.878 Y108 E3.93145
;WIDTH:0.883746
G1 X102.042 Y108.076 E3.94566
;WIDTH:0.815047
G1 X102.207 Y108.152 E3.95869
;WIDTH:0.746349
G1 X102.371 Y108.228 E3.97054
G1 X102.853 Y108.425 E4.00468
G1 X103.197 Y108.505 E4.0278
G1 X103.913 Y108.546 E4.07477
G1 X104.574 Y108.387 E4.11935
G1 X104.776 Y108.243 E4.13556
;WIDTH:0.597953
G1 X104.977 Y108.099 E4.14831
G1 X105.205 Y107.888 E4.16429
;WIDTH:0.7683
G1 X105.432 Y107.677 E4.18528
G1 X105.561 Y107.388 E4.20663
G1 X105.648 Y106.779 E4.24821
G1 X105.602 Y106.447 E4.2709
G1 X105.478 Y106.068 E4.29785
G1 X105.265 Y105.718 E4.32553
G1 X105.068 Y105.519 E4.34445
G1 X104.872 Y105.319 E4.36336
G1 X104.778 Y105.252 E4.37117
;WIDTH:0.822095
G1 X104.685 Y105.185 E4.37956
;WIDTH:0.875891
G1 X104.591 Y105.117 E4.38854
;WIDTH:0.929686
G1 X104.497 Y105.05 E4.3981
G1 X104.147 Y104.941 E4.42845
G1 X103.91 Y104.922 E4.4482
G1 X104.041 Y104.652 E4.47316
G1 X104.593 Y104.071 E4.53956
G1 X104.945 Y103.864 E4.57333
G1 X105.104 Y104.424 E4.62157
G1 X105.173 Y104.507 E4.63046
;WIDTH:0.875891
G1 X105.242 Y104.589 E4.6388
;WIDTH:0.822095
G1 X105.311 Y104.671 E4.6466
;WIDTH:0.746349
G1 X105.38 Y104.753 E4.65363
G1 X105.589 Y104.983 E4.674
G1 X105.798 Y105.213 E4.69436
G1 X105.943 Y105.309 E4.70577
G1 X106.089 Y105.405 E4.71717
G1 X106.452 Y105.496 E4.74173
G1 X106.945 Y105.467 E4.77405
G1 X107.118 Y105.956 E4.80805
G1 X107.454 Y106.372 E4.84307
G1 X105.87 Y107.976 E4.99077
G1 X105.756 Y108.144 E5.00409
;WIDTH:0.597953
G1 X105.641 Y108.312 E5.01455
G1 X105.333 Y108.577 E5.0355
G1 X105.129 Y108.738 E5.04885
;WIDTH:0.746349
G1 X104.926 Y108.899 E5.06584
G1 X104.756 Y109.234 E5.09046
G1 X104.621 Y109.8 E5.12862
G1 X104.727 Y110.372 E5.16667
G1 X104.915 Y110.748 E5.19428
G1 X105.284 Y111.175 E5.23121
G1 X105.598 Y111.381 E5.25584
G1 X106.137 Y111.55 E5.2928
G1 X106.591 Y111.565 E5.32259
G1 X106.927 Y111.489 E5.34517
G1 X107.339 Y111.273 E5.37564
G1 X107.437 Y111.191 E5.38399
;WIDTH:0.669435
G1 X107.535 Y111.11 E5.39141
G1 X107.742 Y110.893 E5.40887
;WIDTH:0.624779
G1 X107.95 Y110.677 E5.42506
G1 X108.256 Y110.416 E5.44679
;WIDTH:0.758605
G1 X108.562 Y110.155 E5.47362
G1 X108.685 Y110.069 E5.48366
;WIDTH:0.826458
G1 X108.809 Y109.983 E5.49467
;WIDTH:0.89431
G1 X108.932 Y109.896 E5.50664
;WIDTH:0.962163
G1 X109.056 Y109.81 E5.51957
;WIDTH:1.030016
G1 X109.179 Y109.724 E5.53347
G1 X109.36 Y109.528 E5.55809
;WIDTH:0.989129
G1 X109.54 Y109.332 E5.58168
G1 X109.729 Y109.142 E5.60542
;WIDTH:1.030016
G1 X109.919 Y108.951 E5.63019
G1 X110.21 Y109.146 E5.66253
G1 X110.822 Y109.425 E5.72468
G1 X110.839 Y109.566 E5.73778
G1 X112.147 Y110.251 F39000
;TYPE:External perimeter
;WIDTH:0.997953
G1 F2519.7978
G1 X112.23 Y110.229 E5.74546
;WIDTH:0.92152
G1 X112.409 Y110.211 E5.76021
;WIDTH:0.780913
G1 X112.588 Y110.194 E5.77258
;WIDTH:0.616461
G1 X112.767 Y110.177 E5.78215
G1 X112.984 Y110.37 E5.79764
G1 X113.053 Y110.611 E5.81096
G1 X112.924 Y110.696 E5.81876
G1 X112.878 Y110.727 E5.82133
G1 X112.554 Y110.764 E5.83869
G1 X112.425 Y110.645 E5.84798
;WIDTH:0.713674
G1 X112.332 Y110.514 E5.85803
;WIDTH:0.858367
G1 X112.24 Y110.383 E5.87027
;WIDTH:1.003061
G1 X112.181 Y110.3 E5.87933
;WIPE_START
M204 S5000
G1 X112.543 Y110.308 F39000
;WIPE_END
G92 E0
G1 E-0.8 F2400
M204 S2000
G1 X112.899 Y107.686 F39000
G1 E0 F2400
;TYPE:Internal perimeter
;WIDTH:0.746349
G1 F4500
G1 X112.884 Y107.45 E0.01546
G1 X112.772 Y107.053 E0.0425
G1 X112.528 Y106.61 E0.07565
G1 X112.169 Y106.212 E0.11077
G1 X109.743 Y103.785 E0.3356
G1 X109.537 Y103.623 E0.35277
G1 X109.065 Y103.458 E0.38554
G1 X108.541 Y103.38 E0.42028
G1 X108.513 Y103.352 E0.42284
G1 X108.434 Y102.776 E0.46087
G1 X108.181 Y102.161 E0.5045
G1 X108.172 Y102.094 E0.50891
;WIDTH:0.847707
G1 X108.152 Y101.961 E0.51902
;WIDTH:0.987858
G1 X108.133 Y101.828 E0.5309
G1 X107.851 Y101.524 E0.5675
G1 X107.57 Y101.22 E0.60409
G1 X107.254 Y100.962 E0.64017
G1 X106.938 Y100.703 E0.67626
G1 X106.706 Y100.561 E0.70027
;WIDTH:1.049122
G1 X106.474 Y100.42 E0.72585
G1 X105.754 Y100.202 E0.79661
G1 X106.422 Y99.539 E0.8852
G1 X106.647 Y99.409 E0.90967
G1 X106.79 Y99.397 E0.92322
G1 X107.085 Y99.573 E0.95553
G1 X107.429 Y99.849 E0.99704
;WIDTH:0.968391
G1 X107.772 Y100.125 E1.03517
G1 X108.101 Y100.417 E1.07321
G1 X108.43 Y100.709 E1.11125
G1 X108.646 Y100.917 E1.13723
;WIDTH:1.016639
G1 X108.863 Y101.125 E1.16459
G1 X108.951 Y101.167 E1.17345
;WIDTH:0.91528
G1 X109.127 Y101.25 E1.1893
;WIDTH:0.746349
G1 X109.302 Y101.334 E1.20204
G1 X124.815 Y115.065 E2.55937
G1 X125.276 Y115.502 E2.601
G1 X125.811 Y116.064 E2.65185
G1 X126.339 Y116.687 E2.7053
G1 X126.78 Y117.273 E2.7534
G1 X127.241 Y117.964 E2.8078
G1 X127.685 Y118.727 E2.86565
G1 X128.092 Y119.543 E2.92538
G1 X128.392 Y120.248 E2.97561
G1 X128.665 Y121.014 E3.02886
G1 X128.883 Y121.755 E3.07949
G1 X129.062 Y122.526 E3.13134
G1 X129.169 Y123.176 E3.17449
G1 X129.27 Y124.003 E3.22911
G1 X129.318 Y124.549 E3.26499
G1 X129.325 Y125.409 E3.32133
G1 X128.373 Y124.458 E3.40947
G1 X127.786 Y123.943 E3.46067
G1 X127.507 Y123.763 E3.48243
G1 X127.132 Y123.603 E3.50911
G1 X126.843 Y123.526 E3.5287
G1 X126.807 Y123.203 E3.54999
G1 X126.631 Y122.789 E3.57942
G1 X126.416 Y122.556 E3.60021
G1 X125.97 Y122.294 E3.63408
G1 X125.525 Y122.209 E3.66381
G1 X125.056 Y122.215 E3.69452
G1 X125.045 Y121.708 E3.72771
G1 X124.934 Y121.308 E3.75495
G1 X124.645 Y120.792 E3.79372
G1 X124.437 Y120.6 E3.81223
G1 X123.983 Y120.361 E3.84588
G1 X123.588 Y120.252 E3.87272
G1 X123.432 Y119.78 E3.90527
G1 X123.202 Y119.412 E3.93371
G1 X122.965 Y119.17 E3.95589
G1 X122.76 Y119.047 E3.97157
G1 X122.18 Y118.869 E4.01132
G1 X122.041 Y118.315 E4.04877
G1 X121.791 Y117.906 E4.08014
G1 X121.478 Y117.62 E4.1079
G1 X121.051 Y117.392 E4.13962
G1 X120.538 Y117.302 E4.17375
G1 X120.133 Y117.333 E4.2004
G1 X119.9 Y117.426 E4.21682
G1 X119.667 Y117.518 E4.23323
G1 X119.563 Y117.605 E4.24208
G1 X119.46 Y117.692 E4.25093
G1 X119.252 Y117.944 E4.27232
G1 X119.044 Y118.195 E4.29371
G1 X118.939 Y118.394 E4.30843
G1 X118.834 Y118.592 E4.32315
G1 X118.55 Y119.586 E4.39083
G1 X118.522 Y119.248 E4.413
G1 X118.315 Y118.682 E4.45255
G1 X117.966 Y118.267 E4.48801
G1 X118.138 Y118.11 E4.50325
G1 X118.31 Y117.953 E4.5185
G1 X118.515 Y117.702 E4.53974
G1 X118.721 Y117.452 E4.56098
G1 X118.898 Y117.216 E4.5803
G1 X119.076 Y116.981 E4.59961
G1 X119.254 Y116.597 E4.62735
G1 X119.433 Y116.213 E4.65509
G1 X119.568 Y115.686 E4.69076
G1 X119.626 Y115.021 E4.73447
G1 X119.559 Y114.415 E4.77442
G1 X119.361 Y113.81 E4.81612
G1 X119.049 Y113.254 E4.85788
G1 X118.5 Y112.556 E4.91607
G1 X117.51 Y111.532 E5.00943
G1 X117.447 Y111.472 E5.01511
G1 X117.011 Y111.145 E5.05084
G1 X116.564 Y110.959 E5.08253
G1 X116.119 Y110.902 E5.11191
G1 X115.801 Y110.939 E5.13291
G1 X115.801 Y110.582 E5.15626
G1 X115.793 Y110.431 E5.16621
G1 X115.726 Y110.101 E5.18827
G1 X115.429 Y109.392 E5.23859
G1 X115.048 Y108.862 E5.28137
G1 X114.494 Y108.322 E5.33204
G1 X114.066 Y108.03 E5.36597
G1 X113.715 Y107.85 E5.39189
G1 X113.395 Y107.755 E5.4137
G1 X112.958 Y107.694 E5.44263
G92 E0
G1 E-0.8 F2400
; acceleration to travel
M204 S10000
G1 X122.433 Y126.405 F39000
; decel to extrusion
M204 S2000
G1 X124.328 Y130.147
; end travel
G1 E0 F2400
;TYPE:External perimeter
G1 F4500
G1 X122.662 Y129.843 E0.11098
G1 X122.13 Y129.739 E0.14646
G1 X121.211 Y129.501 E0.20871
G1 X120.552 Y129.297 E0.25387
G1 X119.823 Y129.025 E0.30488
G1 X118.96 Y128.643 E0.36666
G1 X118.882 Y128.575 E0.37347
;WIDTH:0.807618
G1 X118.803 Y128.507 E0.38089
;WIDTH:0.868887
G1 X118.724 Y128.439 E0.38891
;WIDTH:0.930157
G1 X118.646 Y128.371 E0.39753
;WIDTH:0.991426
G1 X118.567 Y128.303 E0.40675
G1 X118.266 Y128.145 E0.43696
;WIDTH:0.93529
G1 X117.964 Y127.987 E0.46537
G1 X117.497 Y127.693 E0.51135
G1 X117.311 Y127.633 E0.52764
;WIDTH:0.793809
G1 X117.125 Y127.574 E0.54132
