; generated by SuperSlicer 2.4 on 2022-08-09 at 22:15:26 UTC

; 

; external perimeters extrusion width = 0.40mm
; perimeters extrusion width = 0.48mm
; infill extrusion width = 0.72mm
; solid infill extrusion width = 0.56mm
; top infill extrusion width = 0.40mm
; first layer extrusion width = 0.48mm

; object:{"name":"Shape-Box","id":"Shape-Box id:0 copy 0","object_center":[117.500000,117.500000,0.000000],"boundingbox_center":[117.500000,117.500000,0.500000],"boundingbox_size":[75.000000,75.000000,1.000000]}
; Total objects to print: 1
M486 T1
; plater:{"center":[117.500000,117.500000,0.000000],"boundingbox_center":[117.500000,117.500000,0.500000],"boundingbox_size":[75.000000,75.000000,1.000000]}

M140 S110 ; set bed temperature
M104 S260 ; set temperature
;TYPE:Custom
print_start EXTRUDER=260 BED=110 CHAMBER=50
M107
G21 ; set units to millimeters
G90 ; use absolute coordinates
M82 ; use absolute distances for extrusion
G92 E0
; Filament gcode
SET_PRESSURE_ADVANCE ADVANCE=0.065
M109 S260 ; set temperature and wait for it to be reached
M190 S110 ; set bed temperature and wait for it to be reached
M107
;LAYER_CHANGE
;Z:0.25
;HEIGHT:0.25
G1 Z0.25 F27000
; INIT printing object Shape-Box id:0 copy 0
G1 E-2 F2400
; printing object Shape-Box id:0 copy 0
M486 S0
M204 P1500 T1500
G1 X81.619 Y81.619 F27000
G1 E0 F2400
;TYPE:Internal perimeter
;WIDTH:0.48
G1 F900
G1 X153.381 Y81.619 E3.08465
G1 X153.381 Y153.381 E6.1693
G1 X81.619 Y153.381 E9.25394
G1 X81.619 Y81.679 E12.33601
G1 X81.193 Y81.193 F27000
G1 F900
G1 X153.807 Y81.193 E15.45731
G1 X153.807 Y153.807 E18.57861
G1 X81.193 Y153.807 E21.69991
G1 X81.193 Y81.253 E24.81863
G1 X80.766 Y80.766 F27000
G1 F900
G1 X154.234 Y80.766 E27.97659
G1 X154.234 Y154.234 E31.13454
G1 X80.766 Y154.234 E34.29249
G1 X80.766 Y80.826 E37.44787
M204 P1000 T1000
G1 X80.34 Y80.34 F27000
;TYPE:External perimeter
G1 F900
G1 X154.66 Y80.34 E40.64247
G1 X154.66 Y154.66 E43.83708
G1 X80.34 Y154.66 E47.03168
G1 X80.34 Y80.4 E50.22371
;WIPE_START
M204 P1500 T1000
G1 X80.686 Y80.54 F27000
;WIPE_END
G1 X152.455 Y81.683
;TYPE:Solid infill
;WIDTH:0.478106
G1 F1200
G1 X153.134 Y82.362 E50.2648
G1 X153.134 Y82.964 E50.29061
G1 X152.036 Y81.866 E50.3571
G1 X151.433 Y81.866 E50.38292
G1 X153.134 Y83.567 E50.48592
G1 X153.134 Y84.17 E50.51173
G1 X150.83 Y81.866 E50.65124
G1 X150.227 Y81.866 E50.67706
G1 X153.134 Y84.773 E50.85307
G1 X153.134 Y85.376 E50.87889
G1 X149.624 Y81.866 E51.09141
G1 X149.021 Y81.866 E51.11723
G1 X153.134 Y85.979 E51.36626
G1 X153.134 Y86.582 E51.39208
G1 X148.418 Y81.866 E51.67762
G1 X147.815 Y81.866 E51.70343
G1 X153.134 Y87.185 E52.02548
G1 X153.134 Y87.788 E52.0513
G1 X147.212 Y81.866 E52.40985
G1 X146.609 Y81.866 E52.43567
G1 X153.134 Y88.391 E52.83073
G1 X153.134 Y88.994 E52.85655
G1 X146.006 Y81.866 E53.28812
G1 X145.403 Y81.866 E53.31394
G1 X153.134 Y89.597 E53.78202
G1 X153.134 Y90.2 E53.80783
G1 X144.8 Y81.866 E54.31242
G1 X144.197 Y81.866 E54.33824
G1 X153.134 Y90.803 E54.87934
G1 X153.134 Y91.406 E54.90515
G1 X143.594 Y81.866 E55.48276
G1 X142.991 Y81.866 E55.50857
G1 X153.134 Y92.009 E56.12268
G1 X153.134 Y92.612 E56.1485
G1 X142.388 Y81.866 E56.79912
G1 X141.785 Y81.866 E56.82494
G1 X153.134 Y93.215 E57.51207
G1 X153.134 Y93.818 E57.53788
G1 X141.182 Y81.866 E58.26152
G1 X140.58 Y81.866 E58.28734
G1 X153.134 Y94.42 E59.04748
G1 X153.134 Y95.023 E59.0733
G1 X139.977 Y81.866 E59.86995
G1 X139.374 Y81.866 E59.89577
G1 X153.134 Y95.626 E60.72893
G1 X153.134 Y96.229 E60.75474
G1 X138.771 Y81.866 E61.62441
G1 X138.168 Y81.866 E61.65023
G1 X153.134 Y96.832 E62.55641
G1 X153.134 Y97.435 E62.58222
G1 X137.565 Y81.866 E63.52491
G1 X136.962 Y81.866 E63.55073
G1 X153.134 Y98.038 E64.52992
G1 X153.134 Y98.641 E64.55574
G1 X136.359 Y81.866 E65.57144
G1 X135.756 Y81.866 E65.59725
G1 X153.134 Y99.244 E66.64946
G1 X153.134 Y99.847 E66.67528
G1 X135.153 Y81.866 E67.764
G1 X134.55 Y81.866 E67.78981
G1 X153.134 Y100.45 E68.91504
G1 X153.134 Y101.053 E68.94086
G1 X133.947 Y81.866 E70.10259
G1 X133.344 Y81.866 E70.12841
G1 X153.134 Y101.656 E71.32665
G1 X153.134 Y102.259 E71.35247
G1 X132.741 Y81.866 E72.58722
G1 X132.138 Y81.866 E72.61303
G1 X153.134 Y102.862 E73.88429
G1 X153.134 Y103.465 E73.91011
G1 X131.535 Y81.866 E75.21788
G1 X130.932 Y81.866 E75.24369
G1 X153.134 Y104.068 E76.58797
G1 X153.134 Y104.671 E76.61378
G1 X130.329 Y81.866 E77.99457
G1 X129.726 Y81.866 E78.02038
G1 X153.134 Y105.274 E79.43767
G1 X153.134 Y105.876 E79.46349
G1 X129.124 Y81.866 E80.91729
G1 X128.521 Y81.866 E80.9431
G1 X153.134 Y106.479 E82.43341
G1 X153.134 Y107.082 E82.45923
G1 X127.918 Y81.866 E83.98605
G1 X127.315 Y81.866 E84.01186
G1 X153.134 Y107.685 E85.57518
G1 X153.134 Y108.288 E85.601
G1 X126.712 Y81.866 E87.20083
G1 X126.109 Y81.866 E87.22665
G1 X153.134 Y108.891 E88.86299
G1 X153.134 Y109.494 E88.8888
G1 X125.506 Y81.866 E90.56165
G1 X124.903 Y81.866 E90.58747
G1 X153.134 Y110.097 E92.29683
G1 X153.134 Y110.7 E92.32264
G1 X124.3 Y81.866 E94.06851
G1 X123.697 Y81.866 E94.09432
G1 X153.134 Y111.303 E95.87669
G1 X153.134 Y111.906 E95.90251
G1 X123.094 Y81.866 E97.72139
G1 X122.491 Y81.866 E97.74721
G1 X153.134 Y112.509 E99.6026
G1 X153.134 Y113.112 E99.62841
G1 X121.888 Y81.866 E101.52031
G1 X121.285 Y81.866 E101.54612
G1 X153.134 Y113.715 E103.47453
G1 X153.134 Y114.318 E103.50035
G1 X120.682 Y81.866 E105.46526
G1 X120.079 Y81.866 E105.49107
G1 X153.134 Y114.921 E107.4925
G1 X153.134 Y115.524 E107.51831
G1 X119.476 Y81.866 E109.55624
G1 X118.873 Y81.866 E109.58206
G1 X153.134 Y116.127 E111.6565
G1 X153.134 Y116.73 E111.68231
G1 X118.27 Y81.866 E113.79326
G1 X117.667 Y81.866 E113.81907
G1 X153.134 Y117.333 E115.96653
G1 X153.134 Y117.935 E115.99234
G1 X117.065 Y81.866 E118.1763
G1 X116.462 Y81.866 E118.20212
G1 X153.134 Y118.538 E120.42259
G1 X153.134 Y119.141 E120.44841
G1 X115.859 Y81.866 E122.70538
G1 X115.256 Y81.866 E122.7312
G1 X153.134 Y119.744 E125.02469
G1 X153.134 Y120.347 E125.0505
G1 X114.653 Y81.866 E127.3805
G1 X114.05 Y81.866 E127.40631
G1 X153.134 Y120.95 E129.77282
G1 X153.134 Y121.553 E129.79863
G1 X113.447 Y81.866 E132.20164
G1 X112.844 Y81.866 E132.22746
G1 X153.134 Y122.156 E134.66698
G1 X153.134 Y122.759 E134.69279
G1 X112.241 Y81.866 E137.16882
G1 X111.638 Y81.866 E137.19463
G1 X153.134 Y123.362 E139.70717
G1 X153.134 Y123.965 E139.73298
G1 X111.035 Y81.866 E142.28203
G1 X110.432 Y81.866 E142.30784
G1 X153.134 Y124.568 E144.8934
G1 X153.134 Y125.171 E144.91921
G1 X109.829 Y81.866 E147.54127
G1 X109.226 Y81.866 E147.56709
G1 X153.134 Y125.774 E150.22565
G1 X153.134 Y126.377 E150.25147
G1 X108.623 Y81.866 E152.94655
G1 X108.02 Y81.866 E152.97236
G1 X153.134 Y126.98 E155.70395
G1 X153.134 Y127.583 E155.72976
G1 X107.417 Y81.866 E158.49785
G1 X106.814 Y81.866 E158.52367
G1 X153.134 Y128.186 E161.32827
G1 X153.134 Y128.789 E161.35408
G1 X106.211 Y81.866 E164.19519
G1 X105.609 Y81.866 E164.22101
G1 X153.134 Y129.391 E167.09862
G1 X153.134 Y129.994 E167.12444
G1 X105.006 Y81.866 E170.03856
G1 X104.403 Y81.866 E170.06438
G1 X153.134 Y130.597 E173.01501
G1 X153.134 Y131.2 E173.04083
G1 X103.8 Y81.866 E176.02797
G1 X103.197 Y81.866 E176.05378
G1 X153.134 Y131.803 E179.07743
G1 X153.134 Y132.406 E179.10325
G1 X102.594 Y81.866 E182.16341
G1 X101.991 Y81.866 E182.18922
G1 X153.134 Y133.009 E185.28589
G1 X153.134 Y133.612 E185.3117
G1 X101.388 Y81.866 E188.44488
G1 X100.785 Y81.866 E188.47069
G1 X153.134 Y134.215 E191.64037
G1 X153.134 Y134.818 E191.66619
G1 X100.182 Y81.866 E194.87238
G1 X99.579 Y81.866 E194.89819
G1 X153.134 Y135.421 E198.14089
G1 X153.134 Y136.024 E198.16671
G1 X98.976 Y81.866 E201.44591
G1 X98.373 Y81.866 E201.47173
G1 X153.134 Y136.627 E204.78744
G1 X153.134 Y137.23 E204.81326
G1 X97.77 Y81.866 E208.16548
G1 X97.167 Y81.866 E208.19129
G1 X153.134 Y137.833 E211.58002
G1 X153.134 Y138.436 E211.60584
G1 X96.564 Y81.866 E215.03108
G1 X95.961 Y81.866 E215.05689
G1 X153.134 Y139.039 E218.51864
G1 X153.134 Y139.642 E218.54445
G1 X95.358 Y81.866 E222.04271
G1 X94.755 Y81.866 E222.06852
G1 X153.134 Y140.245 E225.60329
G1 X153.134 Y140.848 E225.6291
G1 X94.152 Y81.866 E229.20037
G1 X93.55 Y81.866 E229.22619
G1 X153.134 Y141.45 E232.83397
G1 X153.134 Y142.053 E232.85978
G1 X92.947 Y81.866 E236.50407
G1 X92.344 Y81.866 E236.52988
G1 X153.134 Y142.656 E240.21068
G1 X153.134 Y143.259 E240.2365
G1 X91.741 Y81.866 E243.9538
G1 X91.138 Y81.866 E243.97961
G1 X153.134 Y143.862 E247.73343
G1 X153.134 Y144.465 E247.75924
G1 X90.535 Y81.866 E251.54956
G1 X89.932 Y81.866 E251.57538
G1 X153.134 Y145.068 E255.4022
G1 X153.134 Y145.671 E255.42802
G1 X89.329 Y81.866 E259.29135
G1 X88.726 Y81.866 E259.31717
G1 X153.134 Y146.274 E263.21701
G1 X153.134 Y146.877 E263.24283
G1 X88.123 Y81.866 E267.17918
G1 X87.52 Y81.866 E267.205
G1 X153.134 Y147.48 E271.17786
G1 X153.134 Y148.083 E271.20367
G1 X86.917 Y81.866 E275.21304
G1 X86.314 Y81.866 E275.23885
G1 X153.134 Y148.686 E279.28473
G1 X153.134 Y149.289 E279.31055
G1 X85.711 Y81.866 E283.39293
G1 X85.108 Y81.866 E283.41875
G1 X153.134 Y149.892 E287.53764
G1 X153.134 Y150.495 E287.56345
G1 X84.505 Y81.866 E291.71885
G1 X83.902 Y81.866 E291.74467
G1 X153.134 Y151.098 E295.93658
G1 X153.134 Y151.701 E295.96239
G1 X83.299 Y81.866 E300.19081
G1 X82.696 Y81.866 E300.21663
G1 X153.134 Y152.304 E304.48155
G1 X153.134 Y152.906 E304.50737
G1 X82.094 Y81.866 E308.8088
G1 X81.866 Y81.866 E308.81853
G1 X81.866 Y82.242 E308.83461
G1 X152.758 Y153.134 E313.12705
G1 X152.155 Y153.134 E313.15287
G1 X81.866 Y82.845 E317.4088
G1 X81.866 Y83.448 E317.43462
G1 X151.552 Y153.134 E321.65404
G1 X150.949 Y153.134 E321.67985
G1 X81.866 Y84.051 E325.86277
G1 X81.866 Y84.654 E325.88859
G1 X150.346 Y153.134 E330.03499
G1 X149.743 Y153.134 E330.06081
G1 X81.866 Y85.257 E334.17071
G1 X81.866 Y85.86 E334.19652
G1 X149.14 Y153.134 E338.26991
G1 X148.537 Y153.134 E338.29573
G1 X81.866 Y86.463 E342.33261
G1 X81.866 Y87.066 E342.35843
G1 X147.934 Y153.134 E346.3588
G1 X147.331 Y153.134 E346.38462
G1 X81.866 Y87.669 E350.34848
G1 X81.866 Y88.272 E350.3743
G1 X146.728 Y153.134 E354.30166
G1 X146.126 Y153.134 E354.32747
G1 X81.866 Y88.874 E358.21832
G1 X81.866 Y89.477 E358.24414
G1 X145.523 Y153.134 E362.09848
G1 X144.92 Y153.134 E362.12429
G1 X81.866 Y90.08 E365.94213
G1 X81.866 Y90.683 E365.96794
G1 X144.317 Y153.134 E369.74927
G1 X143.714 Y153.134 E369.77508
G1 X81.866 Y91.286 E373.5199
G1 X81.866 Y91.889 E373.54572
G1 X143.111 Y153.134 E377.25403
G1 X142.508 Y153.134 E377.27984
G1 X81.866 Y92.492 E380.95164
G1 X81.866 Y93.095 E380.97746
G1 X141.905 Y153.134 E384.61275
G1 X141.302 Y153.134 E384.63857
G1 X81.866 Y93.698 E388.23735
G1 X81.866 Y94.301 E388.26317
G1 X140.699 Y153.134 E391.82545
G1 X140.096 Y153.134 E391.85126
G1 X81.866 Y94.904 E395.37703
G1 X81.866 Y95.507 E395.40285
G1 X139.493 Y153.134 E398.89211
G1 X138.89 Y153.134 E398.91792
G1 X81.866 Y96.11 E402.37068
G1 X81.866 Y96.713 E402.39649
G1 X138.287 Y153.134 E405.81274
G1 X137.684 Y153.134 E405.83855
G1 X81.866 Y97.316 E409.21829
G1 X81.866 Y97.919 E409.2441
G1 X137.081 Y153.134 E412.58733
G1 X136.478 Y153.134 E412.61315
G1 X81.866 Y98.522 E415.91987
G1 X81.866 Y99.125 E415.94568
G1 X135.875 Y153.134 E419.21589
G1 X135.272 Y153.134 E419.24171
G1 X81.866 Y99.728 E422.47541
G1 X81.866 Y100.331 E422.50123
G1 X134.669 Y153.134 E425.69843
G1 X134.067 Y153.134 E425.72424
G1 X81.866 Y100.933 E428.88493
G1 X81.866 Y101.536 E428.91074
G1 X133.464 Y153.134 E432.03492
G1 X132.861 Y153.134 E432.06074
G1 X81.866 Y102.139 E435.14841
G1 X81.866 Y102.742 E435.17423
G1 X132.258 Y153.134 E438.22539
G1 X131.655 Y153.134 E438.2512
G1 X81.866 Y103.345 E441.26586
G1 X81.866 Y103.948 E441.29168
G1 X131.052 Y153.134 E444.26982
G1 X130.449 Y153.134 E444.29564
G1 X81.866 Y104.551 E447.23728
G1 X81.866 Y105.154 E447.26309
G1 X129.846 Y153.134 E450.16822
G1 X129.243 Y153.134 E450.19404
G1 X81.866 Y105.757 E453.06266
G1 X81.866 Y106.36 E453.08848
G1 X128.64 Y153.134 E455.92059
G1 X128.037 Y153.134 E455.94641
G1 X81.866 Y106.963 E458.74202
G1 X81.866 Y107.566 E458.76783
G1 X127.434 Y153.134 E461.52693
G1 X126.831 Y153.134 E461.55274
G1 X81.866 Y108.169 E464.27533
G1 X81.866 Y108.772 E464.30115
G1 X126.228 Y153.134 E466.98723
G1 X125.625 Y153.134 E467.01305
G1 X81.866 Y109.375 E469.66262
G1 X81.866 Y109.978 E469.68844
G1 X125.022 Y153.134 E472.3015
G1 X124.419 Y153.134 E472.32732
G1 X81.866 Y110.581 E474.90388
G1 X81.866 Y111.184 E474.92969
G1 X123.816 Y153.134 E477.46974
G1 X123.213 Y153.134 E477.49556
G1 X81.866 Y111.787 E479.9991
G1 X81.866 Y112.389 E480.02492
G1 X122.611 Y153.134 E482.49195
G1 X122.008 Y153.134 E482.51776
G1 X81.866 Y112.992 E484.94829
G1 X81.866 Y113.595 E484.97411
G1 X121.405 Y153.134 E487.36812
G1 X120.802 Y153.134 E487.39394
G1 X81.866 Y114.198 E489.75145
G1 X81.866 Y114.801 E489.77726
G1 X120.199 Y153.134 E492.09826
G1 X119.596 Y153.134 E492.12408
G1 X81.866 Y115.404 E494.40857
G1 X81.866 Y116.007 E494.43439
G1 X118.993 Y153.134 E496.68237
G1 X118.39 Y153.134 E496.70819
G1 X81.866 Y116.61 E498.91967
G1 X81.866 Y117.213 E498.94548
G1 X117.787 Y153.134 E501.12045
G1 X117.184 Y153.134 E501.14627
G1 X81.866 Y117.816 E503.28473
G1 X81.866 Y118.419 E503.31054
G1 X116.581 Y153.134 E505.41249
G1 X115.978 Y153.134 E505.43831
G1 X81.866 Y119.022 E507.50375
G1 X81.866 Y119.625 E507.52957
G1 X115.375 Y153.134 E509.55851
G1 X114.772 Y153.134 E509.58432
G1 X81.866 Y120.228 E511.57675
G1 X81.866 Y120.831 E511.60256
G1 X114.169 Y153.134 E513.55849
G1 X113.566 Y153.134 E513.5843
G1 X81.866 Y121.434 E515.50371
G1 X81.866 Y122.037 E515.52953
G1 X112.963 Y153.134 E517.41243
G1 X112.36 Y153.134 E517.43825
G1 X81.866 Y122.64 E519.28464
G1 X81.866 Y123.243 E519.31046
G1 X111.757 Y153.134 E521.12035
G1 X111.155 Y153.134 E521.14616
G1 X81.866 Y123.845 E522.91954
G1 X81.866 Y124.448 E522.94536
G1 X110.552 Y153.134 E524.68223
G1 X109.949 Y153.134 E524.70804
G1 X81.866 Y125.051 E526.40841
G1 X81.866 Y125.654 E526.43422
G1 X109.346 Y153.134 E528.09808
G1 X108.743 Y153.134 E528.12389
G1 X81.866 Y126.257 E529.75124
G1 X81.866 Y126.86 E529.77705
G1 X108.14 Y153.134 E531.36789
G1 X107.537 Y153.134 E531.39371
G1 X81.866 Y127.463 E532.94804
G1 X81.866 Y128.066 E532.97386
G1 X106.934 Y153.134 E534.49168
G1 X106.331 Y153.134 E534.51749
G1 X81.866 Y128.669 E535.99881
G1 X81.866 Y129.272 E536.02462
G1 X105.728 Y153.134 E537.46943
G1 X105.125 Y153.134 E537.49525
G1 X81.866 Y129.875 E538.90354
G1 X81.866 Y130.478 E538.92936
G1 X104.522 Y153.134 E540.30115
G1 X103.919 Y153.134 E540.32697
G1 X81.866 Y131.081 E541.66225
G1 X81.866 Y131.684 E541.68806
G1 X103.316 Y153.134 E542.98684
G1 X102.713 Y153.134 E543.01265
G1 X81.866 Y132.287 E544.27492
G1 X81.866 Y132.89 E544.30073
G1 X102.11 Y153.134 E545.52649
G1 X101.507 Y153.134 E545.55231
G1 X81.866 Y133.493 E546.74156
G1 X81.866 Y134.096 E546.76737
G1 X100.904 Y153.134 E547.92011
G1 X100.301 Y153.134 E547.94593
G1 X81.866 Y134.699 E549.06216
G1 X81.866 Y135.302 E549.08798
G1 X99.698 Y153.134 E550.1677
G1 X99.096 Y153.134 E550.19352
G1 X81.866 Y135.904 E551.23674
G1 X81.866 Y136.507 E551.26255
G1 X98.493 Y153.134 E552.26926
G1 X97.89 Y153.134 E552.29508
G1 X81.866 Y137.11 E553.26528
G1 X81.866 Y137.713 E553.29109
G1 X97.287 Y153.134 E554.22479
G1 X96.684 Y153.134 E554.2506
G1 X81.866 Y138.316 E555.14779
G1 X81.866 Y138.919 E555.1736
G1 X96.081 Y153.134 E556.03428
G1 X95.478 Y153.134 E556.06009
G1 X81.866 Y139.522 E556.88426
G1 X81.866 Y140.125 E556.91008
G1 X94.875 Y153.134 E557.69774
G1 X94.272 Y153.134 E557.72355
G1 X81.866 Y140.728 E558.47471
G1 X81.866 Y141.331 E558.50052
G1 X93.669 Y153.134 E559.21517
G1 X93.066 Y153.134 E559.24098
G1 X81.866 Y141.934 E559.91912
G1 X81.866 Y142.537 E559.94493
G1 X92.463 Y153.134 E560.58656
G1 X91.86 Y153.134 E560.61238
G1 X81.866 Y143.14 E561.2175
G1 X81.866 Y143.743 E561.24331
G1 X91.257 Y153.134 E561.81192
G1 X90.654 Y153.134 E561.83774
G1 X81.866 Y144.346 E562.36984
G1 X81.866 Y144.949 E562.39566
G1 X90.051 Y153.134 E562.89125
G1 X89.448 Y153.134 E562.91707
G1 X81.866 Y145.552 E563.37616
G1 X81.866 Y146.155 E563.40197
G1 X88.845 Y153.134 E563.82455
