; generated by SuperSlicer 2.5.59 on 2022-09-11 at 19:30:54 UTC


;
;

;
;
; 

; external perimeters extrusion width = 0.40mm
; perimeters extrusion width = 0.40mm
; infill extrusion width = 0.50mm
; solid infill extrusion width = 0.56mm
; top infill extrusion width = 0.40mm
; support material extrusion width = 0.50mm
; first layer extrusion width = 0.80mm

; object:{"name":"Shape-Box","id":"Shape-Box id:0 copy 0","object_center":[117.500000,117.500000,0.000000],"boundingbox_center":[117.500000,117.500000,1.500000],"boundingbox_size":[33.234019,33.234019,3.000000]}
; plater:{"center":[117.500000,117.500000,0.000000],"boundingbox_center":[117.500000,117.500000,1.500000],"boundingbox_size":[33.234019,33.234019,3.000000]}

;TYPE:Custom
PRINT_START EXTRUDER=260 BED=110 CHAMBER=55
M107
G21 ; set units to millimeters
G90 ; use absolute coordinates
M82 ; use absolute distances for extrusion
G92 E0
;T400 PA
SET_PRESSURE_ADVANCE ADVANCE=0.0
SET_PRESSURE_ADVANCE SMOOTH=0.04
;_TOOLCHANGE 0
M104 S260 ; set temperature
M109 S260 ; set temperature and wait for it to be reached
M190 S110 ; set bed temperature and wait for it to be reached
M107
;LAYER_CHANGE
;Z:0.25
;HEIGHT:0.25
G1 Z0.25 F39000
G1 E-0.8 F2400
M204 S2000
G1 X106.52 Y106.52 F39000
G1 E0 F2400
;TYPE:Skirt
;WIDTH:0.6
G1 F3184.7741
G1 X98.24 Y114.799 E0.61837
G1 X97.155 Y116.998 E0.74785
G1 X97.323 Y118.726 E0.83956
G1 X98.24 Y120.201 E0.93127
G1 X114.799 Y136.76 E2.16801
G1 X116.998 Y137.845 E2.2975
G1 X118.726 Y137.677 E2.38921
G1 X120.201 Y136.76 E2.48092
G1 X136.76 Y120.201 E3.71766
G1 X137.845 Y118.002 E3.84714
G1 X137.677 Y116.274 E3.93885
G1 X136.76 Y114.799 E4.03056
G1 X120.201 Y98.24 E5.2673
G1 X118.002 Y97.155 E5.39678
G1 X116.274 Y97.323 E5.48849
G1 X114.799 Y98.24 E5.5802
G1 X106.562 Y106.477 E6.1954
G1 X106.948 Y106.864 F39000
G1 F3184.7741
G1 X98.626 Y115.186 E6.81694
G1 X97.737 Y116.831 E6.91572
G1 X97.804 Y118.435 E7.00052
G1 X98.626 Y119.814 E7.08533
G1 X115.186 Y136.374 E8.32207
G1 X116.831 Y137.263 E8.42085
G1 X118.435 Y137.196 E8.50565
G1 X119.814 Y136.374 E8.59045
G1 X136.374 Y119.814 E9.8272
G1 X137.263 Y118.169 E9.92597
G1 X137.196 Y116.565 E10.01078
G1 X136.374 Y115.186 E10.09558
G1 X119.814 Y98.626 E11.33232
G1 X118.169 Y97.737 E11.4311
G1 X116.565 Y97.804 E11.5159
G1 X115.186 Y98.626 E11.60071
G1 X106.991 Y106.821 E12.21274
G92 E0
G1 E-0.8 F2400
; printing object Shape-Box id:0 copy 0
; acceleration to travel
M204 S10000
G1 X115.739 Y128.145 F39000
; decel to extrusion
M204 S2000
G1 X117.5 Y132.438
; end travel
G1 E0 F2400
;TYPE:Internal perimeter
;WIDTH:0.746349
G1 F4500
G1 X102.562 Y117.5 E1.41451
G1 X117.5 Y102.562 E2.82902
G1 X132.438 Y117.5 E4.24353
G1 X124.969 Y124.969 E4.95078
G1 X117.542 Y132.395 E5.65402
G1 X117.5 Y133.493 F39000
;TYPE:External perimeter
G1 F4500
G1 X101.507 Y117.5 E7.16848
G1 X101.639 Y117.368 E7.17963
G1 X101.902 Y117.104 E7.20328
G1 X117.5 Y101.507 E8.68026
G1 X117.632 Y101.639 E8.69141
G1 X117.896 Y101.902 E8.71506
G1 X133.493 Y117.5 E10.19203
G1 X133.361 Y117.632 E10.20324
G1 X133.098 Y117.896 E10.22694
G1 X125.497 Y125.497 E10.94669
G1 X117.542 Y133.451 E11.6999
;WIPE_START
M204 S5000
G1 X117.396 Y133.107 F39000
;WIPE_END
G92 E0
G1 E-0.8 F2400
; acceleration to travel
M204 S10000
G1 X118.365 Y108.844 F39000
; decel to extrusion
M204 S2000
G1 X118.567 Y103.787
; end travel
G1 E0 F2400
;TYPE:Solid infill
;WIDTH:0.8
G1 F9000
G1 X116.887 Y103.787 E0.12118
G1 X116.141 Y104.534 E0.19733
G1 X118.859 Y104.534 E0.39346
G1 X119.606 Y105.28 E0.46961
G1 X115.394 Y105.28 E0.77342
G1 X114.648 Y106.026 E0.84957
G1 X120.352 Y106.026 E1.26108
G1 X121.098 Y106.773 E1.33722
G1 X113.902 Y106.773 E1.85642
G1 X113.155 Y107.519 E1.93257
G1 X121.845 Y107.519 E2.55945
G1 X122.591 Y108.265 E2.6356
G1 X112.409 Y108.265 E3.37017
G1 X111.663 Y109.012 E3.44632
G1 X123.337 Y109.012 E4.28858
G1 X124.084 Y109.758 E4.36473
G1 X110.916 Y109.758 E5.31468
G1 X110.17 Y110.504 E5.39082
G1 X124.83 Y110.504 E6.44846
G1 X125.576 Y111.251 E6.52461
G1 X109.424 Y111.251 E7.68994
G1 X108.677 Y111.997 E7.76609
G1 X126.323 Y111.997 E9.03911
G1 X127.069 Y112.743 E9.11525
G1 X107.931 Y112.743 E10.49596
G1 X107.185 Y113.49 E10.57211
G1 X127.815 Y113.49 E12.0605
G1 X128.562 Y114.236 E12.13665
G1 X106.438 Y114.236 E13.73273
G1 X105.692 Y114.982 E13.80888
G1 X129.308 Y114.982 E15.51266
G1 X130.055 Y115.729 E15.5888
G1 X104.945 Y115.729 E17.40026
G1 X104.199 Y116.475 E17.47641
G1 X130.801 Y116.475 E19.39556
G1 X131.547 Y117.221 E19.47171
G1 X103.453 Y117.221 E21.49855
G1 X103.174 Y117.5 E21.52697
G1 X103.642 Y117.968 E21.5747
G1 X131.358 Y117.968 E23.57423
G1 X130.612 Y118.714 E23.65038
G1 X104.388 Y118.714 E25.54222
G1 X105.135 Y119.461 E25.61836
G1 X129.865 Y119.461 E27.40251
G1 X129.119 Y120.207 E27.47866
G1 X105.881 Y120.207 E29.15512
G1 X106.627 Y120.953 E29.23127
G1 X128.373 Y120.953 E30.80004
G1 X127.626 Y121.7 E30.87619
G1 X107.374 Y121.7 E32.33728
G1 X108.12 Y122.446 E32.41342
G1 X126.88 Y122.446 E33.76682
G1 X126.133 Y123.192 E33.84297
G1 X108.867 Y123.192 E35.08867
G1 X109.613 Y123.939 E35.16482
G1 X125.387 Y123.939 E36.30284
G1 X124.641 Y124.685 E36.37898
G1 X110.359 Y124.685 E37.40931
G1 X111.106 Y125.431 E37.48546
G1 X123.894 Y125.431 E38.4081
G1 X123.148 Y126.178 E38.48425
G1 X111.852 Y126.178 E39.2992
G1 X112.598 Y126.924 E39.37534
G1 X122.402 Y126.924 E40.08261
G1 X121.655 Y127.67 E40.15875
G1 X113.345 Y127.67 E40.75833
G1 X114.091 Y128.417 E40.83447
G1 X120.909 Y128.417 E41.32636
G1 X120.163 Y129.163 E41.4025
G1 X114.837 Y129.163 E41.7867
G1 X115.584 Y129.909 E41.86285
G1 X119.416 Y129.909 E42.13935
G1 X118.67 Y130.656 E42.2155
G1 X116.33 Y130.656 E42.38432
G1 X117.076 Y131.402 E42.46046
G1 X118.378 Y131.402 E42.55433
;LAYER_CHANGE
;Z:0.45
;HEIGHT:0.2
; stop printing object Shape-Box id:0 copy 0
M204 S5000
G1 Z0.45 F39000
M104 S265 ; set temperature
; printing object Shape-Box id:0 copy 0
G1 X117.5 Y132.837
;TYPE:Internal perimeter
;WIDTH:0.357079
G1 F18000
G1 X102.163 Y117.5 E43.08126
G1 X117.5 Y102.163 E43.60819
G1 X132.837 Y117.5 E44.13512
G1 X117.542 Y132.795 E44.66059
G1 X117.5 Y133.342 F39000
G1 F18000
G1 X101.658 Y117.5 E45.20486
G1 X117.5 Y101.658 E45.74914
G1 X133.342 Y117.5 E46.29342
G1 X117.542 Y133.3 E46.83624
G1 X117.5 Y133.847 F39000
;TYPE:External perimeter
G1 F18000
G1 X101.153 Y117.5 E47.39786
G1 X101.216 Y117.437 E47.3998
G1 X101.342 Y117.311 E47.40391
G1 X117.5 Y101.153 E47.95903
G1 X117.563 Y101.216 E47.96096
G1 X117.689 Y101.342 E47.96507
G1 X133.847 Y117.5 E48.52019
G1 X133.784 Y117.563 E48.52213
G1 X133.658 Y117.689 E48.52625
G1 X117.542 Y133.805 E49.07991
;WIPE_START
G1 X117.396 Y133.461 F39000
;WIPE_END
M204 S10000
G1 X132.011 Y116.761
;TYPE:Solid infill
;WIDTH:0.56
G1 F16825.261
G1 X132.011 Y117.925 E49.12644
G1 X131.494 Y118.442 E49.15568
G1 X131.494 Y116.558 E49.231
G1 X130.977 Y116.041 E49.26024
G1 X130.977 Y118.959 E49.3769
G1 X130.46 Y119.476 E49.40614
G1 X130.46 Y115.524 E49.56416
G1 X129.943 Y115.007 E49.5934
G1 X129.943 Y119.993 E49.79276
G1 X129.425 Y120.51 E49.822
G1 X129.425 Y114.49 E50.06272
G1 X128.908 Y113.973 E50.09196
G1 X128.908 Y121.027 E50.37403
G1 X128.391 Y121.544 E50.40327
G1 X128.391 Y113.456 E50.72669
G1 X127.874 Y112.939 E50.75593
G1 X127.874 Y122.061 E51.1207
G1 X127.357 Y122.578 E51.14994
G1 X127.357 Y112.422 E51.55607
G1 X126.84 Y111.905 E51.58531
G1 X126.84 Y123.095 E52.03278
G1 X126.323 Y123.613 E52.06202
G1 X126.323 Y111.387 E52.55085
G1 X125.806 Y110.87 E52.58009
G1 X125.806 Y124.13 E53.11027
G1 X125.289 Y124.647 E53.13951
G1 X125.289 Y110.353 E53.71104
G1 X124.772 Y109.836 E53.74028
G1 X124.772 Y125.164 E54.35316
G1 X124.255 Y125.681 E54.3824
G1 X124.255 Y109.319 E55.03664
G1 X123.738 Y108.802 E55.06588
G1 X123.738 Y126.198 E55.76146
G1 X123.221 Y126.715 E55.7907
G1 X123.221 Y108.285 E56.52764
G1 X122.703 Y107.768 E56.55688
G1 X122.703 Y127.232 E57.33516
G1 X122.186 Y127.749 E57.3644
G1 X122.186 Y107.251 E58.18404
G1 X121.669 Y106.734 E58.21328
G1 X121.669 Y128.266 E59.07427
G1 X121.152 Y128.783 E59.10351
G1 X121.152 Y106.217 E60.00586
G1 X120.635 Y105.7 E60.0351
G1 X120.635 Y129.3 E60.97879
G1 X120.118 Y129.817 E61.00803
G1 X120.118 Y105.183 E61.99308
G1 X119.601 Y104.665 E62.02232
G1 X119.601 Y130.335 E63.04871
G1 X119.084 Y130.852 E63.07795
G1 X119.084 Y104.148 E64.1457
G1 X118.567 Y103.631 E64.17494
G1 X118.567 Y131.369 E65.28404
G1 X118.05 Y131.886 E65.31328
G1 X118.05 Y103.114 E66.46373
G1 X117.533 Y102.597 E66.49297
G1 X117.533 Y132.403 E67.68478
G1 X117.5 Y132.436 E67.68662
G1 X117.016 Y131.951 E67.71402
G1 X117.016 Y103.049 E68.86969
G1 X116.498 Y103.566 E68.89893
G1 X116.498 Y131.434 E70.01325
G1 X115.981 Y130.917 E70.04249
G1 X115.981 Y104.083 E71.11545
G1 X115.464 Y104.6 E71.14469
G1 X115.464 Y130.4 E72.17631
G1 X114.947 Y129.883 E72.20555
G1 X114.947 Y105.117 E73.19582
G1 X114.43 Y105.634 E73.22506
G1 X114.43 Y129.366 E74.17397
G1 X113.913 Y128.849 E74.20321
G1 X113.913 Y106.151 E75.11077
G1 X113.396 Y106.668 E75.14001
G1 X113.396 Y128.332 E76.00622
G1 X112.879 Y127.814 E76.03546
G1 X112.879 Y107.186 E76.86032
G1 X112.362 Y107.703 E76.88956
G1 X112.362 Y127.297 E77.67307
G1 X111.845 Y126.78 E77.70231
G1 X111.845 Y108.22 E78.44446
G1 X111.328 Y108.737 E78.4737
G1 X111.328 Y126.263 E79.17451
G1 X110.811 Y125.746 E79.20375
G1 X110.811 Y109.254 E79.8632
G1 X110.294 Y109.771 E79.89244
G1 X110.294 Y125.229 E80.51054
G1 X109.776 Y124.712 E80.53978
G1 X109.776 Y110.288 E81.11653
G1 X109.259 Y110.805 E81.14577
G1 X109.259 Y124.195 E81.68117
G1 X108.742 Y123.678 E81.71041
G1 X108.742 Y111.322 E82.20446
G1 X108.225 Y111.839 E82.2337
G1 X108.225 Y123.161 E82.68639
G1 X107.708 Y122.644 E82.71563
G1 X107.708 Y112.356 E83.12698
G1 X107.191 Y112.873 E83.15622
G1 X107.191 Y122.127 E83.52621
G1 X106.674 Y121.609 E83.55545
G1 X106.674 Y113.391 E83.88409
G1 X106.157 Y113.908 E83.91333
G1 X106.157 Y121.092 E84.20062
G1 X105.64 Y120.575 E84.22986
G1 X105.64 Y114.425 E84.4758
G1 X105.123 Y114.942 E84.50504
G1 X105.123 Y120.058 E84.70962
G1 X104.606 Y119.541 E84.73886
G1 X104.606 Y115.459 E84.9021
G1 X104.089 Y115.976 E84.93134
G1 X104.089 Y119.024 E85.05322
G1 X103.572 Y118.507 E85.08246
G1 X103.572 Y116.493 E85.16299
G1 X103.054 Y117.01 E85.19223
G1 X103.054 Y118.304 E85.24399
M106 S181.05
;LAYER_CHANGE
;Z:0.65
;HEIGHT:0.2
; stop printing object Shape-Box id:0 copy 0
M204 S5000
G1 Z0.65 F39000
; printing object Shape-Box id:0 copy 0
; acceleration to travel
M204 S10000
G1 X112.576 Y128.263
; decel to extrusion
M204 S5000
G1 X117.5 Y133.413
; end travel
;TYPE:Internal perimeter
;WIDTH:0.357079
G1 F18000
G1 X101.587 Y117.5 E85.79069
G1 X117.5 Y101.587 E86.3374
G1 X133.413 Y117.5 E86.88411
G1 X125.456 Y125.456 E87.15746
G1 X117.542 Y133.37 E87.42936
M106 S181.05
G1 X117.5 Y133.918 F39000
;TYPE:External perimeter
G1 F18000
M106 S255
G1 X101.082 Y117.5 E87.99341
G1 X101.145 Y117.437 E87.99535
G1 X101.272 Y117.311 E87.99945
G1 X117.5 Y101.082 E88.557
G1 X117.563 Y101.145 E88.55894
G1 X117.689 Y101.272 E88.56304
G1 X133.918 Y117.5 E89.12059
G1 X133.855 Y117.563 E89.12253
G1 X133.728 Y117.689 E89.12664
G1 X125.709 Y125.709 E89.40216
G1 X117.542 Y133.875 E89.68273
M106 S181.05
;WIPE_START
G1 X117.396 Y133.531 F39000
;WIPE_END
M204 S10000
G1 X115.383 Y103.788
;TYPE:Internal infill
;WIDTH:0.5
G1 F19033.882
G1 X119.34 Y103.788 E89.82259
G1 X121.625 Y106.073 E89.93683
G1 X113.375 Y106.073 E90.22843
G1 X111.09 Y108.358 E90.34267
G1 X123.91 Y108.358 E90.79583
G1 X126.196 Y110.644 E90.91007
G1 X108.804 Y110.644 E91.52478
G1 X106.519 Y112.929 E91.63902
G1 X128.481 Y112.929 E92.4153
G1 X130.767 Y115.215 E92.52954
G1 X104.233 Y115.215 E93.46737
G1 X101.948 Y117.5 E93.58161
G1 X133.052 Y117.5 E94.681
G1 X130.767 Y119.785 E94.79524
G1 X104.233 Y119.785 E95.73308
G1 X106.519 Y122.071 E95.84731
G1 X128.481 Y122.071 E96.62359
G1 X126.196 Y124.356 E96.73783
G1 X108.804 Y124.356 E97.35255
G1 X111.09 Y126.642 E97.46678
G1 X123.91 Y126.642 E97.91994
G1 X121.625 Y128.927 E98.03418
G1 X113.375 Y128.927 E98.32578
G1 X115.66 Y131.212 E98.44002
G1 X119.617 Y131.212 E98.57988
M106 S181.05
M106 S127.5
;LAYER_CHANGE
;Z:0.85
;HEIGHT:0.2
; stop printing object Shape-Box id:0 copy 0
M204 S5000
G1 Z0.85 F39000
; printing object Shape-Box id:0 copy 0
G1 X117.5 Y132.908
;TYPE:Internal perimeter
;WIDTH:0.357079
G1 F18000
G1 X102.092 Y117.5 E99.10924
G1 X117.5 Y102.092 E99.6386
G1 X132.908 Y117.5 E100.16796
G1 X125.204 Y125.204 E100.43263
G1 X117.542 Y132.865 E100.69585
M106 S127.5
G1 X117.5 Y133.413 F39000
G1 F18000
G1 X101.587 Y117.5 E101.24256
G1 X117.5 Y101.587 E101.78927
G1 X133.413 Y117.5 E102.33597
G1 X125.456 Y125.456 E102.60933
G1 X117.542 Y133.37 E102.88122
M106 S127.5
G1 X117.5 Y133.918 F39000
;TYPE:External perimeter
G1 F18000
M106 S255
G1 X101.082 Y117.5 E103.44528
G1 X101.145 Y117.437 E103.44722
G1 X101.272 Y117.311 E103.45132
G1 X117.5 Y101.082 E104.00887
G1 X117.563 Y101.145 E104.01081
G1 X117.689 Y101.272 E104.01491
G1 X133.918 Y117.5 E104.57246
G1 X133.855 Y117.563 E104.5744
G1 X133.728 Y117.689 E104.5785
G1 X125.709 Y125.709 E104.85402
G1 X117.542 Y133.875 E105.1346
M106 S127.5
;WIPE_START
G1 X117.396 Y133.531 F39000
;WIPE_END
; acceleration to travel
M204 S10000
G1 X105.05 Y120.513
; decel to extrusion
M204 S2500
G1 X102.617 Y117.948
; end travel
;TYPE:Internal bridge infill
;WIDTH:0.368782
;HEIGHT:0.368782
M106 S127.5
G1 F1500
G1 X102.617 Y117.276 E105.16237
G1 X102.986 Y116.907 E105.18391
G1 X102.986 Y118.093 E105.23288
G1 X103.355 Y118.462 E105.25442
G1 X103.355 Y116.538 E105.33385
G1 X103.724 Y116.17 E105.35539
G1 X103.724 Y118.83 E105.46528
G1 X104.092 Y119.199 E105.48682
G1 X104.092 Y115.801 E105.62718
G1 X104.461 Y115.432 E105.64872
G1 X104.461 Y119.568 E105.81953
G1 X104.83 Y119.937 E105.84107
G1 X104.83 Y115.063 E106.04235
G1 X105.199 Y114.694 E106.06389
G1 X105.199 Y120.306 E106.29562
G1 X105.567 Y120.674 E106.31716
G1 X105.567 Y114.326 E106.57936
G1 X105.936 Y113.957 E106.6009
G1 X105.936 Y121.043 E106.89356
G1 X106.305 Y121.412 E106.9151
G1 X106.305 Y113.588 E107.23822
G1 X106.674 Y113.219 E107.25976
G1 X106.674 Y121.781 E107.61334
G1 X107.043 Y122.149 E107.63488
G1 X107.043 Y112.851 E108.01892
G1 X107.411 Y112.482 E108.04046
G1 X107.411 Y122.518 E108.45496
G1 X107.78 Y122.887 E108.4765
G1 X107.78 Y112.113 E108.92147
G1 X108.149 Y111.744 E108.94301
G1 X108.149 Y123.256 E109.41843
G1 X108.518 Y123.625 E109.43997
G1 X108.518 Y111.375 E109.94586
G1 X108.886 Y111.007 E109.9674
G1 X108.886 Y123.993 E110.50375
G1 X109.255 Y124.362 E110.52529
G1 X109.255 Y110.638 E111.09209
G1 X109.624 Y110.269 E111.11363
G1 X109.624 Y124.731 E111.7109
G1 X109.993 Y125.1 E111.73244
G1 X109.993 Y109.9 E112.36017
G1 X110.362 Y109.531 E112.38171
G1 X110.362 Y125.469 E113.0399
G1 X110.73 Y125.837 E113.06144
G1 X110.73 Y109.163 E113.7501
G1 X111.099 Y108.794 E113.77163
G1 X111.099 Y126.206 E114.49075
G1 X111.468 Y126.575 E114.51229
G1 X111.468 Y108.425 E115.26186
G1 X111.837 Y108.056 E115.2834
G1 X111.837 Y126.944 E116.06344
G1 X112.206 Y127.312 E116.08498
G1 X112.206 Y107.688 E116.89547
G1 X112.574 Y107.319 E116.91701
G1 X112.574 Y127.681 E117.75797
G1 X112.943 Y128.05 E117.77951
G1 X112.943 Y106.95 E118.65093
G1 X113.312 Y106.581 E118.67247
G1 X113.312 Y128.419 E119.57435
G1 X113.681 Y128.788 E119.59589
G1 X113.681 Y106.212 E120.52823
G1 X114.049 Y105.844 E120.54977
G1 X114.049 Y129.156 E121.51257
G1 X114.418 Y129.525 E121.53411
G1 X114.418 Y105.475 E122.52737
G1 X114.787 Y105.106 E122.54891
G1 X114.787 Y129.894 E123.57263
G1 X115.156 Y130.263 E123.59417
G1 X115.156 Y104.737 E124.64836
G1 X115.525 Y104.369 E124.6699
G1 X115.525 Y130.631 E125.75454
G1 X115.893 Y131 E125.77608
G1 X115.893 Y104 E126.89119
G1 X116.262 Y103.631 E126.91273
G1 X116.262 Y131.369 E128.05829
G1 X116.631 Y131.738 E128.07983
G1 X116.631 Y103.262 E129.25586
G1 X117 Y102.893 E129.2774
G1 X117 Y132.107 E130.48389
G1 X117.368 Y132.475 E130.50543
G1 X117.368 Y102.525 E131.74238
G1 X117.5 Y102.393 E131.75006
G1 X117.737 Y102.63 E131.76392
G1 X117.737 Y132.37 E132.99214
G1 X118.106 Y132.001 E133.01368
G1 X118.106 Y102.999 E134.21145
