; generated by SuperSlicer 2.4 on 2022-08-09 at 19:07:33 UTC

; 

; external perimeters extrusion width = 0.40mm
; perimeters extrusion width = 0.48mm
; infill extrusion width = 0.72mm
; solid infill extrusion width = 0.56mm
; top infill extrusion width = 0.40mm
; first layer extrusion width = 0.48mm

; object:{"name":"Shape-Box","id":"Shape-Box id:0 copy 0","object_center":[117.500000,117.500000,0.000000],"boundingbox_center":[117.500000,117.500000,0.500000],"boundingbox_size":[75.000000,75.000000,1.000000]}
; Total objects to print: 1
M486 T1
; plater:{"center":[117.500000,117.500000,0.000000],"boundingbox_center":[117.500000,117.500000,0.500000],"boundingbox_size":[75.000000,75.000000,1.000000]}

M140 S70 ; set bed temperature
M104 S235 ; set temperature
;TYPE:Custom
print_start EXTRUDER=235 BED=70 CHAMBER=0
M107
G21 ; set units to millimeters
G90 ; use absolute coordinates
M82 ; use absolute distances for extrusion
G92 E0
; Filament gcode
M109 S235 ; set temperature and wait for it to be reached
M190 S70 ; set bed temperature and wait for it to be reached
M107
;LAYER_CHANGE
;Z:0.25
;HEIGHT:0.25
G1 Z0.25 F27000
; INIT printing object Shape-Box id:0 copy 0
G1 E-2 F2400
; printing object Shape-Box id:0 copy 0
M486 S0
M204 P1500 T1500
G1 X81.619 Y81.619 F27000
G1 E0 F2400
;TYPE:Internal perimeter
;WIDTH:0.48
G1 F600
G1 X153.381 Y81.619 E3.18005
G1 X153.381 Y153.381 E6.3601
G1 X81.619 Y153.381 E9.54015
G1 X81.619 Y81.679 E12.71754
G1 X81.193 Y81.193 F27000
G1 F600
G1 X153.807 Y81.193 E15.93537
G1 X153.807 Y153.807 E19.15321
G1 X81.193 Y153.807 E22.37104
G1 X81.193 Y81.253 E25.58622
G1 X80.766 Y80.766 F27000
G1 F600
G1 X154.234 Y80.766 E28.84184
G1 X154.234 Y154.234 E32.09746
G1 X80.766 Y154.234 E35.35309
G1 X80.766 Y80.826 E38.60605
M204 P1000 T1000
G1 X80.34 Y80.34 F27000
;TYPE:External perimeter
G1 F600
G1 X154.66 Y80.34 E41.89946
G1 X154.66 Y154.66 E45.19286
G1 X80.34 Y154.66 E48.48627
G1 X80.34 Y80.4 E51.77702
;WIPE_START
M204 P1500 T1000
G1 X80.686 Y80.54 F27000
;WIPE_END
G1 X152.455 Y81.683
;TYPE:Solid infill
;WIDTH:0.478106
G1 F900
G1 X153.134 Y82.362 E51.81938
G1 X153.134 Y82.964 E51.84599
G1 X152.036 Y81.866 E51.91454
G1 X151.433 Y81.866 E51.94115
G1 X153.134 Y83.567 E52.04734
G1 X153.134 Y84.17 E52.07395
G1 X150.83 Y81.866 E52.21777
G1 X150.227 Y81.866 E52.24439
G1 X153.134 Y84.773 E52.42585
G1 X153.134 Y85.376 E52.45246
G1 X149.624 Y81.866 E52.67156
G1 X149.021 Y81.866 E52.69817
G1 X153.134 Y85.979 E52.95491
G1 X153.134 Y86.582 E52.98152
G1 X148.418 Y81.866 E53.27589
G1 X147.815 Y81.866 E53.30251
G1 X153.134 Y87.185 E53.63452
G1 X153.134 Y87.788 E53.66113
G1 X147.212 Y81.866 E54.03078
G1 X146.609 Y81.866 E54.05739
G1 X153.134 Y88.391 E54.46467
G1 X153.134 Y88.994 E54.49129
G1 X146.006 Y81.866 E54.93621
G1 X145.403 Y81.866 E54.96282
G1 X153.134 Y89.597 E55.44538
G1 X153.134 Y90.2 E55.47199
G1 X144.8 Y81.866 E55.99219
G1 X144.197 Y81.866 E56.0188
G1 X153.134 Y90.803 E56.57663
G1 X153.134 Y91.406 E56.60325
G1 X143.594 Y81.866 E57.19872
G1 X142.991 Y81.866 E57.22533
G1 X153.134 Y92.009 E57.85844
G1 X153.134 Y92.612 E57.88505
G1 X142.388 Y81.866 E58.5558
G1 X141.785 Y81.866 E58.58241
G1 X153.134 Y93.215 E59.29079
G1 X153.134 Y93.818 E59.3174
G1 X141.182 Y81.866 E60.06342
G1 X140.58 Y81.866 E60.09004
G1 X153.134 Y94.42 E60.87369
G1 X153.134 Y95.023 E60.90031
G1 X139.977 Y81.866 E61.7216
G1 X139.374 Y81.866 E61.74821
G1 X153.134 Y95.626 E62.60714
G1 X153.134 Y96.229 E62.63376
G1 X138.771 Y81.866 E63.53032
G1 X138.168 Y81.866 E63.55694
G1 X153.134 Y96.832 E64.49114
G1 X153.134 Y97.435 E64.51776
G1 X137.565 Y81.866 E65.4896
G1 X136.962 Y81.866 E65.51621
G1 X153.134 Y98.038 E66.52569
G1 X153.134 Y98.641 E66.5523
G1 X136.359 Y81.866 E67.59942
G1 X135.756 Y81.866 E67.62603
G1 X153.134 Y99.244 E68.71079
G1 X153.134 Y99.847 E68.7374
G1 X135.153 Y81.866 E69.85979
G1 X134.55 Y81.866 E69.88641
G1 X153.134 Y100.45 E71.04643
G1 X153.134 Y101.053 E71.07305
G1 X133.947 Y81.866 E72.27071
G1 X133.344 Y81.866 E72.29733
G1 X153.134 Y101.656 E73.53263
G1 X153.134 Y102.259 E73.55924
G1 X132.741 Y81.866 E74.83218
G1 X132.138 Y81.866 E74.8588
G1 X153.134 Y102.862 E76.16937
G1 X153.134 Y103.465 E76.19599
G1 X131.535 Y81.866 E77.5442
G1 X130.932 Y81.866 E77.57082
G1 X153.134 Y104.068 E78.95667
G1 X153.134 Y104.671 E78.98328
G1 X130.329 Y81.866 E80.40677
G1 X129.726 Y81.866 E80.43338
G1 X153.134 Y105.274 E81.89451
G1 X153.134 Y105.876 E81.92112
G1 X129.124 Y81.866 E83.41989
G1 X128.521 Y81.866 E83.4465
G1 X153.134 Y106.479 E84.9829
G1 X153.134 Y107.082 E85.00951
G1 X127.918 Y81.866 E86.58355
G1 X127.315 Y81.866 E86.61017
G1 X153.134 Y107.685 E88.22184
G1 X153.134 Y108.288 E88.24845
G1 X126.712 Y81.866 E89.89777
G1 X126.109 Y81.866 E89.92438
G1 X153.134 Y108.891 E91.61133
G1 X153.134 Y109.494 E91.63794
G1 X125.506 Y81.866 E93.36253
G1 X124.903 Y81.866 E93.38914
G1 X153.134 Y110.097 E95.15137
G1 X153.134 Y110.7 E95.17798
G1 X124.3 Y81.866 E96.97784
G1 X123.697 Y81.866 E97.00445
G1 X153.134 Y111.303 E98.84195
G1 X153.134 Y111.906 E98.86857
G1 X123.094 Y81.866 E100.7437
G1 X122.491 Y81.866 E100.77032
G1 X153.134 Y112.509 E102.68309
G1 X153.134 Y113.112 E102.7097
G1 X121.888 Y81.866 E104.66011
G1 X121.285 Y81.866 E104.68673
G1 X153.134 Y113.715 E106.67477
G1 X153.134 Y114.318 E106.70139
G1 X120.682 Y81.866 E108.72707
G1 X120.079 Y81.866 E108.75368
G1 X153.134 Y114.921 E110.81701
G1 X153.134 Y115.524 E110.84362
G1 X119.476 Y81.866 E112.94458
G1 X118.873 Y81.866 E112.97119
G1 X153.134 Y116.127 E115.10979
G1 X153.134 Y116.73 E115.1364
G1 X118.27 Y81.866 E117.31264
G1 X117.667 Y81.866 E117.33925
G1 X153.134 Y117.333 E119.55312
G1 X153.134 Y117.935 E119.57973
G1 X117.065 Y81.866 E121.83124
G1 X116.462 Y81.866 E121.85785
G1 X153.134 Y118.538 E124.147
G1 X153.134 Y119.141 E124.17361
G1 X115.859 Y81.866 E126.5004
G1 X115.256 Y81.866 E126.52701
G1 X153.134 Y119.744 E128.89143
G1 X153.134 Y120.347 E128.91804
G1 X114.653 Y81.866 E131.3201
G1 X114.05 Y81.866 E131.34671
G1 X153.134 Y120.95 E133.78641
G1 X153.134 Y121.553 E133.81302
G1 X113.447 Y81.866 E136.29035
G1 X112.844 Y81.866 E136.31697
G1 X153.134 Y122.156 E138.83193
G1 X153.134 Y122.759 E138.85855
G1 X112.241 Y81.866 E141.41115
G1 X111.638 Y81.866 E141.43777
G1 X153.134 Y123.362 E144.02801
G1 X153.134 Y123.965 E144.05462
G1 X111.035 Y81.866 E146.6825
G1 X110.432 Y81.866 E146.70912
G1 X153.134 Y124.568 E149.37463
G1 X153.134 Y125.171 E149.40125
G1 X109.829 Y81.866 E152.1044
G1 X109.226 Y81.866 E152.13102
G1 X153.134 Y125.774 E154.87181
G1 X153.134 Y126.377 E154.89842
G1 X108.623 Y81.866 E157.67685
G1 X108.02 Y81.866 E157.70346
G1 X153.134 Y126.98 E160.51953
G1 X153.134 Y127.583 E160.54614
G1 X107.417 Y81.866 E163.39985
G1 X106.814 Y81.866 E163.42646
G1 X153.134 Y128.186 E166.3178
G1 X153.134 Y128.789 E166.34442
G1 X106.211 Y81.866 E169.27339
G1 X105.609 Y81.866 E169.30001
G1 X153.134 Y129.391 E172.26662
G1 X153.134 Y129.994 E172.29324
G1 X105.006 Y81.866 E175.29749
G1 X104.403 Y81.866 E175.3241
G1 X153.134 Y130.597 E178.36599
G1 X153.134 Y131.2 E178.39261
G1 X103.8 Y81.866 E181.47213
G1 X103.197 Y81.866 E181.49875
G1 X153.134 Y131.803 E184.61591
G1 X153.134 Y132.406 E184.64252
G1 X102.594 Y81.866 E187.79733
G1 X101.991 Y81.866 E187.82394
G1 X153.134 Y133.009 E191.01638
G1 X153.134 Y133.612 E191.04299
G1 X101.388 Y81.866 E194.27307
G1 X100.785 Y81.866 E194.29968
G1 X153.134 Y134.215 E197.56739
G1 X153.134 Y134.818 E197.59401
G1 X100.182 Y81.866 E200.89936
G1 X99.579 Y81.866 E200.92597
G1 X153.134 Y135.421 E204.26896
G1 X153.134 Y136.024 E204.29557
G1 X98.976 Y81.866 E207.6762
G1 X98.373 Y81.866 E207.70281
G1 X153.134 Y136.627 E211.12107
G1 X153.134 Y137.23 E211.14769
G1 X97.77 Y81.866 E214.60359
G1 X97.167 Y81.866 E214.6302
G1 X153.134 Y137.833 E218.12374
G1 X153.134 Y138.436 E218.15035
G1 X96.564 Y81.866 E221.68152
G1 X95.961 Y81.866 E221.70814
G1 X153.134 Y139.039 E225.27695
G1 X153.134 Y139.642 E225.30356
G1 X95.358 Y81.866 E228.91001
G1 X94.755 Y81.866 E228.93662
G1 X153.134 Y140.245 E232.58071
G1 X153.134 Y140.848 E232.60732
G1 X94.152 Y81.866 E236.28904
G1 X93.55 Y81.866 E236.31566
G1 X153.134 Y141.45 E240.03502
G1 X153.134 Y142.053 E240.06163
G1 X92.947 Y81.866 E243.81863
G1 X92.344 Y81.866 E243.84524
G1 X153.134 Y142.656 E247.63988
G1 X153.134 Y143.259 E247.66649
G1 X91.741 Y81.866 E251.49876
G1 X91.138 Y81.866 E251.52538
G1 X153.134 Y143.862 E255.39528
G1 X153.134 Y144.465 E255.4219
G1 X90.535 Y81.866 E259.32944
G1 X89.932 Y81.866 E259.35606
G1 X153.134 Y145.068 E263.30124
G1 X153.134 Y145.671 E263.32785
G1 X89.329 Y81.866 E267.31067
G1 X88.726 Y81.866 E267.33729
G1 X153.134 Y146.274 E271.35775
G1 X153.134 Y146.877 E271.38436
G1 X88.123 Y81.866 E275.44245
G1 X87.52 Y81.866 E275.46907
G1 X153.134 Y147.48 E279.5648
G1 X153.134 Y148.083 E279.59141
G1 X86.917 Y81.866 E283.72478
G1 X86.314 Y81.866 E283.7514
G1 X153.134 Y148.686 E287.9224
G1 X153.134 Y149.289 E287.94902
G1 X85.711 Y81.866 E292.15766
G1 X85.108 Y81.866 E292.18427
G1 X153.134 Y149.892 E296.43056
G1 X153.134 Y150.495 E296.45717
G1 X84.505 Y81.866 E300.74109
G1 X83.902 Y81.866 E300.7677
G1 X153.134 Y151.098 E305.08926
G1 X153.134 Y151.701 E305.11587
G1 X83.299 Y81.866 E309.47506
G1 X82.696 Y81.866 E309.50168
G1 X153.134 Y152.304 E313.89851
G1 X153.134 Y152.906 E313.92512
G1 X82.094 Y81.866 E318.35959
G1 X81.866 Y81.866 E318.36962
G1 X81.866 Y82.242 E318.3862
G1 X152.758 Y153.134 E322.8114
G1 X152.155 Y153.134 E322.83801
G1 X81.866 Y82.845 E327.22557
G1 X81.866 Y83.448 E327.25218
G1 X151.552 Y153.134 E331.6021
G1 X150.949 Y153.134 E331.62872
G1 X81.866 Y84.051 E335.941
G1 X81.866 Y84.654 E335.96761
G1 X150.346 Y153.134 E340.24226
G1 X149.743 Y153.134 E340.26887
G1 X81.866 Y85.257 E344.50588
G1 X81.866 Y85.86 E344.5325
G1 X149.14 Y153.134 E348.73187
G1 X148.537 Y153.134 E348.75848
G1 X81.866 Y86.463 E352.92022
G1 X81.866 Y87.066 E352.94683
G1 X147.934 Y153.134 E357.07093
G1 X147.331 Y153.134 E357.09754
G1 X81.866 Y87.669 E361.184
G1 X81.866 Y88.272 E361.21062
G1 X146.728 Y153.134 E365.25944
G1 X146.126 Y153.134 E365.28605
G1 X81.866 Y88.874 E369.29724
G1 X81.866 Y89.477 E369.32385
G1 X145.523 Y153.134 E373.2974
G1 X144.92 Y153.134 E373.32401
G1 X81.866 Y90.08 E377.25993
G1 X81.866 Y90.683 E377.28654
G1 X144.317 Y153.134 E381.18481
G1 X143.714 Y153.134 E381.21143
G1 X81.866 Y91.286 E385.07206
G1 X81.866 Y91.889 E385.09868
G1 X143.111 Y153.134 E388.92168
G1 X142.508 Y153.134 E388.94829
G1 X81.866 Y92.492 E392.73365
G1 X81.866 Y93.095 E392.76027
G1 X141.905 Y153.134 E396.50799
G1 X141.302 Y153.134 E396.53461
G1 X81.866 Y93.698 E400.24469
G1 X81.866 Y94.301 E400.27131
G1 X140.699 Y153.134 E403.94376
G1 X140.096 Y153.134 E403.97037
G1 X81.866 Y94.904 E407.60519
G1 X81.866 Y95.507 E407.6318
G1 X139.493 Y153.134 E411.22898
G1 X138.89 Y153.134 E411.25559
G1 X81.866 Y96.11 E414.81513
G1 X81.866 Y96.713 E414.84174
G1 X138.287 Y153.134 E418.36364
G1 X137.684 Y153.134 E418.39026
G1 X81.866 Y97.316 E421.87452
G1 X81.866 Y97.919 E421.90114
G1 X137.081 Y153.134 E425.34776
G1 X136.478 Y153.134 E425.37438
G1 X81.866 Y98.522 E428.78337
G1 X81.866 Y99.125 E428.80998
G1 X135.875 Y153.134 E432.18133
G1 X135.272 Y153.134 E432.20795
G1 X81.866 Y99.728 E435.54166
G1 X81.866 Y100.331 E435.56828
G1 X134.669 Y153.134 E438.86436
G1 X134.067 Y153.134 E438.89097
G1 X81.866 Y100.933 E442.14941
G1 X81.866 Y101.536 E442.17602
G1 X133.464 Y153.134 E445.39683
G1 X132.861 Y153.134 E445.42344
G1 X81.866 Y102.139 E448.60661
G1 X81.866 Y102.742 E448.63322
G1 X132.258 Y153.134 E451.77875
G1 X131.655 Y153.134 E451.80537
G1 X81.866 Y103.345 E454.91326
G1 X81.866 Y103.948 E454.93987
G1 X131.052 Y153.134 E458.01013
G1 X130.449 Y153.134 E458.03674
G1 X81.866 Y104.551 E461.06936
G1 X81.866 Y105.154 E461.09597
G1 X129.846 Y153.134 E464.09095
G1 X129.243 Y153.134 E464.11757
G1 X81.866 Y105.757 E467.07491
G1 X81.866 Y106.36 E467.10152
G1 X128.64 Y153.134 E470.02123
G1 X128.037 Y153.134 E470.04784
G1 X81.866 Y106.963 E472.92991
G1 X81.866 Y107.566 E472.95653
G1 X127.434 Y153.134 E475.80096
G1 X126.831 Y153.134 E475.82757
G1 X81.866 Y108.169 E478.63437
G1 X81.866 Y108.772 E478.66098
G1 X126.228 Y153.134 E481.43014
G1 X125.625 Y153.134 E481.45675
G1 X81.866 Y109.375 E484.18827
G1 X81.866 Y109.978 E484.21488
G1 X125.022 Y153.134 E486.90877
G1 X124.419 Y153.134 E486.93538
G1 X81.866 Y110.581 E489.59163
G1 X81.866 Y111.184 E489.61824
G1 X123.816 Y153.134 E492.23685
G1 X123.213 Y153.134 E492.26346
G1 X81.866 Y111.787 E494.84443
G1 X81.866 Y112.389 E494.87105
G1 X122.611 Y153.134 E497.41438
G1 X122.008 Y153.134 E497.44099
G1 X81.866 Y112.992 E499.94669
G1 X81.866 Y113.595 E499.9733
G1 X121.405 Y153.134 E502.44136
G1 X120.802 Y153.134 E502.46798
G1 X81.866 Y114.198 E504.8984
G1 X81.866 Y114.801 E504.92501
G1 X120.199 Y153.134 E507.3178
G1 X119.596 Y153.134 E507.34441
G1 X81.866 Y115.404 E509.69956
G1 X81.866 Y116.007 E509.72617
G1 X118.993 Y153.134 E512.04368
G1 X118.39 Y153.134 E512.0703
G1 X81.866 Y116.61 E514.35017
G1 X81.866 Y117.213 E514.37678
G1 X117.787 Y153.134 E516.61902
G1 X117.184 Y153.134 E516.64563
G1 X81.866 Y117.816 E518.85023
G1 X81.866 Y118.419 E518.87685
G1 X116.581 Y153.134 E521.04381
G1 X115.978 Y153.134 E521.07042
G1 X81.866 Y119.022 E523.19975
G1 X81.866 Y119.625 E523.22636
G1 X115.375 Y153.134 E525.31805
G1 X114.772 Y153.134 E525.34466
G1 X81.866 Y120.228 E527.39871
G1 X81.866 Y120.831 E527.42532
G1 X114.169 Y153.134 E529.44174
G1 X113.566 Y153.134 E529.46835
G1 X81.866 Y121.434 E531.44713
G1 X81.866 Y122.037 E531.47374
G1 X112.963 Y153.134 E533.41488
G1 X112.36 Y153.134 E533.44149
G1 X81.866 Y122.64 E535.34499
G1 X81.866 Y123.243 E535.37161
G1 X111.757 Y153.134 E537.23747
G1 X111.155 Y153.134 E537.26408
G1 X81.866 Y123.845 E539.09231
G1 X81.866 Y124.448 E539.11892
G1 X110.552 Y153.134 E540.90951
G1 X109.949 Y153.134 E540.93613
G1 X81.866 Y125.051 E542.68908
G1 X81.866 Y125.654 E542.71569
G1 X109.346 Y153.134 E544.43101
G1 X108.743 Y153.134 E544.45762
G1 X81.866 Y126.257 E546.1353
G1 X81.866 Y126.86 E546.16191
G1 X108.14 Y153.134 E547.80195
G1 X107.537 Y153.134 E547.82857
G1 X81.866 Y127.463 E549.43097
G1 X81.866 Y128.066 E549.45758
G1 X106.934 Y153.134 E551.02235
G1 X106.331 Y153.134 E551.04896
G1 X81.866 Y128.669 E552.57609
G1 X81.866 Y129.272 E552.6027
G1 X105.728 Y153.134 E554.0922
G1 X105.125 Y153.134 E554.11881
G1 X81.866 Y129.875 E555.57066
G1 X81.866 Y130.478 E555.59728
G1 X104.522 Y153.134 E557.01149
G1 X103.919 Y153.134 E557.03811
G1 X81.866 Y131.081 E558.41469
G1 X81.866 Y131.684 E558.4413
G1 X103.316 Y153.134 E559.78024
G1 X102.713 Y153.134 E559.80686
G1 X81.866 Y132.287 E561.10816
G1 X81.866 Y132.89 E561.13478
G1 X102.11 Y153.134 E562.39845
G1 X101.507 Y153.134 E562.42506
G1 X81.866 Y133.493 E563.65109
G1 X81.866 Y134.096 E563.6777
G1 X100.904 Y153.134 E564.8661
G1 X100.301 Y153.134 E564.89271
G1 X81.866 Y134.699 E566.04347
G1 X81.866 Y135.302 E566.07008
G1 X99.698 Y153.134 E567.1832
G1 X99.096 Y153.134 E567.20981
G1 X81.866 Y135.904 E568.2853
G1 X81.866 Y136.507 E568.31191
G1 X98.493 Y153.134 E569.34975
G1 X97.89 Y153.134 E569.37637
G1 X81.866 Y137.11 E570.37657
G1 X81.866 Y137.713 E570.40319
G1 X97.287 Y153.134 E571.36576
G1 X96.684 Y153.134 E571.39237
G1 X81.866 Y138.316 E572.31731
G1 X81.866 Y138.919 E572.34392
G1 X96.081 Y153.134 E573.23121
G1 X95.478 Y153.134 E573.25783
G1 X81.866 Y139.522 E574.10749
G1 X81.866 Y140.125 E574.1341
G1 X94.875 Y153.134 E574.94612
G1 X94.272 Y153.134 E574.97274
G1 X81.866 Y140.728 E575.74712
G1 X81.866 Y141.331 E575.77373
G1 X93.669 Y153.134 E576.51048
G1 X93.066 Y153.134 E576.53709
G1 X81.866 Y141.934 E577.2362
G1 X81.866 Y142.537 E577.26282
G1 X92.463 Y153.134 E577.92429
G1 X91.86 Y153.134 E577.9509
G1 X81.866 Y143.14 E578.57474
G1 X81.866 Y143.743 E578.60135
G1 X91.257 Y153.134 E579.18755
G1 X90.654 Y153.134 E579.21416
G1 X81.866 Y144.346 E579.76272
G1 X81.866 Y144.949 E579.78934
G1 X90.051 Y153.134 E580.30026
G1 X89.448 Y153.134 E580.32687
G1 X81.866 Y145.552 E580.80016
G1 X81.866 Y146.155 E580.82677
G1 X88.845 Y153.134 E581.26242
G1 X88.242 Y153.134 E581.28904
G1 X81.866 Y146.758 E581.68705
