; generated by SuperSlicer 2.5.59 on 2022-10-07 at 05:45:35 UTC


;
;

;
;
; 

; external perimeters extrusion width = 0.63mm
; perimeters extrusion width = 0.68mm
; infill extrusion width = 0.84mm
; solid infill extrusion width = 0.84mm
; top infill extrusion width = 0.60mm
; first layer extrusion width = 0.72mm

; object:{"name":"Shape-Box","id":"Shape-Box id:0 copy 0","object_center":[150.000000,150.000000,0.000000],"boundingbox_center":[150.000000,150.000000,0.250000],"boundingbox_size":[106.066017,106.066017,0.500000]}
; plater:{"center":[150.000000,150.000000,0.000000],"boundingbox_center":[150.000000,150.000000,0.250000],"boundingbox_size":[106.066017,106.066017,0.500000]}

;TYPE:Custom
PRINT_START EXTRUDER=235 BED=110 


; Pre-Processed for Cancel-Object support by preprocess_cancellation v0.2.0
; 1 known objects
EXCLUDE_OBJECT_DEFINE NAME=Shape_Box_id_0_copy_0 CENTER=149.837,149.765 POLYGON=[[150.0,97.412],[97.412,150.0],[150.064,202.524],[202.588,150.0],[150.0,97.412]]
M107
G21 ; set units to millimeters
G90 ; use absolute coordinates
M83 ; use relative distances for extrusion
SET_PRESSURE_ADVANCE ADVANCE=0.01
SET_PRESSURE_ADVANCE SMOOTH=0.04

;_TOOLCHANGE 0
M104 S235 ; set temperature
M109 S235 ; set temperature and wait for it to be reached
M190 S110 ; set bed temperature and wait for it to be reached
M107
;LAYER_CHANGE
;Z:0.24
;HEIGHT:0.24
;BEFORE_LAYER_CHANGE
;0.24


G1 Z0.24 F24000
;AFTER_LAYER_CHANGE
;0.24
G92 E0
G1 E-0.6 F3600
M204 S5000
G1 Z0.84 F24000
G1 X118.476 Y118.476
G1 Z0.24
G1 E0.6 F2400
;TYPE:Skirt
;WIDTH:0.675
G1 F5613.5123
G1 X92.03 Y144.921 E2.16388
G1 X90.99 Y146.239 E0.09712
G1 X90.095 Y148.454 E0.1382
G1 X89.975 Y150.839 E0.1382
G1 X90.645 Y153.132 E0.1382
G1 X92.03 Y155.079 E0.1382
G1 X144.921 Y207.97 E4.32776
G1 X146.239 Y209.01 E0.09712
G1 X148.454 Y209.905 E0.1382
G1 X150.839 Y210.025 E0.1382
G1 X153.132 Y209.355 E0.1382
G1 X155.079 Y207.97 E0.1382
G1 X207.97 Y155.079 E4.32776
G1 X209.01 Y153.761 E0.09712
G1 X209.905 Y151.546 E0.1382
G1 X210.025 Y149.161 E0.1382
G1 X209.355 Y146.868 E0.1382
G1 X207.97 Y144.921 E0.1382
G1 X155.079 Y92.03 E4.32776
G1 X153.761 Y90.99 E0.09712
G1 X151.546 Y90.095 E0.1382
G1 X149.161 Y89.975 E0.1382
G1 X146.868 Y90.645 E0.1382
G1 X144.921 Y92.03 E0.1382
G1 X118.539 Y118.412 E2.15867
G1 X118.98 Y118.853 F24000
G1 F5613.5123
G1 X92.471 Y145.362 E2.16909
G1 X90.776 Y148.291 E0.19574
G1 X90.574 Y150.563 E0.13202
G1 X91.162 Y152.768 E0.13202
G1 X92.471 Y154.638 E0.13202
G1 X145.362 Y207.529 E4.32776
G1 X148.291 Y209.224 E0.19574
G1 X150.563 Y209.426 E0.13202
G1 X152.768 Y208.838 E0.13202
G1 X154.638 Y207.529 E0.13202
G1 X207.529 Y154.638 E4.32776
G1 X209.224 Y151.709 E0.19574
G1 X209.426 Y149.437 E0.13202
G1 X208.838 Y147.232 E0.13202
G1 X207.529 Y145.362 E0.13202
G1 X154.638 Y92.471 E4.32776
G1 X151.709 Y90.776 E0.19574
G1 X149.437 Y90.574 E0.13202
G1 X147.232 Y91.162 E0.13202
G1 X145.362 Y92.471 E0.13202
G1 X119.044 Y118.789 E2.15347
G1 X119.485 Y119.23 F24000
G1 F5613.5123
G1 X92.912 Y145.803 E2.17429
G1 X91.47 Y148.147 E0.15919
G1 X91.181 Y150.297 E0.12554
G1 X91.684 Y152.408 E0.12554
G1 X92.912 Y154.197 E0.12554
G1 X145.803 Y207.088 E4.32776
G1 X148.147 Y208.53 E0.15919
G1 X150.297 Y208.819 E0.12554
G1 X152.408 Y208.316 E0.12554
G1 X154.197 Y207.088 E0.12554
G1 X207.088 Y154.197 E4.32776
G1 X208.53 Y151.853 E0.15919
G1 X208.819 Y149.703 E0.12554
G1 X208.316 Y147.592 E0.12554
G1 X207.088 Y145.803 E0.12554
G1 X154.197 Y92.912 E4.32776
G1 X151.853 Y91.47 E0.15919
G1 X149.703 Y91.181 E0.12554
G1 X147.592 Y91.684 E0.12554
G1 X145.803 Y92.912 E0.12554
G1 X119.548 Y119.166 E2.14826
G1 X119.989 Y119.607 F24000
G1 F5613.5123
G1 X93.352 Y146.244 E2.1795
G1 X92.177 Y148.026 E0.12353
G1 X91.797 Y150.043 E0.11871
G1 X92.209 Y152.052 E0.11871
G1 X93.352 Y153.756 E0.11871
G1 X146.244 Y206.648 E4.32776
G1 X148.026 Y207.823 E0.12353
G1 X150.043 Y208.203 E0.11871
G1 X152.052 Y207.791 E0.11871
G1 X153.756 Y206.648 E0.11871
G1 X206.648 Y153.756 E4.32776
G1 X207.823 Y151.974 E0.12353
G1 X208.203 Y149.957 E0.11871
G1 X207.791 Y147.948 E0.11871
G1 X206.648 Y146.244 E0.11871
G1 X153.756 Y93.352 E4.32776
G1 X151.974 Y92.177 E0.12353
G1 X149.957 Y91.797 E0.11871
G1 X147.948 Y92.209 E0.11871
G1 X146.244 Y93.352 E0.11871
G1 X120.053 Y119.544 E2.14305
G1 E-0.06 F3600
;WIPE_START
G1 F19200
M204 S3000
G1 X118.016 Y121.58 E-0.513
;WIPE_END
G1 E-0.027 F3600
G1 Z0.84 F24000
; printing object Shape-Box id:0 copy 0
EXCLUDE_OBJECT_START NAME=Shape_Box_id_0_copy_0
G1 X150 Y199.546
G1 Z0.24
G1 E0.6 F2400
;TYPE:Internal perimeter
;WIDTH:0.72
G1 F9000
G1 X100.454 Y150 E4.34663
G1 X150 Y100.454 E4.34663
G1 X199.546 Y150 E4.34663
G1 X150.064 Y199.483 E4.34105
G1 X150 Y200.492 F24000
G1 F9000
G1 X99.508 Y150 E4.42957
G1 X150 Y99.508 E4.42957
G1 X200.492 Y150 E4.42957
G1 X150.064 Y200.428 E4.42399
G1 X150 Y201.437 F24000
G1 F9000
G1 X98.563 Y150 E4.51251
G1 X150 Y98.563 E4.51251
G1 X201.437 Y150 E4.51251
G1 X150.064 Y201.373 E4.50693
G1 X150 Y202.382 F24000
;TYPE:External perimeter
G1 F4500
G1 X97.618 Y150 E4.59545
G1 X97.745 Y149.873 E0.00997
G1 X97.999 Y149.618 E0.02113
G1 X150 Y97.618 E4.56195
G1 X150.127 Y97.745 E0.00997
G1 X150.382 Y97.999 E0.02113
G1 X202.382 Y150 E4.56195
G1 X202.255 Y150.127 E0.00997
G1 X202.001 Y150.382 E0.02113
G1 X150.064 Y202.319 E4.55637
;WIPE_START
M204 S5000
G1 X149.845 Y201.803 F24000
;WIPE_END
G1 E-0.06 F3600
;WIPE_START
G1 F19200
G1 X147.808 Y199.766 E-0.513
;WIPE_END
G1 E-0.027 F3600
G1 Z0.84 F24000
G1 X149.044 Y101.551
G1 Z0.24
G1 E0.6 F2400
;TYPE:Solid infill
G1 F7200
G1 X150.549 Y101.551 E0.09333
G1 X151.217 Y102.22 E0.05865
G1 X148.782 Y102.22 E0.15105
G1 X148.114 Y102.888 E0.05865
G1 X151.886 Y102.888 E0.23399
G1 X152.554 Y103.557 E0.05865
G1 X147.446 Y103.557 E0.31693
G1 X146.777 Y104.225 E0.05865
G1 X153.223 Y104.225 E0.39987
G1 X153.891 Y104.893 E0.05865
G1 X146.109 Y104.893 E0.4828
G1 X145.44 Y105.562 E0.05865
G1 X154.56 Y105.562 E0.56574
G1 X155.228 Y106.23 E0.05865
G1 X144.772 Y106.23 E0.64868
G1 X144.103 Y106.899 E0.05865
G1 X155.897 Y106.899 E0.73162
G1 X156.565 Y107.567 E0.05865
G1 X143.435 Y107.567 E0.81456
G1 X142.766 Y108.236 E0.05865
G1 X157.234 Y108.236 E0.8975
G1 X157.902 Y108.904 E0.05865
G1 X142.098 Y108.904 E0.98043
G1 X141.429 Y109.573 E0.05865
G1 X158.571 Y109.573 E1.06337
G1 X159.239 Y110.241 E0.05865
G1 X140.761 Y110.241 E1.14631
G1 X140.092 Y110.91 E0.05865
G1 X159.908 Y110.91 E1.22925
G1 X160.576 Y111.578 E0.05865
G1 X139.424 Y111.578 E1.31219
G1 X138.755 Y112.247 E0.05865
G1 X161.245 Y112.247 E1.39513
G1 X161.913 Y112.915 E0.05865
G1 X138.087 Y112.915 E1.47806
G1 X137.418 Y113.584 E0.05865
G1 X162.582 Y113.584 E1.561
G1 X163.25 Y114.252 E0.05865
G1 X136.75 Y114.252 E1.64394
G1 X136.081 Y114.921 E0.05865
G1 X163.919 Y114.921 E1.72688
G1 X164.587 Y115.589 E0.05865
G1 X135.413 Y115.589 E1.80982
G1 X134.744 Y116.258 E0.05865
G1 X165.256 Y116.258 E1.89276
G1 X165.924 Y116.926 E0.05865
G1 X134.076 Y116.926 E1.97569
G1 X133.407 Y117.595 E0.05865
G1 X166.593 Y117.595 E2.05863
G1 X167.261 Y118.263 E0.05865
G1 X132.739 Y118.263 E2.14157
G1 X132.07 Y118.932 E0.05865
G1 X167.93 Y118.932 E2.22451
G1 X168.598 Y119.6 E0.05865
G1 X131.402 Y119.6 E2.30745
G1 X130.733 Y120.269 E0.05865
G1 X169.267 Y120.269 E2.39038
G1 X169.935 Y120.937 E0.05865
G1 X130.065 Y120.937 E2.47332
G1 X129.396 Y121.606 E0.05865
G1 X170.604 Y121.606 E2.55626
G1 X171.272 Y122.274 E0.05865
G1 X128.728 Y122.274 E2.6392
G1 X128.059 Y122.943 E0.05865
G1 X171.941 Y122.943 E2.72214
G1 X172.609 Y123.611 E0.05865
G1 X127.391 Y123.611 E2.80508
G1 X126.722 Y124.28 E0.05865
G1 X173.278 Y124.28 E2.88801
G1 X173.946 Y124.948 E0.05865
G1 X126.054 Y124.948 E2.97095
G1 X125.385 Y125.617 E0.05865
G1 X174.615 Y125.617 E3.05389
G1 X175.283 Y126.285 E0.05865
G1 X124.717 Y126.285 E3.13683
G1 X124.048 Y126.954 E0.05865
G1 X175.952 Y126.954 E3.21977
G1 X176.62 Y127.622 E0.05865
G1 X123.38 Y127.622 E3.30271
G1 X122.711 Y128.291 E0.05865
G1 X177.289 Y128.291 E3.38564
G1 X177.957 Y128.959 E0.05865
G1 X122.043 Y128.959 E3.46858
G1 X121.374 Y129.628 E0.05865
G1 X178.626 Y129.628 E3.55152
G1 X179.294 Y130.296 E0.05865
G1 X120.706 Y130.296 E3.63446
G1 X120.037 Y130.965 E0.05865
G1 X179.963 Y130.965 E3.7174
G1 X180.631 Y131.633 E0.05865
G1 X119.369 Y131.633 E3.80033
G1 X118.7 Y132.302 E0.05865
G1 X181.3 Y132.302 E3.88327
G1 X181.968 Y132.97 E0.05865
G1 X118.032 Y132.97 E3.96621
G1 X117.363 Y133.639 E0.05865
G1 X182.637 Y133.639 E4.04915
G1 X183.305 Y134.307 E0.05865
G1 X116.695 Y134.307 E4.13209
G1 X116.026 Y134.976 E0.05865
G1 X183.974 Y134.976 E4.21503
G1 X184.642 Y135.644 E0.05865
G1 X115.358 Y135.644 E4.29796
G1 X114.689 Y136.313 E0.05865
G1 X185.311 Y136.313 E4.3809
G1 X185.979 Y136.981 E0.05865
G1 X114.021 Y136.981 E4.46384
G1 X113.352 Y137.65 E0.05865
G1 X186.648 Y137.65 E4.54678
G1 X187.316 Y138.318 E0.05865
G1 X112.684 Y138.318 E4.62972
G1 X112.015 Y138.987 E0.05865
G1 X187.985 Y138.987 E4.71266
G1 X188.653 Y139.655 E0.05865
G1 X111.347 Y139.655 E4.79559
G1 X110.678 Y140.324 E0.05865
G1 X189.322 Y140.324 E4.87853
G1 X189.99 Y140.992 E0.05865
G1 X110.01 Y140.992 E4.96147
G1 X109.341 Y141.661 E0.05865
G1 X190.659 Y141.661 E5.04441
G1 X191.327 Y142.329 E0.05865
G1 X108.673 Y142.329 E5.12735
G1 X108.004 Y142.998 E0.05865
G1 X191.996 Y142.998 E5.21029
G1 X192.664 Y143.666 E0.05865
G1 X107.336 Y143.666 E5.29322
G1 X106.667 Y144.335 E0.05865
G1 X193.333 Y144.335 E5.37616
G1 X194.001 Y145.003 E0.05865
G1 X105.999 Y145.003 E5.4591
G1 X105.33 Y145.672 E0.05865
G1 X194.67 Y145.672 E5.54204
G1 X195.338 Y146.34 E0.05865
G1 X104.662 Y146.34 E5.62498
G1 X103.993 Y147.009 E0.05865
G1 X196.007 Y147.009 E5.70791
G1 X196.675 Y147.677 E0.05865
G1 X103.325 Y147.677 E5.79085
G1 X102.656 Y148.346 E0.05865
G1 X197.344 Y148.346 E5.87379
G1 X198.012 Y149.014 E0.05865
G1 X101.988 Y149.014 E5.95673
G1 X101.319 Y149.683 E0.05865
G1 X198.681 Y149.683 E6.03967
G1 X198.998 Y150 E0.02784
G1 X198.647 Y150.351 E0.03081
G1 X101.353 Y150.351 E6.03547
G1 X102.022 Y151.02 E0.05865
G1 X197.978 Y151.02 E5.95254
G1 X197.31 Y151.688 E0.05865
G1 X102.69 Y151.688 E5.8696
G1 X103.359 Y152.357 E0.05865
G1 X196.641 Y152.357 E5.78666
G1 X195.973 Y153.025 E0.05865
G1 X104.027 Y153.025 E5.70372
G1 X104.696 Y153.694 E0.05865
G1 X195.304 Y153.694 E5.62078
G1 X194.636 Y154.362 E0.05865
G1 X105.364 Y154.362 E5.53784
G1 X106.033 Y155.031 E0.05865
G1 X193.967 Y155.031 E5.45491
G1 X193.299 Y155.699 E0.05865
G1 X106.701 Y155.699 E5.37197
G1 X107.37 Y156.368 E0.05865
G1 X192.63 Y156.368 E5.28903
G1 X191.962 Y157.036 E0.05865
G1 X108.038 Y157.036 E5.20609
G1 X108.707 Y157.705 E0.05865
G1 X191.293 Y157.705 E5.12315
G1 X190.625 Y158.373 E0.05865
G1 X109.375 Y158.373 E5.04021
G1 X110.044 Y159.042 E0.05865
G1 X189.956 Y159.042 E4.95728
G1 X189.288 Y159.71 E0.05865
G1 X110.712 Y159.71 E4.87434
G1 X111.381 Y160.379 E0.05865
G1 X188.619 Y160.379 E4.7914
G1 X187.951 Y161.047 E0.05865
G1 X112.049 Y161.047 E4.70846
G1 X112.718 Y161.716 E0.05865
G1 X187.282 Y161.716 E4.62552
G1 X186.614 Y162.384 E0.05865
G1 X113.386 Y162.384 E4.54259
G1 X114.055 Y163.053 E0.05865
G1 X185.945 Y163.053 E4.45965
G1 X185.277 Y163.721 E0.05865
G1 X114.723 Y163.721 E4.37671
G1 X115.392 Y164.39 E0.05865
G1 X184.608 Y164.39 E4.29377
G1 X183.94 Y165.058 E0.05865
G1 X116.06 Y165.058 E4.21083
G1 X116.729 Y165.727 E0.05865
G1 X183.271 Y165.727 E4.12789
G1 X182.603 Y166.395 E0.05865
G1 X117.397 Y166.395 E4.04496
G1 X118.066 Y167.064 E0.05865
G1 X181.934 Y167.064 E3.96202
G1 X181.266 Y167.732 E0.05865
G1 X118.734 Y167.732 E3.87908
G1 X119.403 Y168.401 E0.05865
G1 X180.597 Y168.401 E3.79614
G1 X179.929 Y169.069 E0.05865
G1 X120.071 Y169.069 E3.7132
G1 X120.74 Y169.738 E0.05865
G1 X179.26 Y169.738 E3.63026
G1 X178.592 Y170.406 E0.05865
G1 X121.408 Y170.406 E3.54733
G1 X122.077 Y171.074 E0.05865
G1 X177.923 Y171.074 E3.46439
G1 X177.255 Y171.743 E0.05865
G1 X122.745 Y171.743 E3.38145
G1 X123.413 Y172.411 E0.05865
G1 X176.587 Y172.411 E3.29851
G1 X175.918 Y173.08 E0.05865
G1 X124.082 Y173.08 E3.21557
G1 X124.75 Y173.748 E0.05865
G1 X175.25 Y173.748 E3.13263
G1 X174.581 Y174.417 E0.05865
G1 X125.419 Y174.417 E3.0497
G1 X126.087 Y175.085 E0.05865
G1 X173.913 Y175.085 E2.96676
G1 X173.244 Y175.754 E0.05865
G1 X126.756 Y175.754 E2.88382
G1 X127.424 Y176.422 E0.05865
G1 X172.576 Y176.422 E2.80088
G1 X171.907 Y177.091 E0.05865
G1 X128.093 Y177.091 E2.71794
G1 X128.761 Y177.759 E0.05865
G1 X171.239 Y177.759 E2.63501
G1 X170.57 Y178.428 E0.05865
G1 X129.43 Y178.428 E2.55207
G1 X130.098 Y179.096 E0.05865
G1 X169.902 Y179.096 E2.46913
G1 X169.233 Y179.765 E0.05865
G1 X130.767 Y179.765 E2.38619
G1 X131.435 Y180.433 E0.05865
G1 X168.565 Y180.433 E2.30325
G1 X167.896 Y181.102 E0.05865
G1 X132.104 Y181.102 E2.22031
G1 X132.772 Y181.77 E0.05865
G1 X167.228 Y181.77 E2.13738
G1 X166.559 Y182.439 E0.05865
G1 X133.441 Y182.439 E2.05444
G1 X134.109 Y183.107 E0.05865
G1 X165.891 Y183.107 E1.9715
G1 X165.222 Y183.776 E0.05865
G1 X134.778 Y183.776 E1.88856
G1 X135.446 Y184.444 E0.05865
G1 X164.554 Y184.444 E1.80562
G1 X163.885 Y185.113 E0.05865
G1 X136.115 Y185.113 E1.72268
G1 X136.783 Y185.781 E0.05865
G1 X163.217 Y185.781 E1.63975
G1 X162.548 Y186.45 E0.05865
G1 X137.452 Y186.45 E1.55681
G1 X138.12 Y187.118 E0.05865
G1 X161.88 Y187.118 E1.47387
G1 X161.211 Y187.787 E0.05865
G1 X138.789 Y187.787 E1.39093
G1 X139.457 Y188.455 E0.05865
G1 X160.543 Y188.455 E1.30799
G1 X159.874 Y189.124 E0.05865
G1 X140.126 Y189.124 E1.22505
G1 X140.794 Y189.792 E0.05865
G1 X159.206 Y189.792 E1.14212
G1 X158.537 Y190.461 E0.05865
G1 X141.463 Y190.461 E1.05918
G1 X142.131 Y191.129 E0.05865
G1 X157.869 Y191.129 E0.97624
G1 X157.2 Y191.798 E0.05865
G1 X142.8 Y191.798 E0.8933
G1 X143.468 Y192.466 E0.05865
G1 X156.532 Y192.466 E0.81036
G1 X155.863 Y193.135 E0.05865
G1 X144.137 Y193.135 E0.72743
G1 X144.805 Y193.803 E0.05865
G1 X155.195 Y193.803 E0.64449
G1 X154.526 Y194.472 E0.05865
G1 X145.474 Y194.472 E0.56155
G1 X146.142 Y195.14 E0.05865
G1 X153.858 Y195.14 E0.47861
G1 X153.189 Y195.809 E0.05865
G1 X146.811 Y195.809 E0.39567
G1 X147.479 Y196.477 E0.05865
G1 X152.521 Y196.477 E0.31273
G1 X151.852 Y197.146 E0.05865
G1 X148.148 Y197.146 E0.2298
G1 X148.816 Y197.814 E0.05865
G1 X151.184 Y197.814 E0.14686
G1 X150.515 Y198.483 E0.05865
G1 X149.078 Y198.483 E0.08914
;LAYER_CHANGE
;Z:0.34
;HEIGHT:0.1
;BEFORE_LAYER_CHANGE
;0.34


; stop printing object Shape-Box id:0 copy 0
EXCLUDE_OBJECT_END NAME=Shape_Box_id_0_copy_0
G1 Z0.34 F24000
;AFTER_LAYER_CHANGE
;0.34
G92 E0
M104 S230 ; set temperature
; printing object Shape-Box id:0 copy 0
EXCLUDE_OBJECT_START NAME=Shape_Box_id_0_copy_0
M204 S3000
G1 X150 Y198.852
;TYPE:Internal perimeter
;WIDTH:0.675
G1 F18000
G1 X101.148 Y150 E1.74576
G1 X150 Y101.148 E1.74576
G1 X198.852 Y150 E1.74576
G1 X150.064 Y198.788 E1.74348
G1 X150 Y199.776 F24000
G1 F18000
G1 X100.224 Y150 E1.77878
G1 X150 Y100.224 E1.77878
G1 X199.776 Y150 E1.77878
G1 X150.064 Y199.712 E1.77651
G1 X150 Y200.7 F24000
G1 F18000
G1 X99.3 Y150 E1.81181
G1 X150 Y99.3 E1.81181
G1 X200.7 Y150 E1.81181
G1 X150.064 Y200.637 E1.80954
G1 X150 Y201.624 F24000
G1 F18000
G1 X98.376 Y150 E1.84484
G1 X150 Y98.376 E1.84484
G1 X201.624 Y150 E1.84484
G1 X150.064 Y201.561 E1.84257
G1 X150 Y202.517 F24000
;TYPE:External perimeter
;WIDTH:0.63
G1 F9000
G1 X97.483 Y150 E1.74751
G1 X97.595 Y149.889 E0.00331
G1 X97.817 Y149.666 E0.00701
G1 X150 Y97.483 E1.73639
G1 X150.111 Y97.595 E0.00331
G1 X150.334 Y97.817 E0.00701
G1 X202.517 Y150 E1.73639
G1 X202.405 Y150.111 E0.00331
G1 X202.183 Y150.334 E0.00701
G1 X150.064 Y202.453 E1.73427
;WIPE_START
M204 S5000
G1 X149.845 Y201.937 F24000
;WIPE_END
G1 X197.578 Y151.17
;TYPE:Solid infill
;WIDTH:0.84
G1 F20524.352
G1 X197.578 Y149.328 E0.0583
G1 X196.76 Y148.509 E0.03664
G1 X196.76 Y151.491 E0.09436
G1 X195.941 Y152.309 E0.03664
G1 X195.941 Y147.691 E0.14617
G1 X195.122 Y146.872 E0.03664
G1 X195.122 Y153.128 E0.19798
G1 X194.304 Y153.946 E0.03664
G1 X194.304 Y146.054 E0.2498
G1 X193.485 Y145.235 E0.03664
G1 X193.485 Y154.765 E0.30161
G1 X192.667 Y155.583 E0.03664
G1 X192.667 Y144.417 E0.35342
