; generated by SuperSlicer 2.5.59 on 2023-08-18 at 01:59:46 UTC


;
;

;
;
; 

; external perimeters extrusion width = 0.50mm
; perimeters extrusion width = 0.50mm
; infill extrusion width = 0.75mm
; solid infill extrusion width = 0.65mm
; top infill extrusion width = 0.60mm
; first layer extrusion width = 0.60mm

; object:{"name":"YACS","id":"YACS.stl id:0 copy 0","object_center":[150.000000,150.000000,0.000000],"boundingbox_center":[150.000000,150.000000,2.500000],"boundingbox_size":[141.421356,141.421356,5.000000]}
EXCLUDE_OBJECT_DEFINE NAME=YACS_stl_id_0_copy_0 CENTER=150.000000,150.000000 POLYGON=[[79.289320,147.171568],[147.171568,79.289320],[152.828432,79.289320],[220.710672,147.171568],[220.710672,152.828432],[152.828432,220.710672],[147.171568,220.710672],[79.289320,152.828432],[79.289320,147.171568]]
; plater:{"center":[150.000000,150.000000,0.000000],"boundingbox_center":[150.000000,150.000000,2.500000],"boundingbox_size":[141.421356,141.421356,5.000000]}

;TYPE:Custom
PRINT_START EXTRUDER=260 BED=110 AREA_START=72.1824,72.1824 AREA_END=227.818,227.818
M107
G21 ; set units to millimeters
G90 ; use absolute coordinates
M83 ; use relative distances for extrusion
SET_PRESSURE_ADVANCE SMOOTH_TIME=0.02
SET_PRESSURE_ADVANCE ADVANCE=0.022
;_TOOLCHANGE 0
M104 S260 ; set temperature
M109 S260 ; set temperature and wait for it to be reached
M190 S110 ; set bed temperature and wait for it to be reached
M107
;LAYER_CHANGE
;Z:0.2
;HEIGHT:0.2
;BEFORE_LAYER_CHANGE
TIMELAPSE_TAKE_FRAME
;0.2


G1 Z0.2 F36000
;AFTER_LAYER_CHANGE
;0.2
G92 E0
G1 E-0.8 F3600
G1 Z0.3 F36000
M204 S5000
G1 X108.782 Y108.782
G1 Z0.2
G1 E0.8 F3600
;TYPE:Skirt
;WIDTH:0.6
G1 F1800
G1 X74.478 Y143.086 E2.00001
G1 X73.331 Y144.713 E0.08204
G1 X72.784 Y146.793 E0.08869
G1 X72.739 Y147.619 E0.0341
G1 X72.784 Y153.207 E0.23036
G1 X73.263 Y155.138 E0.08204
G1 X74.478 Y156.914 E0.08869
G1 X143.086 Y225.522 E4.00001
G1 X144.713 Y226.669 E0.08204
G1 X146.793 Y227.216 E0.08869
G1 X147.619 Y227.261 E0.0341
G1 X153.207 Y227.216 E0.23036
G1 X155.138 Y226.737 E0.08204
G1 X156.914 Y225.522 E0.08869
G1 X225.522 Y156.914 E4.00001
G1 X226.669 Y155.287 E0.08204
G1 X227.216 Y153.207 E0.08869
G1 X227.261 Y152.381 E0.0341
G1 X227.216 Y146.793 E0.23036
G1 X226.737 Y144.862 E0.08204
G1 X225.522 Y143.086 E0.08869
G1 X156.914 Y74.478 E4.00001
G1 X155.287 Y73.331 E0.08204
G1 X153.207 Y72.784 E0.08869
G1 X152.8 Y72.755 E0.01681
G1 X146.793 Y72.784 E0.24765
G1 X144.862 Y73.263 E0.08204
G1 X143.086 Y74.478 E0.08869
G1 X108.835 Y108.729 E1.99691
G1 X109.229 Y109.123 F36000
G1 F1800
G1 X74.872 Y143.48 E2.0031
G1 X73.879 Y144.86 E0.07011
G1 X73.339 Y146.833 E0.08432
G1 X73.297 Y147.619 E0.03245
G1 X73.339 Y153.167 E0.22871
G1 X73.733 Y154.821 E0.07011
G1 X74.872 Y156.52 E0.08432
G1 X143.48 Y225.128 E4.00001
G1 X144.86 Y226.121 E0.07011
G1 X146.833 Y226.661 E0.08432
G1 X147.619 Y226.703 E0.03245
G1 X153.167 Y226.661 E0.22871
G1 X154.821 Y226.267 E0.07011
G1 X156.52 Y225.128 E0.08432
G1 X225.128 Y156.52 E4.00001
G1 X226.121 Y155.14 E0.07011
G1 X226.661 Y153.167 E0.08432
G1 X226.703 Y152.381 E0.03245
G1 X226.661 Y146.833 E0.22871
G1 X226.267 Y145.179 E0.07011
G1 X225.128 Y143.48 E0.08432
G1 X156.52 Y74.872 E4.00001
G1 X155.14 Y73.879 E0.07011
G1 X153.167 Y73.339 E0.08432
G1 X152.76 Y73.31 E0.01681
G1 X146.833 Y73.339 E0.24435
G1 X145.179 Y73.733 E0.07011
G1 X143.48 Y74.872 E0.08432
G1 X109.282 Y109.07 E1.99382
G1 E-0.08 F3600
;WIPE_START
G1 F28800
M204 S10000
G1 X113.355 Y104.997 E-0.684
;WIPE_END
G1 E-0.036 F3600
G1 Z0.3 F36000
; printing object YACS.stl id:0 copy 0
EXCLUDE_OBJECT_START NAME=YACS_stl_id_0_copy_0
; acceleration to travel
G1 X144.422 Y88.528
; decel to extrusion
M204 S5000
G1 X150.028 Y85.556
; end travel
G1 Z0.2
G1 E0.8 F3600
;TYPE:Internal perimeter
G1 F1800
G1 X150 Y85.568 E0.00126
G1 X148.035 Y84.754 E0.08769
G1 X86.085 Y146.704 E3.61184
G1 X84.754 Y148.035 E0.07761
G1 X85.568 Y150 E0.08769
G1 X84.754 Y151.965 E0.08769
G1 X148.035 Y215.246 E3.68945
G1 X150 Y214.432 E0.08769
G1 X151.965 Y215.246 E0.08769
G1 X215.246 Y151.965 E3.68945
G1 X214.432 Y150 E0.08769
G1 X215.246 Y148.035 E0.08769
G1 X151.965 Y84.754 E3.68945
G1 X150.098 Y85.527 E0.08334
G1 X149.887 Y86.124 F36000
G1 F1800
G1 X148.165 Y85.411 E0.07684
G1 X86.479 Y147.098 E3.59649
G1 X85.411 Y148.166 E0.06226
G1 X86.171 Y150 E0.08186
G1 X85.411 Y151.834 E0.08186
G1 X148.165 Y214.589 E3.65875
G1 X150 Y213.829 E0.08186
G1 X151.835 Y214.589 E0.08186
G1 X214.589 Y151.834 E3.65875
G1 X213.829 Y150 E0.08186
G1 X214.589 Y148.166 E0.08186
G1 X151.835 Y85.411 E3.65875
G1 X150 Y86.171 E0.08186
G1 X149.957 Y86.153 E0.00193
G1 E-0.08 F3600
;WIPE_START
G1 F28800
M204 S10000
G1 X150 Y86.171 E-0.00555
G1 X151.835 Y85.411 E-0.2358
G1 X154.47 Y88.047 E-0.44265
;WIPE_END
G1 E-0.036 F3600
G1 Z0.3 F36000
; acceleration to travel
G1 X204.795 Y142.021
; decel to extrusion
M204 S5000
G1 X213.876 Y151.76
; end travel
G1 Z0.2
G1 E0.8 F3600
G1 F1800
G1 X213.932 Y151.704 E0.00329
G1 X213.443 Y150.522 E0.05273
G1 X212.304 Y150.522 E0.04692
G1 X150.522 Y150.533 E2.54704
G1 X150.522 Y213.443 E2.59351
G1 X151.704 Y213.932 E0.05273
G1 X213.823 Y151.813 E3.62168
G1 X213.275 Y151.573 F36000
;TYPE:External perimeter
G1 F1800
G1 X213.07 Y151.079 E0.02204
G1 X212.305 Y151.079 E0.03157
G1 X151.079 Y151.09 E2.52407
G1 X151.079 Y213.07 E2.5552
G1 X151.573 Y213.275 E0.02204
G1 X213.222 Y151.626 E3.59428
;WIPE_START
M204 S10000
G1 X213.708 Y151.323 F36000
;WIPE_END
G1 E-0.08 F3600
;WIPE_START
G1 F28800
G1 X213.237 Y150.829 E-0.08101
G1 X212.304 Y150.829 E-0.11078
G1 X208.16 Y150.83 E-0.4922
;WIPE_END
G1 E-0.036 F3600
G1 Z0.3 F36000
; acceleration to travel
G1 X213.002 Y148.636
; decel to extrusion
M204 S5000
G1 X213.876 Y148.24
; end travel
G1 Z0.2
G1 E0.8 F3600
;TYPE:Internal perimeter
G1 F1800
G1 X151.704 Y86.068 E3.62477
G1 X151.215 Y86.27 E0.0218
G1 X150.522 Y86.557 E0.03093
G1 X150.522 Y149.467 E2.59351
G1 X213.443 Y149.478 E2.59396
G1 X213.932 Y148.296 E0.05273
G1 X213.929 Y148.293 E0.0002
G1 X213.275 Y148.427 F36000
;TYPE:External perimeter
G1 F1800
G1 X151.573 Y86.725 E3.59737
G1 X151.428 Y86.785 E0.00645
G1 X151.079 Y86.93 E0.01558
G1 X151.079 Y148.91 E2.5552
G1 X213.07 Y148.921 E2.55565
G1 X213.246 Y148.496 E0.01895
;WIPE_START
M204 S10000
G1 X213.579 Y148.03 F36000
;WIPE_END
G1 E-0.08 F3600
;WIPE_START
G1 F28800
G1 X209.495 Y143.969 E-0.684
;WIPE_END
G1 E-0.036 F3600
G1 Z0.3 F36000
; acceleration to travel
G1 X158.652 Y95.401
; decel to extrusion
M204 S5000
G1 X149.478 Y86.637
; end travel
G1 Z0.2
G1 E0.8 F3600
;TYPE:Internal perimeter
G1 F1800
G1 X149.478 Y86.557 E0.00329
G1 X148.296 Y86.068 E0.05273
G1 X86.873 Y147.492 E3.58115
G1 X86.068 Y148.296 E0.04691
G1 X86.557 Y149.478 E0.05273
G1 X149.478 Y149.467 E2.59396
G1 X149.478 Y86.712 E2.58713
G1 X148.921 Y86.93 F36000
;TYPE:External perimeter
G1 F1800
G1 X148.427 Y86.725 E0.02204
G1 X87.266 Y147.885 E3.5658
G1 X86.725 Y148.427 E0.03157
G1 X86.93 Y148.921 E0.02204
G1 X148.921 Y148.91 E2.55565
G1 X148.921 Y87.005 E2.55211
;WIPE_START
M204 S10000
G1 X149.05 Y86.447 F36000
;WIPE_END
G1 E-0.08 F3600
;WIPE_START
G1 F28800
G1 X148.368 Y86.43 E-0.081
G1 X144.778 Y90.021 E-0.603
;WIPE_END
G1 E-0.036 F3600
G1 Z0.3 F36000
; acceleration to travel
G1 X148.759 Y194.508
; decel to extrusion
M204 S5000
G1 X149.478 Y213.363
; end travel
G1 Z0.2
G1 E0.8 F3600
;TYPE:Internal perimeter
G1 F1800
G1 X149.478 Y150.533 E2.59022
G1 X86.557 Y150.522 E2.59396
G1 X86.068 Y151.704 E0.05273
G1 X148.296 Y213.932 E3.62806
G1 X149.478 Y213.443 E0.05273
G1 X149.478 Y213.438 E0.0002
G1 X148.921 Y213.07 F36000
;TYPE:External perimeter
G1 F1800
G1 X148.921 Y151.09 E2.5552
G1 X86.93 Y151.079 E2.55565
G1 X86.725 Y151.573 E0.02204
G1 X148.427 Y213.275 E3.59737
G1 X148.851 Y213.099 E0.01895
;WIPE_START
M204 S10000
G1 X149.416 Y213.005 F36000
;WIPE_END
G1 E-0.08 F3600
;WIPE_START
G1 F28800
G1 X149.394 Y207.245 E-0.684
;WIPE_END
G1 E-0.036 F3600
G1 Z0.3 F36000
; acceleration to travel
G1 X149.907 Y100.694
; decel to extrusion
M204 S5000
G1 X150 Y81.467
; end travel
G1 Z0.2
G1 E0.8 F3600
;TYPE:Internal perimeter
G1 F1800
G1 X150.28 Y81.776 E0.0172
G1 X150.664 Y82.168 E0.0226
G1 X217.475 Y148.98 E3.89528
G1 X218.22 Y149.717 E0.0432
G1 X218.533 Y150 E0.0174
G1 X218.224 Y150.28 E0.0172
G1 X217.832 Y150.664 E0.0226
G1 X151.02 Y217.475 E3.89528
G1 X150.283 Y218.22 E0.0432
G1 X150 Y218.533 E0.0174
G1 X149.72 Y218.224 E0.0172
G1 X149.336 Y217.832 E0.0226
G1 X82.525 Y151.02 E3.89528
G1 X81.78 Y150.283 E0.0432
G1 X81.467 Y150 E0.0174
G1 X81.78 Y149.717 E0.0174
G1 X82.525 Y148.979 E0.04322
G1 X148.979 Y82.525 E3.87445
G1 X149.717 Y81.78 E0.04322
G1 X149.95 Y81.523 E0.01431
G1 X150 Y80.638 F36000
G1 F1800
G1 X150.686 Y81.394 E0.04209
G1 X151.06 Y81.776 E0.02203
G1 X217.868 Y148.585 E3.8951
G1 X218.603 Y149.312 E0.04263
G1 X219.362 Y150 E0.04223
G1 X218.606 Y150.686 E0.04209
G1 X218.224 Y151.06 E0.02203
G1 X151.415 Y217.868 E3.8951
G1 X150.688 Y218.603 E0.04263
G1 X150 Y219.362 E0.04223
G1 X149.314 Y218.606 E0.04209
G1 X148.94 Y218.224 E0.02203
G1 X82.132 Y151.415 E3.8951
G1 X81.397 Y150.688 E0.04263
G1 X80.638 Y150 E0.04223
G1 X81.397 Y149.312 E0.04223
G1 X82.132 Y148.584 E0.04265
G1 X148.584 Y82.132 E3.87434
G1 X149.312 Y81.397 E0.04265
G1 X149.95 Y80.693 E0.03914
G1 X150.049 Y79.863 F36000
G1 F1800
G1 X151.091 Y81.012 E0.06395
G1 X151.456 Y81.384 E0.02147
G1 X218.261 Y148.19 E3.89493
G1 X218.987 Y148.907 E0.04207
G1 X220.192 Y150 E0.06707
G1 X218.988 Y151.091 E0.06698
G1 X218.616 Y151.456 E0.02147
G1 X151.81 Y218.261 E3.89493
G1 X151.093 Y218.987 E0.04207
G1 X150 Y220.192 E0.06707
G1 X148.909 Y218.988 E0.06698
G1 X148.544 Y218.616 E0.02147
G1 X81.739 Y151.81 E3.89493
G1 X81.013 Y151.093 E0.04207
G1 X79.808 Y150 E0.06707
G1 X81.013 Y148.907 E0.06707
G1 X81.739 Y148.19 E0.04208
G1 X148.19 Y81.739 E3.87423
G1 X148.907 Y81.013 E0.04208
G1 X149.999 Y79.809 E0.06701
G1 X150.891 Y79.961 F36000
;TYPE:External perimeter
G1 F1800
G1 X151.497 Y80.63 E0.03719
G1 X151.852 Y80.992 E0.02091
G1 X218.654 Y147.795 E3.89474
G1 X219.37 Y148.503 E0.04151
G1 X220.039 Y149.109 E0.03722
G1 X220.509 Y148.483 E0.03229
G1 X221.125 Y147.867 E0.0359
G1 X221.125 Y148.551 E0.0282
G1 X221.061 Y149.018 E0.01944
G1 X221.032 Y149.513 E0.02043
G1 X221.026 Y150 E0.02007
G1 X221.032 Y150.487 E0.02007
G1 X221.061 Y150.982 E0.02043
G1 X221.125 Y151.449 E0.01944
G1 X221.125 Y152.133 E0.0282
G1 X220.509 Y151.517 E0.0359
G1 X220.039 Y150.891 E0.03229
G1 X219.37 Y151.497 E0.03719
G1 X219.008 Y151.852 E0.02091
G1 X152.205 Y218.654 E3.89474
G1 X151.497 Y219.37 E0.04151
G1 X150.891 Y220.039 E0.03722
G1 X151.517 Y220.509 E0.03229
G1 X152.133 Y221.125 E0.0359
G1 X151.449 Y221.125 E0.0282
G1 X150.982 Y221.061 E0.01944
G1 X150.487 Y221.032 E0.02043
G1 X150 Y221.026 E0.02007
G1 X149.513 Y221.032 E0.02007
G1 X149.018 Y221.061 E0.02043
G1 X148.551 Y221.125 E0.01944
G1 X147.867 Y221.125 E0.0282
G1 X148.483 Y220.509 E0.0359
G1 X149.109 Y220.039 E0.03229
G1 X148.503 Y219.37 E0.03719
G1 X148.148 Y219.008 E0.02091
G1 X81.346 Y152.205 E3.89474
G1 X80.63 Y151.497 E0.04151
G1 X79.961 Y150.891 E0.03722
G1 X79.491 Y151.517 E0.03229
G1 X78.875 Y152.133 E0.0359
G1 X78.875 Y151.449 E0.0282
G1 X78.939 Y150.982 E0.01944
G1 X78.968 Y150.487 E0.02043
G1 X78.974 Y150 E0.02007
G1 X78.968 Y149.513 E0.02007
G1 X78.939 Y149.018 E0.02043
G1 X78.875 Y148.551 E0.01944
G1 X78.875 Y147.867 E0.0282
G1 X79.491 Y148.483 E0.0359
G1 X79.961 Y149.109 E0.03229
G1 X80.63 Y148.503 E0.03722
G1 X81.346 Y147.795 E0.04151
G1 X147.795 Y81.346 E3.87411
G1 X148.503 Y80.63 E0.04151
G1 X149.109 Y79.961 E0.03722
G1 X148.483 Y79.491 E0.03229
G1 X147.867 Y78.875 E0.0359
G1 X148.551 Y78.875 E0.0282
G1 X149.018 Y78.939 E0.01944
G1 X149.513 Y78.968 E0.02043
G1 X150 Y78.974 E0.02007
G1 X150.487 Y78.968 E0.02007
G1 X150.982 Y78.939 E0.02043
G1 X151.449 Y78.875 E0.01944
G1 X152.133 Y78.875 E0.0282
G1 X151.517 Y79.491 E0.0359
G1 X150.951 Y79.916 E0.0292
;WIPE_START
M204 S10000
G1 X150.51 Y80.286 F36000
;WIPE_END
M204 S5000
G1 X151.086 Y79.493
;TYPE:Gap fill
;WIDTH:0.716983
G1 F1800
G1 X150.989 Y79.508 E0.0049
;WIDTH:0.656482
G1 X150.803 Y79.524 E0.00846
;WIDTH:0.602426
G1 X150.657 Y79.529 E0.00608
;WIDTH:0.662057
G1 X150.516 Y79.534 E0.00643
;WIDTH:0.623569
G1 X150.394 Y79.48 E0.00573
;WIDTH:0.488847
G1 X150.241 Y79.413 E0.00551
;WIDTH:0.308338
G1 X150.089 Y79.345 E0.00328
G1 X149.911 Y79.345 E0.00349
G1 X149.809 Y79.39 E0.00219
;WIDTH:0.437272
G1 X149.657 Y79.458 E0.00488
;WIDTH:0.591994
G1 X149.504 Y79.526 E0.00679
;WIDTH:0.667647
G1 X149.343 Y79.529 E0.00742
;WIDTH:0.602885
G1 X149.203 Y79.525 E0.00582
;WIDTH:0.64579
G1 X149.046 Y79.513 E0.00702
;WIDTH:0.712277
G1 X148.914 Y79.493 E0.00662
G1 E-0.08 F3600
;WIPE_START
G1 F28800
M204 S10000
G1 X149.046 Y79.513 E-0.01586
G1 X149.203 Y79.525 E-0.01868
G1 X149.343 Y79.529 E-0.01666
G1 X149.504 Y79.526 E-0.01907
G1 X149.657 Y79.458 E-0.01984
G1 X149.809 Y79.39 E-0.01984
G1 X149.911 Y79.345 E-0.01323
G1 X150.089 Y79.345 E-0.02108
G1 X150.241 Y79.413 E-0.01984
G1 X150.394 Y79.48 E-0.01984
G1 X150.516 Y79.534 E-0.01584
G1 X150.657 Y79.529 E-0.01667
G1 X150.803 Y79.524 E-0.01743
G1 X150.989 Y79.508 E-0.02214
G1 X151.086 Y79.493 E-0.01168
;WIPE_END
G1 E-0.45232 F3600
G1 Z0.3 F36000
M204 S5000
G1 X150.782 Y82.396
G1 Z0.2
G1 E0.8 F3600
;TYPE:Solid infill
;WIDTH:0.6
G1 F3000
G1 X149.528 Y82.396 E0.0517
G1 X148.971 Y82.953 E0.03248
G1 X151.001 Y82.953 E0.08368
G1 X151.558 Y83.51 E0.03249
G1 X148.414 Y83.51 E0.12962
G1 X147.898 Y84.026 E0.03006
G1 X147.936 Y84.067 E0.0023
G1 X152.065 Y84.067 E0.17022
G1 X151.64 Y84.539 E0.02614
G1 X151.433 Y84.624 E0.00923
G1 X148.567 Y84.624 E0.11819
G1 X149.912 Y85.181 E0.06001
G1 X150.714 Y85.181 E0.0331
G1 X150 Y86.449 F36000
;TYPE:Gap fill
;WIDTH:0.573402
G1 F1800
G1 X150 Y213.551 E4.98975
G1 E-0.08 F3600
;WIPE_START
G1 F28800
M204 S10000
G1 X150 Y207.791 E-0.684
;WIPE_END
G1 E-0.036 F3600
G1 Z0.3 F36000
; acceleration to travel
G1 X148.44 Y214.172
; decel to extrusion
M204 S5000
G1 X148.157 Y215.328
; end travel
G1 Z0.2
G1 E0.8 F3600
;TYPE:Solid infill
;WIDTH:0.6
G1 F3000
G1 X151.319 Y215.328 E0.13033
G1 X151.64 Y215.461 E0.01434
G1 X152.022 Y215.885 E0.02351
G1 X147.978 Y215.885 E0.16669
G1 X147.898 Y215.974 E0.00493
G1 X148.366 Y216.442 E0.02729
G1 X151.634 Y216.442 E0.1347
G1 X151.077 Y217 E0.03248
G1 X148.923 Y217 E0.08877
G1 X149.48 Y217.557 E0.03248
G1 X150.858 Y217.557 E0.0568
G1 E-0.08 F3600
;WIPE_START
G1 F28800
M204 S10000
G1 X149.48 Y217.557 E-0.16361
G1 X148.923 Y217 E-0.09355
G1 X151.077 Y217 E-0.25569
G1 X151.634 Y216.442 E-0.09355
G1 X150.98 Y216.442 E-0.07759
;WIPE_END
G1 E-0.036 F3600
G1 Z0.3 F36000
M204 S5000
G1 X152.178 Y215.659
G1 Z0.2
G1 E0.8 F3600
;TYPE:Gap fill
;WIDTH:0.371341
G1 F1800
G1 X152.259 Y215.586 E0.00265
;WIDTH:0.437402
G1 X152.34 Y215.513 E0.00319
G1 X215.513 Y152.341 E2.60812
G1 X215.586 Y152.259 E0.00319
;WIDTH:0.371624
G1 X215.66 Y152.178 E0.00266
G1 E-0.08 F3600
;WIPE_START
G1 F28800
M204 S10000
G1 X215.586 Y152.259 E-0.01298
G1 X215.513 Y152.341 E-0.01298
G1 X211.595 Y156.259 E-0.65805
;WIPE_END
G1 E-0.036 F3600
G1 Z0.3 F36000
; acceleration to travel
G1 X213.252 Y150.957
; decel to extrusion
M204 S5000
G1 X213.551 Y150
; end travel
G1 Z0.2
G1 E0.8 F3600
;WIDTH:0.573198
G1 F1800
G1 X86.449 Y150 E4.98782
G1 E-0.08 F3600
;WIPE_START
G1 F28800
M204 S10000
G1 X92.209 Y150 E-0.684
;WIPE_END
G1 E-0.036 F3600
G1 Z0.3 F36000
; acceleration to travel
G1 X85.543 Y148.155
; decel to extrusion
M204 S5000
G1 X84.341 Y147.822
; end travel
G1 Z0.2
G1 E0.8 F3600
;WIDTH:0.371345
G1 F1800
G1 X84.414 Y147.741 E0.00265
;WIDTH:0.437066
G1 X84.487 Y147.66 E0.00318
G1 X147.66 Y84.487 E2.6059
G1 X147.741 Y84.414 E0.00318
;WIDTH:0.371335
G1 X147.822 Y84.341 E0.00265
G1 E-0.08 F3600
;WIPE_START
G1 F28800
M204 S10000
G1 X147.741 Y84.414 E-0.01297
G1 X147.66 Y84.487 E-0.01297
G1 X143.741 Y88.405 E-0.65807
;WIPE_END
G1 E-0.036 F3600
G1 Z0.3 F36000
; acceleration to travel
G1 X150.888 Y84.962
; decel to extrusion
M204 S5000
G1 X152.178 Y84.341
; end travel
G1 Z0.2
G1 E0.8 F3600
;WIDTH:0.371613
G1 F1800
G1 X152.259 Y84.414 E0.00266
