; generated by SuperSlicer 2.5.59 on 2023-06-14 at 07:15:22 UTC


;
;

;
;
; 

; external perimeters extrusion width = 0.50mm
; perimeters extrusion width = 0.50mm
; infill extrusion width = 0.75mm
; solid infill extrusion width = 0.65mm
; top infill extrusion width = 0.60mm
; support material extrusion width = 0.50mm
; first layer extrusion width = 0.60mm

; external perimeters extrusion width = 0.50mm
; perimeters extrusion width = 0.50mm
; infill extrusion width = 0.75mm
; solid infill extrusion width = 0.65mm
; top infill extrusion width = 0.60mm
; support material extrusion width = 0.50mm
; first layer extrusion width = 0.60mm

; external perimeters extrusion width = 0.50mm
; perimeters extrusion width = 0.50mm
; infill extrusion width = 0.75mm
; solid infill extrusion width = 0.65mm
; top infill extrusion width = 0.60mm
; support material extrusion width = 0.50mm
; first layer extrusion width = 0.60mm

; external perimeters extrusion width = 0.50mm
; perimeters extrusion width = 0.50mm
; infill extrusion width = 0.75mm
; solid infill extrusion width = 0.65mm
; top infill extrusion width = 0.60mm
; support material extrusion width = 0.50mm
; first layer extrusion width = 0.60mm

; object:{"name":"3d_benchy_holder_-_wall_mount","id":"3d_benchy_holder_-_wall_mount.stl id:0 copy 0","object_center":[149.981042,150.018959,0.000000],"boundingbox_center":[149.981042,150.018959,10.000500],"boundingbox_size":[136.469489,136.469489,20.000999]}
EXCLUDE_OBJECT_DEFINE NAME=3d_benchy_holder___wall_mount_stl_id_0_copy_0 CENTER=149.981042,150.018959 POLYGON=[[81.746296,102.288192],[83.335168,100.699328],[119.220832,81.784216],[133.362976,95.926352],[218.215792,180.779168],[199.300672,216.664832],[197.711808,218.253712],[93.388096,113.930000],[81.746296,102.288192]]
; object:{"name":"3d_benchy_holder_-_wall_mount","id":"3d_benchy_holder_-_wall_mount.stl id:1 copy 0","object_center":[180.384517,119.615483,0.000000],"boundingbox_center":[180.384517,119.615483,10.000500],"boundingbox_size":[136.469489,136.469489,20.000999]}
EXCLUDE_OBJECT_DEFINE NAME=3d_benchy_holder___wall_mount_stl_id_1_copy_0 CENTER=180.384517,119.615483 POLYGON=[[112.149768,71.884720],[113.738640,70.295848],[149.624304,51.380736],[163.766448,65.522872],[239.356160,141.112576],[248.619264,150.375680],[229.704144,186.261360],[228.115280,187.850224],[198.442240,158.177200],[141.191344,100.926304],[112.149768,71.884720]]
; object:{"name":"3d_benchy_holder_-_wall_mount","id":"3d_benchy_holder_-_wall_mount.stl id:2 copy 0","object_center":[119.577565,180.422433,0.000000],"boundingbox_center":[119.577565,180.422433,10.000500],"boundingbox_size":[136.469489,136.469489,20.000999]}
EXCLUDE_OBJECT_DEFINE NAME=3d_benchy_holder___wall_mount_stl_id_2_copy_0 CENTER=119.577565,180.422433 POLYGON=[[51.342820,132.691664],[52.931696,131.102800],[88.817360,112.187688],[117.101632,140.471952],[182.933280,206.303600],[187.812320,211.182656],[168.897200,247.068304],[167.308336,248.657184],[82.456936,163.805792],[80.535016,161.883872],[51.342820,132.691664]]
; object:{"name":"3d_benchy_holder_-_wall_mount","id":"3d_benchy_holder_-_wall_mount.stl id:3 copy 0","object_center":[210.787993,89.212008,0.000000],"boundingbox_center":[210.787993,89.212008,10.000500],"boundingbox_size":[136.469489,136.469489,20.000999]}
EXCLUDE_OBJECT_DEFINE NAME=3d_benchy_holder___wall_mount_stl_id_3_copy_0 CENTER=210.787993,89.212008 POLYGON=[[142.553248,41.481244],[144.142128,39.892372],[180.027808,20.977264],[274.143712,115.093168],[279.022752,119.972216],[260.107632,155.857888],[258.518768,157.446752],[229.173824,128.101824],[172.277184,71.205184],[142.553248,41.481244]]
; plater:{"center":[165.182779,134.817220,0.000000],"boundingbox_center":[165.182779,134.817220,10.000500],"boundingbox_size":[227.679917,227.679914,20.000999]}

;TYPE:Custom
PRINT_START EXTRUDER=280 BED=110 AREA_START=44.7676,14.4378 AREA_END=285.598,255.232
M107
G21 ; set units to millimeters
G90 ; use absolute coordinates
M83 ; use relative distances for extrusion
SET_PRESSURE_ADVANCE SMOOTH_TIME=0.02
SET_PRESSURE_ADVANCE ADVANCE=0.02
;_TOOLCHANGE 0
M104 S280 ; set temperature
M109 S280 ; set temperature and wait for it to be reached
M190 S110 ; set bed temperature and wait for it to be reached
M107
;LAYER_CHANGE
;Z:0.2
;HEIGHT:0.2
;BEFORE_LAYER_CHANGE
TIMELAPSE_TAKE_FRAME
;0.2


G1 Z0.2 F48000
;AFTER_LAYER_CHANGE
;0.2
G92 E0
G1 E-0.8 F3600
M204 S5000
G1 Z0.3 F48000
G1 X87.67 Y87.67
G1 Z0.2
G1 E0.8 F3600
;TYPE:Skirt
;WIDTH:0.6
G1 F1800
G1 X47.015 Y128.325 E2.42356
G1 X45.615 Y130.578 E0.11178
G1 X45.311 Y132.707 E0.09069
G1 X45.8 Y134.803 E0.09069
G1 X47.015 Y136.578 E0.09069
G1 X163.422 Y252.985 E6.93931
G1 X165.674 Y254.385 E0.11178
G1 X167.804 Y254.689 E0.09069
G1 X169.899 Y254.2 E0.09069
G1 X171.675 Y252.985 E0.09069
G1 X264.34 Y160.319 E5.52405
G1 X265.376 Y158.914 E0.07359
G1 X284.387 Y122.848 E1.71853
G1 X285.054 Y119.871 E0.12859
G1 X284.565 Y117.776 E0.09069
G1 X283.351 Y116 E0.09069
G1 X184 Y16.649 E5.92257
G1 X181.354 Y15.131 E0.12859
G1 X179.208 Y14.978 E0.09069
G1 X177.152 Y15.613 E0.09069
G1 X141.086 Y34.624 E1.71853
G1 X139.681 Y35.66 E0.07359
G1 X87.723 Y87.617 E3.09732
G1 X88.117 Y88.011 F48000
G1 F1800
G1 X47.409 Y128.719 E2.42672
G1 X46.248 Y130.473 E0.08863
G1 X45.863 Y132.481 E0.08621
G1 X46.27 Y134.485 E0.08621
G1 X47.409 Y136.184 E0.08621
G1 X163.816 Y252.591 E6.93931
G1 X165.569 Y253.752 E0.08863
G1 X167.578 Y254.137 E0.08621
G1 X169.582 Y253.73 E0.08621
G1 X171.281 Y252.591 E0.08621
G1 X263.947 Y159.925 E5.52405
G1 X264.884 Y158.654 E0.06657
G1 X283.894 Y122.588 E1.71853
G1 X284.503 Y120.097 E0.10808
G1 X284.095 Y118.093 E0.08621
G1 X282.957 Y116.394 E0.08621
G1 X183.606 Y17.043 E5.92257
G1 X181.407 Y15.725 E0.10808
G1 X179.372 Y15.521 E0.08621
G1 X177.412 Y16.106 E0.08621
G1 X141.346 Y35.116 E1.71853
G1 X140.075 Y36.053 E0.06657
G1 X88.17 Y87.958 E3.09416
G1 E-0.08 F3600
;WIPE_START
G1 F38400
G1 X93.601 Y82.527 E-0.684
;WIPE_END
G1 E-0.036 F3600
G1 Z0.3 F48000
; printing object 3d_benchy_holder_-_wall_mount.stl id:0 copy 0
EXCLUDE_OBJECT_START NAME=3d_benchy_holder___wall_mount_stl_id_0_copy_0
G1 X150.593 Y167.52
G1 Z0.2
G1 E0.8 F3600
;TYPE:Internal perimeter
G1 F1800
G1 X150.501 Y167.429 E0.00545
G1 X175.919 Y142.011 E1.51523
G1 X177.106 Y143.198 E0.07073
G1 X172.452 Y147.851 E0.27739
G1 X171.693 Y148.827 E0.05215
G1 X171.228 Y149.835 E0.04676
G1 X170.913 Y151.001 E0.05093
G1 X170.978 Y153.06 E0.08681
G1 X171.772 Y154.895 E0.0843
G1 X172.419 Y155.73 E0.04451
G1 X174.001 Y156.956 E0.08437
G1 X176.003 Y157.539 E0.08789
G1 X177.616 Y157.488 E0.06804
G1 X179.498 Y156.811 E0.08432
G1 X180.575 Y155.975 E0.05746
G1 X185.229 Y151.321 E0.27743
G1 X186.415 Y152.507 E0.07073
G1 X160.997 Y177.925 E1.51523
G1 X150.646 Y167.574 E0.61709
G1 X149.723 Y167.439 F48000
G1 F1800
G1 X149.713 Y167.429 E0.00057
G1 X175.919 Y141.223 E1.56219
G1 X177.893 Y143.198 E0.1177
G1 X172.871 Y148.22 E0.29941
G1 X172.172 Y149.119 E0.04799
G1 X171.754 Y150.025 E0.04208
G1 X171.473 Y151.066 E0.04546
G1 X171.532 Y152.936 E0.07884
G1 X172.255 Y154.61 E0.07686
G1 X172.816 Y155.333 E0.03857
G1 X174.258 Y156.451 E0.07692
G1 X176.073 Y156.979 E0.07969
G1 X177.51 Y156.934 E0.0606
G1 X179.226 Y156.316 E0.07688
G1 X180.206 Y155.556 E0.05226
G1 X185.229 Y150.533 E0.29944
G1 X187.203 Y152.507 E0.1177
G1 X160.997 Y178.713 E1.56219
G1 X149.776 Y167.492 E0.66894
G1 X148.925 Y167.429 F48000
G1 F1800
G1 X175.919 Y140.435 E1.60916
G1 X178.681 Y143.198 E0.16466
G1 X173.289 Y148.59 E0.32143
G1 X172.651 Y149.41 E0.04382
G1 X172.28 Y150.216 E0.0374
G1 X172.032 Y151.132 E0.03998
G1 X172.085 Y152.812 E0.07087
G1 X172.739 Y154.324 E0.06943
G1 X173.213 Y154.936 E0.03263
G1 X174.516 Y155.946 E0.06948
G1 X176.144 Y156.42 E0.07149
G1 X177.405 Y156.38 E0.05316
G1 X178.955 Y155.822 E0.06944
G1 X179.836 Y155.137 E0.04706
G1 X185.229 Y149.745 E0.32145
G1 X187.991 Y152.507 E0.16466
G1 X160.997 Y179.501 E1.60916
G1 X148.979 Y167.482 E0.71647
G1 X148.381 Y167.186 F48000
G1 F1800
G1 X175.919 Y139.648 E1.64161
G1 X179.469 Y143.198 E0.21163
G1 X173.708 Y148.959 E0.34345
G1 X173.13 Y149.702 E0.03966
G1 X172.805 Y150.407 E0.03272
G1 X172.591 Y151.197 E0.03451
G1 X172.639 Y152.689 E0.0629
G1 X173.222 Y154.038 E0.06199
G1 X173.61 Y154.539 E0.02669
G1 X174.773 Y155.441 E0.06203
G1 X176.215 Y155.86 E0.06329
G1 X177.299 Y155.826 E0.04572
G1 X178.683 Y155.328 E0.062
G1 X179.467 Y154.719 E0.04186
G1 X185.229 Y148.957 E0.34346
G1 X188.779 Y152.507 E0.21163
G1 X160.997 Y180.289 E1.65612
G1 X148.138 Y167.429 E0.7666
G1 X148.328 Y167.239 E0.01134
G1 E-0.08 F3600
;WIPE_START
G1 F38400
G1 X148.138 Y167.429 E-0.02397
G1 X153.378 Y172.669 E-0.66003
;WIPE_END
G1 E-0.036 F3600
G1 Z0.3 F48000
G1 X178.932 Y195.86
G1 Z0.2
G1 E0.8 F3600
G1 F1800
G1 X178.928 Y195.855 E0.00028
G1 X204.345 Y170.438 E1.51523
G1 X205.532 Y171.624 E0.07073
G1 X200.879 Y176.277 E0.27739
G1 X200.119 Y177.254 E0.05215
G1 X199.655 Y178.261 E0.04676
G1 X199.362 Y179.346 E0.04735
G1 X199.314 Y180.85 E0.06346
G1 X199.872 Y182.769 E0.08424
G1 X200.77 Y184.094 E0.06746
G1 X202.424 Y185.382 E0.08837
G1 X204.429 Y185.965 E0.08801
G1 X206.042 Y185.914 E0.06804
G1 X207.925 Y185.237 E0.08432
G1 X209.001 Y184.401 E0.05746
G1 X213.655 Y179.747 E0.27743
G1 X214.842 Y180.934 E0.07073
G1 X189.424 Y206.352 E1.51523
G1 X178.985 Y195.913 E0.62227
G1 X178.14 Y195.856 F48000
G1 F1800
G1 X204.345 Y169.65 E1.56219
G1 X206.32 Y171.624 E0.1177
G1 X201.297 Y176.647 E0.29941
G1 X200.598 Y177.545 E0.04798
G1 X200.18 Y178.452 E0.04208
G1 X199.916 Y179.428 E0.04264
G1 X199.873 Y180.78 E0.05699
G1 X200.383 Y182.529 E0.07682
G1 X201.182 Y183.709 E0.06005
G1 X202.682 Y184.877 E0.08016
G1 X204.5 Y185.406 E0.07978
G1 X205.937 Y185.36 E0.0606
G1 X207.653 Y184.743 E0.07688
G1 X208.632 Y183.982 E0.05226
G1 X213.655 Y178.959 E0.29944
G1 X215.63 Y180.934 E0.1177
G1 X189.424 Y207.139 E1.56219
G1 X178.193 Y195.909 E0.6695
G1 X177.352 Y195.855 F48000
G1 F1800
G1 X204.345 Y168.862 E1.60916
G1 X207.108 Y171.624 E0.16466
G1 X201.716 Y177.016 E0.32143
G1 X201.077 Y177.837 E0.04382
G1 X200.706 Y178.642 E0.0374
G1 X200.471 Y179.511 E0.03792
G1 X200.433 Y180.709 E0.05052
G1 X200.893 Y182.289 E0.06939
G1 X201.594 Y183.323 E0.05264
G1 X202.94 Y184.372 E0.07195
G1 X204.57 Y184.846 E0.07156
G1 X205.831 Y184.806 E0.05316
G1 X207.381 Y184.249 E0.06944
G1 X208.263 Y183.564 E0.04706
G1 X213.655 Y178.172 E0.32145
G1 X216.417 Y180.934 E0.16466
G1 X189.424 Y207.927 E1.60916
G1 X177.405 Y195.908 E0.71647
G1 X176.564 Y195.855 F48000
G1 F1800
G1 X204.345 Y168.074 E1.65612
G1 X207.896 Y171.624 E0.21163
G1 X202.134 Y177.385 E0.34345
G1 X201.557 Y178.128 E0.03966
G1 X201.231 Y178.833 E0.03273
G1 X201.026 Y179.594 E0.0332
G1 X200.993 Y180.638 E0.04405
G1 X201.403 Y182.049 E0.06196
G1 X202.005 Y182.938 E0.04523
G1 X203.199 Y183.867 E0.06374
G1 X204.641 Y184.287 E0.06333
G1 X205.725 Y184.252 E0.04572
G1 X207.109 Y183.754 E0.062
G1 X207.894 Y183.145 E0.04186
G1 X213.655 Y177.384 E0.34346
G1 X217.205 Y180.934 E0.21163
G1 X189.424 Y208.715 E1.65612
G1 X176.617 Y195.908 E0.76344
G1 E-0.08 F3600
;WIPE_START
G1 F38400
G1 X182.048 Y201.339 E-0.684
;WIPE_END
G1 E-0.036 F3600
G1 Z0.3 F48000
G1 X132.571 Y149.499
G1 Z0.2
G1 E0.8 F3600
G1 F1800
G1 X122.075 Y139.003 E0.62571
G1 X147.493 Y113.585 E1.51523
G1 X148.679 Y114.771 E0.07073
G1 X144.026 Y119.424 E0.27739
G1 X143.267 Y120.401 E0.05215
G1 X142.802 Y121.408 E0.04676
G1 X142.53 Y122.416 E0.04401
G1 X142.45 Y123.287 E0.03687
G1 X142.586 Y124.713 E0.06036
G1 X143.413 Y126.625 E0.08782
G1 X144.043 Y127.255 E0.03756
G1 X144.867 Y128.079 E0.04913
G1 X145.886 Y128.627 E0.04874
G1 X146.964 Y128.997 E0.04806
G1 X148.301 Y129.125 E0.05661
G1 X149.269 Y129.033 E0.04097
G1 X151.072 Y128.384 E0.08077
G1 X152.148 Y127.548 E0.05746
G1 X156.802 Y122.894 E0.27743
G1 X157.989 Y124.081 E0.07073
G1 X132.624 Y149.446 E1.51207
G1 X132.571 Y150.287 F48000
G1 F1800
G1 X121.287 Y139.003 E0.67267
G1 X147.493 Y112.797 E1.56219
G1 X149.467 Y114.771 E0.1177
G1 X144.445 Y119.794 E0.29941
G1 X143.746 Y120.692 E0.04799
G1 X143.328 Y121.599 E0.04208
G1 X143.08 Y122.515 E0.04001
G1 X143.009 Y123.286 E0.03264
G1 X143.132 Y124.572 E0.05445
G1 X143.882 Y126.306 E0.07964
G1 X144.437 Y126.861 E0.03308
G1 X145.203 Y127.627 E0.04568
G1 X146.11 Y128.114 E0.04338
G1 X147.083 Y128.449 E0.04337
G1 X148.301 Y128.565 E0.05159
G1 X149.146 Y128.485 E0.03578
G1 X150.8 Y127.89 E0.07408
G1 X151.779 Y127.13 E0.05226
G1 X156.802 Y122.107 E0.29944
G1 X158.777 Y124.081 E0.1177
G1 X132.624 Y150.234 E1.55903
G1 X132.571 Y151.075 F48000
G1 F1800
G1 X120.499 Y139.003 E0.71963
G1 X147.493 Y112.009 E1.60916
G1 X150.255 Y114.771 E0.16466
G1 X144.863 Y120.163 E0.32143
G1 X144.225 Y120.984 E0.04382
G1 X143.853 Y121.79 E0.0374
G1 X143.63 Y122.614 E0.036
G1 X143.569 Y123.285 E0.0284
G1 X143.679 Y124.432 E0.04855
G1 X144.351 Y125.988 E0.07146
G1 X144.831 Y126.467 E0.0286
G1 X145.539 Y127.175 E0.04222
G1 X146.334 Y127.602 E0.03802
G1 X147.202 Y127.901 E0.03868
G1 X148.301 Y128.005 E0.04657
G1 X149.024 Y127.937 E0.03059
G1 X150.528 Y127.396 E0.06739
G1 X151.41 Y126.711 E0.04706
G1 X156.802 Y121.319 E0.32145
G1 X159.565 Y124.081 E0.16466
G1 X132.624 Y151.021 E1.606
G1 X132.571 Y151.862 F48000
G1 F1800
G1 X119.711 Y139.003 E0.7666
G1 X147.493 Y111.221 E1.65612
G1 X147.867 Y111.595 E0.0223
G1 X151.043 Y114.771 E0.18933
G1 X145.281 Y120.533 E0.34345
G1 X144.704 Y121.275 E0.03966
G1 X144.379 Y121.98 E0.03272
G1 X144.181 Y122.713 E0.03199
G1 X144.128 Y123.284 E0.02417
G1 X144.225 Y124.291 E0.04265
G1 X144.821 Y125.669 E0.06327
G1 X145.225 Y126.073 E0.02411
G1 X145.875 Y126.724 E0.03876
G1 X146.558 Y127.09 E0.03266
G1 X147.32 Y127.352 E0.03398
G1 X148.301 Y127.446 E0.04155
G1 X148.901 Y127.389 E0.0254
G1 X150.256 Y126.901 E0.06071
G1 X151.041 Y126.292 E0.04186
G1 X156.802 Y120.531 E0.34346
G1 X160.352 Y124.081 E0.21163
G1 X132.624 Y151.809 E1.65296
G1 E-0.08 F3600
;WIPE_START
G1 F38400
G1 X138.055 Y146.379 E-0.684
;WIPE_END
G1 E-0.036 F3600
G1 Z0.3 F48000
G1 X104.145 Y121.072
G1 Z0.2
G1 E0.8 F3600
G1 F1800
G1 X93.648 Y110.576 E0.62571
G1 X119.066 Y85.158 E1.51523
G1 X120.253 Y86.345 E0.07073
G1 X115.599 Y90.999 E0.27743
G1 X114.824 Y91.996 E0.05323
G1 X114.36 Y93.036 E0.04802
G1 X114.104 Y93.988 E0.04152
G1 X114.023 Y94.846 E0.03634
G1 X114.159 Y96.285 E0.06094
G1 X114.953 Y98.12 E0.08427
G1 X115.91 Y99.206 E0.06101
G1 X116.589 Y99.733 E0.03623
G1 X117.542 Y100.245 E0.04561
G1 X118.824 Y100.617 E0.05624
G1 X119.957 Y100.699 E0.0479
G1 X121.017 Y100.555 E0.0451
G1 X121.993 Y100.251 E0.0431
G1 X122.773 Y99.859 E0.0368
G1 X123.722 Y99.122 E0.05064
G1 X128.376 Y94.468 E0.27743
G1 X129.562 Y95.655 E0.07073
G1 X104.198 Y121.019 E1.51207
G1 X104.145 Y121.86 F48000
G1 F1800
G1 X92.861 Y110.576 E0.67267
G1 X119.066 Y84.37 E1.56219
G1 X121.041 Y86.345 E0.1177
G1 X116.018 Y91.368 E0.29944
G1 X115.306 Y92.285 E0.04893
G1 X114.886 Y93.223 E0.04333
G1 X114.654 Y94.087 E0.03769
G1 X114.582 Y94.846 E0.03213
G1 X114.706 Y96.145 E0.055
G1 X115.429 Y97.818 E0.07684
G1 X116.293 Y98.798 E0.05506
G1 X116.894 Y99.264 E0.03204
G1 X117.754 Y99.726 E0.04118
G1 X118.923 Y100.065 E0.05128
G1 X119.94 Y100.139 E0.04298
G1 X120.896 Y100.01 E0.04068
G1 X121.784 Y99.733 E0.0392
G1 X122.474 Y99.385 E0.03258
G1 X123.353 Y98.703 E0.04689
G1 X128.376 Y93.68 E0.29944
G1 X130.35 Y95.655 E0.1177
G1 X104.198 Y121.807 E1.55903
G1 X104.145 Y122.648 F48000
G1 F1800
G1 X92.073 Y110.576 E0.71963
G1 X119.066 Y83.583 E1.60916
G1 X121.828 Y86.345 E0.16466
G1 X116.436 Y91.737 E0.32145
G1 X115.787 Y92.573 E0.04462
G1 X115.413 Y93.411 E0.03865
G1 X115.204 Y94.186 E0.03386
G1 X115.142 Y94.846 E0.02793
G1 X115.252 Y96.005 E0.04906
G1 X115.905 Y97.516 E0.06941
G1 X116.676 Y98.39 E0.04911
G1 X117.198 Y98.795 E0.02786
G1 X117.966 Y99.207 E0.03674
G1 X119.022 Y99.514 E0.04633
G1 X119.922 Y99.58 E0.03806
G1 X120.775 Y99.464 E0.03626
G1 X121.574 Y99.215 E0.0353
G1 X122.175 Y98.912 E0.02836
G1 X122.984 Y98.285 E0.04313
G1 X128.376 Y92.892 E0.32145
G1 X131.138 Y95.655 E0.16466
G1 X104.198 Y122.595 E1.606
G1 X104.145 Y123.436 F48000
G1 F1800
