; generated by A3dp-Slicer 2.5 on 2023-08-26 at 01:51:19 UTC


;
;

;
;
; 

; external perimeters extrusion width = 0.60mm
; perimeters extrusion width = 0.60mm
; infill extrusion width = 0.60mm
; solid infill extrusion width = 0.60mm
; top infill extrusion width = 0.60mm
; first layer extrusion width = 0.60mm

; object:{"name":"3DBenchy","id":"3DBenchy.stl id:0 copy 0","object_center":[150.000000,150.000000,0.000000],"boundingbox_center":[150.000000,150.000000,24.000000],"boundingbox_size":[50.826130,50.826130,48.000000]}
EXCLUDE_OBJECT_DEFINE NAME=3DBenchy_stl_id_0_copy_0 CENTER=150.000000,150.000000 POLYGON=[[124.586928,139.566288],[124.588352,139.515360],[124.589768,139.487088],[124.591888,139.456688],[124.596832,139.398000],[124.603904,139.340016],[124.606736,139.317376],[124.611680,139.282736],[124.612392,139.277792],[124.622288,139.219808],[124.627232,139.193632],[124.632184,139.167488],[124.646336,139.105248],[124.661176,139.047968],[124.677448,138.992112],[124.690168,138.951088],[124.698656,138.925648],[124.716328,138.875440],[124.738960,138.816048],[124.760176,138.765136],[124.783512,138.712096],[124.809680,138.659072],[124.811080,138.656240],[124.835832,138.607456],[124.864120,138.556528],[124.893816,138.505616],[124.927048,138.452592],[124.959576,138.404512],[124.990696,138.360672],[124.994232,138.355712],[125.025336,138.313296],[125.052208,138.279344],[125.069888,138.257424],[125.122208,138.196608],[125.146960,138.169040],[125.166760,138.147824],[138.151360,125.163224],[138.196608,125.122208],[138.239040,125.085440],[138.280064,125.051496],[138.292784,125.041600],[138.330256,125.012608],[138.377648,124.977968],[138.452592,124.927048],[138.502096,124.895936],[138.552992,124.866240],[138.576336,124.852808],[138.628656,124.824528],[138.708560,124.785632],[138.744624,124.769360],[138.798368,124.746736],[138.815344,124.739672],[138.852816,124.724824],[138.906560,124.705016],[138.951088,124.690168],[139.018288,124.669664],[139.047968,124.661176],[139.071312,124.654816],[139.161824,124.633608],[139.193632,124.627232],[139.218384,124.622288],[139.276368,124.612392],[139.334352,124.603896],[139.402240,124.596832],[139.441136,124.593296],[139.487088,124.589768],[139.545776,124.587640],[139.566288,124.586928],[139.635568,124.586928],[139.663152,124.587640],[139.721840,124.589760],[139.765680,124.592592],[139.823664,124.598248],[139.837808,124.599656],[139.882352,124.604616],[139.953776,124.615216],[140.011040,124.625824],[140.062672,124.636432],[140.137616,124.654816],[140.168032,124.662592],[140.224592,124.679568],[140.251472,124.688048],[140.280464,124.697232],[140.303792,124.705016],[140.361776,124.726232],[140.420464,124.749576],[140.469968,124.770784],[140.522992,124.795536],[140.534320,124.801184],[140.574608,124.821696],[140.586640,124.828056],[140.638256,124.855640],[140.644624,124.859168],[140.677856,124.878256],[140.713216,124.899472],[140.727360,124.907960],[140.787456,124.946848],[140.835536,124.980792],[140.859568,124.997760],[163.425472,142.051056],[163.620640,142.199552],[163.815792,142.349456],[164.009552,142.500784],[164.276848,142.712912],[164.451488,142.853616],[164.643120,143.008480],[164.834032,143.165456],[165.023552,143.323856],[165.211632,143.482240],[165.338192,143.590416],[165.399024,143.642768],[165.543264,143.767200],[165.585696,143.803968],[165.772368,143.966608],[165.893280,144.073376],[165.956208,144.129248],[166.076416,144.236720],[166.267328,144.409264],[166.347248,144.482080],[166.363504,144.496928],[166.463920,144.588864],[166.574944,144.691392],[166.680304,144.789680],[166.765856,144.869584],[166.813936,144.914848],[166.893120,144.989792],[166.978688,145.071104],[167.042336,145.131920],[167.144144,145.229488],[167.282048,145.363152],[167.411440,145.489712],[167.495584,145.572448],[167.720448,145.797296],[167.777008,145.853888],[168.027328,146.107024],[168.329264,146.420272],[168.384416,146.478256],[168.629072,146.737040],[168.701904,146.815536],[168.924656,147.056672],[169.218096,147.379808],[169.439424,147.629424],[169.494576,147.691648],[169.567408,147.774384],[169.681248,147.905200],[169.759728,147.996416],[169.855200,148.107424],[169.911776,148.173888],[170.029152,148.312480],[170.113296,148.412192],[170.585648,149.061312],[170.590592,149.069088],[170.818288,149.446688],[170.875552,149.542144],[170.990816,149.735184],[171.065056,149.861760],[171.104656,149.929648],[171.184560,150.067520],[171.328816,150.320656],[171.417904,150.480464],[171.545904,150.714528],[171.653376,150.912528],[171.758032,151.110512],[171.865504,151.316992],[171.973696,151.528416],[172.065616,151.710848],[172.185120,151.953392],[172.263616,152.115312],[172.288368,152.166928],[172.364720,152.328144],[172.455232,152.521904],[172.553536,152.736144],[172.646144,152.941904],[172.732416,153.138496],[172.779808,153.246672],[172.826464,153.355568],[172.914864,153.562752],[173.001824,153.771344],[173.024448,153.826512],[173.109312,154.035808],[173.192032,154.245824],[173.274064,154.455120],[173.353264,154.665840],[173.432448,154.876560],[173.508816,155.087280],[173.584480,155.298704],[173.658016,155.510832],[173.730144,155.722960],[173.801552,155.935808],[173.870144,156.148656],[173.938032,156.362176],[174.003792,156.576448],[174.068848,156.791392],[174.131776,157.005664],[174.193296,157.221328],[174.252704,157.437696],[174.312096,157.654064],[174.369376,157.871152],[174.424528,158.088944],[174.478272,158.306736],[174.530592,158.525936],[174.582208,158.744432],[174.631712,158.965040],[174.679792,159.184256],[174.725760,159.405584],[174.771008,159.626192],[174.814848,159.848224],[174.857264,160.070256],[174.897584,160.292992],[174.936464,160.515728],[174.973952,160.738480],[175.010016,160.962624],[175.044656,161.186784],[175.077904,161.412352],[175.109008,161.637200],[175.139408,161.862784],[175.167696,162.089056],[175.194560,162.315328],[175.220016,162.543008],[175.244064,162.770688],[175.266688,162.998384],[175.287200,163.226784],[175.323952,163.684976],[175.340224,163.914800],[175.354368,164.145312],[175.367104,164.375824],[175.378416,164.607760],[175.384784,164.762624],[175.393968,164.992432],[175.401024,165.222944],[175.405984,165.452752],[175.409520,165.682560],[175.412352,165.913088],[175.413056,166.142880],[175.411648,166.373408],[175.409536,166.603216],[175.405280,166.833744],[175.399632,167.064256],[175.392544,167.294768],[175.384064,167.525280],[175.373456,167.756496],[175.362160,167.987024],[175.348000,168.217552],[175.333168,168.448768],[175.317600,168.679280],[175.298512,168.910512],[175.278720,169.141024],[175.258208,169.372256],[175.235584,169.602768],[175.210832,169.833984],[175.184656,170.065216],[175.157088,170.296432],[175.128096,170.527664],[175.096992,170.758176],[175.065168,170.989392],[175.031920,171.220624],[174.996576,171.451136],[174.959104,171.682368],[174.920208,171.913584],[174.880608,172.144112],[174.838880,172.375344],[174.795760,172.606560],[174.750496,172.837072],[174.739184,172.889392],[174.725056,172.950208],[174.709488,173.009600],[174.692528,173.069008],[174.674128,173.128400],[174.654320,173.186384],[174.631712,173.244352],[174.609088,173.302352],[174.591408,173.342656],[174.565952,173.399216],[174.539072,173.454384],[174.510784,173.509520],[174.481088,173.563264],[174.448560,173.618416],[174.418160,173.668624],[174.384224,173.719536],[174.348160,173.772576],[174.312800,173.820656],[174.275328,173.869440],[174.237136,173.917520],[174.196832,173.964912],[174.150160,174.015824],[174.108448,174.060368],[174.065312,174.103504],[174.021472,174.145920],[173.976224,174.186928],[173.930256,174.225824],[173.882880,174.264704],[173.834096,174.302208],[173.785296,174.338256],[173.737216,174.372192],[173.683472,174.407568],[173.633968,174.438656],[173.578128,174.471888],[173.529328,174.499488],[173.474880,174.528480],[173.419728,174.555344],[173.363856,174.581504],[173.308000,174.606240],[173.251440,174.628880],[173.194160,174.650800],[173.135472,174.671312],[173.077488,174.689680],[173.018096,174.706672],[172.957984,174.722928],[172.897888,174.737776],[172.837072,174.750496],[172.631296,174.790800],[172.400080,174.833936],[172.168848,174.875664],[171.938336,174.916672],[171.707120,174.955568],[171.475184,174.992336],[171.243952,175.028400],[171.012720,175.063056],[170.781504,175.094864],[170.549584,175.125984],[170.318352,175.154976],[170.086432,175.183264],[169.622560,175.234160],[169.390624,175.256784],[169.157984,175.278720],[168.925360,175.297808],[168.693424,175.316192],[168.460080,175.333168],[168.227440,175.348000],[167.994800,175.361440],[167.822960,175.370640],[167.590336,175.381248],[167.357696,175.390432],[167.125056,175.398208],[166.893120,175.403872],[166.660496,175.408816],[166.428560,175.411648],[165.966112,175.413056],[165.735600,175.410240],[165.505088,175.407408],[165.275264,175.402448],[165.044752,175.395392],[164.815648,175.386896],[164.586544,175.376992],[164.357456,175.365696],[164.128336,175.352944],[163.899248,175.338800],[163.670832,175.322560],[163.442448,175.304864],[163.214048,175.285776],[162.986352,175.264576],[162.758688,175.241936],[162.530992,175.217888],[162.304000,175.193152],[162.076320,175.166272],[161.849328,175.137280],[161.622368,175.106896],[161.395376,175.075056],[161.168400,175.041824],[160.942128,175.006464],[160.715136,174.970416],[160.264000,174.892624],[160.038432,174.850912],[159.812864,174.807776],[159.588016,174.763936],[159.363152,174.717264],[159.138992,174.669888],[158.914144,174.620400],[158.690688,174.569488],[158.467232,174.517152],[158.243104,174.462704],[158.020352,174.406848],[157.797616,174.349584],[157.575600,174.290176],[157.352848,174.230080],[157.132240,174.167840],[156.910208,174.104208],[156.609680,174.014400],[156.394720,173.947936],[156.180464,173.880752],[155.966912,173.811456],[155.753376,173.740752],[155.541248,173.668624],[155.329104,173.595088],[155.118400,173.520144],[154.907664,173.443776],[154.697664,173.365280],[154.488352,173.286080],[154.279056,173.205472],[154.071168,173.123440],[153.863984,173.039312],[153.656800,172.953728],[153.567008,172.916256],[153.450320,172.867472],[153.244560,172.779088],[153.029600,172.684320],[152.912912,172.632720],[152.621600,172.501184],[152.417952,172.406432],[152.225616,172.315936],[152.013488,172.214112],[151.836000,172.127136],[151.821856,172.120064],[151.621040,172.019648],[151.420928,171.918528],[151.199600,171.804688],[151.013648,171.706400],[150.989600,171.693680],[150.779584,171.581248],[150.570992,171.467408],[150.363808,171.352144],[150.225200,171.274368],[150.155920,171.234768],[150.029344,171.161920],[149.834176,171.048800],[149.745088,170.996480],[149.640432,170.934256],[149.446688,170.818288],[149.070512,170.592016],[148.626432,170.290768],[148.618672,170.284416],[148.420672,170.120368],[148.384608,170.089968],[148.236832,169.964800],[148.171776,169.909648],[148.046608,169.802880],[147.985808,169.750544],[147.723472,169.522160],[147.389008,169.225872],[147.360016,169.199712],[147.074336,168.940912],[146.972512,168.847584],[146.717248,168.610688],[146.561696,168.463616],[146.401184,168.311584],[146.087920,168.008240],[145.813568,167.736704],[145.778208,167.701360],[145.725888,167.649040],[145.570336,167.493472],[145.360320,167.279200],[145.321424,167.238912],[145.167264,167.079104],[145.068288,166.975856],[144.986976,166.890304],[144.868880,166.765136],[144.807360,166.699392],[144.707664,166.592608],[144.586752,166.461792],[144.570480,166.444128],[144.463696,166.327440],[144.390864,166.247536],[144.303888,166.150672],[144.170960,166.002176],[144.008336,165.819744],[143.846400,165.635200],[143.836496,165.623872],[143.648400,165.406080],[143.487904,165.218704],[143.328096,165.029184],[143.211424,164.888496],[143.170416,164.838992],[143.055152,164.699696],[142.900288,164.509472],[142.857168,164.456432],[142.746144,164.318560],[142.548160,164.069664],[142.395424,163.874496],[142.291472,163.739440],[142.093472,163.482048],[125.016144,140.883616],[124.994936,140.855328],[124.965232,140.814336],[124.932712,140.766240],[124.915032,140.738656],[124.884632,140.688464],[124.878256,140.677856],[124.859168,140.644624],[124.853512,140.634720],[124.825936,140.583104],[124.801184,140.534320],[124.795536,140.522992],[124.770784,140.469968],[124.749576,140.420464],[124.726232,140.361776],[124.705016,140.303792],[124.690168,140.259248],[124.673200,140.204080],[124.667544,140.184304],[124.654816,140.137616],[124.639968,140.078928],[124.636432,140.062672],[124.627944,140.021664],[124.625824,140.011040],[124.615216,139.953776],[124.608144,139.905696],[124.606736,139.895792],[124.599656,139.837808],[124.594712,139.789024],[124.594000,139.779824],[124.589760,139.721840],[124.587640,139.663152],[124.586928,139.634176],[124.586928,139.566288]]
; plater:{"center":[150.000000,150.000000,0.000000],"boundingbox_center":[150.000000,150.000000,24.000000],"boundingbox_size":[50.826130,50.826130,48.000000]}

;TYPE:Custom
PRINT_START EXTRUDER=275 BED=110 AREA_START=124.099,124.097 AREA_END=169.418,169.518
M107
G21 ; set units to millimeters
G90 ; use absolute coordinates
M83 ; use relative distances for extrusion
;_BEFORE_TOOLCHANGE 0
SET_PRESSURE_ADVANCE SMOOTH_TIME=0.015
;_TOOLCHANGE 0
M104 S275 ; set temperature
M109 S275 ; set temperature and wait for it to be reached
M190 S110 ; set bed temperature and wait for it to be reached
M107
;LAYER_CHANGE
;Z:0.2
;HEIGHT:0.2
;BEFORE_LAYER_CHANGE
TIMELAPSE_TAKE_FRAME
;0.2


G1 Z0.2 F48000
;AFTER_LAYER_CHANGE
;0.2
G92 E0
G1 E-0.8 F3600
G1 Z0.3 F48000
M204 S5000
G1 X131.474 Y129.119
G1 Z0.2
G1 E0.8 F3600
;TYPE:Skirt
;WIDTH:0.6
G1 F1800
G1 X126.343 Y134.452 E0.28797
G1 X125.541 Y135.667 E0.05665
G1 X125.157 Y136.497 E0.03561
G1 X124.829 Y137.576 E0.04385
G1 X124.692 Y138.437 E0.03391
G1 X124.661 Y139.471 E0.04026
G1 X124.8 Y140.634 E0.04558
G1 X125.245 Y142.083 E0.05899
G1 X125.75 Y143.065 E0.04295
G1 X126.556 Y144.154 E0.05271
G1 X142.448 Y162.098 E0.93267
G1 X144.472 Y164.034 E0.10898
G1 X146.816 Y165.729 E0.11256
G1 X148.879 Y166.856 E0.09145
G1 X151.194 Y167.788 E0.0971
G1 X153.394 Y168.392 E0.08879
G1 X156.393 Y168.887 E0.11826
G1 X158.445 Y168.95 E0.0799
G1 X160.475 Y168.762 E0.0793
G1 X163.181 Y168.145 E0.108
G1 X164.182 Y167.787 E0.04137
G1 X164.937 Y167.4 E0.033
G1 X165.728 Y166.855 E0.03737
G1 X166.537 Y166.098 E0.04312
G1 X167.264 Y165.155 E0.04632
G1 X167.777 Y164.207 E0.04194
G1 X168.12 Y163.266 E0.039
G1 X168.459 Y161.849 E0.05667
G1 X168.833 Y158.866 E0.11698
G1 X168.778 Y155.925 E0.11446
G1 X168.31 Y153.036 E0.11389
G1 X167.402 Y150.137 E0.11821
G1 X166.019 Y147.298 E0.12286
G1 X164.389 Y144.908 E0.11259
G1 X162.632 Y142.954 E0.10221
G1 X144.148 Y126.551 E0.96156
G1 X143.071 Y125.755 E0.05212
G1 X142.271 Y125.329 E0.03525
G1 X141.099 Y124.906 E0.04847
G1 X139.652 Y124.668 E0.05706
G1 X138.18 Y124.724 E0.05734
G1 X136.925 Y125.007 E0.05006
G1 X135.65 Y125.547 E0.05388
G1 X134.877 Y126.024 E0.03533
G1 X134.034 Y126.704 E0.04215
G1 X131.529 Y129.067 E0.134
G1 X131.911 Y129.473 F48000
G1 F1800
G1 X131.868 Y129.513 E0.00228
G1 X126.773 Y134.805 E0.28586
G1 X126.036 Y135.921 E0.05202
G1 X125.678 Y136.694 E0.03315
G1 X125.374 Y137.693 E0.04064
G1 X125.246 Y138.5 E0.03179
G1 X125.218 Y139.458 E0.03729
G1 X125.348 Y140.533 E0.04214
G1 X125.756 Y141.861 E0.05405
G1 X126.224 Y142.771 E0.03981
G1 X126.973 Y143.784 E0.04903
G1 X142.855 Y161.717 E0.93208
G1 X144.834 Y163.611 E0.10658
G1 X146.998 Y165.185 E0.10411
G1 X149.112 Y166.35 E0.09391
G1 X151.364 Y167.257 E0.09447
G1 X153.517 Y167.849 E0.08689
G1 X156.476 Y168.337 E0.11667
G1 X158.421 Y168.393 E0.07573
G1 X160.361 Y168.217 E0.07579
G1 X163.04 Y167.606 E0.10689
G1 X164.647 Y166.924 E0.06795
G1 X165.376 Y166.423 E0.03441
G1 X166.121 Y165.728 E0.03963
G1 X166.791 Y164.86 E0.04267
G1 X167.265 Y163.987 E0.03868
G1 X167.583 Y163.119 E0.03596
G1 X167.911 Y161.748 E0.05486
G1 X168.277 Y158.832 E0.11433
G1 X168.224 Y155.983 E0.11091
G1 X167.769 Y153.168 E0.11092
G1 X166.887 Y150.348 E0.11499
G1 X165.542 Y147.585 E0.11956
G1 X163.948 Y145.248 E0.11007
G1 X162.249 Y143.359 E0.09886
