; generated by A3dp-Slicer 2.5 on 2022-11-20 at 02:37:51 UTC


;
;

;
;
; 

; external perimeters extrusion width = 0.52mm
; perimeters extrusion width = 0.56mm
; infill extrusion width = 0.70mm
; solid infill extrusion width = 0.70mm
; top infill extrusion width = 0.47mm
; first layer extrusion width = 0.60mm

; object:{"name":"3DBenchy","id":"3DBenchy.stl id:0 copy 0","object_center":[150.000000,150.000000,0.000000],"boundingbox_center":[150.000000,150.000000,24.000000],"boundingbox_size":[50.826130,50.826130,48.000000]}
; plater:{"center":[150.000000,150.000000,0.000000],"boundingbox_center":[150.000000,150.000000,24.000000],"boundingbox_size":[50.826130,50.826130,48.000000]}

;TYPE:Custom
PRINT_START EXTRUDER=260 BED=110
M107
G21 ; set units to millimeters
G90 ; use absolute coordinates
M83 ; use relative distances for extrusion
SET_PRESSURE_ADVANCE SMOOTH_TIME=0.03
SET_PRESSURE_ADVANCE ADVANCE=0.06
;_TOOLCHANGE 0
M104 S260 ; set temperature
M109 S260 ; set temperature and wait for it to be reached
M190 S110 ; set bed temperature and wait for it to be reached
M107
;LAYER_CHANGE
;Z:0.3
;HEIGHT:0.3
;BEFORE_LAYER_CHANGE
;0.3


G1 Z0.3 F24000
;AFTER_LAYER_CHANGE
;0.3
G92 E0
G1 E-0.6 F2400
M204 S10000
G1 X131.347 Y131.339 F24000
G1 E0.6 F2400
;TYPE:Skirt
;WIDTH:0.6
G1 F7467.9879
G1 X132.232 Y130.454 E0.07355
G1 X133.374 Y129.447 E0.08953
G1 X135.325 Y127.541 E0.16033
G1 X136.282 Y126.885 E0.0682
G1 X137.325 Y126.422 E0.0671
G1 X138.511 Y126.146 E0.07155
G1 X139.756 Y126.112 E0.07325
G1 X140.719 Y126.266 E0.05734
G1 X141.676 Y126.581 E0.05919
G1 X142.545 Y127.032 E0.05759
G1 X143.335 Y127.613 E0.05764
G1 X161.127 Y143.357 E1.3967
G1 X162.466 Y144.698 E0.11142
G1 X163.214 Y145.573 E0.06765
G1 X163.908 Y146.492 E0.0677
G1 X164.54 Y147.44 E0.06699
G1 X165.169 Y148.524 E0.07367
G1 X165.726 Y149.639 E0.07328
G1 X166.169 Y150.685 E0.06679
G1 X166.543 Y151.732 E0.06534
G1 X166.857 Y152.803 E0.06566
G1 X167.126 Y153.972 E0.07051
G1 X167.347 Y155.347 E0.08184
G1 X167.464 Y156.659 E0.07746
G1 X167.492 Y157.963 E0.07667
G1 X167.439 Y159.183 E0.07179
G1 X167.308 Y160.406 E0.07234
G1 X167.078 Y161.721 E0.07846
G1 X166.638 Y163.344 E0.09885
G1 X165.678 Y164.971 E0.11105
G1 X164.308 Y166.159 E0.10663
G1 X162.912 Y166.791 E0.09009
G1 X161.682 Y167.088 E0.0744
G1 X159.724 Y167.482 E0.1174
G1 X158.193 Y167.588 E0.09023
G1 X156.628 Y167.549 E0.09202
G1 X153.724 Y167.076 E0.17302
G1 X152.589 Y166.799 E0.06863
G1 X151.471 Y166.456 E0.06879
G1 X150.403 Y166.057 E0.06701
G1 X149.318 Y165.576 E0.06979
G1 X148.346 Y165.073 E0.06433
G1 X147.409 Y164.52 E0.06395
G1 X146.549 Y163.949 E0.0607
G1 X145.721 Y163.331 E0.06075
G1 X144.893 Y162.641 E0.06338
G1 X144.099 Y161.901 E0.06378
G1 X143.356 Y161.125 E0.06315
G1 X127.06 Y142.6 E1.45046
G1 X126.641 Y141.811 E0.05255
G1 X126.318 Y140.948 E0.05419
G1 X126.107 Y138.823 E0.12552
G1 X126.267 Y137.86 E0.05736
G1 X126.552 Y136.975 E0.05471
G1 X126.971 Y136.134 E0.05519
G1 X127.515 Y135.355 E0.05589
G1 X129.442 Y133.381 E0.16215
G1 X130.449 Y132.237 E0.08966
G1 X131.294 Y131.392 E0.07024
G1 X131.673 Y131.771 F24000
G1 F7467.9879
G1 X132.605 Y130.839 E0.07746
G1 X133.739 Y129.839 E0.08887
G1 X135.648 Y127.969 E0.15714
G1 X136.523 Y127.364 E0.06254
G1 X137.474 Y126.938 E0.06122
G1 X138.554 Y126.681 E0.06531
G1 X139.698 Y126.645 E0.06727
G1 X140.574 Y126.782 E0.05212
G1 X141.448 Y127.066 E0.05405
G1 X142.279 Y127.498 E0.05505
G1 X142.989 Y128.022 E0.05186
G1 X160.766 Y143.753 E1.39552
G1 X162.08 Y145.069 E0.10934
G1 X162.801 Y145.914 E0.06534
G1 X163.467 Y146.796 E0.06491
G1 X164.081 Y147.716 E0.06508
G1 X164.694 Y148.77 E0.07168
G1 X165.236 Y149.856 E0.07133
G1 X165.668 Y150.872 E0.06491
G1 X166.036 Y151.904 E0.06443
G1 X166.341 Y152.946 E0.06383
G1 X166.599 Y154.066 E0.06755
G1 X166.814 Y155.404 E0.07965
G1 X166.93 Y156.698 E0.07637
G1 X166.957 Y157.948 E0.07354
G1 X166.905 Y159.134 E0.0698
G1 X166.779 Y160.323 E0.07028
G1 X166.558 Y161.593 E0.07576
G1 X166.13 Y163.169 E0.09602
G1 X165.293 Y164.597 E0.09731
G1 X164.05 Y165.688 E0.09724
G1 X162.762 Y166.277 E0.08326
G1 X161.571 Y166.564 E0.07199
G1 X159.636 Y166.953 E0.11607
G1 X158.193 Y167.052 E0.085
G1 X156.696 Y167.017 E0.08804
G1 X153.84 Y166.553 E0.17009
G1 X152.724 Y166.281 E0.06755
G1 X151.636 Y165.946 E0.06693
G1 X150.613 Y165.564 E0.06418
G1 X149.542 Y165.089 E0.06885
G1 X148.611 Y164.608 E0.0616
G1 X147.699 Y164.07 E0.06225
G1 X146.863 Y163.515 E0.059
G1 X146.047 Y162.906 E0.05989
G1 X145.241 Y162.234 E0.06166
G1 X144.47 Y161.515 E0.06202
G1 X143.747 Y160.759 E0.06149
G1 X127.519 Y142.321 E1.44399
G1 X127.122 Y141.576 E0.04966
G1 X126.832 Y140.794 E0.04902
G1 X126.641 Y138.875 E0.11338
G1 X126.783 Y138.004 E0.05185
G1 X127.04 Y137.195 E0.0499
G1 X127.441 Y136.392 E0.05279
G1 X127.941 Y135.681 E0.05107
G1 X129.834 Y133.746 E0.15917
G1 X130.834 Y132.609 E0.08898
G1 X131.62 Y131.824 E0.06533
G1 X131.999 Y132.202 F24000
G1 F7467.9879
G1 X132.977 Y131.223 E0.08138
G1 X134.104 Y130.231 E0.08823
G1 X135.973 Y128.395 E0.15406
G1 X136.767 Y127.841 E0.0569
G1 X137.624 Y127.452 E0.05536
G1 X138.6 Y127.215 E0.05905
G1 X139.642 Y127.178 E0.06127
G1 X140.431 Y127.298 E0.0469
G1 X141.223 Y127.552 E0.04889
G1 X141.979 Y127.942 E0.04999
G1 X142.643 Y128.431 E0.0485
G1 X160.405 Y144.149 E1.39433
G1 X161.693 Y145.44 E0.10726
G1 X162.389 Y146.256 E0.06301
G1 X163.034 Y147.112 E0.06304
G1 X163.631 Y148.007 E0.06322
G1 X164.219 Y149.017 E0.06874
G1 X164.746 Y150.073 E0.06937
G1 X165.166 Y151.06 E0.06304
G1 X165.524 Y152.063 E0.0626
G1 X165.825 Y153.089 E0.06291
G1 X166.071 Y154.16 E0.0646
G1 X166.282 Y155.461 E0.07745
G1 X166.396 Y156.736 E0.07527
G1 X166.421 Y157.951 E0.07143
G1 X166.372 Y159.086 E0.06681
G1 X166.25 Y160.24 E0.06823
G1 X166.038 Y161.464 E0.07303
G1 X165.623 Y162.994 E0.09315
G1 X164.854 Y164.287 E0.08844
G1 X163.791 Y165.218 E0.08309
G1 X162.611 Y165.762 E0.0764
G1 X161.461 Y166.04 E0.06954
G1 X159.547 Y166.425 E0.11474
G1 X158.193 Y166.516 E0.07982
G1 X156.763 Y166.486 E0.08404
G1 X153.957 Y166.03 E0.16716
G1 X152.874 Y165.766 E0.06554
G1 X151.801 Y165.437 E0.06599
G1 X150.823 Y165.071 E0.06136
G1 X149.767 Y164.603 E0.06791
G1 X148.864 Y164.136 E0.05976
G1 X147.99 Y163.62 E0.05969
G1 X147.178 Y163.081 E0.05728
G1 X146.373 Y162.481 E0.05903
G1 X145.59 Y161.828 E0.05993
G1 X144.841 Y161.128 E0.06025
G1 X144.138 Y160.393 E0.05983
G1 X127.976 Y142.041 E1.43759
G1 X127.618 Y141.372 E0.04462
G1 X127.347 Y140.64 E0.04593
G1 X127.176 Y138.925 E0.10132
G1 X127.299 Y138.147 E0.04629
G1 X127.544 Y137.378 E0.04748
G1 X127.91 Y136.65 E0.04787
G1 X128.365 Y136.008 E0.04628
G1 X130.227 Y134.11 E0.15627
G1 X131.219 Y132.982 E0.08833
G1 X131.946 Y132.255 E0.06041
G1 X132.324 Y132.634 F24000
G1 F7467.9879
G1 X133.35 Y131.608 E0.08528
G1 X134.469 Y130.624 E0.08761
G1 X136.3 Y128.82 E0.15107
G1 X137.013 Y128.318 E0.0513
G1 X137.778 Y127.966 E0.04951
G1 X138.649 Y127.749 E0.05278
G1 X139.587 Y127.712 E0.05516
G1 X140.328 Y127.825 E0.04411
G1 X141.036 Y128.055 E0.04373
G1 X141.712 Y128.407 E0.04484
G1 X142.296 Y128.84 E0.04273
G1 X160.043 Y144.544 E1.39316
G1 X161.307 Y145.811 E0.10516
G1 X161.976 Y146.597 E0.06068
G1 X162.602 Y147.428 E0.06118
G1 X163.181 Y148.297 E0.06137
G1 X163.743 Y149.265 E0.06582
G1 X164.257 Y150.29 E0.06743
G1 X164.664 Y151.247 E0.06115
G1 X165.017 Y152.235 E0.06167
G1 X165.309 Y153.232 E0.06108
G1 X165.544 Y154.255 E0.06168
G1 X165.749 Y155.518 E0.07524
G1 X165.861 Y156.775 E0.07417
G1 X165.885 Y157.953 E0.0693
G1 X165.838 Y159.038 E0.06385
G1 X165.72 Y160.158 E0.06619
G1 X165.517 Y161.336 E0.07029
G1 X165.115 Y162.818 E0.09028
G1 X164.467 Y163.914 E0.07485
G1 X163.529 Y164.749 E0.07381
G1 X162.459 Y165.248 E0.06941
G1 X161.35 Y165.516 E0.06707
G1 X159.459 Y165.896 E0.11339
G1 X158.169 Y165.981 E0.07599
G1 X156.799 Y165.951 E0.08058
G1 X156.258 Y165.841 E0.03246
G1 X155.07 Y165.687 E0.07042
G1 X154.06 Y165.504 E0.06033
G1 X153.008 Y165.248 E0.06365
G1 X151.966 Y164.927 E0.06412
G1 X151.033 Y164.578 E0.05855
G1 X149.992 Y164.116 E0.06697
G1 X149.117 Y163.664 E0.0579
G1 X148.28 Y163.17 E0.05714
G1 X147.492 Y162.647 E0.05556
G1 X146.699 Y162.056 E0.05816
G1 X145.939 Y161.422 E0.05819
G1 X145.213 Y160.742 E0.05849
G1 X144.529 Y160.027 E0.05818
G1 X128.434 Y141.761 E1.43121
G1 X128.099 Y141.136 E0.0417
G1 X127.861 Y140.487 E0.04064
G1 X127.71 Y138.975 E0.08933
G1 X127.825 Y138.252 E0.04305
G1 X128.047 Y137.562 E0.0426
G1 X128.379 Y136.911 E0.04295
G1 X128.789 Y136.336 E0.04151
G1 X130.619 Y134.475 E0.15345
G1 X131.604 Y133.355 E0.08769
G1 X132.271 Y132.687 E0.0555
G1 X132.65 Y133.066 F24000
G1 F7467.9879
G1 X133.723 Y131.993 E0.08919
G1 X134.834 Y131.016 E0.08701
G1 X136.628 Y129.244 E0.1482
G1 X137.262 Y128.793 E0.04574
G1 X137.935 Y128.479 E0.04368
G1 X138.701 Y128.283 E0.04648
G1 X139.534 Y128.245 E0.04902
G1 X140.186 Y128.341 E0.03875
G1 X140.81 Y128.541 E0.03854
G1 X141.411 Y128.851 E0.03973
G1 X141.95 Y129.249 E0.03939
G1 X159.682 Y144.94 E1.39197
G1 X160.92 Y146.181 E0.10306
G1 X161.562 Y146.938 E0.05835
G1 X162.16 Y147.731 E0.05843
G1 X162.73 Y148.587 E0.06043
G1 X163.276 Y149.527 E0.06388
G1 X163.774 Y150.522 E0.06546
G1 X164.168 Y151.45 E0.05923
G1 X164.505 Y152.393 E0.05891
G1 X164.789 Y153.36 E0.05924
G1 X165.017 Y154.35 E0.05967
G1 X165.216 Y155.576 E0.07303
G1 X165.326 Y156.795 E0.07198
G1 X165.35 Y157.939 E0.06726
G1 X165.305 Y158.991 E0.06188
G1 X165.189 Y160.093 E0.06519
G1 X164.997 Y161.208 E0.06651
G1 X164.608 Y162.644 E0.08743
G1 X164.077 Y163.545 E0.06149
G1 X163.265 Y164.282 E0.06447
G1 X162.306 Y164.734 E0.06228
G1 X161.239 Y164.992 E0.06455
G1 X159.371 Y165.367 E0.11202
G1 X158.147 Y165.446 E0.07213
G1 X156.836 Y165.416 E0.07708
G1 X156.348 Y165.313 E0.02933
G1 X155.146 Y165.157 E0.07126
G1 X154.164 Y164.979 E0.05867
G1 X153.143 Y164.729 E0.06177
G1 X152.131 Y164.418 E0.06225
G1 X151.243 Y164.086 E0.05575
G1 X150.216 Y163.63 E0.06602
G1 X149.37 Y163.192 E0.05604
G1 X148.57 Y162.719 E0.05462
G1 X147.806 Y162.214 E0.05384
G1 X147.025 Y161.631 E0.05728
G1 X146.289 Y161.015 E0.05644
G1 X145.584 Y160.356 E0.05672
G1 X144.92 Y159.661 E0.05654
G1 X128.891 Y141.48 E1.42493
G1 X128.595 Y140.933 E0.03652
G1 X128.376 Y140.334 E0.03752
G1 X128.244 Y139.023 E0.07745
G1 X128.342 Y138.394 E0.03743
G1 X128.536 Y137.784 E0.03764
G1 X128.827 Y137.205 E0.03807
G1 X129.213 Y136.665 E0.03905
G1 X131.012 Y134.84 E0.15063
G1 X131.989 Y133.727 E0.08707
G1 X132.597 Y133.119 E0.05058
G1 X132.976 Y133.498 F24000
G1 F7467.9879
G1 X134.095 Y132.378 E0.09309
G1 X135.2 Y131.407 E0.08642
G1 X136.958 Y129.666 E0.14547
G1 X137.513 Y129.266 E0.04022
G1 X138.095 Y128.99 E0.03787
G1 X138.756 Y128.817 E0.04017
G1 X139.484 Y128.779 E0.04287
G1 X140.047 Y128.859 E0.03341
G1 X140.586 Y129.028 E0.0332
G1 X141.146 Y129.317 E0.03708
G1 X141.604 Y129.657 E0.03352
G1 X159.321 Y145.335 E1.39082
G1 X160.533 Y146.552 E0.10094
G1 X161.149 Y147.278 E0.056
G1 X161.719 Y148.035 E0.0557
G1 X162.28 Y148.877 E0.05949
G1 X162.801 Y149.774 E0.06095
G1 X163.291 Y150.755 E0.06448
G1 X163.666 Y151.637 E0.0564
G1 X163.993 Y152.552 E0.05709
G1 X164.269 Y153.489 E0.05741
G1 X164.49 Y154.444 E0.05766
G1 X164.686 Y155.652 E0.07195
G1 X164.791 Y156.816 E0.06867
G1 X164.814 Y157.925 E0.06522
G1 X164.771 Y158.943 E0.0599
G1 X164.657 Y160.029 E0.06419
G1 X164.477 Y161.08 E0.06273
G1 X164.1 Y162.467 E0.08449
G1 X163.638 Y163.235 E0.05267
G1 X162.998 Y163.815 E0.05079
G1 X162.153 Y164.22 E0.05507
G1 X161.128 Y164.468 E0.06198
G1 X159.283 Y164.839 E0.11064
G1 X158.146 Y164.91 E0.067
G1 X156.922 Y164.887 E0.072
G1 X156.438 Y164.785 E0.02908
G1 X155.221 Y164.626 E0.0721
G1 X154.267 Y164.453 E0.057
G1 X153.278 Y164.211 E0.05988
G1 X152.311 Y163.913 E0.05949
G1 X151.452 Y163.593 E0.05387
G1 X150.455 Y163.151 E0.06412
G1 X149.636 Y162.726 E0.05426
G1 X148.86 Y162.269 E0.05296
G1 X148.108 Y161.771 E0.05298
G1 X147.352 Y161.206 E0.05551
G1 X146.638 Y160.609 E0.05469
G1 X145.966 Y159.981 E0.05408
G1 X145.318 Y159.302 E0.05516
G1 X129.347 Y141.198 E1.41927
G1 X129.076 Y140.696 E0.03355
G1 X128.89 Y140.183 E0.03207
G1 X128.779 Y139.072 E0.06567
G1 X128.868 Y138.497 E0.03418
G1 X129.039 Y137.969 E0.03265
G1 X129.294 Y137.467 E0.03312
G1 X129.635 Y136.995 E0.03422
G1 X131.404 Y135.205 E0.14792
G1 X132.374 Y134.1 E0.08647
G1 X132.923 Y133.551 E0.04565
G1 X133.301 Y133.929 F24000
G1 F7467.9879
G1 X134.468 Y132.763 E0.09699
G1 X135.565 Y131.799 E0.08586
G1 X137.29 Y130.087 E0.14287
G1 X137.768 Y129.738 E0.03476
G1 X138.26 Y129.501 E0.03211
G1 X138.815 Y129.35 E0.03384
G1 X139.435 Y129.313 E0.03653
G1 X139.949 Y129.386 E0.0305
G1 X140.4 Y129.531 E0.02786
G1 X140.879 Y129.781 E0.03174
G1 X141.257 Y130.066 E0.0278
G1 X158.96 Y145.731 E1.3897
G1 X160.131 Y146.906 E0.09756
G1 X160.735 Y147.619 E0.05492
G1 X161.278 Y148.338 E0.05297
G1 X161.821 Y149.154 E0.05759
G1 X162.326 Y150.021 E0.05898
G1 X162.801 Y150.972 E0.06251
G1 X163.17 Y151.84 E0.05545
G1 X163.486 Y152.725 E0.05524
G1 X163.749 Y153.617 E0.05469
G1 X163.962 Y154.539 E0.05564
G1 X164.156 Y155.729 E0.07085
G1 X164.256 Y156.854 E0.06642
G1 X164.279 Y157.927 E0.06311
G1 X164.236 Y158.911 E0.05791
G1 X164.127 Y159.947 E0.06122
G1 X163.956 Y160.955 E0.06012
G1 X163.62 Y162.228 E0.0774
G1 X163.244 Y162.87 E0.04369
G1 X162.728 Y163.351 E0.04151
G1 X161.999 Y163.706 E0.04765
G1 X161.018 Y163.943 E0.05936
G1 X159.196 Y164.31 E0.10925
G1 X158.144 Y164.374 E0.06196
G1 X157.007 Y164.357 E0.06686
G1 X156.527 Y164.256 E0.0288
G1 X155.297 Y164.096 E0.07294
G1 X154.371 Y163.928 E0.05533
G1 X153.428 Y163.697 E0.05709
G1 X152.491 Y163.408 E0.05765
G1 X151.662 Y163.1 E0.05199
G1 X150.694 Y162.671 E0.06221
G1 X149.901 Y162.261 E0.05247
G1 X149.138 Y161.811 E0.05211
G1 X148.41 Y161.329 E0.0513
G1 X147.678 Y160.782 E0.05375
G1 X146.988 Y160.204 E0.05294
G1 X146.338 Y159.595 E0.05233
G1 X145.716 Y158.944 E0.05292
G1 X129.803 Y140.915 E1.41373
G1 X129.573 Y140.495 E0.02817
G1 X129.405 Y140.032 E0.02891
G1 X129.314 Y139.118 E0.05403
G1 X129.385 Y138.639 E0.02849
G1 X129.527 Y138.19 E0.02765
G1 X129.741 Y137.763 E0.02811
G1 X130.057 Y137.325 E0.03173
G1 X131.796 Y135.571 E0.1452
G1 X132.759 Y134.472 E0.08588
G1 X133.248 Y133.982 E0.04072
G1 X133.627 Y134.361 F24000
G1 F7467.9879
G1 X134.841 Y133.148 E0.10089
G1 X135.931 Y132.191 E0.0853
G1 X137.625 Y130.506 E0.14045
G1 X138.026 Y130.208 E0.02937
G1 X138.429 Y130.009 E0.02639
G1 X138.879 Y129.882 E0.0275
G1 X139.391 Y129.848 E0.03015
G1 X139.812 Y129.904 E0.02497
G1 X140.174 Y130.017 E0.02228
G1 X140.61 Y130.245 E0.02898
G1 X140.909 Y130.473 E0.02208
G1 X158.598 Y146.126 E1.38864
G1 X159.73 Y147.261 E0.09419
G1 X160.322 Y147.959 E0.05383
G1 X160.836 Y148.642 E0.05026
G1 X161.362 Y149.43 E0.05569
G1 X161.858 Y150.283 E0.058
G1 X162.319 Y151.204 E0.06053
G1 X162.669 Y152.027 E0.05262
G1 X162.975 Y152.883 E0.05343
G1 X163.229 Y153.746 E0.05288
G1 X163.435 Y154.634 E0.05361
G1 X163.623 Y155.786 E0.06861
G1 X163.722 Y156.893 E0.06531
G1 X163.743 Y157.913 E0.06001
G1 X163.703 Y158.864 E0.05594
G1 X163.596 Y159.882 E0.06022
G1 X163.43 Y160.854 E0.05795
G1 X163.136 Y161.996 E0.06932
G1 X162.849 Y162.506 E0.0344
G1 X162.393 Y162.931 E0.03667
G1 X161.846 Y163.192 E0.0356
G1 X160.907 Y163.419 E0.05681
G1 X159.109 Y163.781 E0.10784
G1 X158.14 Y163.838 E0.05704
G1 X157.091 Y163.828 E0.06166
G1 X156.617 Y163.728 E0.02848
G1 X155.373 Y163.566 E0.07377
G1 X154.475 Y163.402 E0.05365
G1 X153.563 Y163.178 E0.05522
G1 X152.67 Y162.904 E0.05493
G1 X151.871 Y162.607 E0.05012
G1 X150.933 Y162.192 E0.06031
G1 X150.167 Y161.796 E0.05068
G1 X149.416 Y161.353 E0.05125
G1 X148.713 Y160.887 E0.0496
G1 X148.005 Y160.357 E0.05198
G1 X147.337 Y159.798 E0.0512
G1 X146.72 Y159.22 E0.04971
G1 X146.114 Y158.586 E0.05156
G1 X130.258 Y140.632 E1.40819
G1 X130.053 Y140.256 E0.02515
G1 X129.921 Y139.884 E0.02322
G1 X129.848 Y139.164 E0.04255
G1 X129.912 Y138.74 E0.02522
G1 X130.03 Y138.376 E0.02248
G1 X130.209 Y138.026 E0.02313
G1 X130.478 Y137.657 E0.0268
G1 X132.188 Y135.936 E0.14263
G1 X133.144 Y134.845 E0.08531
G1 X133.574 Y134.414 E0.03579
G1 X133.953 Y134.793 F24000
G1 F7467.9879
G1 X135.216 Y133.529 E0.10503
G1 X136.297 Y132.582 E0.08449
