; generated by SuperSlicer 2.5.59 on 2023-06-23 at 01:54:51 UTC


;
;

;
;
; 

; external perimeters extrusion width = 0.50mm
; perimeters extrusion width = 0.50mm
; infill extrusion width = 0.75mm
; solid infill extrusion width = 0.65mm
; top infill extrusion width = 0.60mm
; first layer extrusion width = 0.60mm

; object:{"name":"608RollBearing","id":"608RollBearing.stl id:0 copy 0","object_center":[150.000000,150.000000,0.000000],"boundingbox_center":[150.000000,150.000000,3.500000],"boundingbox_size":[21.998238,21.998238,7.000000]}
EXCLUDE_OBJECT_DEFINE NAME=608RollBearing_stl_id_0_copy_0 CENTER=150.000000,150.000000 POLYGON=[[139.000880,149.937152],[139.014960,149.440128],[139.051440,148.944304],[139.110256,148.450592],[139.191376,147.960080],[139.294624,147.473728],[139.419552,146.992544],[139.566288,146.517424],[139.734288,146.049488],[139.923296,145.589648],[140.132816,145.138720],[140.362544,144.697824],[140.611952,144.267696],[140.880512,143.849376],[141.167744,143.443504],[141.472992,143.050992],[141.795712,142.672816],[142.135136,142.309504],[142.490608,141.961968],[142.861472,141.630832],[143.246992,141.316720],[143.646208,141.020464],[144.058400,140.742496],[144.482784,140.483408],[144.918448,140.243776],[145.364416,140.024064],[145.819936,139.824800],[146.283936,139.646192],[146.755504,139.488864],[147.233792,139.352960],[147.717744,139.238832],[148.206352,139.146624],[148.698480,139.076608],[149.193472,139.028960],[149.690000,139.003648],[150.187168,139.000880],[150.683984,139.020544],[151.179312,139.062624],[151.672384,139.127024],[152.161904,139.213648],[152.647120,139.322400],[153.126896,139.452864],[153.600240,139.604896],[154.066288,139.778208],[154.524000,139.972304],[154.972448,140.186976],[155.410784,140.421680],[155.838016,140.675968],[156.253360,140.949184],[156.655920,141.240992],[157.044896,141.550640],[157.419456,141.877536],[157.778864,142.221136],[158.122464,142.580544],[158.449360,142.955104],[158.759008,143.344080],[159.050816,143.746640],[159.324032,144.161984],[159.578320,144.589216],[159.813024,145.027552],[160.027696,145.476000],[160.221792,145.933712],[160.395104,146.399760],[160.547136,146.873104],[160.677600,147.352880],[160.786352,147.838096],[160.872976,148.327616],[160.937376,148.820688],[160.979456,149.316016],[160.999120,149.812832],[160.996352,150.310000],[160.971040,150.806528],[160.923392,151.301520],[160.853376,151.793648],[160.761168,152.282256],[160.647040,152.766208],[160.511136,153.244496],[160.353808,153.716064],[160.175216,154.180096],[159.975920,154.635568],[159.756240,155.081568],[159.516608,155.517232],[159.257520,155.941616],[158.979568,156.353824],[158.683296,156.753024],[158.369168,157.138528],[158.038032,157.509392],[157.690496,157.864864],[157.327216,158.204320],[156.948976,158.526976],[156.556496,158.832272],[156.150656,159.119520],[155.732304,159.388048],[155.302192,159.637472],[154.861264,159.867152],[154.410368,160.076720],[153.950496,160.265680],[153.482576,160.433712],[153.007456,160.580448],[152.526272,160.705376],[152.039920,160.808624],[151.549408,160.889744],[151.055696,160.948560],[150.559872,160.985040],[150.062848,160.999120],[149.565696,160.990704],[149.069504,160.959808],[148.575184,160.906560],[148.083808,160.830976],[147.596256,160.733328],[147.113728,160.613680],[146.636992,160.472400],[146.167136,160.309696],[145.705168,160.125920],[145.251984,159.921488],[144.808480,159.696784],[144.375600,159.452256],[143.954160,159.188352],[143.545184,158.905808],[143.149264,158.604912],[142.767424,158.286592],[142.400304,157.951280],[142.048720,157.599696],[141.713408,157.232576],[141.395088,156.850736],[141.094192,156.454816],[140.811648,156.045840],[140.547744,155.624400],[140.303216,155.191520],[140.078512,154.748016],[139.874080,154.294832],[139.690304,153.832864],[139.527600,153.363008],[139.386320,152.886272],[139.266672,152.403744],[139.169024,151.916192],[139.093440,151.424816],[139.040192,150.930496],[139.009296,150.434304],[139.000880,149.937152]]
; plater:{"center":[150.000000,150.000000,0.000000],"boundingbox_center":[150.000000,150.000000,3.500000],"boundingbox_size":[21.998238,21.998238,7.000000]}

;TYPE:Custom
PRINT_START EXTRUDER=255 BED=110 AREA_START=132.615,132.614 AREA_END=167.386,167.385
M107
G21 ; set units to millimeters
G90 ; use absolute coordinates
M83 ; use relative distances for extrusion
SET_PRESSURE_ADVANCE SMOOTH_TIME=0.02
SET_PRESSURE_ADVANCE ADVANCE=0.02
;_TOOLCHANGE 0
M109 S255 ; set temperature and wait for it to be reached
M190 S110 ; set bed temperature and wait for it to be reached
M107
;LAYER_CHANGE
;Z:0.2
;HEIGHT:0.2
;BEFORE_LAYER_CHANGE
TIMELAPSE_TAKE_FRAME
;0.2


G1 Z0.2 F36000
;AFTER_LAYER_CHANGE
;0.2
G92 E0
G1 E-0.8 F3600
G1 Z0.3 F36000
M204 S5000
G1 X138.412 Y137.796
G1 Z0.2
G1 E0.8 F3600
;TYPE:Skirt
;WIDTH:0.6
G1 F1800
G1 X137.04 Y139.265 E0.0838
G1 X136.122 Y140.482 E0.06355
G1 X135.194 Y142.003 E0.07426
G1 X134.531 Y143.374 E0.06351
G1 X133.996 Y144.799 E0.06343
G1 X133.49 Y146.745 E0.08385
G1 X133.263 Y148.258 E0.06377
G1 X133.174 Y149.77 E0.06315
G1 X133.222 Y151.294 E0.06359
G1 X133.453 Y153.059 E0.07419
G1 X133.797 Y154.545 E0.0636
G1 X134.274 Y155.989 E0.06338
G1 X134.876 Y157.379 E0.06316
G1 X135.609 Y158.721 E0.06374
G1 X136.752 Y160.376 E0.08385
G1 X137.747 Y161.534 E0.06364
G1 X139.033 Y162.763 E0.07415
G1 X140.234 Y163.705 E0.06365
G1 X141.509 Y164.528 E0.06328
G1 X143.303 Y165.438 E0.08386
G1 X144.732 Y165.982 E0.06374
G1 X146.446 Y166.448 E0.07405
G1 X147.954 Y166.703 E0.06374
G1 X149.464 Y166.819 E0.06315
G1 X150.993 Y166.799 E0.06372
G1 X152.501 Y166.641 E0.06322
G1 X154.468 Y166.225 E0.08382
G1 X155.923 Y165.751 E0.0638
G1 X157.55 Y165.039 E0.07404
G1 X158.884 Y164.292 E0.06373
G1 X160.526 Y163.13 E0.08385
G1 X161.674 Y162.121 E0.06374
G1 X162.886 Y160.823 E0.07404
G1 X163.816 Y159.609 E0.06376
G1 X164.864 Y157.891 E0.08386
G1 X165.514 Y156.522 E0.06322
G1 X166.042 Y155.087 E0.06373
G1 X166.489 Y153.367 E0.07406
G1 X166.726 Y151.857 E0.06373
G1 X166.826 Y150.345 E0.06316
G1 X166.788 Y148.817 E0.06373
G1 X166.527 Y146.823 E0.08385
G1 X166.174 Y145.347 E0.06324
G1 X165.685 Y143.9 E0.06372
G1 X165.073 Y142.513 E0.06317
G1 X164.331 Y141.176 E0.06375
G1 X163.322 Y139.716 E0.07401
G1 X162.333 Y138.548 E0.06377
G1 X160.879 Y137.159 E0.08385
G1 X159.678 Y136.231 E0.06329
G1 X158.39 Y135.411 E0.06362
G1 X156.803 Y134.607 E0.07419
G1 X155.381 Y134.054 E0.06361
G1 X153.44 Y133.526 E0.08384
G1 X151.93 Y133.282 E0.06377
G1 X150.419 Y133.176 E0.06315
G1 X148.898 Y133.207 E0.06341
G1 X147.384 Y133.376 E0.06353
G1 X145.641 Y133.745 E0.07425
G1 X144.188 Y134.207 E0.06356
G1 X142.346 Y135.012 E0.08384
G1 X141.018 Y135.769 E0.06372
G1 X139.568 Y136.795 E0.07404
G1 X138.469 Y137.747 E0.06063
G1 X138.833 Y138.168 F36000
G1 F1800
G1 X138.802 Y138.195 E0.0017
G1 X137.464 Y139.627 E0.08173
G1 X136.576 Y140.804 E0.06143
G1 X135.688 Y142.26 E0.07112
G1 X135.046 Y143.586 E0.06141
G1 X134.528 Y144.963 E0.06133
G1 X134.034 Y146.861 E0.08177
G1 X133.816 Y148.323 E0.06163
G1 X133.731 Y149.786 E0.06107
G1 X133.778 Y151.26 E0.06147
G1 X133.999 Y152.95 E0.07107
G1 X134.331 Y154.387 E0.06148
G1 X134.792 Y155.783 E0.06128
G1 X135.374 Y157.128 E0.06108
G1 X136.081 Y158.425 E0.06161
G1 X137.196 Y160.039 E0.08178
G1 X138.158 Y161.158 E0.06152
G1 X139.39 Y162.335 E0.07103
G1 X140.551 Y163.246 E0.06153
G1 X141.783 Y164.043 E0.06119
G1 X143.533 Y164.931 E0.08178
G1 X144.914 Y165.455 E0.06161
G1 X146.556 Y165.902 E0.07094
G1 X148.013 Y166.149 E0.06161
G1 X149.474 Y166.262 E0.06107
G1 X150.951 Y166.243 E0.06159
G1 X152.41 Y166.091 E0.06114
G1 X154.328 Y165.685 E0.08175
G1 X155.735 Y165.227 E0.06167
G1 X157.294 Y164.545 E0.07093
G1 X158.583 Y163.824 E0.0616
G1 X160.184 Y162.69 E0.08177
G1 X161.294 Y161.714 E0.06161
G1 X162.455 Y160.471 E0.07092
G1 X163.354 Y159.298 E0.06163
G1 X164.376 Y157.623 E0.08179
G1 X165.004 Y156.298 E0.06113
G1 X165.513 Y154.911 E0.0616
G1 X165.942 Y153.264 E0.07095
G1 X166.172 Y151.804 E0.0616
G1 X166.269 Y150.342 E0.06109
G1 X166.233 Y148.865 E0.0616
G1 X165.978 Y146.92 E0.08177
G1 X165.636 Y145.493 E0.06116
G1 X165.163 Y144.094 E0.06159
G1 X164.57 Y142.754 E0.0611
G1 X163.852 Y141.462 E0.06161
G1 X162.886 Y140.062 E0.0709
G1 X161.931 Y138.934 E0.06163
G1 X160.512 Y137.579 E0.08178
G1 X159.35 Y136.682 E0.0612
G1 X158.105 Y135.89 E0.0615
G1 X156.585 Y135.119 E0.07106
G1 X155.21 Y134.584 E0.0615
G1 X153.318 Y134.069 E0.08176
G1 X151.858 Y133.834 E0.06163
G1 X150.397 Y133.733 E0.06108
G1 X148.926 Y133.763 E0.06131
G1 X147.462 Y133.927 E0.06142
G1 X145.793 Y134.281 E0.07112
G1 X144.388 Y134.726 E0.06145
G1 X142.591 Y135.512 E0.08176
G1 X141.308 Y136.244 E0.06159
G1 X139.919 Y137.227 E0.07093
G1 X138.889 Y138.119 E0.0568
G1 E-0.08 F3600
;WIPE_START
G1 F28800
M204 S10000
G1 X139.919 Y137.227 E-0.16178
G1 X141.308 Y136.244 E-0.20204
G1 X142.591 Y135.512 E-0.17544
G1 X143.708 Y135.024 E-0.14473
;WIPE_END
G1 E-0.036 F3600
G1 Z0.3 F36000
; printing object 608RollBearing.stl id:0 copy 0
EXCLUDE_OBJECT_START NAME=608RollBearing_stl_id_0_copy_0
; acceleration to travel
G1 X140.558 Y149.052
; decel to extrusion
M204 S5000
G1 X139.99 Y151.584
; end travel
G1 Z0.2
G1 E0.8 F3600
;TYPE:External perimeter
G1 F1800
G1 X140.052 Y151.942 E0.01514
G1 X140.132 Y152.314 E0.01589
G1 X140.226 Y152.684 E0.0159
G1 X140.334 Y153.05 E0.01591
G1 X140.456 Y153.412 E0.0159
G1 X140.591 Y153.768 E0.01589
G1 X140.74 Y154.119 E0.01589
G1 X140.901 Y154.465 E0.0159
G1 X141.075 Y154.804 E0.0159
G1 X141.262 Y155.136 E0.01591
G1 X141.462 Y155.461 E0.0159
G1 X141.674 Y155.778 E0.01589
G1 X141.897 Y156.087 E0.01589
G1 X142.131 Y156.388 E0.01589
G1 X142.377 Y156.68 E0.01591
G1 X142.634 Y156.962 E0.01591
G1 X142.901 Y157.234 E0.0159
G1 X143.178 Y157.496 E0.01589
G1 X143.465 Y157.747 E0.01589
G1 X143.761 Y157.987 E0.0159
G1 X144.066 Y158.217 E0.0159
G1 X144.379 Y158.434 E0.01591
G1 X144.701 Y158.639 E0.0159
G1 X145.029 Y158.832 E0.01589
G1 X145.365 Y159.013 E0.01589
G1 X145.707 Y159.181 E0.01589
G1 X146.056 Y159.337 E0.0159
G1 X146.41 Y159.479 E0.01591
G1 X146.769 Y159.607 E0.0159
G1 X147.133 Y159.721 E0.01589
G1 X147.5 Y159.822 E0.01589
G1 X147.871 Y159.91 E0.01589
G1 X148.246 Y159.983 E0.01591
G1 X148.623 Y160.042 E0.01591
G1 X149.001 Y160.086 E0.01589
G1 X149.381 Y160.116 E0.01589
G1 X149.762 Y160.133 E0.01589
G1 X150.143 Y160.135 E0.01589
G1 X150.525 Y160.122 E0.01591
G1 X150.906 Y160.095 E0.01591
G1 X151.285 Y160.054 E0.0159
G1 X151.662 Y159.998 E0.01589
G1 X152.036 Y159.929 E0.01589
G1 X152.408 Y159.846 E0.0159
G1 X152.777 Y159.748 E0.01591
G1 X153.142 Y159.637 E0.01591
G1 X153.503 Y159.511 E0.0159
G1 X153.858 Y159.373 E0.01589
G1 X154.207 Y159.221 E0.01589
G1 X154.551 Y159.057 E0.0159
G1 X154.889 Y158.879 E0.01591
G1 X155.22 Y158.689 E0.01591
G1 X155.543 Y158.486 E0.0159
G1 X155.858 Y158.272 E0.01589
G1 X156.165 Y158.046 E0.01589
G1 X156.463 Y157.809 E0.0159
G1 X156.753 Y157.56 E0.01591
G1 X157.032 Y157.3 E0.01591
G1 X157.302 Y157.03 E0.01589
G1 X157.561 Y156.751 E0.01589
G1 X157.809 Y156.462 E0.01589
G1 X158.047 Y156.164 E0.0159
G1 X158.274 Y155.857 E0.01591
G1 X158.488 Y155.541 E0.01591
G1 X158.69 Y155.218 E0.0159
G1 X158.88 Y154.887 E0.01589
G1 X159.058 Y154.55 E0.01589
G1 X159.223 Y154.206 E0.0159
G1 X159.375 Y153.856 E0.01591
G1 X159.513 Y153.501 E0.01591
G1 X159.638 Y153.14 E0.0159
G1 X159.749 Y152.776 E0.01589
G1 X159.847 Y152.407 E0.01589
G1 X159.931 Y152.035 E0.0159
G1 X160 Y151.66 E0.01591
G1 X160.056 Y151.283 E0.01591
G1 X160.096 Y150.904 E0.01589
G1 X160.123 Y150.523 E0.01589
G1 X160.136 Y150.142 E0.01589
G1 X160.135 Y149.761 E0.01589
G1 X160.119 Y149.38 E0.01591
G1 X160.088 Y149 E0.01591
G1 X160.043 Y148.621 E0.01589
G1 X159.984 Y148.244 E0.01589
G1 X159.911 Y147.87 E0.01589
G1 X159.824 Y147.499 E0.0159
G1 X159.723 Y147.131 E0.01591
G1 X159.608 Y146.767 E0.01591
G1 X159.479 Y146.408 E0.01589
G1 X159.338 Y146.054 E0.01589
G1 X159.183 Y145.706 E0.01589
G1 X159.015 Y145.364 E0.0159
G1 X158.834 Y145.028 E0.01591
G1 X158.641 Y144.699 E0.01591
G1 X158.435 Y144.378 E0.01589
G1 X158.218 Y144.065 E0.01589
G1 X157.989 Y143.76 E0.01589
G1 X157.749 Y143.464 E0.0159
G1 X157.497 Y143.176 E0.01591
G1 X157.235 Y142.899 E0.01591
G1 X156.963 Y142.632 E0.01589
G1 X156.681 Y142.376 E0.01589
G1 X156.39 Y142.13 E0.01589
G1 X156.089 Y141.895 E0.0159
G1 X155.78 Y141.672 E0.01591
G1 X155.462 Y141.46 E0.01591
G1 X155.137 Y141.261 E0.0159
G1 X154.805 Y141.074 E0.01588
G1 X154.466 Y140.9 E0.01589
G1 X154.121 Y140.738 E0.0159
G1 X153.769 Y140.589 E0.01591
G1 X153.413 Y140.454 E0.01591
G1 X153.051 Y140.333 E0.0159
G1 X152.686 Y140.225 E0.01589
G1 X152.316 Y140.131 E0.01589
G1 X151.943 Y140.051 E0.0159
G1 X151.567 Y139.984 E0.01591
G1 X151.19 Y139.933 E0.0159
G1 X150.81 Y139.896 E0.0159
G1 X150.43 Y139.872 E0.01589
G1 X150.049 Y139.863 E0.01589
G1 X149.667 Y139.868 E0.0159
G1 X149.286 Y139.888 E0.01591
G1 X148.906 Y139.922 E0.0159
G1 X148.528 Y139.971 E0.0159
G1 X148.152 Y140.033 E0.01589
G1 X147.779 Y140.11 E0.01589
G1 X147.408 Y140.2 E0.0159
G1 X147.041 Y140.304 E0.01591
G1 X146.678 Y140.423 E0.0159
G1 X146.321 Y140.555 E0.0159
G1 X145.968 Y140.7 E0.01589
G1 X145.621 Y140.858 E0.0159
G1 X145.28 Y141.029 E0.0159
G1 X144.946 Y141.213 E0.01591
G1 X144.619 Y141.409 E0.0159
G1 X144.3 Y141.618 E0.01589
G1 X143.989 Y141.838 E0.01589
G1 X143.686 Y142.07 E0.0159
G1 X143.392 Y142.313 E0.0159
G1 X143.108 Y142.567 E0.01591
G1 X142.833 Y142.832 E0.0159
G1 X142.569 Y143.107 E0.01589
G1 X142.315 Y143.391 E0.01589
G1 X142.072 Y143.684 E0.01589
G1 X141.839 Y143.987 E0.01591
G1 X141.619 Y144.299 E0.01591
G1 X141.411 Y144.618 E0.0159
G1 X141.215 Y144.945 E0.01589
G1 X141.031 Y145.279 E0.01589
G1 X140.859 Y145.619 E0.01589
G1 X140.701 Y145.966 E0.01591
G1 X140.556 Y146.319 E0.01591
G1 X140.424 Y146.677 E0.0159
G1 X140.306 Y147.04 E0.01589
G1 X140.202 Y147.406 E0.01589
G1 X140.111 Y147.777 E0.0159
G1 X140.034 Y148.15 E0.0159
G1 X139.972 Y148.527 E0.01591
G1 X139.924 Y148.905 E0.0159
G1 X139.89 Y149.285 E0.01589
G1 X139.87 Y149.665 E0.01589
G1 X139.864 Y150.047 E0.0159
G1 X139.873 Y150.428 E0.0159
G1 X139.896 Y150.809 E0.01591
G1 X139.934 Y151.189 E0.0159
G1 X139.979 Y151.51 E0.01351
;WIPE_START
M204 S10000
G1 X139.603 Y151.9 F36000
;WIPE_END
G1 E-0.08 F3600
;WIPE_START
G1 F28800
G1 X139.889 Y152.371 E-0.06542
G1 X139.985 Y152.75 E-0.04643
G1 X140.096 Y153.125 E-0.04645
G1 X140.221 Y153.496 E-0.04643
G1 X140.359 Y153.861 E-0.04637
G1 X140.511 Y154.22 E-0.04634
G1 X140.676 Y154.574 E-0.04639
G1 X140.855 Y154.922 E-0.04644
G1 X141.047 Y155.263 E-0.04645
G1 X141.251 Y155.596 E-0.04642
G1 X141.468 Y155.921 E-0.04637
G1 X141.697 Y156.237 E-0.04635
G1 X141.937 Y156.545 E-0.04637
G1 X142.189 Y156.845 E-0.04645
G1 X142.276 Y156.94 E-0.01532
;WIPE_END
G1 E-0.036 F3600
G1 Z0.3 F36000
; acceleration to travel
G1 X145.385 Y142.678
; decel to extrusion
M204 S5000
G1 X145.946 Y140.105
; end travel
G1 Z0.2
G1 E0.8 F3600
G1 F1800
G1 X146.388 Y139.934 E0.01974
G1 X146.846 Y139.781 E0.02014
G1 X147.311 Y139.649 E0.02014
G1 X147.781 Y139.538 E0.02015
G1 X148.256 Y139.449 E0.02016
G1 X148.735 Y139.381 E0.02015
G1 X149.216 Y139.334 E0.02015
G1 X149.698 Y139.309 E0.02014
G1 X150.182 Y139.307 E0.02015
G1 X150.665 Y139.326 E0.02016
G1 X151.147 Y139.367 E0.02015
G1 X151.626 Y139.429 E0.02015
G1 X152.102 Y139.514 E0.02014
G1 X152.573 Y139.62 E0.02016
G1 X153.04 Y139.747 E0.02016
G1 X153.5 Y139.894 E0.02016
G1 X153.953 Y140.062 E0.02015
G1 X154.398 Y140.251 E0.02014
G1 X154.834 Y140.46 E0.02015
G1 X155.26 Y140.688 E0.02016
G1 X155.676 Y140.936 E0.02016
G1 X156.08 Y141.201 E0.02014
G1 X156.471 Y141.485 E0.02014
G1 X156.849 Y141.786 E0.02015
G1 X157.213 Y142.104 E0.02015
G1 X157.563 Y142.438 E0.02016
G1 X157.897 Y142.787 E0.02014
G1 X158.214 Y143.151 E0.02014
G1 X158.515 Y143.529 E0.02015
G1 X158.799 Y143.921 E0.02016
G1 X159.065 Y144.325 E0.02016
G1 X159.312 Y144.74 E0.02014
G1 X159.54 Y145.166 E0.02014
G1 X159.748 Y145.602 E0.02015
G1 X159.937 Y146.047 E0.02016
G1 X160.106 Y146.5 E0.02016
G1 X160.254 Y146.96 E0.02014
G1 X160.38 Y147.426 E0.02014
G1 X160.486 Y147.898 E0.02016
