; generated by SuperSlicer 2.5.59 on 2022-12-04 at 22:11:22 UTC


;
;

;
;
; 

; external perimeters extrusion width = 0.50mm
; perimeters extrusion width = 0.50mm
; infill extrusion width = 0.60mm
; solid infill extrusion width = 0.60mm
; top infill extrusion width = 0.50mm

; external perimeters extrusion width = 0.50mm
; perimeters extrusion width = 0.50mm
; infill extrusion width = 0.60mm
; solid infill extrusion width = 0.60mm
; top infill extrusion width = 0.50mm

; object:{"name":"[a]_Cable_Tie_x1","id":"[a]_Cable_Tie_x1.STL id:0 copy 0","object_center":[156.642483,158.410244,0.000000],"boundingbox_center":[156.642483,158.410244,6.288862],"boundingbox_size":[25.571959,25.571959,12.577724]}
; object:{"name":"Guidler_DD_x1","id":"Guidler_DD_x1.stl id:1 copy 0","object_center":[145.151997,146.919762,0.000000],"boundingbox_center":[145.151997,146.919762,4.999971],"boundingbox_size":[29.160915,36.231972,9.999943]}
; plater:{"center":[150.000001,150.000000,0.000000],"boundingbox_center":[150.000001,150.000000,6.288862],"boundingbox_size":[38.856923,42.392447,12.577724]}

;TYPE:Custom
M117


; Pre-Processed for Cancel-Object support by preprocess_cancellation v0.2.0
; 2 known objects
EXCLUDE_OBJECT_DEFINE NAME=a__Cable_Tie_x1_STL_id_0_copy_0 CENTER=156.625,158.418 POLYGON=[[162.599,145.749],[159.167,146.65],[159.068,146.699],[151.935,153.595],[146.006,159.524],[144.068,161.695],[143.992,161.816],[143.99,161.966],[144.063,162.084],[152.96,170.981],[153.085,171.06],[153.231,171.063],[153.352,170.99],[155.529,169.046],[161.457,163.118],[168.321,156.021],[168.403,155.89],[169.306,152.45],[169.269,152.296],[162.82,145.835],[162.724,145.768],[162.599,145.749]]
EXCLUDE_OBJECT_DEFINE NAME=Guidler_DD_x1_stl_id_1_copy_0 CENTER=143.044,146.860 POLYGON=[[146.06,128.871],[145.789,128.906],[145.622,128.981],[145.461,129.108],[133.27,141.299],[132.982,141.675],[132.805,142.104],[130.682,158.763],[130.7,159.207],[130.846,159.671],[131.0,159.934],[131.201,160.172],[135.471,164.442],[135.846,164.73],[136.273,164.906],[136.731,164.967],[137.177,164.91],[137.62,164.728],[137.99,164.442],[159.398,143.034],[159.56,142.804],[159.617,142.623],[159.628,142.44],[159.566,142.181],[159.403,141.944],[146.557,129.098],[146.326,128.938],[146.06,128.871]]
PRINT_START EXTRUDER=240 BED=105
M107
G21 ; set units to millimeters
G90 ; use absolute coordinates
M83 ; use relative distances for extrusion
SET_PRESSURE_ADVANCE SMOOTH_TIME=0.03
SET_PRESSURE_ADVANCE ADVANCE=0.045
;_TOOLCHANGE 0
M104 S240 ; set temperature
M109 S240 ; set temperature and wait for it to be reached
M190 S105 ; set bed temperature and wait for it to be reached
M107
;LAYER_CHANGE
;Z:0.2
;HEIGHT:0.2
;BEFORE_LAYER_CHANGE
;0.2


G1 Z0.2 F24000
;AFTER_LAYER_CHANGE
;0.2
G92 E0
G1 E-0.6 F2400
M204 S5000
G1 X136.027 Y130.947 F24000
G1 E0.6 F2400
;TYPE:Skirt
;WIDTH:0.48
G1 F1800
G1 X135.359 Y131.885 E0.03935
G1 X130.7 Y140.269 E0.32767
G1 X130.138 Y141.639 E0.05058
G1 X125.909 Y156.808 E0.53798
G1 X125.72 Y158.29 E0.05102
G1 X125.845 Y159.863 E0.05391
G1 X126.356 Y161.45 E0.05697
G1 X127.179 Y162.834 E0.05501
G1 X127.75 Y163.502 E0.03001
G1 X132.142 Y167.893 E0.21219
G1 X132.871 Y168.515 E0.03272
G1 X133.598 Y168.99 E0.02967
G1 X134.377 Y169.377 E0.0297
G1 X151.015 Y176.198 E0.61433
G1 X153.342 Y176.617 E0.08076
G1 X155.408 Y176.154 E0.07235
G1 X157.16 Y174.964 E0.07235
G1 X172.303 Y159.82 E0.73163
G1 X173.773 Y157.26 E0.10085
G1 X174.666 Y153.868 E0.11985
G1 X174.85 Y152.247 E0.05572
G1 X174.387 Y150.181 E0.07235
G1 X173.196 Y148.429 E0.07235
G1 X166.623 Y141.857 E0.31754
G1 X165.669 Y141.09 E0.04184
G1 X145.506 Y128.211 E0.81734
G1 X143.731 Y127.465 E0.06576
G1 X142.158 Y127.302 E0.05404
G1 X140.529 Y127.554 E0.05629
G1 X139.363 Y128.02 E0.04293
G1 X138.404 Y128.621 E0.03866
G1 X137.696 Y129.223 E0.03176
G1 X136.069 Y130.904 E0.0799
G1 X136.442 Y131.192 F24000
G1 F1800
G1 X135.737 Y132.104 E0.03938
G1 X131.082 Y140.481 E0.3274
G1 X130.559 Y141.757 E0.04709
G1 X126.333 Y156.917 E0.53766
G1 X126.156 Y158.314 E0.04811
G1 X126.276 Y159.788 E0.05054
G1 X126.759 Y161.28 E0.05358
G1 X127.532 Y162.577 E0.05157
G1 X128.059 Y163.193 E0.02769
G1 X132.451 Y167.584 E0.21219
G1 X133.138 Y168.168 E0.0308
G1 X133.809 Y168.607 E0.02738
G1 X134.542 Y168.973 E0.028
G1 X151.181 Y175.793 E0.61433
G1 X153.166 Y176.183 E0.06911
G1 X155.16 Y175.785 E0.06947
G1 X156.851 Y174.655 E0.06947
G1 X171.994 Y159.511 E0.73163
G1 X173.351 Y157.149 E0.09305
G1 X174.244 Y153.756 E0.11985
G1 X174.415 Y152.423 E0.04594
G1 X174.017 Y150.429 E0.06947
G1 X172.887 Y148.738 E0.06947
G1 X166.314 Y142.166 E0.31754
G1 X165.433 Y141.458 E0.03861
G1 X145.271 Y128.579 E0.81734
G1 X143.626 Y127.889 E0.06093
G1 X141.996 Y127.745 E0.05591
G1 X140.658 Y127.971 E0.04636
G1 X139.693 Y128.343 E0.03531
G1 X138.659 Y128.976 E0.04144
G1 X136.753 Y130.789 E0.08986
G1 X136.478 Y131.144 E0.01534
G1 E-0.06 F2400
;WIPE_START
G1 F19200
G1 X135.737 Y132.104 E-0.144
G1 X134.228 Y134.82 E-0.369
;WIPE_END
G1 E-0.027 F2400
; printing object [a]_Cable_Tie_x1.STL id:0 copy 0
EXCLUDE_OBJECT_START NAME=a__Cable_Tie_x1_STL_id_0_copy_0
G1 X160.632 Y157.948 F24000
G1 E0.6 F2400
;TYPE:Internal perimeter
;WIDTH:0.5
G1 F1800
G1 X161.165 Y157.948 E0.01905
G1 X161.809 Y157.834 E0.02334
G1 X162.423 Y157.611 E0.02334
G1 X162.988 Y157.284 E0.02334
G1 X163.489 Y156.864 E0.02334
G1 X163.909 Y156.364 E0.02334
G1 X164.236 Y155.798 E0.02334
G1 X164.459 Y155.184 E0.02334
G1 X164.572 Y154.541 E0.02334
G1 X164.572 Y153.887 E0.02334
G1 X164.459 Y153.244 E0.02334
G1 X164.236 Y152.63 E0.02334
G1 X163.909 Y152.064 E0.02334
G1 X163.489 Y151.564 E0.02334
G1 X162.988 Y151.144 E0.02334
G1 X162.423 Y150.817 E0.02334
G1 X161.809 Y150.594 E0.02334
G1 X161.165 Y150.48 E0.02334
G1 X160.512 Y150.48 E0.02334
G1 X159.869 Y150.594 E0.02334
G1 X159.255 Y150.817 E0.02334
G1 X158.689 Y151.144 E0.02334
G1 X158.188 Y151.564 E0.02334
G1 X157.769 Y152.064 E0.02334
G1 X157.442 Y152.63 E0.02334
G1 X157.218 Y153.244 E0.02334
G1 X157.105 Y153.887 E0.02334
G1 X157.105 Y154.541 E0.02334
G1 X157.218 Y155.184 E0.02334
G1 X157.442 Y155.798 E0.02334
G1 X157.769 Y156.364 E0.02334
G1 X158.188 Y156.864 E0.02334
G1 X158.689 Y157.284 E0.02334
G1 X159.255 Y157.611 E0.02334
G1 X159.869 Y157.834 E0.02334
G1 X160.512 Y157.948 E0.02334
G1 X160.572 Y157.948 E0.00214
G1 X160.632 Y157.491 F24000
G1 F1800
G1 X161.125 Y157.491 E0.01763
G1 X161.69 Y157.391 E0.02048
G1 X162.229 Y157.195 E0.02048
G1 X162.725 Y156.908 E0.02048
G1 X163.165 Y156.54 E0.02048
G1 X163.533 Y156.101 E0.02048
G1 X163.82 Y155.604 E0.02048
G1 X164.016 Y155.065 E0.02048
G1 X164.115 Y154.501 E0.02048
G1 X164.115 Y153.927 E0.02048
G1 X164.016 Y153.363 E0.02048
G1 X163.82 Y152.824 E0.02048
G1 X163.533 Y152.327 E0.02048
G1 X163.165 Y151.888 E0.02048
G1 X162.725 Y151.52 E0.02048
G1 X162.229 Y151.233 E0.02048
G1 X161.69 Y151.037 E0.02048
G1 X161.125 Y150.937 E0.02048
G1 X160.552 Y150.937 E0.02048
G1 X159.987 Y151.037 E0.02048
G1 X159.449 Y151.233 E0.02048
G1 X158.952 Y151.52 E0.02048
G1 X158.513 Y151.888 E0.02048
G1 X158.144 Y152.327 E0.02048
G1 X157.858 Y152.824 E0.02048
G1 X157.662 Y153.363 E0.02048
G1 X157.562 Y153.927 E0.02048
G1 X157.562 Y154.501 E0.02048
G1 X157.662 Y155.065 E0.02048
G1 X157.858 Y155.604 E0.02048
G1 X158.144 Y156.101 E0.02048
G1 X158.513 Y156.54 E0.02048
G1 X158.952 Y156.908 E0.02048
G1 X159.449 Y157.195 E0.02048
G1 X159.987 Y157.391 E0.02048
G1 X160.552 Y157.491 E0.02048
G1 X160.572 Y157.491 E0.00071
G1 X160.632 Y157.034 F24000
G1 F1800
G1 X161.085 Y157.034 E0.0162
G1 X161.571 Y156.948 E0.01763
G1 X162.035 Y156.779 E0.01763
G1 X162.462 Y156.533 E0.01763
G1 X162.84 Y156.215 E0.01763
G1 X163.157 Y155.837 E0.01763
G1 X163.404 Y155.41 E0.01763
G1 X163.573 Y154.947 E0.01763
G1 X163.658 Y154.461 E0.01763
G1 X163.658 Y153.967 E0.01763
G1 X163.573 Y153.481 E0.01763
G1 X163.404 Y153.018 E0.01763
G1 X163.157 Y152.591 E0.01763
G1 X162.84 Y152.213 E0.01763
G1 X162.462 Y151.896 E0.01763
G1 X162.035 Y151.649 E0.01763
G1 X161.571 Y151.48 E0.01763
G1 X161.085 Y151.394 E0.01763
G1 X160.592 Y151.394 E0.01763
G1 X160.106 Y151.48 E0.01763
G1 X159.643 Y151.649 E0.01763
G1 X159.215 Y151.896 E0.01763
G1 X158.837 Y152.213 E0.01763
G1 X158.52 Y152.591 E0.01763
G1 X158.274 Y153.018 E0.01763
G1 X158.105 Y153.481 E0.01763
G1 X158.019 Y153.967 E0.01763
G1 X158.019 Y154.461 E0.01763
G1 X158.105 Y154.947 E0.01763
G1 X158.274 Y155.41 E0.01763
G1 X158.52 Y155.837 E0.01763
G1 X158.837 Y156.215 E0.01763
G1 X159.215 Y156.533 E0.01763
G1 X159.643 Y156.779 E0.01763
G1 X160.106 Y156.948 E0.01763
G1 X160.572 Y157.03 E0.01691
G1 X160.632 Y156.577 F24000
;TYPE:External perimeter
G1 F1800
G1 X161.045 Y156.577 E0.01477
G1 X161.453 Y156.505 E0.01477
G1 X161.841 Y156.363 E0.01477
G1 X162.199 Y156.157 E0.01477
G1 X162.516 Y155.891 E0.01477
G1 X162.781 Y155.574 E0.01477
G1 X162.988 Y155.216 E0.01477
G1 X163.129 Y154.828 E0.01477
G1 X163.201 Y154.421 E0.01477
G1 X163.201 Y154.007 E0.01477
G1 X163.129 Y153.6 E0.01477
G1 X162.988 Y153.212 E0.01477
G1 X162.781 Y152.854 E0.01477
G1 X162.516 Y152.537 E0.01477
G1 X162.199 Y152.271 E0.01477
G1 X161.841 Y152.065 E0.01477
G1 X161.452 Y151.923 E0.01477
G1 X161.045 Y151.852 E0.01477
G1 X160.632 Y151.852 E0.01477
G1 X160.225 Y151.923 E0.01477
G1 X159.836 Y152.065 E0.01477
G1 X159.478 Y152.271 E0.01477
G1 X159.162 Y152.537 E0.01477
G1 X158.896 Y152.854 E0.01477
G1 X158.689 Y153.212 E0.01477
G1 X158.548 Y153.6 E0.01477
G1 X158.476 Y154.007 E0.01477
G1 X158.476 Y154.421 E0.01477
G1 X158.548 Y154.828 E0.01477
G1 X158.689 Y155.216 E0.01477
G1 X158.896 Y155.574 E0.01477
G1 X159.162 Y155.891 E0.01477
G1 X159.478 Y156.157 E0.01477
G1 X159.836 Y156.363 E0.01477
G1 X160.225 Y156.505 E0.01477
G1 X160.573 Y156.566 E0.01263
;WIPE_START
M204 S10000
G1 X160.812 Y156.934 F24000
;WIPE_END
G1 E-0.06 F2400
;WIPE_START
G1 F19200
M204 S5000
G1 X161.063 Y156.777 E-0.03522
G1 X161.504 Y156.699 E-0.05325
G1 X161.926 Y156.545 E-0.05325
G1 X162.314 Y156.321 E-0.05324
G1 X162.658 Y156.033 E-0.05325
G1 X162.946 Y155.689 E-0.05325
G1 X163.17 Y155.301 E-0.05324
G1 X163.323 Y154.88 E-0.05325
G1 X163.401 Y154.438 E-0.05325
G1 X163.401 Y154.002 E-0.05182
;WIPE_END
G1 E-0.027 F2400
G1 X153.161 Y168.672 F24000
G1 E0.6 F2400
;TYPE:Internal perimeter
G1 F1800
G1 X146.381 Y161.892 E0.34253
G1 X159.232 Y149.041 E0.64927
G1 X160.482 Y150.291 E0.06315
G1 X162.624 Y148.149 E0.10826
G1 X166.904 Y152.428 E0.21623
G1 X164.761 Y154.571 E0.10826
G1 X166.011 Y155.821 E0.06315
G1 X153.203 Y168.629 E0.64713
G1 X153.161 Y169.318 F24000
G1 F1800
G1 X145.734 Y161.892 E0.37519
G1 X159.232 Y148.395 E0.68193
G1 X160.482 Y149.645 E0.06315
G1 X162.624 Y147.502 E0.10826
G1 X167.55 Y152.428 E0.24889
G1 X165.408 Y154.571 E0.10826
G1 X166.658 Y155.821 E0.06315
G1 X153.203 Y169.276 E0.67979
G1 X153.161 Y169.965 F24000
G1 F1800
G1 X145.088 Y161.892 E0.40785
G1 X159.232 Y147.749 E0.71459
G1 X160.482 Y148.999 E0.06315
G1 X162.624 Y146.856 E0.10826
G1 X168.197 Y152.428 E0.28155
G1 X166.054 Y154.571 E0.10826
G1 X167.304 Y155.821 E0.06315
G1 X153.203 Y169.922 E0.71245
G1 X153.161 Y170.611 F24000
;TYPE:External perimeter
G1 F1800
G1 X144.442 Y161.892 E0.44051
G1 X144.53 Y161.804 E0.00401
G1 X144.707 Y161.627 E0.00847
G1 X159.232 Y147.102 E0.73385
G1 X159.32 Y147.191 E0.00401
G1 X159.497 Y147.367 E0.00847
G1 X160.482 Y148.352 E0.04975
G1 X160.57 Y148.264 E0.00401
G1 X160.747 Y148.087 E0.00847
G1 X162.624 Y146.209 E0.09486
G1 X162.713 Y146.298 E0.00401
G1 X162.73 Y146.315 E0.00042
G1 X168.843 Y152.428 E0.30886
G1 X168.755 Y152.517 E0.00401
G1 X168.578 Y152.694 E0.00847
G1 X166.701 Y154.571 E0.09486
G1 X166.789 Y154.66 E0.00401
G1 X166.966 Y154.836 E0.00847
G1 X167.95 Y155.821 E0.04975
G1 X167.862 Y155.909 E0.00401
G1 X167.685 Y156.086 E0.00847
G1 X153.203 Y170.569 E0.73171
;WIPE_START
M204 S10000
G1 X153.057 Y170.225 F24000
;WIPE_END
G1 E-0.06 F2400
;WIPE_START
G1 F19200
M204 S5000
G1 X150.002 Y167.17 E-0.513
;WIPE_END
G1 E-0.027 F2400
G1 X163.226 Y157.811 F24000
G1 E0.6 F2400
;TYPE:Gap fill
;WIDTH:0.706032
G1 F1800
G1 X163.326 Y157.725 E0.00686
G1 X163.401 Y157.656 E0.00526
G1 X163.475 Y157.587 E0.00526
G1 X163.657 Y157.42 E0.0128
;WIDTH:0.668132
G1 X163.839 Y157.253 E0.01207
G1 X163.878 Y157.215 E0.00266
G1 X164.045 Y157.033 E0.01207
;WIDTH:0.711223
G1 X164.212 Y156.85 E0.0129
G1 X164.281 Y156.776 E0.0053
G1 X164.363 Y156.687 E0.00634
G1 X164.436 Y156.601 E0.00587
G1 E-0.06 F2400
;WIPE_START
G1 F19200
G1 X164.363 Y156.687 E-0.01334
G1 X164.281 Y156.776 E-0.01442
G1 X164.212 Y156.85 E-0.01205
G1 X164.045 Y157.033 E-0.02933
;WIPE_END
G1 E-0.47086 F2400
G1 X158.451 Y150.617 F24000
G1 E0.6 F2400
;WIDTH:0.711222
G1 F1800
G1 X158.366 Y150.69 E0.00587
G1 X158.277 Y150.772 E0.00634
G1 X158.202 Y150.841 E0.0053
G1 X158.02 Y151.008 E0.0129
;WIDTH:0.668131
G1 X157.838 Y151.175 E0.01207
G1 X157.8 Y151.213 E0.00266
G1 X157.633 Y151.395 E0.01207
;WIDTH:0.706032
G1 X157.466 Y151.578 E0.0128
G1 X157.397 Y151.652 E0.00526
G1 X157.328 Y151.726 E0.00526
G1 X157.242 Y151.827 E0.00686
G1 X156.034 Y152.315 F24000
;TYPE:Solid infill
;WIDTH:0.6
G1 F3000
G1 X157.285 Y152.315 E0.05449
G1 X157.175 Y152.506 E0.0096
G1 X157.042 Y152.872 E0.01697
G1 X155.816 Y152.872 E0.0534
G1 X155.259 Y153.429 E0.0343
G1 X156.888 Y153.429 E0.07096
G1 X156.812 Y153.862 E0.01913
G1 X156.812 Y153.986 E0.00542
G1 X154.701 Y153.986 E0.09189
G1 X154.144 Y154.543 E0.0343
G1 X156.812 Y154.543 E0.11615
G1 X156.812 Y154.566 E0.00101
G1 X156.906 Y155.1 E0.02361
G1 X153.587 Y155.1 E0.1445
G1 X153.03 Y155.657 E0.0343
G1 X157.079 Y155.657 E0.17628
G1 X157.175 Y155.922 E0.01228
G1 X157.344 Y156.214 E0.01469
G1 X152.473 Y156.214 E0.21208
G1 X151.916 Y156.772 E0.0343
G1 X157.728 Y156.772 E0.25306
G1 X157.98 Y157.072 E0.0171
G1 X158.286 Y157.329 E0.01736
G1 X151.359 Y157.329 E0.30161
G1 X150.802 Y157.886 E0.0343
G1 X159.153 Y157.886 E0.36361
G1 X159.792 Y158.118 E0.02964
G1 X160.486 Y158.241 E0.03068
G1 X161.191 Y158.241 E0.03068
G1 X161.885 Y158.119 E0.03068
G1 X162.525 Y157.886 E0.02964
G1 X162.955 Y157.886 E0.01873
G1 X163.214 Y158.204 E0.01787
G1 X162.975 Y158.443 E0.0147
G1 X150.245 Y158.443 E0.5543
G1 X149.688 Y159 E0.0343
G1 X162.418 Y159 E0.5543
G1 X161.861 Y159.557 E0.0343
G1 X149.131 Y159.557 E0.5543
G1 X148.574 Y160.114 E0.0343
G1 X161.304 Y160.114 E0.5543
G1 X160.747 Y160.671 E0.0343
G1 X148.017 Y160.671 E0.5543
G1 X147.459 Y161.228 E0.0343
G1 X160.19 Y161.228 E0.5543
G1 X159.633 Y161.785 E0.0343
G1 X146.902 Y161.785 E0.5543
G1 X146.795 Y161.892 E0.00659
G1 X147.245 Y162.342 E0.02772
G1 X159.076 Y162.342 E0.51511
G1 X158.519 Y162.899 E0.0343
G1 X147.803 Y162.899 E0.4666
G1 X148.36 Y163.456 E0.0343
G1 X157.961 Y163.456 E0.41808
G1 X157.404 Y164.014 E0.0343
G1 X148.917 Y164.014 E0.36957
G1 X149.474 Y164.571 E0.0343
G1 X156.847 Y164.571 E0.32106
G1 X156.29 Y165.128 E0.0343
G1 X150.031 Y165.128 E0.27254
G1 X150.588 Y165.685 E0.0343
G1 X155.733 Y165.685 E0.22403
G1 X155.176 Y166.242 E0.0343
G1 X151.145 Y166.242 E0.17552
G1 X151.702 Y166.799 E0.0343
G1 X154.619 Y166.799 E0.12701
G1 X154.062 Y167.356 E0.0343
G1 X152.259 Y167.356 E0.07849
G1 X152.816 Y167.913 E0.0343
G1 X153.844 Y167.913 E0.04473
G1 E-0.06 F2400
;WIPE_START
G1 F19200
G1 X152.816 Y167.913 E-0.12199
G1 X152.259 Y167.356 E-0.09355
G1 X154.062 Y167.356 E-0.21407
G1 X154.558 Y166.859 E-0.08338
;WIPE_END
G1 E-0.027 F2400
G1 X158.771 Y149.578 F24000
G1 E0.6 F2400
G1 F3000
G1 X159.353 Y149.578 E0.02536
G1 X159.91 Y150.135 E0.0343
G1 X158.553 Y150.135 E0.05912
G1 X158.464 Y150.223 E0.00545
G1 X158.844 Y150.692 E0.02626
G1 X159.442 Y150.692 E0.02605
G1 E-0.06 F2400
;WIPE_START
G1 F19200
G1 X158.844 Y150.692 E-0.07105
G1 X158.464 Y150.223 E-0.07163
G1 X158.553 Y150.135 E-0.01486
G1 X159.91 Y150.135 E-0.16123
G1 X159.353 Y149.578 E-0.09355
G1 X158.771 Y149.578 E-0.06915
;WIPE_END
G1 E-0.05852 F2400
G1 X161.828 Y149.021 F24000
G1 E0.6 F2400
G1 F3000
G1 X163.082 Y149.021 E0.05459
G1 X163.639 Y149.578 E0.0343
G1 X161.61 Y149.578 E0.08835
G1 X161.053 Y150.135 E0.0343
G1 X164.196 Y150.135 E0.13687
G1 X164.753 Y150.692 E0.0343
G1 X162.792 Y150.692 E0.0854
G1 X163.157 Y150.903 E0.01837
