; generated by SuperSlicer 2.5.59 on 2022-12-06 at 03:18:01 UTC


;
;

;
;
; 

; external perimeters extrusion width = 0.50mm
; perimeters extrusion width = 0.50mm
; infill extrusion width = 0.60mm
; solid infill extrusion width = 0.60mm
; top infill extrusion width = 0.50mm

; external perimeters extrusion width = 0.50mm
; perimeters extrusion width = 0.50mm
; infill extrusion width = 0.60mm
; solid infill extrusion width = 0.60mm
; top infill extrusion width = 0.50mm

; external perimeters extrusion width = 0.50mm
; perimeters extrusion width = 0.50mm
; infill extrusion width = 0.60mm
; solid infill extrusion width = 0.60mm
; top infill extrusion width = 0.50mm

; external perimeters extrusion width = 0.50mm
; perimeters extrusion width = 0.50mm
; infill extrusion width = 0.60mm
; solid infill extrusion width = 0.60mm
; top infill extrusion width = 0.50mm

; external perimeters extrusion width = 0.50mm
; perimeters extrusion width = 0.50mm
; infill extrusion width = 0.60mm
; solid infill extrusion width = 0.60mm
; top infill extrusion width = 0.50mm

; external perimeters extrusion width = 0.50mm
; perimeters extrusion width = 0.50mm
; infill extrusion width = 0.60mm
; solid infill extrusion width = 0.60mm
; top infill extrusion width = 0.50mm

; object:{"name":"ax6Spacer","id":"ax6Spacer.stl id:0 copy 0","object_center":[144.250000,150.000000,0.000000],"boundingbox_center":[144.250000,150.000000,2.500000],"boundingbox_size":[9.500000,9.495499,5.000000]}
; object:{"name":"ax6Spacer","id":"ax6Spacer.stl id:1 copy 0","object_center":[144.250000,138.504502,0.000000],"boundingbox_center":[144.250000,138.504502,2.500000],"boundingbox_size":[9.500000,9.495499,5.000000]}
; object:{"name":"ax6Spacer","id":"ax6Spacer.stl id:2 copy 0","object_center":[155.750000,150.000000,0.000000],"boundingbox_center":[155.750000,150.000000,2.500000],"boundingbox_size":[9.500000,9.495499,5.000000]}
; object:{"name":"ax6Spacer","id":"ax6Spacer.stl id:3 copy 0","object_center":[155.750000,138.504502,0.000000],"boundingbox_center":[155.750000,138.504502,2.500000],"boundingbox_size":[9.500000,9.495499,5.000000]}
; object:{"name":"ax6Spacer","id":"ax6Spacer.stl id:4 copy 0","object_center":[144.250000,161.495498,0.000000],"boundingbox_center":[144.250000,161.495498,2.500000],"boundingbox_size":[9.500000,9.495499,5.000000]}
; object:{"name":"ax6Spacer","id":"ax6Spacer.stl id:5 copy 0","object_center":[155.750001,161.495498,0.000000],"boundingbox_center":[155.750001,161.495498,2.500000],"boundingbox_size":[9.500000,9.495499,5.000000]}
; plater:{"center":[150.000000,150.000000,0.000000],"boundingbox_center":[150.000000,150.000000,2.500000],"boundingbox_size":[21.000001,32.486495,5.000000]}

;TYPE:Custom
M117


; Pre-Processed for Cancel-Object support by preprocess_cancellation v0.2.0
; 6 known objects
EXCLUDE_OBJECT_DEFINE NAME=ax6Spacer_stl_id_0_copy_0 CENTER=144.305,149.996 POLYGON=[[144.106,145.455],[143.273,145.558],[142.474,145.813],[141.735,146.211],[141.084,146.735],[140.54,147.369],[140.244,147.849],[140.008,148.361],[139.841,148.887],[139.737,149.441],[139.711,150.28],[139.84,151.109],[140.01,151.643],[140.244,152.151],[140.54,152.631],[141.084,153.265],[141.51,153.629],[141.979,153.94],[142.742,154.29],[143.556,154.495],[144.454,154.542],[144.944,154.495],[145.498,154.373],[146.277,154.071],[146.762,153.791],[147.209,153.453],[147.613,153.061],[147.96,152.631],[148.256,152.151],[148.584,151.379],[148.763,150.559],[148.789,149.72],[148.66,148.891],[148.383,148.103],[148.116,147.606],[147.791,147.146],[147.209,146.547],[146.762,146.209],[146.026,145.813],[145.227,145.558],[144.67,145.472],[144.106,145.455]]
EXCLUDE_OBJECT_DEFINE NAME=ax6Spacer_stl_id_1_copy_0 CENTER=144.309,138.502 POLYGON=[[144.106,133.959],[143.834,133.976],[143.009,134.129],[142.226,134.432],[141.512,134.873],[141.084,135.24],[140.705,135.656],[140.244,136.353],[139.916,137.126],[139.737,137.946],[139.711,138.784],[139.84,139.614],[140.01,140.147],[140.244,140.656],[140.54,141.135],[141.084,141.769],[141.51,142.133],[141.979,142.445],[142.742,142.795],[143.556,142.999],[144.454,143.046],[144.944,142.999],[145.498,142.878],[146.277,142.575],[146.762,142.295],[147.209,141.958],[147.613,141.565],[147.96,141.135],[148.256,140.656],[148.584,139.883],[148.763,139.063],[148.789,138.225],[148.66,137.395],[148.383,136.607],[148.116,136.111],[147.791,135.65],[147.209,135.051],[146.762,134.714],[146.274,134.432],[145.491,134.129],[144.67,133.976],[144.106,133.959]]
EXCLUDE_OBJECT_DEFINE NAME=ax6Spacer_stl_id_3_copy_0 CENTER=155.809,138.502 POLYGON=[[155.606,133.959],[155.334,133.976],[154.509,134.129],[153.726,134.432],[153.012,134.873],[152.584,135.24],[152.205,135.656],[151.744,136.353],[151.416,137.126],[151.237,137.946],[151.211,138.784],[151.34,139.614],[151.51,140.147],[151.744,140.656],[152.04,141.135],[152.584,141.769],[153.01,142.133],[153.479,142.445],[154.242,142.795],[155.056,142.999],[155.954,143.046],[156.444,142.999],[156.998,142.878],[157.777,142.575],[158.262,142.295],[158.709,141.958],[159.113,141.565],[159.46,141.135],[159.756,140.656],[160.084,139.883],[160.263,139.063],[160.289,138.225],[160.16,137.395],[159.883,136.607],[159.616,136.111],[159.291,135.65],[158.709,135.051],[158.262,134.714],[157.774,134.432],[156.991,134.129],[156.17,133.976],[155.606,133.959]]
EXCLUDE_OBJECT_DEFINE NAME=ax6Spacer_stl_id_2_copy_0 CENTER=155.805,149.996 POLYGON=[[155.606,145.455],[154.773,145.558],[153.974,145.813],[153.235,146.211],[152.584,146.735],[152.04,147.369],[151.744,147.849],[151.508,148.361],[151.341,148.887],[151.237,149.441],[151.211,150.28],[151.34,151.109],[151.51,151.643],[151.744,152.151],[152.04,152.631],[152.584,153.265],[153.01,153.629],[153.479,153.94],[154.242,154.29],[155.056,154.495],[155.954,154.542],[156.444,154.495],[156.998,154.373],[157.777,154.071],[158.262,153.791],[158.709,153.453],[159.113,153.061],[159.46,152.631],[159.756,152.151],[160.084,151.379],[160.263,150.559],[160.289,149.72],[160.16,148.891],[159.883,148.103],[159.616,147.606],[159.291,147.146],[158.709,146.547],[158.262,146.209],[157.526,145.813],[156.727,145.558],[156.17,145.472],[155.606,145.455]]
EXCLUDE_OBJECT_DEFINE NAME=ax6Spacer_stl_id_5_copy_0 CENTER=155.809,161.493 POLYGON=[[155.606,156.95],[155.334,156.967],[154.509,157.12],[153.726,157.423],[153.012,157.864],[152.584,158.231],[152.205,158.647],[151.744,159.344],[151.416,160.117],[151.237,160.937],[151.211,161.775],[151.34,162.605],[151.51,163.138],[151.744,163.647],[152.04,164.126],[152.584,164.76],[153.01,165.124],[153.479,165.436],[154.242,165.786],[155.056,165.99],[155.954,166.037],[156.444,165.99],[156.998,165.869],[157.777,165.566],[158.262,165.286],[158.709,164.949],[159.113,164.556],[159.46,164.126],[159.756,163.647],[160.084,162.874],[160.263,162.054],[160.289,161.216],[160.16,160.386],[159.883,159.598],[159.616,159.102],[159.291,158.641],[158.709,158.042],[158.262,157.705],[157.774,157.423],[156.991,157.12],[156.17,156.967],[155.606,156.95]]
EXCLUDE_OBJECT_DEFINE NAME=ax6Spacer_stl_id_4_copy_0 CENTER=144.309,161.493 POLYGON=[[144.106,156.95],[143.834,156.967],[143.009,157.12],[142.226,157.423],[141.512,157.864],[141.084,158.231],[140.705,158.647],[140.244,159.344],[139.916,160.117],[139.737,160.937],[139.711,161.775],[139.84,162.605],[140.01,163.138],[140.244,163.647],[140.54,164.126],[141.084,164.76],[141.51,165.124],[141.979,165.436],[142.742,165.786],[143.556,165.99],[144.454,166.037],[144.944,165.99],[145.498,165.869],[146.277,165.566],[146.762,165.286],[147.209,164.949],[147.613,164.556],[147.96,164.126],[148.256,163.647],[148.584,162.874],[148.763,162.054],[148.789,161.216],[148.66,160.386],[148.383,159.598],[148.116,159.102],[147.791,158.641],[147.209,158.042],[146.762,157.705],[146.274,157.423],[145.491,157.12],[144.67,156.967],[144.106,156.95]]
PRINT_START EXTRUDER=240 BED=105
M107
G21 ; set units to millimeters
G90 ; use absolute coordinates
M83 ; use relative distances for extrusion
SET_PRESSURE_ADVANCE SMOOTH_TIME=0.03
SET_PRESSURE_ADVANCE ADVANCE=0.045
;_TOOLCHANGE 0
M104 S240 ; set temperature
M109 S240 ; set temperature and wait for it to be reached
M190 S105 ; set bed temperature and wait for it to be reached
M107
;LAYER_CHANGE
;Z:0.2
;HEIGHT:0.2
;BEFORE_LAYER_CHANGE
;0.2


G1 Z0.2 F24000
;AFTER_LAYER_CHANGE
;0.2
G92 E0
G1 E-0.6 F2400
M204 S5000
G1 X136.8 Y131.322 F24000
G1 E0.6 F2400
;TYPE:Skirt
;WIDTH:0.48
G1 F1800
G1 X135.903 Y132.381 E0.0469
G1 X135.303 Y133.305 E0.03725
G1 X134.439 Y135.201 E0.07042
G1 X134.028 Y136.888 E0.05869
G1 X133.897 Y138.506 E0.05487
G1 X133.897 Y161.497 E0.77708
G1 X134.028 Y163.11 E0.05472
G1 X134.305 Y164.356 E0.04312
G1 X134.973 Y166.082 E0.06256
G1 X135.608 Y167.188 E0.04311
G1 X136.409 Y168.25 E0.04495
G1 X137.3 Y169.163 E0.04311
G1 X138.295 Y169.959 E0.04307
G1 X139.479 Y170.683 E0.0469
G1 X140.976 Y171.316 E0.05493
G1 X142.836 Y171.751 E0.06457
G1 X144.396 Y171.847 E0.05284
G1 X155.896 Y171.847 E0.38869
G1 X157.164 Y171.751 E0.04297
G1 X158.247 Y171.538 E0.0373
G1 X159.514 Y171.135 E0.04495
G1 X160.672 Y170.599 E0.04312
G1 X161.753 Y169.925 E0.04306
G1 X162.744 Y169.123 E0.04306
G1 X163.705 Y168.12 E0.04696
G1 X164.392 Y167.188 E0.03914
G1 X165.027 Y166.082 E0.04311
G1 X165.561 Y164.799 E0.04696
G1 X165.972 Y163.112 E0.05869
G1 X166.104 Y161.494 E0.05487
G1 X166.101 Y138.329 E0.78297
G1 X165.972 Y136.89 E0.04884
G1 X165.695 Y135.644 E0.04312
G1 X165.001 Y133.867 E0.06449
G1 X164.025 Y132.29 E0.06266
G1 X163.16 Y131.28 E0.04495
G1 X161.753 Y130.075 E0.06261
G1 X160.206 Y129.161 E0.06073
G1 X158.914 Y128.651 E0.04696
G1 X157.624 Y128.327 E0.04495
G1 X155.778 Y128.156 E0.06266
G1 X143.756 Y128.164 E0.40635
G1 X142.376 Y128.327 E0.04695
G1 X141.086 Y128.651 E0.04495
G1 X140.054 Y129.041 E0.0373
G1 X138.826 Y129.691 E0.04695
G1 X137.74 Y130.46 E0.04495
G1 X136.844 Y131.281 E0.04109
G1 X137.138 Y131.602 F24000
G1 F1800
G1 X137.123 Y131.616 E0.00069
G1 X136.252 Y132.644 E0.04554
G1 X135.674 Y133.535 E0.03589
G1 X134.851 Y135.346 E0.06724
G1 X134.458 Y136.968 E0.05642
G1 X134.334 Y138.506 E0.05214
G1 X134.334 Y161.497 E0.77708
G1 X134.458 Y163.03 E0.05199
G1 X134.721 Y164.223 E0.0413
G1 X135.37 Y165.899 E0.06074
G1 X135.98 Y166.958 E0.0413
G1 X136.732 Y167.955 E0.04223
G1 X137.584 Y168.831 E0.0413
G1 X138.536 Y169.595 E0.04125
G1 X139.686 Y170.298 E0.04554
G1 X141.108 Y170.9 E0.0522
G1 X142.89 Y171.317 E0.06185
G1 X144.396 Y171.41 E0.05102
G1 X155.896 Y171.41 E0.38869
G1 X157.11 Y171.317 E0.04116
G1 X158.154 Y171.111 E0.03594
G1 X159.344 Y170.733 E0.04222
G1 X160.453 Y170.22 E0.0413
G1 X161.49 Y169.576 E0.04125
G1 X162.439 Y168.809 E0.04125
G1 X163.373 Y167.836 E0.04559
G1 X164.02 Y166.958 E0.03686
G1 X164.63 Y165.899 E0.0413
G1 X165.149 Y164.654 E0.0456
G1 X165.542 Y163.032 E0.05642
G1 X165.666 Y161.494 E0.05214
G1 X165.666 Y138.503 E0.77708
G1 X165.542 Y136.97 E0.05199
G1 X165.279 Y135.777 E0.0413
G1 X164.616 Y134.073 E0.06177
G1 X163.668 Y132.543 E0.06084
G1 X162.856 Y131.594 E0.04222
G1 X161.49 Y130.424 E0.06079
G1 X160.024 Y129.558 E0.05755
G1 X158.769 Y129.064 E0.04559
G1 X157.557 Y128.759 E0.04223
G1 X155.765 Y128.593 E0.06084
G1 X143.782 Y128.6 E0.40499
G1 X142.443 Y128.759 E0.04559
G1 X141.231 Y129.064 E0.04223
G1 X140.236 Y129.438 E0.03594
G1 X139.045 Y130.07 E0.04559
G1 X138.025 Y130.792 E0.04223
G1 X137.182 Y131.562 E0.03858
G1 E-0.06 F2400
;WIPE_START
G1 F19200
G1 X137.123 Y131.616 E-0.00954
G1 X136.252 Y132.644 E-0.16
G1 X135.674 Y133.535 E-0.12609
G1 X134.917 Y135.201 E-0.21737
;WIPE_END
G1 E-0.027 F2400
; printing object ax6Spacer.stl id:0 copy 0
EXCLUDE_OBJECT_START NAME=ax6Spacer_stl_id_0_copy_0
G1 X144.43 Y153.327 F24000
G1 E0.6 F2400
;TYPE:Internal perimeter
;WIDTH:0.5
G1 F1800
G1 X144.953 Y153.26 E0.01862
G1 X145.477 Y153.1 E0.01939
G1 X145.766 Y152.969 E0.01121
G1 X146.233 Y152.682 E0.01939
G1 X146.658 Y152.308 E0.01999
G1 X147.013 Y151.868 E0.02
G1 X147.281 Y151.389 E0.01939
G1 X147.399 Y151.094 E0.01122
G1 X147.537 Y150.564 E0.01939
G1 X147.585 Y150 E0.01999
G1 X147.537 Y149.436 E0.01999
G1 X147.399 Y148.906 E0.01939
G1 X147.281 Y148.611 E0.01122
G1 X147.013 Y148.132 E0.01939
G1 X146.658 Y147.692 E0.02
G1 X146.233 Y147.318 E0.02
G1 X145.753 Y147.023 E0.01992
G1 X145.225 Y146.81 E0.02014
G1 X144.67 Y146.691 E0.02004
G1 X144.061 Y146.674 E0.02156
G1 X143.81 Y146.695 E0.00891
G1 X143.273 Y146.811 E0.01939
G1 X142.748 Y147.022 E0.01999
G1 X142.267 Y147.318 E0.02
G1 X141.855 Y147.681 E0.01939
G1 X141.645 Y147.919 E0.01121
G1 X141.338 Y148.373 E0.01939
G1 X141.112 Y148.873 E0.01939
G1 X141.019 Y149.177 E0.01121
G1 X140.927 Y149.717 E0.01939
G1 X140.927 Y150.283 E0.02
G1 X141.019 Y150.823 E0.01939
G1 X141.112 Y151.127 E0.01121
G1 X141.338 Y151.627 E0.01939
G1 X141.655 Y152.095 E0.02
G1 X142.046 Y152.504 E0.02
G1 X142.501 Y152.84 E0.01999
G1 X142.991 Y153.087 E0.01939
G1 X143.29 Y153.193 E0.01121
G1 X143.826 Y153.308 E0.01939
G1 X144.37 Y153.331 E0.01925
G1 X144.372 Y152.874 F24000
;TYPE:External perimeter
G1 F1800
G1 X144.856 Y152.812 E0.01724
G1 X145.315 Y152.671 E0.01698
G1 X145.551 Y152.565 E0.00915
G1 X145.96 Y152.313 E0.01698
G1 X146.327 Y151.99 E0.01724
G1 X146.633 Y151.611 E0.01725
G1 X146.868 Y151.191 E0.01698
G1 X146.964 Y150.951 E0.00915
G1 X147.085 Y150.486 E0.01698
G1 X147.127 Y150 E0.01724
G1 X147.085 Y149.514 E0.01724
G1 X146.964 Y149.049 E0.01698
G1 X146.868 Y148.809 E0.00915
G1 X146.633 Y148.389 E0.01698
G1 X146.327 Y148.01 E0.01724
G1 X145.96 Y147.687 E0.01725
G1 X145.547 Y147.433 E0.01717
G1 X145.09 Y147.249 E0.01739
G1 X144.615 Y147.147 E0.01717
G1 X144.074 Y147.132 E0.01915
G1 X143.877 Y147.148 E0.00697
G1 X143.408 Y147.25 E0.01698
G1 X142.955 Y147.431 E0.01724
G1 X142.54 Y147.687 E0.01725
G1 X142.179 Y148.005 E0.01698
G1 X142.008 Y148.199 E0.00915
G1 X141.739 Y148.597 E0.01698
G1 X141.541 Y149.035 E0.01698
G1 X141.465 Y149.283 E0.00915
G1 X141.384 Y149.756 E0.01698
G1 X141.384 Y150.244 E0.01725
G1 X141.465 Y150.717 E0.01698
G1 X141.541 Y150.965 E0.00915
G1 X141.739 Y151.403 E0.01698
G1 X142.012 Y151.807 E0.01725
G1 X142.35 Y152.159 E0.01724
G1 X142.742 Y152.449 E0.01724
G1 X143.171 Y152.666 E0.01698
G1 X143.415 Y152.752 E0.00915
G1 X143.885 Y152.853 E0.01698
G1 X144.312 Y152.871 E0.01512
;WIPE_START
M204 S10000
G1 X144.596 Y153.205 F24000
;WIPE_END
M204 S5000
G1 X144.374 Y153.988
;TYPE:Internal perimeter
G1 F1800
G1 X143.869 Y153.972 E0.01786
G1 X143.65 Y153.945 E0.00781
G1 X143.146 Y153.834 E0.01824
G1 X142.936 Y153.767 E0.00781
G1 X142.46 Y153.566 E0.01824
G1 X142.266 Y153.462 E0.00781
G1 X141.846 Y153.184 E0.0178
G1 X141.473 Y152.864 E0.01736
G1 X141.134 Y152.492 E0.0178
G1 X141 Y152.316 E0.00781
G1 X140.735 Y151.887 E0.0178
G1 X140.53 Y151.441 E0.01736
G1 X140.381 Y150.973 E0.01736
G1 X140.291 Y150.489 E0.01742
G1 X140.261 Y150.002 E0.01725
G1 X140.291 Y149.51 E0.01742
G1 X140.381 Y149.025 E0.01742
G1 X140.529 Y148.56 E0.01725
G1 X140.735 Y148.113 E0.01742
G1 X141 Y147.684 E0.0178
G1 X141.134 Y147.508 E0.00781
G1 X141.473 Y147.136 E0.0178
G1 X141.855 Y146.808 E0.0178
G1 X142.036 Y146.681 E0.00781
G1 X142.483 Y146.423 E0.01824
G1 X142.683 Y146.33 E0.00781
G1 X143.17 Y146.159 E0.01824
G1 X143.384 Y146.105 E0.00781
G1 X143.894 Y146.026 E0.01824
G1 X144.115 Y146.012 E0.00781
G1 X144.373 Y146.02 E0.00912
G1 X144.618 Y146.028 E0.00868
G1 X145.116 Y146.105 E0.0178
G1 X145.33 Y146.159 E0.00781
G1 X145.817 Y146.33 E0.01824
G1 X146.017 Y146.423 E0.00781
G1 X146.454 Y146.674 E0.0178
G1 X146.846 Y146.97 E0.01736
G1 X147.207 Y147.321 E0.0178
G1 X147.351 Y147.489 E0.00781
G1 X147.642 Y147.9 E0.0178
G1 X147.88 Y148.344 E0.0178
G1 X147.966 Y148.547 E0.00781
G1 X148.119 Y149.027 E0.0178
G1 X148.209 Y149.511 E0.01742
G1 X148.239 Y149.998 E0.01725
G1 X148.209 Y150.49 E0.01742
G1 X148.119 Y150.975 E0.01742
G1 X147.971 Y151.44 E0.01725
G1 X147.765 Y151.887 E0.01742
G1 X147.505 Y152.306 E0.01742
G1 X147.199 Y152.687 E0.01725
G1 X146.846 Y153.03 E0.01742
G1 X146.454 Y153.326 E0.01736
G1 X146.028 Y153.571 E0.01736
G1 X145.564 Y153.767 E0.0178
G1 X145.354 Y153.834 E0.00781
G1 X144.86 Y153.942 E0.01786
