; File Parsed By Flow Comp Script
; Script Ver. V0.7.0
; Flow Model Ver. V0.2.0
; Logger Ver. V0.0.1
; Flow Comp Model Points:
; (0, 0)
; (0.2, 0.4444)
; (0.4, 0.6145)
; (0.6, 0.7059)
; (0.8, 0.7619)
; (1.5, 0.8571)
; (2, 0.8889)
; (3, 0.9231)
; (5, 0.952)
; (10, 1)

; generated by A3dp-Slicer 2.5 on 2023-09-15 at 17:24:37 UTC


;
;

;
;
; 

; external perimeters extrusion width = 0.50mm
; perimeters extrusion width = 0.50mm
; infill extrusion width = 0.50mm
; solid infill extrusion width = 0.50mm
; top infill extrusion width = 0.50mm
; first layer extrusion width = 0.50mm

; object:{"name":"Basic_Blade","id":"Basic_Blade.stl id:0 copy 0","object_center":[156.552915,126.256860,0.000000],"boundingbox_center":[156.552915,126.256860,3.000190],"boundingbox_size":[132.137416,136.800397,6.000380]}
EXCLUDE_OBJECT_DEFINE NAME=Basic_Blade_stl_id_0_copy_0 CENTER=156.552915,126.256860 POLYGON=[[90.484208,120.646056],[90.544536,118.467784],[90.679608,116.292856],[90.889304,114.123824],[91.173312,111.963304],[91.531328,109.813816],[91.962928,107.677840],[92.467608,105.557968],[93.044768,103.456680],[93.693728,101.376424],[94.413712,99.319696],[95.203896,97.288872],[96.063328,95.286392],[96.991000,93.314592],[97.985816,91.375808],[99.046608,89.472304],[100.172112,87.606376],[101.361024,85.780160],[102.611936,83.995832],[103.923352,82.255520],[105.293760,80.561248],[106.721528,78.915016],[108.204968,77.318760],[109.742320,75.774392],[111.331800,74.283696],[112.971512,72.848464],[114.659528,71.470384],[116.393864,70.151048],[118.172472,68.892032],[119.993240,67.694832],[121.854080,66.560820],[123.752720,65.491380],[125.686944,64.487764],[127.654512,63.551116],[129.653080,62.682580],[131.680256,61.883188],[133.733704,61.153832],[135.810960,60.495416],[137.909600,59.908708],[140.027168,59.394380],[142.161120,58.953072],[144.308992,58.585272],[146.468208,58.291420],[148.636224,58.071884],[150.810528,57.926896],[152.988512,57.856660],[155.167632,57.861212],[157.345296,57.940596],[159.518960,58.094680],[161.686048,58.323304],[163.844048,58.626168],[164.566096,58.776048],[165.270512,58.994432],[165.950720,59.279360],[166.600480,59.628172],[167.213792,60.037688],[167.785040,60.504104],[168.308912,61.023164],[168.780640,61.590036],[169.195824,62.199524],[169.550656,62.846024],[219.333312,158.730896],[219.982336,160.007040],[220.563472,161.315472],[221.075184,162.652592],[221.515984,164.014736],[221.884736,165.398128],[222.180384,166.798944],[222.402128,168.213376],[222.549312,169.637504],[222.621616,171.067344],[222.618768,172.499040],[222.540784,173.928624],[222.387920,175.352112],[222.160576,176.765648],[221.859344,178.165280],[221.485104,179.547216],[221.038864,180.907584],[220.521856,182.242656],[219.935520,183.548768],[219.281440,184.822320],[218.561440,186.059792],[217.777504,187.257776],[216.931744,188.412992],[216.026560,189.522240],[215.064448,190.582432],[210.989824,194.657056],[100.624096,152.036800],[99.949160,151.739632],[99.305816,151.379104],[98.700000,150.958576],[98.137296,150.481888],[97.622888,149.953440],[97.161512,149.378112],[96.757424,148.761200],[96.414336,148.108400],[95.528376,146.117520],[94.711272,144.097392],[93.964016,142.050400],[93.287464,139.978976],[92.682432,137.885536],[92.149624,135.772560],[91.689672,133.642520],[91.303128,131.497952],[90.990416,129.341400],[90.751936,127.175360],[90.587960,125.002416],[90.498688,122.825128],[90.484208,120.646056]]
; plater:{"center":[156.552915,126.256860,0.000000],"boundingbox_center":[156.552915,126.256860,3.000190],"boundingbox_size":[132.137416,136.800397,6.000380]}

;TYPE:Custom
PRINT_START EXTRUDER=315 BED=130 AREA_START=83.8597,51.2203 AREA_END=229.246,201.199
M107
G21 ; set units to millimeters
G90 ; use absolute coordinates
M83 ; use relative distances for extrusion
;_BEFORE_TOOLCHANGE 0
;_TOOLCHANGE 0
M104 S315 ; set temperature
M109 S315 ; set temperature and wait for it to be reached
M190 S130 ; set bed temperature and wait for it to be reached
M107
;LAYER_CHANGE
;Z:0.2
;HEIGHT:0.2
;BEFORE_LAYER_CHANGE
TIMELAPSE_TAKE_FRAME
;0.2


G1 Z0.2 F48000
;AFTER_LAYER_CHANGE
;0.2
G92 E0
SET_PRESSURE_ADVANCE ADVANCE=0.01
G1 E-0.8 F3600
G1 Z0.3 F48000
M204 S5000
G1 X99.077 Y78.584
G1 Z0.2
G1 E0.8 F3600
;TYPE:Skirt
;WIDTH:0.6
G1 F1800
G1 X96.388 Y82.283 E0.17793
G1 X93.847 Y86.324 E0.18573
G1 X92.588 Y88.584 E0.10067
G1 X90.57 Y92.688 E0.17794
G1 X88.757 Y97.103 E0.18573
G1 X87.902 Y99.545 E0.10067
G1 X86.565 Y104.127 E0.18573
G1 X85.547 Y108.791 E0.18573
G1 X84.85 Y113.513 E0.18572
G1 X84.488 Y118.071 E0.17794
G1 X84.431 Y122.844 E0.18573
G1 X84.537 Y125.429 E0.10067
G1 X84.985 Y130.182 E0.18573
G1 X85.758 Y134.892 E0.18573
G1 X86.8 Y139.345 E0.17794
G1 X87.518 Y141.83 E0.10067
G1 X89.084 Y146.339 E0.18573
G1 X91.036 Y150.889 E0.19265
G1 X91.662 Y152.021 E0.05031
G1 X92.849 Y153.657 E0.07866
G1 X93.73 Y154.601 E0.05025
G1 X95.143 Y155.797 E0.07201
G1 X96.857 Y156.869 E0.07866
G1 X98.027 Y157.414 E0.05025
G1 X209.198 Y200.271 E4.63595
G1 X211.553 Y200.656 E0.09283
G1 X213.648 Y200.167 E0.08371
G1 X215.424 Y198.952 E0.08371
G1 X219.608 Y194.758 E0.2305
G1 X221.865 Y192.111 E0.13535
G1 X223.671 Y189.503 E0.12345
G1 X224.7 Y187.735 E0.07961
G1 X226.075 Y184.875 E0.12345
G1 X227.26 Y181.605 E0.13535
G1 X227.795 Y179.63 E0.07961
G1 X228.381 Y176.512 E0.12345
G1 X228.678 Y173.046 E0.13535
G1 X228.682 Y171 E0.07962
G1 X228.439 Y167.837 E0.12344
G1 X228.122 Y165.816 E0.07962
G1 X227.299 Y162.436 E0.13534
G1 X226.243 Y159.444 E0.12345
G1 X224.74 Y156.253 E0.13725
G1 X173.997 Y58.645 E4.28049
G1 X172.78 Y57.03 E0.07866
G1 X171.465 Y55.728 E0.07201
G1 X170.448 Y54.932 E0.05024
G1 X169.36 Y54.238 E0.05025
G1 X167.535 Y53.368 E0.07866
G1 X165.767 Y52.82 E0.072
G1 X162.511 Y52.302 E0.12831
G1 X159.938 Y52.031 E0.10067
G1 X155.171 Y51.782 E0.18573
G1 X150.398 Y51.861 E0.18573
G1 X145.841 Y52.243 E0.17793
G1 X143.278 Y52.592 E0.10068
G1 X138.589 Y53.485 E0.18573
G1 X133.972 Y54.698 E0.18573
G1 X129.45 Y56.225 E0.18573
G1 X125.225 Y57.975 E0.17794
G1 X120.948 Y60.094 E0.18572
G1 X118.693 Y61.364 E0.10067
G1 X114.664 Y63.923 E0.18573
G1 X110.82 Y66.753 E0.18573
G1 X107.328 Y69.706 E0.17793
G1 X103.898 Y73.025 E0.18573
G1 X102.137 Y74.92 E0.10067
G1 X99.125 Y78.526 E0.18281
G1 X99.576 Y78.855 F48000
G1 F1800
G1 X96.844 Y82.603 E0.18045
G1 X94.324 Y86.611 E0.18424
G1 X92.085 Y90.783 E0.18424
G1 X90.138 Y95.099 E0.18424
G1 X89.213 Y97.475 E0.09918
G1 X87.783 Y101.798 E0.17719
G1 X86.601 Y106.384 E0.18424
G1 X86.096 Y108.882 E0.09918
G1 X85.405 Y113.566 E0.18424
G1 X85.044 Y118.106 E0.17719
G1 X84.988 Y122.841 E0.18424
G1 X85.093 Y125.388 E0.09918
G1 X85.536 Y130.102 E0.18424
G1 X86.302 Y134.774 E0.18424
G1 X87.34 Y139.209 E0.17719
G1 X88.047 Y141.657 E0.09918
G1 X89.6 Y146.13 E0.18424
G1 X91.53 Y150.63 E0.1905
G1 X92.128 Y151.716 E0.04823
G1 X93.284 Y153.309 E0.07658
G1 X94.13 Y154.212 E0.04817
G1 X95.46 Y155.339 E0.06785
G1 X97.129 Y156.383 E0.07658
G1 X98.252 Y156.904 E0.04817
G1 X209.399 Y199.751 E4.63494
G1 X211.326 Y200.104 E0.07626
G1 X213.331 Y199.697 E0.07958
G1 X215.03 Y198.558 E0.07958
G1 X219.195 Y194.384 E0.22945
G1 X221.415 Y191.782 E0.13308
G1 X223.205 Y189.198 E0.12231
G1 X224.204 Y187.48 E0.07734
G1 X225.567 Y184.647 E0.12231
G1 X226.731 Y181.432 E0.13307
G1 X227.251 Y179.513 E0.07734
G1 X227.831 Y176.424 E0.12231
G1 X228.121 Y173.016 E0.13307
G1 X228.125 Y171.028 E0.07734
G1 X227.884 Y167.894 E0.1223
G1 X227.577 Y165.931 E0.07734
G1 X226.769 Y162.608 E0.13307
G1 X225.723 Y159.643 E0.12231
G1 X224.246 Y156.509 E0.1348
G1 X173.537 Y58.958 E4.27791
G1 X172.009 Y57.013 E0.09622
G1 X170.546 Y55.697 E0.07659
G1 X168.452 Y54.382 E0.09622
G1 X166.843 Y53.709 E0.06785
G1 X164.936 Y53.217 E0.07663
G1 X162.253 Y52.832 E0.10546
G1 X157.717 Y52.432 E0.17719
G1 X155.17 Y52.339 E0.09918
G1 X150.616 Y52.408 E0.17719
G1 X145.898 Y52.798 E0.18424
G1 X143.372 Y53.141 E0.09919
G1 X138.72 Y54.027 E0.18424
G1 X134.14 Y55.229 E0.18424
G1 X129.824 Y56.679 E0.17719
G1 X125.447 Y58.486 E0.18424
G1 X121.204 Y60.589 E0.18424
G1 X118.983 Y61.84 E0.09919
G1 X114.986 Y64.378 E0.18424
G1 X111.315 Y67.072 E0.17719
G1 X107.695 Y70.125 E0.18424
G1 X104.293 Y73.418 E0.18424
G1 X102.558 Y75.285 E0.09918
G1 X99.634 Y78.776 E0.17719
G1 X99.62 Y78.795 E0.00088
G1 E-0.08 F3600
;WIPE_START
G1 F38400
M204 S10000
G1 X99.634 Y78.776 E-0.002
G1 X102.558 Y75.285 E-0.40558
G1 X104.293 Y73.418 E-0.22703
G1 X104.692 Y73.032 E-0.04939
;WIPE_END
G1 E-0.036 F3600
G1 Z0.3 F48000
; printing object Basic_Blade.stl id:0 copy 0
EXCLUDE_OBJECT_START NAME=Basic_Blade_stl_id_0_copy_0
; acceleration to travel
G1 X145.806 Y98.04
; decel to extrusion
M204 S5000
G1 X153.217 Y102.548
; end travel
G1 Z0.2
G1 E0.8 F3600
;TYPE:Internal perimeter
;WIDTH:0.5
G1 F1800
G1 X152.66 Y102.346 E0.01891
G1 X151.939 Y102.219 E0.02336
G1 X151.208 Y102.219 E0.02335
G1 X150.488 Y102.346 E0.02335
G1 X149.8 Y102.596 E0.02336
G1 X149.167 Y102.962 E0.02335
G1 X148.606 Y103.432 E0.02335
G1 X148.136 Y103.992 E0.02336
G1 X147.77 Y104.626 E0.02336
G1 X147.52 Y105.313 E0.02335
G1 X147.393 Y106.034 E0.02335
G1 X147.393 Y106.765 E0.02335
G1 X147.52 Y107.486 E0.02336
G1 X147.77 Y108.173 E0.02335
G1 X148.136 Y108.806 E0.02336
G1 X148.495 Y109.234 E0.01781
G1 X148.119 Y109.398 E0.01309
G1 X147.157 Y109.919 E0.03492
G1 X146.241 Y110.517 E0.03492
G1 X145.378 Y111.189 E0.03492
G1 X144.573 Y111.93 E0.03492
G1 X143.832 Y112.735 E0.03492
G1 X143.16 Y113.598 E0.03492
G1 X142.562 Y114.514 E0.03492
G1 X142.041 Y115.476 E0.03492
G1 X141.877 Y115.852 E0.01309
G1 X141.449 Y115.493 E0.01781
G1 X140.816 Y115.127 E0.02336
G1 X140.129 Y114.877 E0.02335
G1 X139.408 Y114.75 E0.02336
G1 X138.677 Y114.75 E0.02335
G1 X137.956 Y114.877 E0.02335
G1 X137.269 Y115.127 E0.02335
G1 X136.635 Y115.493 E0.02336
G1 X136.075 Y115.963 E0.02335
G1 X135.605 Y116.524 E0.02335
G1 X135.239 Y117.157 E0.02335
G1 X134.989 Y117.845 E0.02336
G1 X134.862 Y118.565 E0.02336
G1 X134.862 Y119.296 E0.02335
G1 X134.989 Y120.017 E0.02336
G1 X135.239 Y120.704 E0.02335
G1 X135.605 Y121.338 E0.02335
G1 X136.075 Y121.898 E0.02336
G1 X136.635 Y122.369 E0.02336
G1 X137.269 Y122.734 E0.02335
G1 X137.956 Y122.984 E0.02335
G1 X138.677 Y123.111 E0.02336
G1 X139.408 Y123.111 E0.02335
G1 X140.128 Y122.984 E0.02335
G1 X140.769 Y122.751 E0.02176
G1 X140.978 Y124.005 E0.04059
G1 X141.247 Y125.066 E0.03492
G1 X141.602 Y126.1 E0.03492
G1 X142.041 Y127.102 E0.03492
G1 X142.562 Y128.064 E0.03492
G1 X143.16 Y128.98 E0.03492
G1 X143.832 Y129.843 E0.03492
G1 X144.573 Y130.648 E0.03492
G1 X145.039 Y131.077 E0.02022
G1 X144.681 Y131.284 E0.0132
G1 X144.12 Y131.754 E0.02335
G1 X143.65 Y132.314 E0.02335
G1 X143.284 Y132.948 E0.02336
G1 X143.034 Y133.635 E0.02335
G1 X142.907 Y134.356 E0.02336
G1 X142.907 Y135.087 E0.02335
G1 X143.034 Y135.807 E0.02335
G1 X143.285 Y136.495 E0.02336
G1 X143.65 Y137.128 E0.02335
G1 X144.12 Y137.689 E0.02335
G1 X144.681 Y138.159 E0.02335
G1 X145.314 Y138.525 E0.02335
G1 X146.002 Y138.775 E0.02336
G1 X146.722 Y138.902 E0.02335
G1 X147.454 Y138.902 E0.02335
G1 X148.174 Y138.775 E0.02336
G1 X148.862 Y138.525 E0.02335
G1 X149.495 Y138.159 E0.02336
G1 X150.055 Y137.689 E0.02335
G1 X150.526 Y137.128 E0.02335
G1 X150.891 Y136.495 E0.02335
G1 X151.142 Y135.808 E0.02335
G1 X151.269 Y135.087 E0.02335
G1 X151.269 Y134.252 E0.02667
G1 X152.295 Y134.423 E0.03322
G1 X153.385 Y134.513 E0.03492
G1 X154.479 Y134.513 E0.03492
G1 X155.569 Y134.423 E0.03492
G1 X156.648 Y134.243 E0.03492
G1 X157.709 Y133.974 E0.03492
G1 X158.743 Y133.619 E0.03493
G1 X159.745 Y133.18 E0.03492
G1 X160.452 Y132.797 E0.02565
G1 X160.788 Y133.723 E0.03144
G1 X161.154 Y134.356 E0.02335
G1 X161.624 Y134.917 E0.02336
G1 X162.185 Y135.387 E0.02336
G1 X162.818 Y135.752 E0.02335
G1 X163.168 Y135.88 E0.01186
G1 X162.782 Y136.306 E0.01836
G1 X162.311 Y136.999 E0.02674
G1 X161.941 Y137.751 E0.02675
G1 X161.679 Y138.546 E0.02674
G1 X161.528 Y139.37 E0.02674
G1 X161.494 Y140.207 E0.02674
G1 X161.575 Y141.041 E0.02675
G1 X161.771 Y141.856 E0.02674
G1 X162.077 Y142.635 E0.02675
G1 X162.488 Y143.365 E0.02674
G1 X162.997 Y144.031 E0.02674
G1 X163.592 Y144.62 E0.02674
G1 X164.203 Y145.076 E0.02433
G1 X194.419 Y164.532 E1.14735
G1 X195.067 Y164.89 E0.02364
G1 X195.826 Y165.184 E0.02599
G1 X196.618 Y165.374 E0.02599
G1 X197.428 Y165.456 E0.02599
G1 X198.241 Y165.428 E0.02599
G1 X199.044 Y165.29 E0.02599
G1 X199.82 Y165.047 E0.02599
G1 X200.557 Y164.701 E0.02599
G1 X201.241 Y164.259 E0.02599
G1 X201.803 Y163.777 E0.02364
G1 X203.405 Y162.206 E0.07165
G1 X203.895 Y161.657 E0.02348
G1 X204.348 Y160.987 E0.02582
G1 X204.707 Y160.262 E0.02582
G1 X204.966 Y159.496 E0.02582
G1 X205.121 Y158.703 E0.02582
G1 X205.168 Y157.895 E0.02582
G1 X205.107 Y157.089 E0.02582
G1 X204.94 Y156.298 E0.02582
G1 X204.668 Y155.536 E0.02582
G1 X204.296 Y154.818 E0.02582
G1 X203.832 Y154.156 E0.02582
G1 X203.334 Y153.615 E0.02348
G1 X177.624 Y129.223 E1.13143
G1 X177.048 Y128.747 E0.02384
G1 X176.351 Y128.314 E0.02621
G1 X175.601 Y127.98 E0.0262
G1 X174.813 Y127.751 E0.0262
G1 X174.001 Y127.63 E0.02621
G1 X173.18 Y127.62 E0.0262
G1 X172.366 Y127.722 E0.0262
G1 X171.573 Y127.933 E0.02621
G1 X170.815 Y128.25 E0.0262
G1 X170.108 Y128.666 E0.02621
G1 X169.464 Y129.175 E0.0262
G1 X168.894 Y129.766 E0.02621
G1 X168.483 Y130.328 E0.02222
G1 X168.03 Y129.542 E0.02897
G1 X167.559 Y128.981 E0.02335
G1 X166.999 Y128.511 E0.02335
G1 X166.366 Y128.145 E0.02336
G1 X165.44 Y127.809 E0.03144
G1 X165.823 Y127.102 E0.02565
G1 X166.262 Y126.1 E0.03492
G1 X166.617 Y125.066 E0.03492
G1 X166.886 Y124.005 E0.03492
G1 X167.066 Y122.926 E0.03492
G1 X167.156 Y121.836 E0.03492
G1 X167.156 Y120.742 E0.03492
G1 X167.066 Y119.652 E0.03493
G1 X166.895 Y118.626 E0.03321
G1 X167.73 Y118.626 E0.02667
G1 X168.451 Y118.499 E0.02335
G1 X169.138 Y118.249 E0.02335
G1 X169.771 Y117.883 E0.02336
G1 X170.332 Y117.413 E0.02335
G1 X170.802 Y116.852 E0.02335
G1 X171.168 Y116.219 E0.02335
G1 X171.418 Y115.531 E0.02336
G1 X171.545 Y114.811 E0.02336
G1 X171.545 Y114.079 E0.02335
G1 X171.418 Y113.359 E0.02336
G1 X171.168 Y112.671 E0.02335
G1 X170.802 Y112.038 E0.02335
G1 X170.332 Y111.477 E0.02336
G1 X169.771 Y111.007 E0.02336
G1 X169.138 Y110.642 E0.02335
G1 X168.451 Y110.391 E0.02335
G1 X167.73 Y110.264 E0.02336
G1 X166.999 Y110.264 E0.02335
G1 X166.278 Y110.391 E0.02336
G1 X165.591 Y110.642 E0.02336
G1 X164.957 Y111.007 E0.02335
G1 X164.397 Y111.478 E0.02336
G1 X163.927 Y112.038 E0.02335
G1 X163.72 Y112.396 E0.01321
G1 X163.291 Y111.93 E0.02022
G1 X162.486 Y111.189 E0.03492
G1 X161.623 Y110.517 E0.03492
G1 X160.707 Y109.919 E0.03492
G1 X159.745 Y109.398 E0.03492
G1 X158.743 Y108.959 E0.03492
G1 X157.709 Y108.604 E0.03492
G1 X156.648 Y108.335 E0.03492
G1 X155.394 Y108.126 E0.04059
G1 X155.627 Y107.485 E0.02176
G1 X155.754 Y106.765 E0.02336
G1 X155.754 Y106.034 E0.02335
G1 X155.627 Y105.313 E0.02336
G1 X155.377 Y104.626 E0.02335
G1 X155.012 Y103.992 E0.02335
G1 X154.541 Y103.432 E0.02336
G1 X153.981 Y102.962 E0.02336
G1 X153.347 Y102.596 E0.02335
G1 X153.287 Y102.574 E0.00205
G1 X153.056 Y102.976 F48000
G1 F1800
G1 X152.541 Y102.789 E0.01748
G1 X151.899 Y102.676 E0.0208
G1 X151.248 Y102.676 E0.0208
G1 X150.606 Y102.789 E0.0208
G1 X149.994 Y103.012 E0.0208
G1 X149.43 Y103.337 E0.0208
G1 X148.931 Y103.756 E0.0208
G1 X148.512 Y104.255 E0.0208
G1 X148.186 Y104.82 E0.0208
G1 X147.963 Y105.432 E0.0208
G1 X147.85 Y106.074 E0.0208
G1 X147.85 Y106.725 E0.0208
G1 X147.963 Y107.367 E0.0208
G1 X148.186 Y107.979 E0.0208
G1 X148.512 Y108.543 E0.0208
G1 X148.931 Y109.042 E0.0208
G1 X149.321 Y109.37 E0.01628
G1 X148.32 Y109.809 E0.03491
G1 X147.391 Y110.312 E0.03372
G1 X146.507 Y110.89 E0.03372
G1 X145.674 Y111.538 E0.03372
G1 X144.897 Y112.254 E0.03372
G1 X144.181 Y113.031 E0.03372
G1 X143.533 Y113.864 E0.03372
G1 X142.955 Y114.748 E0.03371
G1 X142.452 Y115.677 E0.03372
G1 X142.013 Y116.678 E0.03491
G1 X141.685 Y116.288 E0.01628
G1 X141.186 Y115.869 E0.0208
G1 X140.622 Y115.543 E0.0208
G1 X140.01 Y115.32 E0.0208
G1 X139.368 Y115.207 E0.0208
G1 X138.717 Y115.207 E0.0208
G1 X138.075 Y115.32 E0.0208
G1 X137.463 Y115.543 E0.0208
