; generated by SuperSlicer 2.5.59 on 2022-11-30 at 06:06:09 UTC


;
;

;
;
; 

; external perimeters extrusion width = 0.50mm
; perimeters extrusion width = 0.50mm
; infill extrusion width = 0.60mm
; solid infill extrusion width = 0.60mm
; top infill extrusion width = 0.50mm

; object:{"name":"bear_screen_cover","id":"bear_screen_cover.stl id:0 copy 0","object_center":[149.999540,149.999540,0.000000],"boundingbox_center":[149.999540,149.999540,17.275045],"boundingbox_size":[118.076679,147.119299,34.550090]}
; plater:{"center":[149.999540,149.999540,0.000000],"boundingbox_center":[149.999540,149.999540,17.275045],"boundingbox_size":[118.076679,147.119299,34.550090]}

;TYPE:Custom
PRINT_START EXTRUDER=265 BED=105


; Pre-Processed for Cancel-Object support by preprocess_cancellation v0.2.0
; 1 known objects
EXCLUDE_OBJECT_DEFINE NAME=bear_screen_cover_stl_id_0_copy_0 CENTER=167.863,144.920 POLYGON=[[174.151,76.709],[94.798,95.999],[91.229,101.861],[119.879,219.722],[125.8,223.278],[205.094,204.002],[208.76,198.115],[180.111,80.257],[174.151,76.709]]
M107
G21 ; set units to millimeters
G90 ; use absolute coordinates
M83 ; use relative distances for extrusion
SET_PRESSURE_ADVANCE SMOOTH_TIME=0.03
SET_PRESSURE_ADVANCE ADVANCE=0.045
;_TOOLCHANGE 0
M104 S265 ; set temperature
M109 S265 ; set temperature and wait for it to be reached
M190 S105 ; set bed temperature and wait for it to be reached
M107
;LAYER_CHANGE
;Z:0.2
;HEIGHT:0.2
;BEFORE_LAYER_CHANGE
;0.2


G1 Z0.2 F24000
;AFTER_LAYER_CHANGE
;0.2
G92 E0
G1 E-0.6 F2400
M204 S5000
G1 X92.506 Y93.016 F24000
G1 E0.6 F2400
;TYPE:Skirt
;WIDTH:0.48
G1 F1800
G1 X91.086 Y94.587 E0.07235
G1 X88.27 Y99.211 E0.18496
G1 X87.499 Y101.373 E0.07842
G1 X87.605 Y103.488 E0.07235
G1 X115.913 Y219.94 E4.09417
G1 X116.896 Y222.014 E0.07842
G1 X118.467 Y223.435 E0.07235
G1 X123.091 Y226.251 E0.18496
G1 X125.253 Y227.022 E0.07842
G1 X127.368 Y226.916 E0.07235
G1 X199.149 Y209.467 E2.52361
G1 X201.177 Y208.517 E0.07653
G1 X202.613 Y206.961 E0.07235
G1 X205.514 Y202.303 E0.18745
G1 X206.315 Y200.093 E0.08032
G1 X206.209 Y197.978 E0.07235
G1 X177.907 Y81.55 E4.09332
G1 X176.889 Y79.431 E0.08032
G1 X175.304 Y78.026 E0.07235
G1 X170.589 Y75.219 E0.18745
G1 X168.475 Y74.478 E0.07653
G1 X166.36 Y74.584 E0.07235
G1 X94.58 Y92.033 E2.52361
G1 X92.56 Y92.99 E0.07637
G1 X92.835 Y93.317 F24000
G1 F1800
G1 X91.459 Y94.814 E0.06947
G1 X88.643 Y99.438 E0.18496
G1 X87.943 Y101.353 E0.06965
G1 X88.03 Y103.385 E0.06947
G1 X116.337 Y219.837 E4.09417
G1 X117.197 Y221.686 E0.06966
G1 X118.694 Y223.062 E0.06947
G1 X123.319 Y225.877 E0.18496
G1 X125.234 Y226.577 E0.06965
G1 X127.265 Y226.491 E0.06947
G1 X199.045 Y209.042 E2.52361
G1 X200.852 Y208.214 E0.0679
G1 X202.242 Y206.73 E0.06947
G1 X205.143 Y202.072 E0.18745
G1 X205.87 Y200.113 E0.07141
G1 X205.784 Y198.081 E0.06947
G1 X177.482 Y81.653 E4.09332
G1 X176.592 Y79.762 E0.07141
G1 X175.08 Y78.402 E0.06947
G1 X170.365 Y75.595 E0.18745
G1 X168.495 Y74.922 E0.0679
G1 X166.463 Y75.008 E0.06947
G1 X94.683 Y92.457 E2.52361
G1 X92.889 Y93.291 E0.06761
G1 E-0.06 F2400
;WIPE_START
G1 F19200
G1 X91.459 Y94.814 E-0.24807
G1 X90.299 Y96.72 E-0.26493
;WIPE_END
G1 E-0.027 F2400
; printing object bear_screen_cover.stl id:0 copy 0
EXCLUDE_OBJECT_START NAME=bear_screen_cover_stl_id_0_copy_0
G1 X122.555 Y217.848 F24000
G1 E0.6 F2400
;TYPE:Internal perimeter
;WIDTH:0.5
G1 F1800
G1 X194.863 Y200.27 E2.65852
G1 X166.775 Y84.721 E4.24832
G1 X165.506 Y85.03 E0.04665
G1 X94.466 Y102.298 E2.61187
G1 X122.541 Y217.789 E4.24618
G1 X122.891 Y217.296 F24000
;TYPE:External perimeter
G1 F1800
G1 X194.311 Y199.934 E2.62586
G1 X194.282 Y199.813 E0.00401
G1 X194.223 Y199.57 E0.00847
G1 X166.439 Y85.273 E4.20226
G1 X166.317 Y85.303 E0.00401
G1 X166.074 Y85.362 E0.00847
G1 X165.614 Y85.474 E0.01692
G1 X95.018 Y102.634 E2.59554
G1 X95.048 Y102.756 E0.00399
G1 X95.107 Y102.999 E0.00845
G1 X122.877 Y217.237 E4.20013
;WIPE_START
M204 S10000
G1 X122.985 Y217.684 F24000
;WIPE_END
G1 E-0.06 F2400
;WIPE_START
G1 F19200
M204 S5000
G1 X127.18 Y216.652 E-0.513
;WIPE_END
G1 E-0.027 F2400
G1 X126.302 Y219.686 F24000
G1 E0.6 F2400
;TYPE:Internal perimeter
G1 F1800
G1 X124.179 Y218.394 E0.08879
G1 X195.967 Y200.943 E2.63938
G1 X167.447 Y83.617 E4.31364
G1 X95.659 Y101.068 E2.63938
G1 X96.952 Y98.945 E0.08879
G1 X167.436 Y81.811 E2.59145
G1 X170.997 Y83.931 E0.14805
G1 X198.977 Y199.035 E4.23196
G1 X196.786 Y202.552 E0.14805
G1 X126.36 Y219.672 E2.5893
G1 X126.226 Y220.175 F24000
G1 F1800
G1 X122.999 Y218.21 E0.13498
G1 X195.415 Y200.607 E2.66248
G1 X167.111 Y84.169 E4.28098
G1 X165.398 Y84.585 E0.06298
G1 X94.695 Y101.772 E2.5995
G1 X96.66 Y98.545 E0.13498
G1 X167.509 Y81.323 E2.60488
G1 X171.395 Y83.636 E0.16157
G1 X199.466 Y199.113 E4.24568
G1 X197.076 Y202.952 E0.16157
G1 X126.284 Y220.161 E2.60274
G1 X126.15 Y220.664 F24000
G1 F1800
G1 X122.026 Y218.153 E0.1725
G1 X93.857 Y102.27 E4.26058
G1 X96.368 Y98.146 E0.1725
G1 X167.583 Y80.835 E2.61831
G1 X167.698 Y80.903 E0.00481
G1 X171.794 Y83.341 E0.17029
G1 X199.956 Y199.192 E4.2594
G1 X197.365 Y203.352 E0.1751
G1 X126.208 Y220.65 E2.61617
G1 X126.074 Y221.153 F24000
;TYPE:External perimeter
G1 F1800
G1 X121.627 Y218.445 E0.18603
G1 X93.368 Y102.194 E4.27411
G1 X96.076 Y97.747 E0.18603
G1 X167.656 Y80.346 E2.63174
G1 X167.932 Y80.511 E0.01148
G1 X172.193 Y83.047 E0.17715
G1 X200.445 Y199.271 E4.27312
G1 X197.654 Y203.753 E0.18863
G1 X126.132 Y221.138 E2.6296
;WIPE_START
M204 S10000
G1 X125.98 Y220.764 F24000
;WIPE_END
G1 E-0.06 F2400
;WIPE_START
G1 F19200
M204 S5000
G1 X122.252 Y218.581 E-0.513
;WIPE_END
G1 E-0.027 F2400
G1 X122.33 Y218.091 F24000
G1 E0.6 F2400
;TYPE:Gap fill
;WIDTH:0.18461
G1 F1800
G1 X122.282 Y217.966 E0.00149
G1 X108.226 Y160.142 E0.65902
G1 X94.17 Y102.319 E0.65902
G1 X94.155 Y102.185 E0.00149
G1 E-0.06 F2400
;WIPE_START
G1 F19200
G1 X94.17 Y102.319 E-0.01597
G1 X95.158 Y106.386 E-0.49703
;WIPE_END
G1 E-0.027 F2400
G1 X168.781 Y82.674 F24000
G1 E0.6 F2400
;TYPE:Solid infill
;WIDTH:0.6
G1 F3000
G1 X165.126 Y82.674 E0.15915
G1 X162.834 Y83.231 E0.10269
G1 X169.249 Y83.231 E0.2793
G1 X170.185 Y83.788 E0.04742
G1 X167.79 Y83.788 E0.10425
G1 X167.663 Y83.263 E0.02354
G1 X165.502 Y83.788 E0.09684
G1 X159.529 Y83.788 E0.26008
G1 E-0.06 F2400
;WIPE_START
G1 F19200
G1 X163.849 Y83.788 E-0.513
;WIPE_END
G1 E-0.027 F2400
G1 X164.224 Y84.345 F24000
G1 E0.6 F2400
G1 F3000
G1 X158.251 Y84.345 E0.26008
G1 X155.959 Y84.902 E0.10269
G1 X160.918 Y84.902 E0.21592
G1 X158.626 Y85.46 E0.10269
G1 X153.668 Y85.46 E0.21592
G1 X151.376 Y86.017 E0.10269
G1 X156.335 Y86.017 E0.21592
G1 X154.043 Y86.574 E0.10269
G1 X149.084 Y86.574 E0.21592
G1 X146.793 Y87.131 E0.10269
G1 X151.751 Y87.131 E0.21592
G1 X149.46 Y87.688 E0.10269
G1 X144.501 Y87.688 E0.21592
G1 X142.209 Y88.245 E0.10269
G1 X147.168 Y88.245 E0.21591
G1 X144.876 Y88.802 E0.10269
G1 X139.918 Y88.802 E0.21591
G1 X137.626 Y89.359 E0.10269
G1 X142.585 Y89.359 E0.21591
G1 X140.293 Y89.916 E0.10269
G1 X135.334 Y89.916 E0.21591
G1 X133.042 Y90.473 E0.10269
G1 X138.001 Y90.473 E0.21591
G1 X135.709 Y91.03 E0.10269
G1 X130.751 Y91.03 E0.21591
G1 X128.459 Y91.587 E0.10269
G1 X133.418 Y91.587 E0.21591
G1 X131.126 Y92.144 E0.10269
G1 X126.167 Y92.144 E0.21591
G1 X123.876 Y92.702 E0.10269
G1 X128.834 Y92.702 E0.21591
G1 X126.543 Y93.259 E0.10269
G1 X121.584 Y93.259 E0.21591
G1 X119.292 Y93.816 E0.10269
G1 X124.251 Y93.816 E0.2159
G1 X121.959 Y94.373 E0.10269
G1 X117.001 Y94.373 E0.2159
G1 X114.709 Y94.93 E0.10269
G1 X119.668 Y94.93 E0.2159
G1 X117.376 Y95.487 E0.10269
G1 X112.417 Y95.487 E0.2159
G1 X110.126 Y96.044 E0.10269
G1 X115.084 Y96.044 E0.2159
G1 X112.792 Y96.601 E0.10269
G1 X107.834 Y96.601 E0.2159
G1 X105.542 Y97.158 E0.10269
G1 X110.501 Y97.158 E0.2159
G1 X108.209 Y97.715 E0.10269
G1 X103.251 Y97.715 E0.2159
G1 X100.959 Y98.272 E0.10269
G1 X105.917 Y98.272 E0.2159
G1 X103.626 Y98.829 E0.10269
G1 X98.667 Y98.829 E0.2159
G1 X97.139 Y99.201 E0.06849
G1 X97.026 Y99.386 E0.00946
G1 X101.334 Y99.386 E0.18758
G1 X99.042 Y99.944 E0.10269
G1 X96.687 Y99.944 E0.10257
G1 X96.347 Y100.501 E0.0284
G1 X97.765 Y100.501 E0.06171
G1 E-0.06 F2400
;WIPE_START
G1 F19200
G1 X96.347 Y100.501 E-0.16829
G1 X96.687 Y99.944 E-0.07745
G1 X98.937 Y99.944 E-0.26726
;WIPE_END
G1 E-0.027 F2400
G1 X167.679 Y84.345 F24000
G1 E0.6 F2400
G1 F3000
G1 X170.796 Y84.345 E0.1357
G1 X170.931 Y84.902 E0.02496
G1 X168.061 Y84.902 E0.12497
G1 X168.197 Y85.46 E0.02496
G1 X171.067 Y85.46 E0.12497
G1 X171.202 Y86.017 E0.02496
G1 X168.332 Y86.017 E0.12497
G1 X168.468 Y86.574 E0.02496
G1 X171.338 Y86.574 E0.12497
G1 X171.473 Y87.131 E0.02496
G1 X168.603 Y87.131 E0.12497
G1 X168.738 Y87.688 E0.02496
G1 X171.608 Y87.688 E0.12497
G1 X171.744 Y88.245 E0.02496
G1 X168.874 Y88.245 E0.12497
G1 X169.009 Y88.802 E0.02496
G1 X171.879 Y88.802 E0.12497
G1 X172.015 Y89.359 E0.02496
G1 X169.145 Y89.359 E0.12497
G1 X169.28 Y89.916 E0.02496
G1 X172.15 Y89.916 E0.12497
G1 X172.285 Y90.473 E0.02496
G1 X169.415 Y90.473 E0.12497
G1 X169.551 Y91.03 E0.02496
G1 X172.421 Y91.03 E0.12497
G1 X172.556 Y91.587 E0.02496
G1 X169.686 Y91.587 E0.12497
G1 X169.822 Y92.144 E0.02496
G1 X172.692 Y92.144 E0.12497
G1 X172.827 Y92.702 E0.02496
G1 X169.957 Y92.702 E0.12497
G1 X170.093 Y93.259 E0.02496
G1 X172.963 Y93.259 E0.12497
G1 X173.098 Y93.816 E0.02496
G1 X170.228 Y93.816 E0.12497
G1 X170.363 Y94.373 E0.02496
G1 X173.233 Y94.373 E0.12497
G1 X173.369 Y94.93 E0.02496
G1 X170.499 Y94.93 E0.12497
G1 X170.634 Y95.487 E0.02496
G1 X173.504 Y95.487 E0.12497
G1 X173.64 Y96.044 E0.02496
G1 X170.77 Y96.044 E0.12497
G1 X170.905 Y96.601 E0.02496
G1 X173.775 Y96.601 E0.12497
G1 X173.911 Y97.158 E0.02496
G1 X171.04 Y97.158 E0.12497
G1 X171.176 Y97.715 E0.02496
G1 X174.046 Y97.715 E0.12497
G1 X174.181 Y98.272 E0.02496
G1 X171.311 Y98.272 E0.12497
G1 X171.447 Y98.829 E0.02496
G1 X174.317 Y98.829 E0.12497
G1 X174.452 Y99.386 E0.02496
G1 X171.582 Y99.386 E0.12497
G1 X171.718 Y99.944 E0.02496
G1 X174.588 Y99.944 E0.12497
G1 X174.723 Y100.501 E0.02496
G1 X171.853 Y100.501 E0.12497
G1 X171.988 Y101.058 E0.02496
G1 X174.858 Y101.058 E0.12497
G1 X174.994 Y101.615 E0.02496
G1 X172.124 Y101.615 E0.12497
G1 X172.259 Y102.172 E0.02496
G1 X175.129 Y102.172 E0.12497
G1 X175.265 Y102.729 E0.02496
G1 X172.395 Y102.729 E0.12497
G1 X172.53 Y103.286 E0.02496
G1 X175.4 Y103.286 E0.12497
G1 X175.536 Y103.843 E0.02496
G1 X172.665 Y103.843 E0.12497
G1 X172.801 Y104.4 E0.02496
G1 X175.671 Y104.4 E0.12497
G1 X175.806 Y104.957 E0.02496
G1 X172.936 Y104.957 E0.12497
G1 X173.072 Y105.514 E0.02496
G1 X175.942 Y105.514 E0.12497
G1 X176.077 Y106.071 E0.02496
G1 X173.207 Y106.071 E0.12497
G1 X173.343 Y106.629 E0.02496
G1 X176.213 Y106.629 E0.12497
G1 X176.348 Y107.186 E0.02496
G1 X173.478 Y107.186 E0.12497
G1 X173.613 Y107.743 E0.02496
G1 X176.483 Y107.743 E0.12497
G1 X176.619 Y108.3 E0.02496
G1 X173.749 Y108.3 E0.12497
G1 X173.884 Y108.857 E0.02496
G1 X176.754 Y108.857 E0.12497
G1 X176.89 Y109.414 E0.02496
G1 X174.02 Y109.414 E0.12497
G1 X174.155 Y109.971 E0.02496
G1 X177.025 Y109.971 E0.12497
G1 X177.161 Y110.528 E0.02496
G1 X174.29 Y110.528 E0.12497
G1 X174.426 Y111.085 E0.02496
G1 X177.296 Y111.085 E0.12497
G1 X177.431 Y111.642 E0.02496
G1 X174.561 Y111.642 E0.12497
G1 X174.697 Y112.199 E0.02496
G1 X177.567 Y112.199 E0.12497
G1 X177.702 Y112.756 E0.02496
G1 X174.832 Y112.756 E0.12497
G1 X174.968 Y113.313 E0.02496
G1 X177.838 Y113.313 E0.12497
G1 X177.973 Y113.871 E0.02496
G1 X175.103 Y113.871 E0.12497
G1 X175.238 Y114.428 E0.02496
G1 X178.108 Y114.428 E0.12497
G1 X178.244 Y114.985 E0.02496
G1 X175.374 Y114.985 E0.12497
G1 X175.509 Y115.542 E0.02496
G1 X178.379 Y115.542 E0.12497
G1 X178.515 Y116.099 E0.02496
G1 X175.645 Y116.099 E0.12497
G1 X175.78 Y116.656 E0.02496
G1 X178.65 Y116.656 E0.12497
G1 X178.786 Y117.213 E0.02496
G1 X175.915 Y117.213 E0.12497
G1 X176.051 Y117.77 E0.02496
G1 X178.921 Y117.77 E0.12497
G1 X179.056 Y118.327 E0.02496
G1 X176.186 Y118.327 E0.12497
G1 X176.322 Y118.884 E0.02496
G1 X179.192 Y118.884 E0.12497
G1 X179.327 Y119.441 E0.02496
G1 X176.457 Y119.441 E0.12497
G1 X176.593 Y119.998 E0.02496
G1 X179.463 Y119.998 E0.12497
G1 X179.598 Y120.555 E0.02496
G1 X176.728 Y120.555 E0.12497
G1 X176.863 Y121.113 E0.02496
G1 X179.733 Y121.113 E0.12497
G1 X179.869 Y121.67 E0.02496
G1 X176.999 Y121.67 E0.12497
G1 X177.134 Y122.227 E0.02496
G1 X180.004 Y122.227 E0.12497
G1 X180.14 Y122.784 E0.02496
G1 X177.27 Y122.784 E0.12497
G1 X177.405 Y123.341 E0.02496
G1 X180.275 Y123.341 E0.12497
G1 X180.411 Y123.898 E0.02496
G1 X177.541 Y123.898 E0.12497
G1 X177.676 Y124.455 E0.02496
G1 X180.546 Y124.455 E0.12497
G1 X180.681 Y125.012 E0.02496
G1 X177.811 Y125.012 E0.12497
G1 X177.947 Y125.569 E0.02496
G1 X180.817 Y125.569 E0.12497
G1 X180.952 Y126.126 E0.02496
G1 X178.082 Y126.126 E0.12497
G1 X178.218 Y126.683 E0.02496
G1 X181.088 Y126.683 E0.12497
G1 X181.223 Y127.24 E0.02496
G1 X178.353 Y127.24 E0.12497
G1 X178.488 Y127.798 E0.02496
G1 X181.359 Y127.798 E0.12497
G1 X181.494 Y128.355 E0.02496
G1 X178.624 Y128.355 E0.12497
G1 X178.759 Y128.912 E0.02496
G1 X181.629 Y128.912 E0.12497
G1 X181.765 Y129.469 E0.02496
G1 X178.895 Y129.469 E0.12497
G1 X179.03 Y130.026 E0.02496
G1 X181.9 Y130.026 E0.12497
G1 X182.036 Y130.583 E0.02496
G1 X179.166 Y130.583 E0.12497
G1 X179.301 Y131.14 E0.02496
G1 X182.171 Y131.14 E0.12497
G1 X182.306 Y131.697 E0.02496
G1 X179.436 Y131.697 E0.12497
G1 X179.572 Y132.254 E0.02496
G1 X182.442 Y132.254 E0.12497
G1 X182.577 Y132.811 E0.02496
G1 X179.707 Y132.811 E0.12497
G1 X179.843 Y133.368 E0.02496
G1 X182.713 Y133.368 E0.12497
G1 X182.848 Y133.925 E0.02496
G1 X179.978 Y133.925 E0.12497
G1 X180.113 Y134.482 E0.02496
G1 X182.984 Y134.482 E0.12497
G1 X183.119 Y135.04 E0.02496
G1 X180.249 Y135.04 E0.12497
G1 X180.384 Y135.597 E0.02496
G1 X183.254 Y135.597 E0.12497
G1 X183.39 Y136.154 E0.02496
G1 X180.52 Y136.154 E0.12497
G1 X180.655 Y136.711 E0.02496
G1 X183.525 Y136.711 E0.12497
G1 X183.661 Y137.268 E0.02496
G1 X180.791 Y137.268 E0.12497
G1 X180.926 Y137.825 E0.02496
G1 X183.796 Y137.825 E0.12497
G1 X183.931 Y138.382 E0.02496
G1 X181.061 Y138.382 E0.12497
G1 X181.197 Y138.939 E0.02496
G1 X184.067 Y138.939 E0.12497
G1 X184.202 Y139.496 E0.02496
G1 X181.332 Y139.496 E0.12497
G1 X181.468 Y140.053 E0.02496
G1 X184.338 Y140.053 E0.12497
G1 X184.473 Y140.61 E0.02496
G1 X181.603 Y140.61 E0.12497
G1 X181.738 Y141.167 E0.02496
G1 X184.609 Y141.167 E0.12497
G1 X184.744 Y141.724 E0.02496
G1 X181.874 Y141.724 E0.12497
G1 X182.009 Y142.282 E0.02496
G1 X184.879 Y142.282 E0.12497
G1 X185.015 Y142.839 E0.02496
G1 X182.145 Y142.839 E0.12497
G1 X182.28 Y143.396 E0.02496
G1 X185.15 Y143.396 E0.12497
G1 X185.286 Y143.953 E0.02496
G1 X182.416 Y143.953 E0.12497
G1 X182.551 Y144.51 E0.02496
G1 X185.421 Y144.51 E0.12497
G1 X185.556 Y145.067 E0.02496
G1 X182.686 Y145.067 E0.12497
G1 X182.822 Y145.624 E0.02496
G1 X185.692 Y145.624 E0.12497
G1 X185.827 Y146.181 E0.02496
G1 X182.957 Y146.181 E0.12497
G1 X183.093 Y146.738 E0.02496
G1 X185.963 Y146.738 E0.12497
G1 X186.098 Y147.295 E0.02496
G1 X183.228 Y147.295 E0.12497
G1 X183.363 Y147.852 E0.02496
G1 X186.234 Y147.852 E0.12497
G1 X186.369 Y148.409 E0.02496
G1 X183.499 Y148.409 E0.12497
G1 X183.634 Y148.967 E0.02496
G1 X186.504 Y148.967 E0.12497
G1 X186.64 Y149.524 E0.02496
G1 X183.77 Y149.524 E0.12497
G1 X183.905 Y150.081 E0.02496
G1 X186.775 Y150.081 E0.12497
G1 X186.911 Y150.638 E0.02496
G1 X184.041 Y150.638 E0.12497
G1 X184.176 Y151.195 E0.02496
G1 X187.046 Y151.195 E0.12497
G1 X187.182 Y151.752 E0.02496
G1 X184.311 Y151.752 E0.12497
G1 X184.447 Y152.309 E0.02496
G1 X187.317 Y152.309 E0.12497
G1 X187.452 Y152.866 E0.02496
G1 X184.582 Y152.866 E0.12497
G1 X184.718 Y153.423 E0.02496
G1 X187.588 Y153.423 E0.12497
G1 X187.723 Y153.98 E0.02496
G1 X184.853 Y153.98 E0.12497
G1 X184.989 Y154.537 E0.02496
G1 X187.859 Y154.537 E0.12497
G1 X187.994 Y155.094 E0.02496
G1 X185.124 Y155.094 E0.12497
G1 X185.259 Y155.651 E0.02496
G1 X188.129 Y155.651 E0.12497
G1 X188.265 Y156.209 E0.02496
G1 X185.395 Y156.209 E0.12497
G1 X185.53 Y156.766 E0.02496
G1 X188.4 Y156.766 E0.12497
