; generated by SuperSlicer 2.5.59 on 2023-06-14 at 05:13:23 UTC


;
;

;
;
; 

; external perimeters extrusion width = 0.50mm
; perimeters extrusion width = 0.50mm
; infill extrusion width = 0.75mm
; solid infill extrusion width = 0.65mm
; top infill extrusion width = 0.60mm
; support material extrusion width = 0.50mm

; external perimeters extrusion width = 0.50mm
; perimeters extrusion width = 0.50mm
; infill extrusion width = 0.75mm
; solid infill extrusion width = 0.65mm
; top infill extrusion width = 0.60mm
; support material extrusion width = 0.50mm

; external perimeters extrusion width = 0.50mm
; perimeters extrusion width = 0.50mm
; infill extrusion width = 0.75mm
; solid infill extrusion width = 0.65mm
; top infill extrusion width = 0.60mm
; support material extrusion width = 0.50mm

; external perimeters extrusion width = 0.50mm
; perimeters extrusion width = 0.50mm
; infill extrusion width = 0.75mm
; solid infill extrusion width = 0.65mm
; top infill extrusion width = 0.60mm
; support material extrusion width = 0.50mm

; external perimeters extrusion width = 0.50mm
; perimeters extrusion width = 0.50mm
; infill extrusion width = 0.75mm
; solid infill extrusion width = 0.65mm
; top infill extrusion width = 0.60mm
; support material extrusion width = 0.50mm

; object:{"name":"benchy_Uppspel_holder__V1_4x","id":"benchy_Uppspel_holder__V1_4x.stl id:0 copy 0","object_center":[150.001829,149.998168,0.000000],"boundingbox_center":[150.001829,149.998168,10.000000],"boundingbox_size":[135.234172,135.234172,20.000000]}
EXCLUDE_OBJECT_DEFINE NAME=benchy_Uppspel_holder__V1_4x_stl_id_0_copy_0 CENTER=150.001829,149.998168 POLYGON=[[82.384752,104.478168],[85.566728,101.296192],[118.623968,82.381080],[156.171344,119.928448],[217.618928,181.376032],[198.703808,214.433280],[195.521840,217.615248],[177.278480,210.685616],[120.709928,154.117072],[92.425656,125.832792],[89.314392,122.721520],[82.384752,104.478168]]
; object:{"name":"benchy_Uppspel_holder__V1_4x","id":"benchy_Uppspel_holder__V1_4x.stl id:1 copy 0","object_center":[186.241055,113.758945,0.000000],"boundingbox_center":[186.241055,113.758945,10.000000],"boundingbox_size":[135.234172,135.234172,20.000000]}
EXCLUDE_OBJECT_DEFINE NAME=benchy_Uppspel_holder__V1_4x_stl_id_1_copy_0 CENTER=186.241055,113.758945 POLYGON=[[118.623976,68.238952],[121.805952,65.056968],[154.863184,46.141860],[159.742240,51.020896],[192.410576,83.689224],[253.858160,145.136816],[234.943040,178.194064],[231.761056,181.376032],[213.517696,174.446384],[156.949152,117.877848],[125.553616,86.482304],[118.623976,68.238952]]
; object:{"name":"benchy_Uppspel_holder__V1_4x","id":"benchy_Uppspel_holder__V1_4x.stl id:2 copy 0","object_center":[113.762606,186.237394,0.000000],"boundingbox_center":[113.762606,186.237394,10.000000],"boundingbox_size":[135.234172,135.234172,20.000000]}
EXCLUDE_OBJECT_DEFINE NAME=benchy_Uppspel_holder__V1_4x_stl_id_2_copy_0 CENTER=113.762606,186.237394 POLYGON=[[46.145524,140.717392],[49.327500,137.535408],[82.384744,118.620312],[181.379696,217.615264],[162.464592,250.672496],[159.282608,253.854480],[141.039248,246.924832],[109.643752,215.529344],[53.075164,158.960752],[46.145524,140.717392]]
; object:{"name":"benchy_Uppspel_holder__V1_4x","id":"benchy_Uppspel_holder__V1_4x.stl id:3 copy 0","object_center":[77.523382,222.476619,0.000000],"boundingbox_center":[77.523382,222.476619,10.000000],"boundingbox_size":[135.234172,135.234172,20.000000]}
EXCLUDE_OBJECT_DEFINE NAME=benchy_Uppspel_holder__V1_4x_stl_id_3_copy_0 CENTER=77.523382,222.476619 POLYGON=[[9.906303,176.956624],[13.088280,173.774640],[46.145524,154.859520],[102.714064,211.428064],[145.140480,253.854496],[126.225368,286.911744],[123.043384,290.093696],[104.800024,283.164064],[45.120212,223.484256],[16.835946,195.199984],[9.906303,176.956624]]
; object:{"name":"benchy_Uppspel_holder__V1_4x","id":"benchy_Uppspel_holder__V1_4x.stl id:4 copy 0","object_center":[222.480280,77.519721,0.000000],"boundingbox_center":[222.480280,77.519721,10.000000],"boundingbox_size":[135.234172,135.234172,20.000000]}
EXCLUDE_OBJECT_DEFINE NAME=benchy_Uppspel_holder__V1_4x_stl_id_4_copy_0 CENTER=222.480280,77.519721 POLYGON=[[154.863200,31.999722],[158.045184,28.817742],[191.102416,9.902634],[195.981456,14.781670],[205.244560,24.044770],[256.934080,75.734280],[280.834272,99.634472],[290.097376,108.897584],[271.182240,141.954832],[268.000272,145.136816],[249.756928,138.207152],[164.904112,53.354348],[161.792848,50.243072],[154.863200,31.999722]]
; plater:{"center":[150.001831,149.998170,0.000000],"boundingbox_center":[150.001831,149.998170,10.000000],"boundingbox_size":[280.191070,280.191070,20.000000]}

;TYPE:Custom
PRINT_START EXTRUDER=255 BED=110 AREA_START=3.33357,3.39894 AREA_END=296.669,296.666
M107
G21 ; set units to millimeters
G90 ; use absolute coordinates
M83 ; use relative distances for extrusion
SET_PRESSURE_ADVANCE SMOOTH_TIME=0.02
SET_PRESSURE_ADVANCE ADVANCE=0.02
;_TOOLCHANGE 0
M104 S255 ; set temperature
M109 S255 ; set temperature and wait for it to be reached
M190 S110 ; set bed temperature and wait for it to be reached
M107
;LAYER_CHANGE
;Z:0.2
;HEIGHT:0.2
;BEFORE_LAYER_CHANGE
TIMELAPSE_TAKE_FRAME
;0.2


G1 Z0.2 F48000
;AFTER_LAYER_CHANGE
;0.2
G92 E0
G1 E-0.8 F3600
M204 S5000
G1 Z0.3 F48000
G1 X89.092 Y89.092
G1 Z0.2
G1 E0.8 F3600
;TYPE:Skirt
;WIDTH:0.6
G1 F4200
G1 X5.582 Y172.601 E4.97824
G1 X4.153 Y174.939 E0.11546
G1 X3.883 Y177.073 E0.09069
G1 X4.403 Y179.16 E0.09069
G1 X12.358 Y196.506 E0.80436
G1 X13.536 Y198.199 E0.08697
G1 X101.801 Y286.464 E5.26168
G1 X103.494 Y287.642 E0.08697
G1 X120.84 Y295.597 E0.80436
G1 X123.528 Y296.122 E0.11546
G1 X125.623 Y295.633 E0.09069
G1 X127.399 Y294.418 E0.09069
G1 X275.412 Y146.405 E8.82346
G1 X276.351 Y145.177 E0.06516
G1 X295.361 Y111.953 E1.6135
G1 X295.822 Y110.929 E0.04734
G1 X296.126 Y108.8 E0.09069
G1 X295.637 Y106.704 E0.09069
G1 X294.422 Y104.929 E0.09069
G1 X195.071 Y5.578 E5.92257
G1 X194.204 Y4.864 E0.04734
G1 X192.229 Y4.012 E0.09069
G1 X190.079 Y3.933 E0.09069
G1 X188.047 Y4.639 E0.09069
G1 X154.823 Y23.649 E1.6135
G1 X153.595 Y24.588 E0.06516
G1 X89.145 Y89.038 E3.84206
G1 X89.538 Y89.432 F48000
G1 F4200
G1 X5.975 Y172.995 E4.9814
G1 X4.749 Y174.919 E0.09614
G1 X4.434 Y176.939 E0.08621
G1 X4.91 Y178.928 E0.08621
G1 X12.864 Y196.273 E0.80436
G1 X13.93 Y197.806 E0.07867
G1 X102.194 Y286.07 E5.26168
G1 X103.727 Y287.136 E0.07867
G1 X121.072 Y295.09 E0.80436
G1 X123.301 Y295.571 E0.09614
G1 X125.306 Y295.163 E0.08621
G1 X127.005 Y294.025 E0.08621
G1 X275.018 Y146.011 E8.82346
G1 X275.867 Y144.9 E0.05894
G1 X294.877 Y111.677 E1.6135
G1 X295.574 Y109.026 E0.11554
G1 X295.167 Y107.022 E0.08621
G1 X294.028 Y105.323 E0.08621
G1 X194.677 Y5.972 E5.92257
G1 X192.302 Y4.603 E0.11554
G1 X190.262 Y4.47 E0.08621
G1 X188.323 Y5.123 E0.08621
G1 X155.1 Y24.133 E1.6135
G1 X153.989 Y24.982 E0.05894
G1 X89.591 Y89.379 E3.83889
G1 E-0.08 F3600
;WIPE_START
G1 F38400
G1 X95.022 Y83.949 E-0.684
;WIPE_END
G1 E-0.036 F3600
G1 Z0.3 F48000
; printing object benchy_Uppspel_holder__V1_4x.stl id:0 copy 0
EXCLUDE_OBJECT_START NAME=benchy_Uppspel_holder__V1_4x_stl_id_0_copy_0
G1 X180.507 Y159.052
G1 Z0.2
G1 E0.8 F3600
;TYPE:Internal perimeter
;WIDTH:0.5
G1 F4200
G1 X160.218 Y179.341 E0.99241
G1 X149.085 Y168.209 E0.54451
G1 X175.319 Y141.975 E1.28315
G1 X177.142 Y143.798 E0.08916
G1 X172.238 Y148.702 E0.23986
G1 X171.843 Y149.149 E0.02064
G1 X171.469 Y149.7 E0.02301
G1 X171.167 Y150.292 E0.023
G1 X170.942 Y150.919 E0.02302
G1 X170.797 Y151.568 E0.02301
G1 X170.734 Y152.23 E0.023
G1 X170.755 Y152.895 E0.02302
G1 X170.859 Y153.552 E0.02301
G1 X171.045 Y154.191 E0.02302
G1 X171.309 Y154.802 E0.02301
G1 X171.648 Y155.375 E0.02301
G1 X172.056 Y155.9 E0.02301
G1 X172.526 Y156.371 E0.02303
G1 X173.052 Y156.779 E0.023
G1 X173.624 Y157.117 E0.023
G1 X174.235 Y157.382 E0.02302
G1 X174.874 Y157.567 E0.02301
G1 X175.531 Y157.671 E0.02299
G1 X176.196 Y157.692 E0.02304
G1 X176.858 Y157.63 E0.02299
G1 X177.509 Y157.485 E0.02307
G1 X178.134 Y157.259 E0.02297
G1 X178.725 Y156.958 E0.02295
G1 X179.278 Y156.583 E0.02312
G1 X179.726 Y156.188 E0.02064
G1 X184.629 Y151.284 E0.23982
G1 X186.452 Y153.107 E0.08916
G1 X180.561 Y158.998 E0.28815
G1 E-0.08 F3600
;WIPE_START
G1 F38400
G1 X185.991 Y153.568 E-0.684
;WIPE_END
G1 E-0.036 F3600
G1 Z0.3 F48000
G1 X183.055 Y202.178
G1 Z0.2
G1 E0.8 F3600
G1 F4200
G1 X177.511 Y196.635 E0.27113
G1 X203.745 Y170.401 E1.28315
G1 X205.568 Y172.224 E0.08916
G1 X200.665 Y177.127 E0.23982
G1 X200.27 Y177.574 E0.02064
G1 X199.894 Y178.127 E0.02312
G1 X199.594 Y178.719 E0.02295
G1 X199.368 Y179.344 E0.02297
G1 X199.223 Y179.995 E0.02307
G1 X199.16 Y180.656 E0.02299
G1 X199.182 Y181.322 E0.02304
G1 X199.286 Y181.979 E0.02299
G1 X199.471 Y182.617 E0.02301
G1 X199.735 Y183.228 E0.02303
G1 X200.074 Y183.801 E0.023
G1 X200.482 Y184.326 E0.023
G1 X200.953 Y184.798 E0.02304
G1 X201.478 Y185.205 E0.023
G1 X202.051 Y185.544 E0.023
G1 X202.662 Y185.808 E0.02303
G1 X203.301 Y185.994 E0.02301
G1 X203.957 Y186.098 E0.02299
G1 X204.623 Y186.119 E0.02304
G1 X205.284 Y186.056 E0.02299
G1 X205.936 Y185.911 E0.02307
G1 X206.56 Y185.685 E0.02297
G1 X207.152 Y185.385 E0.02295
G1 X207.705 Y185.009 E0.02312
G1 X208.152 Y184.614 E0.02064
G1 X213.055 Y179.711 E0.23982
G1 X214.878 Y181.534 E0.08916
G1 X188.644 Y207.768 E1.28315
G1 X183.108 Y202.231 E0.27079
G1 E-0.08 F3600
;WIPE_START
G1 F38400
G1 X188.538 Y207.662 E-0.684
;WIPE_END
G1 E-0.036 F3600
G1 Z0.3 F48000
G1 X158.025 Y124.681
G1 Z0.2
G1 E0.8 F3600
G1 F4200
G1 X131.791 Y150.915 E1.28315
G1 X120.659 Y139.782 E0.54451
G1 X146.893 Y113.548 E1.28315
G1 X148.716 Y115.371 E0.08916
G1 X143.812 Y120.275 E0.23986
G1 X143.417 Y120.723 E0.02064
G1 X143.043 Y121.273 E0.02302
G1 X142.741 Y121.866 E0.023
G1 X142.516 Y122.492 E0.02301
G1 X142.37 Y123.141 E0.02301
G1 X142.308 Y123.804 E0.02301
G1 X142.329 Y124.469 E0.02301
G1 X142.433 Y125.126 E0.02301
G1 X142.618 Y125.765 E0.02301
G1 X142.883 Y126.376 E0.02301
G1 X143.221 Y126.948 E0.02301
G1 X143.629 Y127.474 E0.02301
G1 X144.1 Y127.944 E0.02301
G1 X144.625 Y128.352 E0.02301
G1 X145.198 Y128.691 E0.02301
G1 X145.809 Y128.955 E0.02301
G1 X146.448 Y129.141 E0.02301
G1 X147.105 Y129.245 E0.02301
G1 X147.77 Y129.266 E0.02302
G1 X148.432 Y129.203 E0.02301
G1 X149.081 Y129.058 E0.023
G1 X149.707 Y128.833 E0.02301
G1 X150.3 Y128.531 E0.02302
G1 X150.851 Y128.157 E0.02301
G1 X151.298 Y127.762 E0.02064
G1 X156.202 Y122.858 E0.23986
G1 X157.972 Y124.628 E0.08657
G1 E-0.08 F3600
;WIPE_START
G1 F38400
G1 X156.202 Y122.858 E-0.22293
G1 X152.542 Y126.519 E-0.46107
;WIPE_END
G1 E-0.036 F3600
G1 Z0.3 F48000
G1 X129.599 Y96.254
G1 Z0.2
G1 E0.8 F3600
G1 F4200
G1 X103.365 Y122.489 E1.28315
G1 X92.232 Y111.356 E0.54451
G1 X118.466 Y85.122 E1.28315
G1 X120.289 Y86.945 E0.08916
G1 X115.385 Y91.849 E0.23986
G1 X114.991 Y92.296 E0.02064
G1 X114.617 Y92.847 E0.02301
G1 X114.315 Y93.44 E0.02301
G1 X114.089 Y94.066 E0.02301
G1 X113.944 Y94.715 E0.02302
G1 X113.881 Y95.377 E0.02301
G1 X113.902 Y96.042 E0.02301
G1 X114.006 Y96.699 E0.02301
G1 X114.192 Y97.338 E0.02301
G1 X114.456 Y97.949 E0.02301
G1 X114.795 Y98.522 E0.02301
G1 X115.203 Y99.048 E0.02301
G1 X115.673 Y99.518 E0.02301
G1 X116.199 Y99.926 E0.02301
G1 X116.772 Y100.265 E0.02301
G1 X117.382 Y100.529 E0.02301
G1 X118.021 Y100.714 E0.02301
G1 X118.678 Y100.819 E0.02301
G1 X119.343 Y100.839 E0.02301
G1 X120.006 Y100.777 E0.02302
G1 X120.655 Y100.632 E0.02301
G1 X121.281 Y100.406 E0.023
G1 X121.874 Y100.104 E0.02301
G1 X122.424 Y99.73 E0.02301
G1 X122.872 Y99.336 E0.02064
G1 X127.776 Y94.432 E0.23986
G1 X129.546 Y96.201 E0.08657
G1 E-0.08 F3600
;WIPE_START
G1 F38400
G1 X127.776 Y94.432 E-0.22293
G1 X124.115 Y98.092 E-0.46107
;WIPE_END
G1 E-0.036 F3600
G1 Z0.3 F48000
G1 X182.408 Y202.178
G1 Z0.2
G1 E0.8 F3600
G1 F4200
G1 X154.674 Y174.445 E1.3565
G1 X149.979 Y179.14 E0.22966
G1 X149.286 Y178.447 E0.03388
G1 X153.982 Y173.752 E0.22966
G1 X126.248 Y146.018 E1.3565
G1 X121.553 Y150.714 E0.22966
G1 X120.86 Y150.021 E0.03388
G1 X125.555 Y145.326 E0.22966
G1 X97.822 Y117.592 E1.3565
G1 X93.126 Y122.287 E0.22966
G1 X92.433 Y121.595 E0.03388
G1 X97.129 Y116.899 E0.22966
G1 X84.479 Y104.249 E0.61872
G1 X85.243 Y103.486 E0.03736
G1 X92.35 Y110.592 E0.3476
G1 X118.466 Y84.475 E1.27741
G1 X120.936 Y86.945 E0.12078
G1 X115.719 Y92.162 E0.25517
G1 X115.352 Y92.577 E0.01915
G1 X115.011 Y93.08 E0.02102
G1 X114.735 Y93.621 E0.02102
G1 X114.529 Y94.193 E0.02102
G1 X114.396 Y94.787 E0.02103
G1 X114.339 Y95.392 E0.02102
G1 X114.358 Y95.999 E0.02102
G1 X114.453 Y96.6 E0.02102
G1 X114.623 Y97.183 E0.02103
G1 X114.864 Y97.741 E0.02102
G1 X115.174 Y98.264 E0.02102
G1 X115.546 Y98.745 E0.02102
G1 X115.976 Y99.175 E0.02102
G1 X116.456 Y99.547 E0.02102
G1 X116.98 Y99.857 E0.02103
G1 X117.537 Y100.098 E0.02102
G1 X118.121 Y100.268 E0.02102
G1 X118.721 Y100.363 E0.02102
G1 X119.329 Y100.382 E0.02102
G1 X119.934 Y100.324 E0.02103
G1 X120.527 Y100.192 E0.02102
G1 X121.099 Y99.986 E0.02102
G1 X121.641 Y99.71 E0.02103
G1 X122.144 Y99.368 E0.02102
G1 X122.559 Y99.002 E0.01915
G1 X127.776 Y93.785 E0.25517
G1 X130.245 Y96.254 E0.12078
G1 X104.129 Y122.371 E1.27741
G1 X117.132 Y135.375 E0.63603
G1 X120.776 Y139.019 E0.17822
G1 X146.893 Y112.902 E1.27741
G1 X149.362 Y115.371 E0.12078
G1 X144.145 Y120.588 E0.25517
G1 X143.779 Y121.004 E0.01915
G1 X143.437 Y121.506 E0.02103
G1 X143.161 Y122.048 E0.02102
G1 X142.955 Y122.62 E0.02102
G1 X142.823 Y123.213 E0.02103
G1 X142.766 Y123.818 E0.02102
G1 X142.785 Y124.426 E0.02102
G1 X142.88 Y125.026 E0.02102
G1 X143.049 Y125.61 E0.02103
G1 X143.291 Y126.168 E0.02102
G1 X143.6 Y126.691 E0.02102
G1 X143.973 Y127.171 E0.02102
G1 X144.402 Y127.601 E0.02102
G1 X144.883 Y127.973 E0.02102
G1 X145.406 Y128.283 E0.02102
G1 X145.964 Y128.524 E0.02102
G1 X146.548 Y128.694 E0.02103
G1 X147.148 Y128.789 E0.02102
G1 X147.756 Y128.808 E0.02103
G1 X148.361 Y128.751 E0.02102
G1 X148.954 Y128.618 E0.02101
G1 X149.526 Y128.412 E0.02102
G1 X150.067 Y128.136 E0.02103
G1 X150.57 Y127.795 E0.02102
G1 X150.985 Y127.429 E0.01915
G1 X156.202 Y122.212 E0.25517
G1 X158.672 Y124.681 E0.12078
G1 X132.555 Y150.798 E1.27741
G1 X149.202 Y167.445 E0.81425
G1 X175.319 Y141.328 E1.27741
G1 X177.788 Y143.798 E0.12078
G1 X172.571 Y149.015 E0.25517
G1 X172.205 Y149.43 E0.01915
G1 X171.864 Y149.933 E0.02102
G1 X171.588 Y150.474 E0.02102
G1 X171.382 Y151.046 E0.02103
G1 X171.249 Y151.64 E0.02102
G1 X171.192 Y152.244 E0.02102
G1 X171.211 Y152.852 E0.02103
G1 X171.306 Y153.452 E0.02102
G1 X171.476 Y154.036 E0.02103
G1 X171.717 Y154.594 E0.02102
G1 X172.027 Y155.117 E0.02102
G1 X172.399 Y155.598 E0.02102
G1 X172.829 Y156.028 E0.02104
G1 X173.309 Y156.4 E0.02101
G1 X173.832 Y156.709 E0.02102
G1 X174.39 Y156.951 E0.02103
G1 X174.974 Y157.12 E0.02102
G1 X175.574 Y157.215 E0.021
G1 X176.182 Y157.235 E0.02104
G1 X176.787 Y157.177 E0.021
G1 X177.381 Y157.045 E0.02107
G1 X177.952 Y156.838 E0.02099
G1 X178.493 Y156.564 E0.02098
G1 X178.997 Y156.221 E0.02111
G1 X179.412 Y155.854 E0.01915
G1 X184.629 Y150.638 E0.25514
G1 X185.513 Y151.522 E0.04326
G1 X187.098 Y153.107 E0.07752
G1 X160.981 Y179.224 E1.27741
G1 X177.629 Y195.871 E0.81425
G1 X203.745 Y169.755 E1.27741
G1 X206.215 Y172.224 E0.12078
G1 X200.998 Y177.44 E0.25514
G1 X200.632 Y177.855 E0.01915
G1 X200.289 Y178.36 E0.02111
G1 X200.014 Y178.901 E0.02098
G1 X199.808 Y179.472 E0.02099
G1 X199.676 Y180.066 E0.02107
G1 X199.618 Y180.671 E0.021
G1 X199.637 Y181.279 E0.02104
G1 X199.733 Y181.879 E0.021
G1 X199.902 Y182.462 E0.02102
G1 X200.143 Y183.021 E0.02103
G1 X200.453 Y183.544 E0.02101
G1 X200.825 Y184.024 E0.02101
G1 X201.256 Y184.454 E0.02105
G1 X201.736 Y184.826 E0.02101
G1 X202.259 Y185.136 E0.02101
G1 X202.817 Y185.377 E0.02103
G1 X203.4 Y185.547 E0.02102
G1 X204 Y185.642 E0.021
G1 X204.608 Y185.661 E0.02104
G1 X205.213 Y185.604 E0.021
G1 X205.808 Y185.471 E0.02107
G1 X206.378 Y185.265 E0.02099
G1 X206.919 Y184.99 E0.02098
G1 X207.424 Y184.647 E0.02111
G1 X207.839 Y184.281 E0.01915
G1 X213.055 Y179.064 E0.25514
G1 X215.524 Y181.534 E0.12078
