; generated by SuperSlicer 2.5.59 on 2023-06-22 at 05:00:50 UTC


;
;

;
;
; 

; external perimeters extrusion width = 0.45mm
; perimeters extrusion width = 0.45mm
; infill extrusion width = 0.45mm
; solid infill extrusion width = 0.45mm
; top infill extrusion width = 0.40mm
; first layer extrusion width = 0.60mm

; external perimeters extrusion width = 0.45mm
; perimeters extrusion width = 0.45mm
; infill extrusion width = 0.45mm
; solid infill extrusion width = 0.45mm
; top infill extrusion width = 0.40mm
; first layer extrusion width = 0.60mm

; object:{"name":"Body1","id":"Body1.stl id:0 copy 0","object_center":[126.350666,126.368235,0.000000],"boundingbox_center":[126.350666,126.368235,4.762577],"boundingbox_size":[95.972061,95.972115,9.525154]}
EXCLUDE_OBJECT_DEFINE NAME=Body1_stl_id_0_copy_0 CENTER=126.350666,126.368235 POLYGON=[[78.364640,162.289280],[78.440504,160.938416],[78.667144,159.604560],[79.041704,158.304464],[79.559464,157.054480],[80.213912,155.870304],[80.996848,154.766864],[81.898392,153.758032],[153.740416,81.915944],[154.749248,81.014408],[155.852688,80.231456],[157.036848,79.577024],[158.286848,79.059248],[159.586960,78.684680],[160.920800,78.458056],[162.271664,78.382176],[163.622528,78.458056],[164.956384,78.684696],[164.956416,78.684704],[166.256480,79.059240],[167.506464,79.577016],[168.690624,80.231448],[169.794096,81.014416],[170.802912,81.915936],[171.704480,82.924808],[172.487408,84.028216],[172.487424,84.028240],[173.141872,85.212416],[173.659616,86.462384],[174.034192,87.762488],[174.260816,89.096344],[174.336704,90.447208],[174.260816,91.798056],[174.034192,93.131912],[173.659648,94.432040],[173.141872,95.682040],[172.487424,96.866168],[171.704464,97.969616],[170.802928,98.978448],[98.960904,170.820528],[97.952064,171.722080],[96.848632,172.505008],[95.664472,173.159488],[94.414488,173.677248],[93.114384,174.051792],[91.780520,174.278432],[90.429656,174.354288],[89.078792,174.278416],[87.744936,174.051792],[86.444840,173.677248],[85.194864,173.159488],[84.010696,172.505024],[82.907264,171.722096],[81.898416,170.820528],[81.898400,170.820512],[80.996864,169.811696],[80.213896,168.708240],[79.559464,167.524096],[79.041688,166.274096],[78.667152,164.974000],[78.440504,163.640144],[78.364640,162.289280]]
; object:{"name":"V mag latch (1)","id":"V mag latch (1) id:1 copy 0","object_center":[178.212173,178.229740,0.000000],"boundingbox_center":[178.212173,178.229740,2.875000],"boundingbox_size":[86.846362,86.776151,5.750000]}
EXCLUDE_OBJECT_DEFINE NAME=V_mag_latch_1__id_1_copy_0 CENTER=178.212173,178.229740 POLYGON=[[134.788992,142.346448],[134.799024,141.953904],[134.829568,141.562448],[134.880576,141.173104],[134.951888,140.787008],[135.043328,140.405136],[135.154592,140.028576],[135.285408,139.658368],[135.435440,139.295520],[135.604256,138.940992],[135.791392,138.595808],[135.996352,138.260880],[136.218544,137.937152],[136.457376,137.625472],[136.712208,137.326736],[136.982320,137.041728],[137.266960,136.771280],[137.565392,136.516064],[137.876720,136.276848],[138.200176,136.054240],[138.534832,135.848864],[138.879808,135.661264],[139.234080,135.492016],[139.596752,135.341504],[139.966816,135.210224],[140.343216,135.098464],[140.724960,135.006544],[141.111008,134.934736],[141.500256,134.883248],[141.891712,134.852192],[142.284192,134.841664],[142.676736,134.851696],[143.068192,134.882256],[208.485024,141.275440],[208.906288,141.331776],[209.323696,141.411904],[209.735904,141.515552],[210.141568,141.642352],[210.539392,141.791952],[210.928096,141.963856],[211.306464,142.157488],[211.673216,142.372240],[212.027248,142.607440],[212.367376,142.862288],[212.692528,143.136032],[213.001648,143.427712],[213.293760,143.736464],[213.567904,144.061264],[213.823184,144.401072],[214.058832,144.754800],[214.274048,145.121328],[214.468176,145.499408],[214.640560,145.887920],[214.790688,146.285536],[214.918000,146.691056],[215.022192,147.103104],[215.102848,147.520400],[215.159728,147.941600],[221.593760,213.329120],[221.624832,213.720528],[221.635360,214.113056],[221.625328,214.505568],[221.594768,214.897024],[221.543744,215.286368],[221.472464,215.672464],[221.381024,216.054336],[221.269760,216.430896],[221.138928,216.801136],[220.988880,217.163984],[220.820080,217.518480],[220.632912,217.863696],[220.428000,218.198592],[220.205792,218.522352],[219.966960,218.834000],[219.712144,219.132736],[219.442032,219.417744],[219.157392,219.688224],[218.858960,219.943408],[218.547616,220.182640],[218.224160,220.405264],[217.889488,220.610608],[217.544544,220.798208],[217.190224,220.967456],[216.827568,221.117968],[216.457536,221.249248],[216.081104,221.361040],[215.699360,221.452928],[215.313344,221.524736],[214.924064,221.576256],[214.532640,221.607280],[214.140128,221.617808],[213.747600,221.607808],[213.356160,221.577232],[212.966816,221.526224],[169.788416,214.258912],[169.366784,214.183472],[168.950128,214.084080],[168.539824,213.961088],[168.137232,213.814848],[167.743616,213.645872],[167.360320,213.454688],[166.988528,213.241936],[166.629520,213.008336],[166.284432,212.754576],[165.954384,212.481568],[165.640448,212.190160],[144.261328,190.838256],[143.969488,190.524688],[143.696048,190.194976],[143.441872,189.850224],[143.207792,189.491488],[142.994576,189.120000],[142.802912,188.736912],[142.633424,188.343536],[142.486672,187.941136],[142.363136,187.530976],[142.263216,187.114448],[142.187264,186.692896],[134.882064,143.519632],[134.830576,143.130384],[134.799520,142.738976],[134.788992,142.346448]]
; plater:{"center":[149.999994,149.999996,0.000000],"boundingbox_center":[149.999994,149.999996,4.762577],"boundingbox_size":[143.270719,143.235639,9.525154]}

;TYPE:Custom
PRINT_START EXTRUDER=255 BED=110 AREA_START=76.7312,76.7487 AREA_END=223.246,223.23
M107
G21 ; set units to millimeters
G90 ; use absolute coordinates
M83 ; use relative distances for extrusion
SET_PRESSURE_ADVANCE SMOOTH_TIME=0.02
SET_PRESSURE_ADVANCE ADVANCE=0.02
;_TOOLCHANGE 0
M104 S255 ; set temperature
M109 S255 ; set temperature and wait for it to be reached
M190 S110 ; set bed temperature and wait for it to be reached
M107
;LAYER_CHANGE
;Z:0.25
;HEIGHT:0.25
;BEFORE_LAYER_CHANGE
TIMELAPSE_TAKE_FRAME
;0.25


G1 Z0.25 F10800
;AFTER_LAYER_CHANGE
;0.25
G92 E0
G1 E-0.8 F3600
G1 Z0.35 F10800
M204 S1000
G1 X117.22 Y117.223
G1 Z0.25
G1 E0.8 F3600
;TYPE:Skirt
;WIDTH:0.65
G1 F900
G1 X81.111 Y153.331 E2.88035
G1 X80.118 Y154.448 E0.08426
G1 X79.283 Y155.632 E0.08174
G1 X78.626 Y156.823 E0.0767
G1 X78.037 Y158.244 E0.08678
G1 X77.641 Y159.638 E0.08174
G1 X77.403 Y161.067 E0.08174
G1 X77.327 Y162.425 E0.0767
G1 X77.403 Y163.872 E0.08174
G1 X77.661 Y165.389 E0.08678
G1 X78.067 Y166.78 E0.08174
G1 X78.587 Y168.036 E0.0767
G1 X79.283 Y169.307 E0.08174
G1 X80.118 Y170.492 E0.08174
G1 X81.08 Y171.576 E0.08174
G1 X82.227 Y172.601 E0.08678
G1 X83.336 Y173.388 E0.0767
G1 X84.602 Y174.093 E0.08174
G1 X167.994 Y214.328 E5.22258
G1 X169.366 Y214.725 E0.08056
G1 X213.001 Y222.53 E2.50028
G1 X214.3 Y222.634 E0.07353
G1 X215.213 Y222.585 E0.05157
G1 X216.438 Y222.358 E0.07025
G1 X217.288 Y222.086 E0.05039
G1 X218.142 Y221.703 E0.05274
G1 X219.253 Y221.013 E0.07377
G1 X220.243 Y220.158 E0.07377
G1 X221.286 Y218.868 E0.0936
G1 X221.764 Y218.04 E0.05391
G1 X222.357 Y216.491 E0.0936
G1 X222.604 Y215.185 E0.07495
G1 X222.651 Y214.251 E0.05274
G1 X215.683 Y147.695 E3.77459
G1 X215.313 Y146.052 E0.09502
G1 X214.538 Y144.414 E0.1022
G1 X172.583 Y82.245 E4.23044
G1 X171.558 Y81.097 E0.08678
G1 X170.474 Y80.136 E0.08174
G1 X169.289 Y79.301 E0.08174
G1 X168.019 Y78.604 E0.08174
G1 X166.678 Y78.055 E0.08174
G1 X165.284 Y77.658 E0.08174
G1 X163.855 Y77.42 E0.08174
G1 X162.407 Y77.344 E0.08174
G1 X161.05 Y77.42 E0.0767
G1 X159.62 Y77.658 E0.08174
G1 X158.226 Y78.055 E0.08174
G1 X156.886 Y78.604 E0.08174
G1 X155.615 Y79.301 E0.08174
G1 X154.43 Y80.136 E0.08174
G1 X153.346 Y81.097 E0.08174
G1 X117.273 Y117.17 E2.87747
G1 E-0.08 F3600
;WIPE_START
G1 F8640
M204 S3000
G1 X118.495 Y115.948 E-0.684
;WIPE_END
G1 E-0.036 F3600
G1 Z0.35 F10800
; printing object Body1.stl id:0 copy 0
EXCLUDE_OBJECT_START NAME=Body1_stl_id_0_copy_0
; acceleration to travel
M204 S1500
G1 X157.317 Y97.179
; decel to extrusion
M204 S1000
G1 X166.699 Y92.643
; end travel
G1 Z0.25
G1 E0.8 F3600
;TYPE:Internal perimeter
;WIDTH:0.6
G1 F900
G1 X167.114 Y91.72 E0.0523
G1 X167.327 Y90.562 E0.06084
G1 X167.256 Y89.386 E0.06084
G1 X166.905 Y88.262 E0.06083
G1 X166.296 Y87.255 E0.06084
G1 X165.464 Y86.423 E0.06083
G1 X164.456 Y85.814 E0.06084
G1 X163.332 Y85.463 E0.06084
G1 X162.157 Y85.392 E0.06084
G1 X161.578 Y85.498 E0.03042
G1 X160.999 Y85.604 E0.03041
G1 X159.926 Y86.088 E0.06083
G1 X159.102 Y86.733 E0.0541
G1 X86.716 Y159.119 E5.29
G1 X86.07 Y159.943 E0.0541
G1 X85.587 Y161.017 E0.06084
G1 X85.375 Y162.175 E0.06083
G1 X85.446 Y163.35 E0.06084
G1 X85.796 Y164.474 E0.06084
G1 X86.405 Y165.481 E0.06084
G1 X87.237 Y166.314 E0.06083
G1 X88.245 Y166.923 E0.06084
G1 X89.369 Y167.273 E0.06083
G1 X90.544 Y167.344 E0.06084
G1 X91.702 Y167.132 E0.06084
G1 X92.776 Y166.649 E0.06083
G1 X93.6 Y166.003 E0.0541
G1 X165.986 Y93.617 E5.29
G1 X166.631 Y92.793 E0.0541
G1 X166.668 Y92.711 E0.00466
G1 X166.205 Y92.408 F10800
G1 F900
G1 X166.589 Y91.556 E0.04829
G1 X166.777 Y90.528 E0.05398
G1 X166.714 Y89.486 E0.05398
G1 X166.404 Y88.488 E0.05398
G1 X165.863 Y87.594 E0.05398
G1 X165.124 Y86.856 E0.05398
G1 X164.231 Y86.315 E0.05398
G1 X163.233 Y86.005 E0.05398
G1 X162.191 Y85.942 E0.05398
G1 X161.677 Y86.036 E0.02699
G1 X161.163 Y86.13 E0.02699
G1 X160.211 Y86.559 E0.05398
G1 X159.465 Y87.143 E0.04897
G1 X87.125 Y159.482 E5.28659
G1 X86.541 Y160.228 E0.04896
G1 X86.112 Y161.181 E0.05398
G1 X85.924 Y162.208 E0.05398
G1 X85.987 Y163.251 E0.05398
G1 X86.298 Y164.248 E0.05398
G1 X86.838 Y165.142 E0.05398
G1 X87.577 Y165.881 E0.05398
G1 X88.471 Y166.421 E0.05398
G1 X89.468 Y166.732 E0.05398
G1 X90.511 Y166.795 E0.05398
G1 X91.538 Y166.607 E0.05398
G1 X92.491 Y166.178 E0.05398
G1 X93.237 Y165.594 E0.04896
G1 X165.576 Y93.254 E5.28659
G1 X166.16 Y92.508 E0.04896
G1 X166.175 Y92.476 E0.00181
G1 X165.712 Y92.173 F10800
G1 F900
G1 X166.064 Y91.392 E0.04428
G1 X166.228 Y90.495 E0.04712
G1 X166.173 Y89.585 E0.04712
G1 X165.902 Y88.714 E0.04712
G1 X165.43 Y87.934 E0.04712
G1 X164.785 Y87.289 E0.04712
G1 X164.005 Y86.817 E0.04712
G1 X163.134 Y86.546 E0.04712
G1 X162.224 Y86.491 E0.04712
G1 X161.775 Y86.573 E0.02356
G1 X161.327 Y86.655 E0.02356
G1 X160.495 Y87.03 E0.04712
G1 X159.828 Y87.553 E0.04383
G1 X87.535 Y159.845 E5.28317
G1 X87.012 Y160.513 E0.04383
G1 X86.638 Y161.344 E0.04712
G1 X86.473 Y162.241 E0.04712
G1 X86.528 Y163.152 E0.04712
G1 X86.8 Y164.022 E0.04712
G1 X87.272 Y164.803 E0.04712
G1 X87.916 Y165.447 E0.04712
G1 X88.697 Y165.919 E0.04712
G1 X89.567 Y166.191 E0.04712
G1 X90.478 Y166.246 E0.04712
G1 X91.375 Y166.081 E0.04712
G1 X92.206 Y165.707 E0.04712
G1 X92.874 Y165.184 E0.04383
G1 X165.166 Y92.891 E5.28317
G1 X165.677 Y92.239 E0.0428
G1 X165.218 Y91.939 F10800
;TYPE:External perimeter
G1 F900
G1 X165.538 Y91.228 E0.04027
G1 X165.679 Y90.462 E0.04027
G1 X165.632 Y89.684 E0.04027
G1 X165.4 Y88.94 E0.04027
G1 X164.997 Y88.273 E0.04027
G1 X164.446 Y87.722 E0.04027
G1 X163.779 Y87.319 E0.04027
G1 X163.035 Y87.087 E0.04027
G1 X162.257 Y87.04 E0.04027
G1 X161.874 Y87.111 E0.02013
G1 X161.491 Y87.181 E0.02013
G1 X160.78 Y87.501 E0.04027
G1 X160.191 Y87.962 E0.03869
G1 X87.945 Y160.208 E5.27976
G1 X87.483 Y160.798 E0.03869
G1 X87.163 Y161.508 E0.04027
G1 X87.023 Y162.275 E0.04027
G1 X87.07 Y163.052 E0.04027
G1 X87.302 Y163.796 E0.04027
G1 X87.705 Y164.463 E0.04027
G1 X88.256 Y165.014 E0.04027
G1 X88.923 Y165.417 E0.04027
G1 X89.667 Y165.649 E0.04027
G1 X90.444 Y165.696 E0.04027
G1 X91.211 Y165.556 E0.04027
G1 X91.921 Y165.236 E0.04027
G1 X92.511 Y164.774 E0.03869
G1 X164.757 Y92.528 E5.27976
G1 X165.172 Y91.998 E0.03482
;WIPE_START
M204 S3000
G1 X165.718 Y91.929 F10800
;WIPE_END
G1 E-0.08 F3600
;WIPE_START
G1 F8640
G1 X165.779 Y91.303 E-0.24877
G1 X165.93 Y90.477 E-0.33248
G1 X165.914 Y90.218 E-0.10275
;WIPE_END
G1 E-0.036 F3600
G1 Z0.35 F10800
; acceleration to travel
M204 S1500
G1 X170.37 Y93.746
; decel to extrusion
M204 S1000
G1 X171.447 Y94.598
; end travel
G1 Z0.25
G1 E0.8 F3600
;TYPE:Internal perimeter
G1 F900
G1 X170.905 Y95.578 E0.05785
G1 X170.257 Y96.491 E0.05785
G1 X169.471 Y97.371 E0.06096
G1 X97.353 Y169.489 E5.27043
G1 X96.474 Y170.275 E0.06096
G1 X95.561 Y170.923 E0.05785
G1 X94.581 Y171.464 E0.05785
G1 X93.546 Y171.893 E0.05785
G1 X92.471 Y172.203 E0.05785
G1 X91.367 Y172.39 E0.05785
G1 X90.249 Y172.453 E0.05785
G1 X89.131 Y172.39 E0.05785
G1 X88.028 Y172.203 E0.05785
G1 X86.952 Y171.893 E0.05785
G1 X85.918 Y171.464 E0.05785
G1 X84.938 Y170.923 E0.05785
G1 X84.025 Y170.275 E0.05785
G1 X83.19 Y169.529 E0.05785
G1 X82.444 Y168.694 E0.05785
G1 X81.796 Y167.781 E0.05785
G1 X81.255 Y166.801 E0.05785
G1 X80.826 Y165.767 E0.05785
G1 X80.516 Y164.691 E0.05785
G1 X80.329 Y163.588 E0.05786
G1 X80.266 Y162.47 E0.05785
G1 X80.329 Y161.352 E0.05785
G1 X80.516 Y160.248 E0.05785
G1 X80.826 Y159.173 E0.05785
G1 X81.255 Y158.138 E0.05785
G1 X81.796 Y157.158 E0.05785
G1 X82.444 Y156.245 E0.05785
G1 X83.23 Y155.366 E0.06096
G1 X155.348 Y83.248 E5.27043
G1 X156.228 Y82.462 E0.06096
G1 X157.141 Y81.814 E0.05785
G1 X158.121 Y81.272 E0.05785
G1 X159.155 Y80.844 E0.05785
G1 X160.231 Y80.534 E0.05785
G1 X161.334 Y80.346 E0.05785
G1 X162.452 Y80.283 E0.05785
G1 X163.237 Y80.328 E0.04064
G1 X163.57 Y80.346 E0.01721
G1 X164.674 Y80.534 E0.05785
G1 X165.749 Y80.844 E0.05785
G1 X166.784 Y81.272 E0.05785
G1 X167.764 Y81.814 E0.05785
G1 X168.677 Y82.462 E0.05785
G1 X169.511 Y83.207 E0.05785
G1 X170.257 Y84.042 E0.05785
G1 X170.905 Y84.955 E0.05785
G1 X171.447 Y85.935 E0.05785
G1 X171.875 Y86.969 E0.05785
G1 X172.185 Y88.045 E0.05785
G1 X172.373 Y89.149 E0.05785
G1 X172.435 Y90.267 E0.05785
G1 X172.373 Y91.384 E0.05785
G1 X172.185 Y92.488 E0.05785
G1 X171.875 Y93.564 E0.05785
G1 X171.475 Y94.529 E0.05398
G1 X171.94 Y94.836 F10800
G1 F900
G1 X171.369 Y95.869 E0.06102
G1 X170.685 Y96.832 E0.06102
G1 X169.869 Y97.746 E0.06334
G1 X97.729 Y169.886 E5.27201
G1 X96.815 Y170.703 E0.06334
G1 X95.852 Y171.386 E0.06102
G1 X94.818 Y171.957 E0.06102
G1 X93.727 Y172.409 E0.06102
G1 X92.592 Y172.736 E0.06102
G1 X91.428 Y172.934 E0.06102
G1 X90.249 Y173 E0.06102
G1 X89.07 Y172.934 E0.06102
G1 X87.906 Y172.736 E0.06102
G1 X86.771 Y172.409 E0.06102
G1 X85.68 Y171.957 E0.06102
G1 X84.647 Y171.386 E0.06102
G1 X83.684 Y170.703 E0.06102
G1 X82.803 Y169.916 E0.06102
G1 X82.016 Y169.035 E0.06102
G1 X81.333 Y168.072 E0.06103
G1 X80.762 Y167.039 E0.06102
G1 X80.31 Y165.948 E0.06103
G1 X79.983 Y164.813 E0.06102
G1 X79.785 Y163.649 E0.06103
G1 X79.719 Y162.47 E0.06102
G1 X79.785 Y161.291 E0.06102
G1 X79.983 Y160.127 E0.06102
G1 X80.31 Y158.992 E0.06102
G1 X80.762 Y157.901 E0.06102
G1 X81.333 Y156.867 E0.06102
G1 X82.016 Y155.904 E0.06102
G1 X82.833 Y154.99 E0.06334
G1 X154.973 Y82.85 E5.27201
G1 X155.887 Y82.034 E0.06334
G1 X156.85 Y81.35 E0.06102
G1 X157.883 Y80.779 E0.06102
G1 X158.974 Y80.327 E0.06102
G1 X160.109 Y80 E0.06102
G1 X161.273 Y79.802 E0.06102
G1 X162.452 Y79.736 E0.06102
G1 X163.268 Y79.782 E0.04222
G1 X163.631 Y79.802 E0.0188
G1 X164.795 Y80 E0.06103
G1 X165.93 Y80.327 E0.06102
G1 X167.021 Y80.779 E0.06103
G1 X168.055 Y81.35 E0.06102
G1 X169.018 Y82.034 E0.06102
G1 X169.898 Y82.821 E0.06102
G1 X170.685 Y83.701 E0.06102
G1 X171.369 Y84.664 E0.06102
G1 X171.94 Y85.698 E0.06102
G1 X172.392 Y86.789 E0.06102
G1 X172.719 Y87.923 E0.06102
G1 X172.916 Y89.088 E0.06102
G1 X172.983 Y90.267 E0.06102
G1 X172.916 Y91.446 E0.06102
G1 X172.719 Y92.61 E0.06102
G1 X172.392 Y93.745 E0.06102
G1 X171.968 Y94.766 E0.05715
G1 X172.433 Y95.073 F10800
G1 F900
G1 X171.832 Y96.16 E0.06419
G1 X171.113 Y97.173 E0.0642
G1 X170.266 Y98.122 E0.06571
G1 X166.06 Y102.327 E0.30736
G1 X98.104 Y170.283 E4.96624
G1 X97.156 Y171.131 E0.06571
G1 X96.143 Y171.849 E0.06419
G1 X95.056 Y172.45 E0.06419
G1 X93.908 Y172.926 E0.06419
G1 X92.714 Y173.27 E0.06419
