; generated by SuperSlicer 2.5.59 on 2023-06-22 at 06:49:44 UTC


;
;

;
;
; 

; external perimeters extrusion width = 0.50mm
; perimeters extrusion width = 0.50mm
; infill extrusion width = 0.75mm
; solid infill extrusion width = 0.65mm
; top infill extrusion width = 0.60mm
; first layer extrusion width = 0.60mm

; object:{"name":"Body1","id":"Body1.stl id:0 copy 0","object_center":[150.000000,149.999998,0.000000],"boundingbox_center":[150.000000,149.999998,4.762577],"boundingbox_size":[95.972505,95.971672,9.525154]}
EXCLUDE_OBJECT_DEFINE NAME=Body1_stl_id_0_copy_0 CENTER=150.000000,149.999998 POLYGON=[[102.013752,185.920736],[102.089632,184.569888],[102.316272,183.236016],[102.690824,181.935904],[103.208600,180.685920],[103.863064,179.501792],[104.646024,178.398336],[105.547568,177.389504],[177.390048,105.547872],[178.398880,104.646336],[179.502320,103.863408],[180.686480,103.208936],[181.936464,102.691176],[183.236592,102.316648],[184.570448,102.090024],[185.921296,102.014160],[187.272160,102.090040],[188.606016,102.316672],[189.906128,102.691248],[191.156096,103.209000],[192.340256,103.863472],[193.443696,104.646408],[194.452528,105.547976],[194.452544,105.547992],[195.354080,106.556824],[196.137024,107.660280],[196.791456,108.844432],[197.309216,110.094432],[197.683760,111.394520],[197.910400,112.728400],[197.986272,114.079256],[197.910368,115.430112],[197.683728,116.763976],[197.309168,118.064072],[196.791408,119.314048],[196.136928,120.498224],[195.354000,121.601656],[194.452448,122.610480],[122.609968,194.452112],[121.601136,195.353648],[120.497680,196.136592],[119.313520,196.791024],[118.063520,197.308784],[116.763416,197.683344],[115.429568,197.909968],[114.078704,197.985840],[112.727856,197.909952],[111.393968,197.683296],[110.093904,197.308752],[108.843904,196.790960],[107.659752,196.136528],[106.556288,195.353552],[105.547488,194.452032],[104.645920,193.443152],[103.862984,192.339712],[103.208560,191.155552],[103.208544,191.155520],[102.690808,189.905584],[102.316240,188.605440],[102.089616,187.271584],[102.013752,185.920736]]
; plater:{"center":[150.000000,149.999998,0.000000],"boundingbox_center":[150.000000,149.999998,4.762577],"boundingbox_size":[95.972505,95.971672,9.525154]}

;TYPE:Custom
PRINT_START EXTRUDER=255 BED=110 AREA_START=95.4901,95.4906 AREA_END=204.51,204.509
M107
G21 ; set units to millimeters
G90 ; use absolute coordinates
M83 ; use relative distances for extrusion
SET_PRESSURE_ADVANCE SMOOTH_TIME=0.02
SET_PRESSURE_ADVANCE ADVANCE=0.02
;_TOOLCHANGE 0
M109 S255 ; set temperature and wait for it to be reached
M190 S110 ; set bed temperature and wait for it to be reached
M107
;LAYER_CHANGE
;Z:0.2
;HEIGHT:0.2
;BEFORE_LAYER_CHANGE
TIMELAPSE_TAKE_FRAME
;0.2


G1 Z0.2 F36000
;AFTER_LAYER_CHANGE
;0.2
G92 E0
G1 E-0.8 F3600
G1 Z0.3 F36000
M204 S5000
G1 X137.36 Y137.387
G1 Z0.2
G1 E0.8 F3600
;TYPE:Skirt
;WIDTH:0.6
G1 F1800
G1 X101.271 Y173.469 E2.19848
G1 X100.145 Y174.715 E0.07231
G1 X98.957 Y176.326 E0.08625
G1 X97.956 Y178.061 E0.08626
G1 X96.94 Y180.514 E0.11439
G1 X96.421 Y182.448 E0.08625
G1 X96.122 Y184.428 E0.08625
G1 X96.046 Y186.428 E0.08626
G1 X96.122 Y187.775 E0.05809
G1 X96.567 Y190.393 E0.11439
G1 X97.156 Y192.306 E0.08625
G1 X97.956 Y194.142 E0.08625
G1 X98.608 Y195.322 E0.05809
G1 X99.737 Y196.976 E0.08626
G1 X101.044 Y198.493 E0.08625
G1 X102.512 Y199.854 E0.08626
G1 X104.677 Y201.391 E0.11439
G1 X106.447 Y202.327 E0.08625
G1 X107.693 Y202.843 E0.05809
G1 X110.245 Y203.578 E0.11439
G1 X112.224 Y203.878 E0.08626
G1 X113.571 Y203.953 E0.05809
G1 X116.222 Y203.804 E0.11439
G1 X118.19 Y203.433 E0.08626
G1 X119.485 Y203.059 E0.05809
G1 X121.939 Y202.043 E0.11438
G1 X123.673 Y201.043 E0.08626
G1 X124.773 Y200.263 E0.0581
G1 X126.53 Y198.729 E0.10046
G1 X198.729 Y126.531 E4.39856
G1 X199.855 Y125.285 E0.07231
G1 X201.043 Y123.674 E0.08625
G1 X202.328 Y121.35 E0.11439
G1 X202.844 Y120.104 E0.05809
G1 X203.433 Y118.19 E0.08625
G1 X203.805 Y116.223 E0.08625
G1 X203.954 Y113.572 E0.11439
G1 X203.805 Y111.575 E0.08626
G1 X203.579 Y110.245 E0.05809
G1 X203.06 Y108.312 E0.08625
G1 X202.328 Y106.448 E0.08626
G1 X201.043 Y104.124 E0.11439
G1 X199.855 Y102.512 E0.08625
G1 X198.494 Y101.044 E0.08626
G1 X197.488 Y100.146 E0.05809
G1 X195.877 Y98.957 E0.08625
G1 X194.142 Y97.957 E0.08626
G1 X191.689 Y96.941 E0.11439
G1 X189.755 Y96.422 E0.08626
G1 X187.776 Y96.122 E0.08625
G1 X186.429 Y96.047 E0.05809
G1 X183.778 Y96.196 E0.11439
G1 X181.81 Y96.567 E0.08625
G1 X179.897 Y97.157 E0.08626
G1 X178.061 Y97.957 E0.08626
G1 X176.327 Y98.957 E0.08625
G1 X174.716 Y100.145 E0.08625
G1 X173.708 Y101.046 E0.05822
G1 X137.413 Y137.334 E2.21095
G1 X137.807 Y137.727 F36000
G1 F1800
G1 X101.664 Y173.863 E2.20171
G1 X100.561 Y175.086 E0.07097
G1 X99.411 Y176.649 E0.08356
G1 X98.444 Y178.33 E0.08357
G1 X97.475 Y180.668 E0.10902
G1 X96.97 Y182.541 E0.08357
G1 X96.678 Y184.459 E0.08356
G1 X96.603 Y185.805 E0.05809
G1 X96.678 Y187.744 E0.08357
G1 X97.102 Y190.238 E0.10901
G1 X97.671 Y192.093 E0.08356
G1 X98.444 Y193.872 E0.08356
G1 X99.411 Y195.554 E0.08357
G1 X100.191 Y196.654 E0.05809
G1 X101.459 Y198.122 E0.08357
G1 X102.883 Y199.439 E0.08357
G1 X104.947 Y200.903 E0.10902
G1 X106.66 Y201.813 E0.08356
G1 X107.906 Y202.329 E0.05809
G1 X110.338 Y203.029 E0.10901
G1 X112.256 Y203.321 E0.08357
G1 X113.602 Y203.397 E0.05809
G1 X116.129 Y203.255 E0.10901
G1 X118.035 Y202.898 E0.08357
G1 X119.331 Y202.524 E0.05809
G1 X121.669 Y201.556 E0.10901
G1 X123.351 Y200.589 E0.08357
G1 X124.451 Y199.808 E0.0581
G1 X126.136 Y198.335 E0.09643
G1 X198.336 Y126.137 E4.39856
G1 X199.439 Y124.914 E0.07097
G1 X200.589 Y123.351 E0.08356
G1 X201.813 Y121.136 E0.10902
G1 X202.329 Y119.891 E0.05809
G1 X202.898 Y118.036 E0.08356
G1 X203.256 Y116.129 E0.08357
G1 X203.397 Y114.195 E0.08357
G1 X203.256 Y111.668 E0.10902
G1 X202.898 Y109.762 E0.08356
G1 X202.525 Y108.466 E0.05809
G1 X201.813 Y106.661 E0.08357
G1 X200.589 Y104.446 E0.10901
G1 X199.44 Y102.884 E0.08356
G1 X198.122 Y101.46 E0.08357
G1 X196.654 Y100.192 E0.08357
G1 X195.554 Y99.412 E0.05809
G1 X193.873 Y98.444 E0.08357
G1 X191.535 Y97.476 E0.10901
G1 X189.662 Y96.971 E0.08357
G1 X187.744 Y96.679 E0.08356
G1 X186.398 Y96.603 E0.05809
G1 X183.871 Y96.745 E0.10902
G1 X181.965 Y97.102 E0.08356
G1 X180.11 Y97.671 E0.08357
G1 X178.331 Y98.444 E0.08357
G1 X176.649 Y99.411 E0.08356
G1 X175.087 Y100.561 E0.08356
G1 X174.079 Y101.461 E0.05822
G1 X137.86 Y137.674 E2.20638
G1 E-0.08 F3600
;WIPE_START
G1 F28800
M204 S10000
G1 X141.933 Y133.602 E-0.684
;WIPE_END
G1 E-0.036 F3600
G1 Z0.3 F36000
; printing object Body1.stl id:0 copy 0
EXCLUDE_OBJECT_START NAME=Body1_stl_id_0_copy_0
; acceleration to travel
G1 X178.381 Y113.941
; decel to extrusion
M204 S5000
G1 X184.958 Y110.394
; end travel
G1 Z0.2
G1 E0.8 F3600
;TYPE:Internal perimeter
G1 F1800
G1 X184.191 Y110.738 E0.0362
G1 X183.536 Y111.252 E0.03584
G1 X111.251 Y183.536 E4.4038
G1 X110.738 Y184.191 E0.03584
G1 X110.373 Y185.003 E0.03835
G1 X110.212 Y185.878 E0.03835
G1 X110.266 Y186.767 E0.03835
G1 X110.531 Y187.617 E0.03835
G1 X110.991 Y188.379 E0.03835
G1 X111.621 Y189.008 E0.03835
G1 X112.383 Y189.469 E0.03835
G1 X113.233 Y189.734 E0.03835
G1 X114.121 Y189.787 E0.03835
G1 X114.997 Y189.627 E0.03835
G1 X115.809 Y189.262 E0.03835
G1 X116.463 Y188.748 E0.03584
G1 X188.749 Y116.464 E4.4038
G1 X189.262 Y115.809 E0.03584
G1 X189.627 Y114.997 E0.03835
G1 X189.788 Y114.122 E0.03835
G1 X189.734 Y113.233 E0.03835
G1 X189.469 Y112.383 E0.03835
G1 X189.009 Y111.621 E0.03835
G1 X188.379 Y110.992 E0.03835
G1 X187.617 Y110.531 E0.03835
G1 X186.767 Y110.266 E0.03835
G1 X185.879 Y110.213 E0.03835
G1 X185.441 Y110.293 E0.01918
G1 X185.028 Y110.369 E0.01809
G1 X185.132 Y110.926 F36000
;TYPE:External perimeter
G1 F1800
G1 X184.482 Y111.219 E0.03073
G1 X183.907 Y111.669 E0.03147
G1 X111.669 Y183.906 E4.40089
G1 X111.218 Y184.481 E0.03147
G1 X110.908 Y185.17 E0.03252
G1 X110.772 Y185.912 E0.03252
G1 X110.818 Y186.666 E0.03252
G1 X111.043 Y187.387 E0.03252
G1 X111.433 Y188.033 E0.03252
G1 X111.967 Y188.566 E0.03252
G1 X112.613 Y188.957 E0.03252
G1 X112.973 Y189.069 E0.01626
G1 X113.334 Y189.182 E0.01626
G1 X114.087 Y189.227 E0.03252
G1 X114.83 Y189.091 E0.03252
G1 X115.518 Y188.781 E0.03252
G1 X116.093 Y188.331 E0.03147
G1 X188.331 Y116.094 E4.40089
G1 X188.782 Y115.519 E0.03147
G1 X189.091 Y114.83 E0.03252
G1 X189.228 Y114.088 E0.03252
G1 X189.182 Y113.334 E0.03252
G1 X188.957 Y112.613 E0.03252
G1 X188.567 Y111.967 E0.03252
G1 X188.033 Y111.434 E0.03252
G1 X187.387 Y111.043 E0.03252
G1 X186.666 Y110.818 E0.03252
G1 X185.913 Y110.773 E0.03252
G1 X185.541 Y110.841 E0.01626
G1 X185.203 Y110.903 E0.01482
;WIPE_START
M204 S10000
G1 X184.749 Y110.605 F36000
;WIPE_END
G1 E-0.08 F3600
;WIPE_START
G1 F28800
G1 X184.351 Y111.003 E-0.0668
G1 X183.74 Y111.482 E-0.09215
G1 X180.614 Y114.608 E-0.52505
;WIPE_END
G1 E-0.036 F3600
G1 Z0.3 F36000
; acceleration to travel
G1 X129.13 Y183.182
; decel to extrusion
M204 S5000
G1 X119.839 Y195.557
; end travel
G1 Z0.2
G1 E0.8 F3600
;TYPE:Internal perimeter
G1 F1800
G1 X118.743 Y196.162 E0.05395
G1 X117.586 Y196.642 E0.05395
G1 X116.383 Y196.988 E0.05395
G1 X115.148 Y197.198 E0.05395
G1 X113.898 Y197.268 E0.05395
G1 X112.648 Y197.198 E0.05395
G1 X111.413 Y196.988 E0.05395
G1 X110.21 Y196.642 E0.05395
G1 X109.053 Y196.162 E0.05395
G1 X107.957 Y195.557 E0.05395
G1 X106.936 Y194.832 E0.05395
G1 X106.002 Y193.998 E0.05395
G1 X105.167 Y193.064 E0.05395
G1 X104.443 Y192.042 E0.05395
G1 X103.837 Y190.946 E0.05395
G1 X103.358 Y189.789 E0.05395
G1 X103.011 Y188.586 E0.05395
G1 X102.801 Y187.352 E0.05395
G1 X102.731 Y186.101 E0.05395
G1 X102.801 Y184.851 E0.05395
G1 X103.011 Y183.616 E0.05395
G1 X103.358 Y182.413 E0.05395
G1 X103.837 Y181.256 E0.05395
G1 X104.443 Y180.16 E0.05395
G1 X105.168 Y179.139 E0.05395
G1 X106.02 Y178.185 E0.05511
G1 X178.185 Y106.02 E4.39649
G1 X179.139 Y105.168 E0.05511
G1 X180.161 Y104.443 E0.05395
G1 X181.257 Y103.837 E0.05395
G1 X182.414 Y103.358 E0.05395
G1 X183.617 Y103.012 E0.05395
G1 X184.851 Y102.802 E0.05395
G1 X186.102 Y102.732 E0.05395
G1 X186.501 Y102.754 E0.01721
G1 X187.352 Y102.802 E0.03674
G1 X188.587 Y103.012 E0.05395
G1 X189.79 Y103.358 E0.05395
G1 X190.947 Y103.838 E0.05395
G1 X192.043 Y104.443 E0.05395
G1 X193.064 Y105.168 E0.05395
G1 X193.998 Y106.002 E0.05395
G1 X194.833 Y106.936 E0.05395
G1 X195.557 Y107.958 E0.05395
G1 X196.163 Y109.054 E0.05395
G1 X196.642 Y110.21 E0.05395
G1 X196.989 Y111.414 E0.05395
G1 X197.199 Y112.648 E0.05395
G1 X197.269 Y113.899 E0.05395
G1 X197.199 Y115.149 E0.05395
G1 X196.989 Y116.384 E0.05395
G1 X196.642 Y117.587 E0.05395
G1 X196.163 Y118.744 E0.05395
G1 X195.557 Y119.84 E0.05395
G1 X194.832 Y120.861 E0.05395
G1 X193.98 Y121.815 E0.05511
G1 X122.148 Y193.647 E4.37619
G1 X121.815 Y193.98 E0.0203
G1 X120.861 Y194.832 E0.05511
G1 X119.901 Y195.513 E0.05072
G1 X120.136 Y196.029 F36000
;TYPE:External perimeter
G1 F1800
G1 X118.985 Y196.665 E0.05664
G1 X117.771 Y197.168 E0.05664
G1 X116.507 Y197.532 E0.05664
G1 X115.211 Y197.753 E0.05664
G1 X113.898 Y197.826 E0.05664
G1 X112.585 Y197.753 E0.05664
G1 X111.289 Y197.532 E0.05664
G1 X110.026 Y197.168 E0.05664
G1 X108.811 Y196.665 E0.05664
G1 X107.66 Y196.029 E0.05664
G1 X106.588 Y195.268 E0.05664
G1 X105.607 Y194.392 E0.05664
G1 X104.731 Y193.412 E0.05664
G1 X103.97 Y192.339 E0.05664
G1 X103.334 Y191.189 E0.05664
G1 X102.831 Y189.974 E0.05664
G1 X102.467 Y188.71 E0.05664
G1 X102.247 Y187.414 E0.05664
G1 X102.173 Y186.101 E0.05664
G1 X102.247 Y184.788 E0.05664
G1 X102.467 Y183.492 E0.05664
G1 X102.831 Y182.229 E0.05664
G1 X103.334 Y181.014 E0.05664
G1 X103.97 Y179.863 E0.05664
G1 X104.731 Y178.791 E0.05664
G1 X105.615 Y177.802 E0.05713
G1 X177.803 Y105.615 E4.39784
G1 X178.791 Y104.732 E0.05713
G1 X179.864 Y103.971 E0.05664
G1 X181.014 Y103.335 E0.05664
G1 X182.229 Y102.832 E0.05664
G1 X183.493 Y102.468 E0.05664
G1 X184.789 Y102.247 E0.05664
G1 X186.102 Y102.174 E0.05664
G1 X186.532 Y102.198 E0.01856
G1 X187.415 Y102.247 E0.03808
G1 X188.711 Y102.468 E0.05664
G1 X189.974 Y102.832 E0.05664
G1 X191.189 Y103.335 E0.05664
G1 X192.34 Y103.971 E0.05664
G1 X193.412 Y104.732 E0.05664
G1 X194.393 Y105.608 E0.05664
G1 X195.269 Y106.588 E0.05664
G1 X196.03 Y107.661 E0.05664
G1 X196.666 Y108.811 E0.05664
G1 X197.169 Y110.026 E0.05664
G1 X197.533 Y111.29 E0.05664
G1 X197.753 Y112.586 E0.05664
G1 X197.827 Y113.899 E0.05664
G1 X197.753 Y115.212 E0.05664
G1 X197.533 Y116.508 E0.05664
G1 X197.169 Y117.771 E0.05664
G1 X196.666 Y118.986 E0.05664
G1 X196.03 Y120.137 E0.05664
G1 X195.269 Y121.209 E0.05664
G1 X194.385 Y122.198 E0.05713
G1 X122.542 Y194.04 E4.37686
G1 X122.197 Y194.385 E0.02097
G1 X121.209 Y195.268 E0.05713
G1 X120.197 Y195.986 E0.05341
;WIPE_START
M204 S10000
G1 X119.699 Y195.787 F36000
;WIPE_END
G1 E-0.08 F3600
;WIPE_START
G1 F28800
G1 X118.877 Y196.44 E-0.12459
G1 X117.688 Y196.932 E-0.15281
G1 X116.452 Y197.288 E-0.15281
G1 X115.183 Y197.504 E-0.1528
G1 X114.334 Y197.551 E-0.101
;WIPE_END
G1 E-0.036 F3600
G1 Z0.3 F36000
; acceleration to travel
G1 X177.153 Y117.583
; decel to extrusion
M204 S5000
G1 X188.54 Y103.088
; end travel
G1 Z0.2
G1 E0.8 F3600
;TYPE:Solid infill
G1 F3000
G1 X186.118 Y103.088 E0.10433
G1 X184.883 Y103.124 E0.0532
G1 X183.689 Y103.327 E0.0522
G1 X182.584 Y103.645 E0.04954
G1 X189.62 Y103.645 E0.30309
G1 X189.683 Y103.664 E0.00285
G1 X190.807 Y104.129 E0.05238
G1 X190.939 Y104.203 E0.00654
G1 X181.264 Y104.203 E0.41681
G1 X180.333 Y104.717 E0.04584
G1 X180.273 Y104.76 E0.00315
G1 X191.93 Y104.76 E0.50219
G1 X192.716 Y105.317 E0.04147
G1 X179.488 Y105.317 E0.56983
G1 X179.341 Y105.421 E0.00776
G1 X178.834 Y105.874 E0.02928
G1 X193.369 Y105.874 E0.62615
G1 X193.769 Y106.231 E0.02311
G1 X193.948 Y106.431 E0.01153
G1 X178.232 Y106.431 E0.67702
G1 X177.675 Y106.988 E0.03394
G1 X194.445 Y106.988 E0.72247
G1 X194.58 Y107.138 E0.00867
G1 X194.868 Y107.545 E0.0215
G1 X177.118 Y107.545 E0.76468
G1 X176.561 Y108.102 E0.03394
G1 X195.264 Y108.102 E0.80571
G1 X195.576 Y108.659 E0.02751
G1 X176.003 Y108.659 E0.84316
G1 X175.446 Y109.216 E0.03394
G1 X195.881 Y109.216 E0.88028
G1 X196.111 Y109.773 E0.02598
G1 X174.889 Y109.773 E0.91422
G1 X174.332 Y110.33 E0.03394
G1 X184.311 Y110.33 E0.42987
G1 X184.906 Y110.062 E0.02813
G1 X185.859 Y109.888 E0.04173
G1 X186.826 Y109.946 E0.04173
G1 X187.751 Y110.234 E0.04173
G1 X187.91 Y110.33 E0.00799
G1 X196.34 Y110.33 E0.36319
G1 X196.501 Y110.887 E0.02497
G1 X188.732 Y110.887 E0.33469
G1 X189.265 Y111.421 E0.03248
G1 X189.279 Y111.445 E0.00121
G1 X196.661 Y111.445 E0.31801
G1 X196.761 Y112.002 E0.02438
G1 X189.616 Y112.002 E0.30779
G1 X189.766 Y112.25 E0.01248
G1 X189.862 Y112.559 E0.01395
G1 X196.856 Y112.559 E0.30126
G1 X196.877 Y112.685 E0.0055
G1 X196.901 Y113.116 E0.0186
G1 X190.036 Y113.116 E0.29575
G1 X190.054 Y113.174 E0.00265
G1 X190.084 Y113.673 E0.02151
G1 X196.933 Y113.673 E0.29501
G1 X196.945 Y113.899 E0.00975
G1 X196.927 Y114.23 E0.01429
G1 X190.096 Y114.23 E0.29424
G1 X189.994 Y114.787 E0.0244
G1 X196.895 Y114.787 E0.29729
G1 X196.877 Y115.113 E0.01406
G1 X196.838 Y115.344 E0.01011
G1 X189.825 Y115.344 E0.30208
G1 X189.575 Y115.901 E0.02632
G1 X196.743 Y115.901 E0.3088
G1 X196.673 Y116.312 E0.01794
G1 X196.631 Y116.458 E0.00657
G1 X189.164 Y116.458 E0.32168
G1 X188.991 Y116.679 E0.01206
G1 X188.654 Y117.015 E0.02052
G1 X196.471 Y117.015 E0.33671
G1 X196.337 Y117.48 E0.02084
G1 X196.298 Y117.572 E0.00431
G1 X188.097 Y117.572 E0.35329
G1 X187.54 Y118.129 E0.03394
G1 X196.068 Y118.129 E0.36735
G1 X195.871 Y118.604 E0.0221
G1 X195.825 Y118.687 E0.00409
G1 X186.983 Y118.687 E0.38092
G1 X186.426 Y119.244 E0.03394
G1 X195.518 Y119.244 E0.39165
G1 X195.283 Y119.668 E0.02088
G1 X195.189 Y119.801 E0.00702
G1 X185.869 Y119.801 E0.40149
G1 X185.312 Y120.358 E0.03394
G1 X194.794 Y120.358 E0.40846
G1 X194.579 Y120.659 E0.01594
G1 X194.351 Y120.915 E0.01475
G1 X184.755 Y120.915 E0.4134
G1 X184.198 Y121.472 E0.03394
G1 X193.853 Y121.472 E0.41596
G1 X193.745 Y121.593 E0.007
G1 X193.309 Y122.029 E0.02656
G1 X183.641 Y122.029 E0.41651
G1 X183.084 Y122.586 E0.03394
