; generated by SuperSlicer 2.5.59 on 2022-10-10 at 20:36:17 UTC


;
;

;
;
; 

; external perimeters extrusion width = 0.63mm
; perimeters extrusion width = 0.68mm
; infill extrusion width = 0.84mm
; solid infill extrusion width = 0.84mm
; top infill extrusion width = 0.60mm
; first layer extrusion width = 0.80mm

; object:{"name":"bowen_retainer","id":"bowen_retainer.stl id:0 copy 0","object_center":[150.000000,150.000000,0.000000],"boundingbox_center":[150.000000,150.000000,4.999996],"boundingbox_size":[49.724617,49.724617,9.999992]}
; plater:{"center":[150.000000,150.000000,0.000000],"boundingbox_center":[150.000000,150.000000,4.999996],"boundingbox_size":[49.724617,49.724617,9.999992]}

;TYPE:Custom
PRINT_START EXTRUDER=255 BED=115


; Pre-Processed for Cancel-Object support by preprocess_cancellation v0.2.0
; 1 known objects
EXCLUDE_OBJECT_DEFINE NAME=bowen_retainer_stl_id_0_copy_0 CENTER=149.932,149.878 POLYGON=[[141.557,125.465],[141.365,125.537],[141.192,125.666],[125.667,141.191],[125.537,141.365],[125.469,141.547],[125.455,141.74],[125.494,141.931],[125.666,142.191],[157.808,174.333],[157.982,174.463],[158.174,174.535],[158.35,174.547],[158.558,174.501],[158.801,174.341],[174.341,158.801],[174.463,158.635],[174.531,158.453],[174.545,158.26],[174.501,158.059],[174.336,157.811],[142.192,125.667],[142.018,125.537],[141.836,125.469],[141.557,125.465]]
M107
G21 ; set units to millimeters
G90 ; use absolute coordinates
M83 ; use relative distances for extrusion
SET_PRESSURE_ADVANCE ADVANCE=0.01
SET_PRESSURE_ADVANCE SMOOTH=0.04

;_TOOLCHANGE 0
M104 S255 ; set temperature
M109 S255 ; set temperature and wait for it to be reached
M190 S115 ; set bed temperature and wait for it to be reached
M107
;LAYER_CHANGE
;Z:0.24
;HEIGHT:0.24
;BEFORE_LAYER_CHANGE
;0.24


G1 Z0.24 F24000
;AFTER_LAYER_CHANGE
;0.24
G92 E0
G1 E-0.6 F3600
M204 S5000
G1 Z0.84 F24000
G1 X129.301 Y127.359
G1 Z0.24
G1 E0.6 F2400
;TYPE:Skirt
;WIDTH:0.675
G1 F5613.5123
G1 X120.566 Y136.227 E0.72019
G1 X119.746 Y137.229 E0.07497
G1 X118.796 Y139.056 E0.11908
G1 X118.36 Y141.16 E0.12434
G1 X118.499 Y143.272 E0.12247
G1 X119.099 Y145.047 E0.10841
G1 X119.976 Y146.473 E0.09689
G1 X120.622 Y147.213 E0.05681
G1 X152.786 Y179.376 E2.63172
G1 X153.846 Y180.254 E0.07967
G1 X155.673 Y181.204 E0.11908
G1 X157.777 Y181.64 E0.12434
G1 X159.889 Y181.501 E0.12245
G1 X161.664 Y180.901 E0.10845
G1 X163.09 Y180.024 E0.09684
G1 X163.83 Y179.378 E0.05683
G1 X179.376 Y163.831 E1.27206
G1 X180.254 Y162.77 E0.07969
G1 X181.204 Y160.945 E0.11905
G1 X181.64 Y158.84 E0.12436
G1 X181.501 Y156.728 E0.12247
G1 X180.901 Y154.953 E0.10842
G1 X180.024 Y153.526 E0.09688
G1 X179.378 Y152.787 E0.0568
G1 X147.214 Y120.624 E2.63172
G1 X146.156 Y119.747 E0.07951
G1 X144.069 Y118.714 E0.13472
G1 X142.051 Y118.346 E0.1187
G1 X140.243 Y118.473 E0.10484
G1 X138.485 Y119.029 E0.10668
G1 X136.799 Y120.063 E0.11446
G1 X129.881 Y126.77 E0.55746
G1 X129.364 Y127.295 E0.04261
G1 X129.809 Y127.732 F24000
G1 F5613.5123
G1 X121.012 Y136.663 E0.72526
G1 X120.252 Y137.593 E0.06951
G1 X119.381 Y139.271 E0.1094
G1 X118.981 Y141.21 E0.11456
G1 X119.111 Y143.15 E0.1125
G1 X119.664 Y144.785 E0.09982
G1 X120.465 Y146.087 E0.08848
G1 X121.063 Y146.772 E0.05258
G1 X153.227 Y178.935 E2.63172
G1 X154.21 Y179.748 E0.07381
G1 X155.888 Y180.619 E0.1094
G1 X157.827 Y181.019 E0.11456
G1 X159.767 Y180.889 E0.11248
G1 X161.402 Y180.335 E0.09986
G1 X162.704 Y179.535 E0.08844
G1 X163.389 Y178.937 E0.0526
G1 X178.935 Y163.39 E1.27206
G1 X179.748 Y162.407 E0.07382
G1 X180.619 Y160.729 E0.10937
G1 X181.019 Y158.79 E0.11457
G1 X180.889 Y156.849 E0.1125
G1 X180.336 Y155.215 E0.09983
G1 X179.535 Y153.913 E0.08847
G1 X178.937 Y153.228 E0.05258
G1 X146.773 Y121.065 E2.63172
G1 X145.792 Y120.254 E0.07364
G1 X143.887 Y119.31 E0.12303
G1 X142.027 Y118.969 E0.1094
G1 X140.365 Y119.085 E0.09641
G1 X138.748 Y119.595 E0.09809
G1 X137.185 Y120.553 E0.10605
G1 X130.322 Y127.211 E0.55324
G1 X129.872 Y127.668 E0.03713
G1 X130.316 Y128.106 F24000
G1 F5613.5123
G1 X121.458 Y137.098 E0.73033
G1 X120.759 Y137.957 E0.06405
G1 X119.966 Y139.487 E0.09972
G1 X119.603 Y141.261 E0.10478
G1 X119.722 Y143.029 E0.10252
G1 X120.23 Y144.522 E0.09123
G1 X120.955 Y145.701 E0.08007
G1 X121.504 Y146.331 E0.04836
G1 X153.667 Y178.494 E2.63172
G1 X154.574 Y179.241 E0.06794
G1 X156.104 Y180.034 E0.09972
G1 X157.878 Y180.397 E0.10478
G1 X159.646 Y180.278 E0.10251
G1 X161.139 Y179.77 E0.09127
G1 X162.318 Y179.045 E0.08003
G1 X162.948 Y178.496 E0.04838
G1 X178.494 Y162.95 E1.27206
G1 X179.241 Y162.043 E0.06795
G1 X180.034 Y160.513 E0.09969
G1 X180.397 Y158.739 E0.10479
G1 X180.278 Y156.971 E0.10253
G1 X179.77 Y155.478 E0.09124
G1 X179.045 Y154.299 E0.08006
G1 X178.496 Y153.669 E0.04835
G1 X146.333 Y121.506 E2.63172
G1 X145.429 Y120.76 E0.06777
G1 X143.704 Y119.907 E0.11133
G1 X142.003 Y119.592 E0.1001
G1 X140.486 Y119.696 E0.08798
G1 X139.01 Y120.16 E0.0895
G1 X137.572 Y121.042 E0.09764
G1 X130.763 Y127.652 E0.54902
G1 X130.379 Y128.041 E0.03165
G1 X130.823 Y128.479 F24000
G1 F5613.5123
G1 X121.904 Y137.534 E0.7354
G1 X121.265 Y138.32 E0.05859
G1 X120.551 Y139.703 E0.09003
G1 X120.224 Y141.312 E0.095
G1 X120.334 Y142.908 E0.09255
G1 X120.795 Y144.26 E0.08265
G1 X121.444 Y145.315 E0.07165
G1 X121.945 Y145.89 E0.04414
G1 X154.108 Y178.053 E2.63172
G1 X154.937 Y178.735 E0.06207
G1 X156.32 Y179.449 E0.09003
G1 X157.929 Y179.776 E0.095
G1 X159.525 Y179.666 E0.09254
G1 X160.877 Y179.204 E0.08268
G1 X161.931 Y178.556 E0.07162
G1 X162.507 Y178.055 E0.04415
G1 X178.053 Y162.509 E1.27206
G1 X178.735 Y161.68 E0.06208
G1 X179.449 Y160.297 E0.09001
G1 X179.776 Y158.688 E0.09501
G1 X179.666 Y157.092 E0.09256
G1 X179.204 Y155.74 E0.08265
G1 X178.556 Y154.685 E0.07165
G1 X178.055 Y154.11 E0.04413
G1 X145.892 Y121.947 E2.63172
G1 X145.065 Y121.267 E0.06191
G1 X143.522 Y120.503 E0.09964
G1 X141.979 Y120.215 E0.0908
G1 X140.607 Y120.308 E0.07954
G1 X139.273 Y120.726 E0.08092
G1 X137.958 Y121.532 E0.08923
G1 X131.204 Y128.093 E0.5448
G1 X130.887 Y128.415 E0.02617
G1 E-0.06 F3600
;WIPE_START
G1 F19200
M204 S3000
G1 X128.866 Y130.467 E-0.513
;WIPE_END
G1 E-0.027 F3600
G1 Z0.84 F24000
; printing object bowen_retainer.stl id:0 copy 0
EXCLUDE_OBJECT_START NAME=bowen_retainer_stl_id_0_copy_0
G1 X136.06 Y147.694
G1 Z0.24
G1 E0.6 F2400
;TYPE:Internal perimeter
;WIDTH:0.8
G1 F9000
G1 X130.057 Y141.69 E0.5897
G1 X132.045 Y139.699 E0.19543
G1 X132.33 Y139.931 E0.02547
G1 X133.326 Y140.44 E0.07771
G1 X134.318 Y140.724 E0.07166
G1 X135.429 Y140.82 E0.07749
G1 X136.564 Y140.68 E0.07942
G1 X137.645 Y140.308 E0.07943
G1 X138.603 Y139.733 E0.07759
G1 X139.37 Y139.042 E0.07165
G1 X140.039 Y138.151 E0.07743
G1 X140.522 Y137.114 E0.07942
G1 X140.774 Y136.021 E0.07796
G1 X140.806 Y134.99 E0.07165
G1 X140.63 Y133.894 E0.07707
G1 X140.218 Y132.827 E0.07946
G1 X139.707 Y132.042 E0.06505
G1 X141.691 Y130.058 E0.19488
G1 X147.694 Y136.06 E0.58958
G1 X146.687 Y136.557 E0.07795
G1 X145.772 Y137.171 E0.07654
G1 X145.043 Y137.811 E0.06741
G1 X137.81 Y145.044 E0.71049
G1 X137.159 Y145.788 E0.06864
G1 X136.556 Y146.69 E0.07534
G1 X136.1 Y147.613 E0.0715
G1 E-0.06 F3600
;WIPE_START
G1 F19200
G1 X134.043 Y145.597 E-0.513
;WIPE_END
G1 E-0.027 F3600
G1 Z0.84 F24000
G1 X136.407 Y149.099
G1 Z0.24
G1 E0.6 F2400
G1 F9000
G1 X128.999 Y141.691 E0.72773
G1 X131.993 Y138.692 E0.29431
G1 X132.74 Y139.3 E0.06692
G1 X133.602 Y139.74 E0.06718
G1 X134.454 Y139.984 E0.06158
G1 X135.415 Y140.067 E0.06701
G1 X136.395 Y139.946 E0.06853
G1 X137.328 Y139.625 E0.06854
G1 X138.156 Y139.129 E0.0671
G1 X138.815 Y138.535 E0.06158
G1 X139.394 Y137.764 E0.06697
G1 X139.81 Y136.87 E0.06853
G1 X140.029 Y135.924 E0.06738
G1 X140.055 Y135.038 E0.06157
G1 X139.903 Y134.09 E0.06668
G1 X139.548 Y133.169 E0.06856
G1 X139.013 Y132.348 E0.0681
G1 X138.68 Y132.011 E0.03291
G1 X141.691 Y129 E0.29583
G1 X149.099 Y136.407 E0.72764
G1 X148.48 Y136.573 E0.04452
G1 X147.91 Y136.788 E0.04228
G1 X147.063 Y137.207 E0.06564
G1 X146.229 Y137.766 E0.06973
G1 X145.555 Y138.358 E0.06234
G1 X138.356 Y145.556 E0.70708
G1 X137.754 Y146.244 E0.06353
G1 X137.206 Y147.065 E0.06857
G1 X136.788 Y147.91 E0.06547
G1 X136.573 Y148.48 E0.04228
G1 X136.43 Y149.012 E0.03827
G1 E-0.06 F3600
;WIPE_START
G1 F19200
G1 X134.379 Y146.991 E-0.513
;WIPE_END
G1 E-0.027 F3600
G1 Z0.84 F24000
G1 X136.915 Y150.665
G1 Z0.24
G1 E0.6 F2400
G1 F9000
G1 X127.94 Y141.691 E0.88155
G1 X132.052 Y137.574 E0.40413
G1 X132.498 Y138.138 E0.04999
G1 X133.151 Y138.669 E0.05846
G1 X133.878 Y139.04 E0.05666
G1 X134.591 Y139.245 E0.05151
G1 X135.402 Y139.315 E0.05654
G1 X136.225 Y139.213 E0.05764
G1 X137.01 Y138.943 E0.05765
G1 X137.709 Y138.524 E0.0566
G1 X138.26 Y138.027 E0.05151
G1 X138.748 Y137.377 E0.0565
G1 X139.099 Y136.625 E0.05764
G1 X139.283 Y135.828 E0.05681
G1 X139.305 Y135.087 E0.0515
G1 X139.177 Y134.286 E0.05629
G1 X138.878 Y133.512 E0.05766
G1 X138.428 Y132.82 E0.05732
G1 X137.928 Y132.317 E0.04925
G1 X137.577 Y132.055 E0.03043
G1 X141.691 Y127.941 E0.40415
G1 X150.694 Y136.944 E0.8843
G1 X150.019 Y136.988 E0.04698
G1 X149.508 Y137.073 E0.03597
G1 X148.709 Y137.286 E0.05743
G1 X148.209 Y137.475 E0.03714
G1 X147.439 Y137.856 E0.05967
G1 X146.687 Y138.36 E0.06293
G1 X146.067 Y138.904 E0.05727
G1 X138.903 Y146.068 E0.70367
G1 X138.349 Y146.701 E0.05841
G1 X137.855 Y147.441 E0.0618
G1 X137.475 Y148.209 E0.05954
G1 X137.286 Y148.709 E0.03714
G1 X137.064 Y149.539 E0.05966
G1 X136.927 Y150.576 E0.07267
G1 E-0.06 F3600
;WIPE_START
G1 F19200
G1 X134.879 Y148.551 E-0.513
;WIPE_END
G1 E-0.027 F3600
G1 Z0.84 F24000
G1 X137.817 Y152.1
G1 Z0.24
G1 E0.6 F2400
G1 F9000
G1 X137.474 Y152.283 E0.027
G1 X126.882 Y141.691 E1.04043
G1 X132.253 Y136.313 E0.52788
G1 X132.606 Y137.067 E0.05783
G1 X133.034 Y137.61 E0.048
G1 X133.562 Y138.039 E0.04724
G1 X134.154 Y138.341 E0.04614
G1 X134.727 Y138.505 E0.04143
G1 X135.388 Y138.562 E0.04606
G1 X136.056 Y138.48 E0.04675
G1 X136.692 Y138.261 E0.04676
G1 X137.262 Y137.92 E0.0461
G1 X137.705 Y137.52 E0.04143
G1 X138.103 Y136.99 E0.04604
G1 X138.387 Y136.38 E0.04676
G1 X138.537 Y135.731 E0.04623
G1 X138.555 Y135.135 E0.04143
G1 X138.45 Y134.483 E0.04591
G1 X138.208 Y133.854 E0.04676
G1 X137.842 Y133.293 E0.04655
G1 X137.437 Y132.884 E0.04001
G1 X137.038 Y132.588 E0.03446
G1 X136.279 Y132.256 E0.05753
G1 X136.866 Y131.708 E0.05576
G1 X141.691 Y126.883 E0.47399
G1 X152.276 Y137.467 E1.03966
G1 X152.109 Y137.804 E0.02609
G1 X151.317 Y137.699 E0.05554
G1 X150.856 Y137.683 E0.032
G1 X150.542 Y137.704 E0.02189
G1 X150.105 Y137.733 E0.0304
G1 X149.666 Y137.805 E0.03088
G1 X148.939 Y138 E0.0523
G1 X148.508 Y138.162 E0.032
G1 X147.815 Y138.505 E0.05369
G1 X147.144 Y138.955 E0.05612
G1 X146.579 Y139.451 E0.05219
G1 X139.45 Y146.58 E0.70026
G1 X138.945 Y147.157 E0.0533
G1 X138.505 Y147.816 E0.05503
G1 X138.163 Y148.508 E0.05362
G1 X138 Y148.939 E0.032
G1 X137.8 Y149.686 E0.05369
G1 X137.699 Y150.451 E0.05363
G1 X137.683 Y150.912 E0.032
G1 X137.734 Y151.683 E0.05373
G1 X137.799 Y152.012 E0.02324
G1 E-0.06 F3600
;WIPE_START
G1 F19200
G1 X137.474 Y152.283 E-0.07546
G1 X135.737 Y150.546 E-0.43754
;WIPE_END
G1 E-0.027 F3600
G1 Z0.84 F24000
G1 X158.309 Y169.942
G1 Z0.24
G1 E0.6 F2400
G1 F9000
G1 X156.827 Y168.46 E0.14555
G1 X157.397 Y168.202 E0.04346
G1 X158.287 Y167.689 E0.07137
G1 X159.164 Y167.018 E0.07666
G1 X167.016 Y159.166 E0.77133
G1 X167.678 Y158.304 E0.07547
G1 X168.201 Y157.398 E0.07268
G1 X168.46 Y156.827 E0.04356
G1 X169.942 Y158.309 E0.14557
G1 X158.372 Y169.878 E1.13646
G1 E-0.06 F3600
;WIPE_START
G1 F19200
G1 X156.827 Y168.46 E-0.37361
G1 X157.397 Y168.202 E-0.11146
G1 X157.533 Y168.124 E-0.02793
;WIPE_END
G1 E-0.027 F3600
G1 Z0.84 F24000
G1 X155.45 Y168.142
G1 Z0.24
G1 E0.6 F2400
G1 F9000
G1 X156.532 Y167.772 E0.07944
G1 X157.055 Y167.535 E0.03983
G1 X157.871 Y167.065 E0.06545
G1 X158.669 Y166.454 E0.06983
G1 X166.452 Y158.671 E0.76447
G1 X167.054 Y157.887 E0.06867
G1 X167.535 Y157.055 E0.0667
G1 X167.779 Y156.515 E0.04118
G1 X168.141 Y155.449 E0.07819
G1 X171 Y158.309 E0.28085
G1 X158.309 Y171 E1.24669
G1 X155.513 Y168.205 E0.27455
G1 E-0.06 F3600
;WIPE_START
G1 F19200
G1 X156.532 Y167.772 E-0.1972
G1 X157.055 Y167.535 E-0.10216
G1 X157.871 Y167.065 E-0.16784
G1 X158.075 Y166.908 E-0.04581
;WIPE_END
G1 E-0.027 F3600
G1 Z0.84 F24000
G1 X153.849 Y167.599
G1 Z0.24
G1 E0.6 F2400
G1 F9000
G1 X154.57 Y167.529 E0.05035
G1 X155.43 Y167.358 E0.06087
G1 X156.256 Y167.075 E0.06064
G1 X156.712 Y166.868 E0.0348
G1 X157.455 Y166.44 E0.05953
G1 X158.175 Y165.889 E0.06299
G1 X165.888 Y158.177 E0.75762
G1 X166.431 Y157.47 E0.06187
G1 X166.868 Y156.713 E0.06072
G1 X167.082 Y156.24 E0.03606
G1 X167.358 Y155.428 E0.05957
G1 X167.529 Y154.57 E0.06073
G1 X167.599 Y153.849 E0.05034
G1 X172.059 Y158.309 E0.43804
G1 X158.309 Y172.059 E1.35067
G1 X153.913 Y167.663 E0.43179
G1 E-0.06 F3600
;WIPE_START
G1 F19200
G1 X154.57 Y167.529 E-0.11958
G1 X155.43 Y167.358 E-0.1561
G1 X156.256 Y167.075 E-0.15551
G1 X156.674 Y166.886 E-0.08181
;WIPE_END
G1 E-0.027 F3600
G1 Z0.84 F24000
G1 X152.25 Y167.059
G1 Z0.24
G1 E0.6 F2400
G1 F9000
G1 X152.416 Y166.722 E0.02607
G1 X153.245 Y166.831 E0.0581
G1 X154.017 Y166.831 E0.05363
G1 X154.461 Y166.788 E0.03094
G1 X155.235 Y166.633 E0.05483
G1 X155.98 Y166.379 E0.05469
G1 X156.37 Y166.202 E0.02976
G1 X157.039 Y165.816 E0.05361
G1 X157.681 Y165.325 E0.05616
G1 X165.324 Y157.682 E0.75077
G1 X165.807 Y157.053 E0.05507
G1 X166.202 Y156.371 E0.05474
G1 X166.385 Y155.965 E0.03094
G1 X166.633 Y155.234 E0.05363
G1 X166.788 Y154.461 E0.05475
G1 X166.831 Y154.017 E0.03093
G1 X166.831 Y153.266 E0.05219
G1 X166.788 Y152.823 E0.03094
G1 X166.708 Y152.426 E0.02812
G1 X167.051 Y152.242 E0.027
G1 X173.117 Y158.309 E0.59587
G1 X158.309 Y173.117 E1.45464
G1 X152.313 Y167.122 E0.58888
G1 X153.294 Y166.082 F24000
;TYPE:External perimeter
G1 F4500
G1 X153.981 Y166.082 E0.0477
G1 X154.351 Y166.046 E0.02582
G1 X155.04 Y165.909 E0.0488
G1 X155.704 Y165.682 E0.04874
G1 X156.028 Y165.535 E0.02472
G1 X156.623 Y165.192 E0.04769
G1 X157.187 Y164.761 E0.04933
G1 X164.76 Y157.187 E0.74392
G1 X165.184 Y156.636 E0.04828
G1 X165.535 Y156.028 E0.04876
G1 X165.688 Y155.69 E0.02582
G1 X165.909 Y155.039 E0.0477
G1 X166.046 Y154.351 E0.04876
G1 X166.082 Y153.981 E0.02581
G1 X166.082 Y153.302 E0.04712
G1 X166.046 Y152.932 E0.02582
G1 X165.909 Y152.243 E0.0488
G1 X165.682 Y151.579 E0.04874
G1 X165.535 Y151.255 E0.02472
G1 X165.192 Y150.66 E0.04769
G1 X164.761 Y150.096 E0.04932
G1 X154.682 Y140.003 E0.99072
G1 X154.423 Y139.76 E0.02468
G1 X153.885 Y139.347 E0.04712
G1 X153.569 Y139.15 E0.02581
G1 X152.94 Y138.84 E0.04877
G1 X152.289 Y138.619 E0.0477
G1 X151.928 Y138.535 E0.0258
G1 X151.255 Y138.445 E0.04715
G1 X150.868 Y138.432 E0.02686
G1 X150.591 Y138.451 E0.0193
G1 X150.191 Y138.477 E0.02786
G1 X149.824 Y138.538 E0.0258
G1 X149.168 Y138.713 E0.04716
G1 X148.807 Y138.85 E0.02686
G1 X148.191 Y139.154 E0.04772
G1 X147.601 Y139.549 E0.04931
G1 X147.091 Y139.997 E0.04712
G1 X139.997 Y147.091 E0.69685
G1 X139.54 Y147.613 E0.04818
G1 X139.154 Y148.191 E0.04826
G1 X138.85 Y148.807 E0.04769
G1 X138.713 Y149.168 E0.02686
G1 X138.536 Y149.832 E0.04772
G1 X138.445 Y150.513 E0.0477
G1 X138.432 Y150.899 E0.02686
G1 X138.478 Y151.585 E0.04774
G1 X138.617 Y152.282 E0.04935
G1 X138.844 Y152.946 E0.04874
G1 X138.99 Y153.27 E0.02472
G1 X139.333 Y153.865 E0.04769
G1 X139.765 Y154.429 E0.04933
G1 X150.096 Y164.76 E1.0148
G1 X150.647 Y165.184 E0.04828
G1 X151.255 Y165.535 E0.04876
G1 X151.594 Y165.688 E0.02582
G1 X152.236 Y165.906 E0.04712
G1 X152.598 Y165.991 E0.02582
G1 X153.205 Y166.071 E0.04251
;WIPE_START
M204 S5000
G1 X153.571 Y166.615 F24000
;WIPE_END
G1 E-0.06 F3600
;WIPE_START
G1 F19200
M204 S3000
G1 X153.995 Y166.382 E-0.08615
G1 X154.395 Y166.343 E-0.07147
G1 X155.118 Y166.199 E-0.13135
G1 X155.814 Y165.961 E-0.13111
G1 X156.165 Y165.802 E-0.06858
G1 X156.284 Y165.734 E-0.02434
;WIPE_END
G1 E-0.027 F3600
G1 Z0.84 F24000
G1 X158.245 Y174.071
G1 Z0.24
G1 E0.6 F2400
G1 F4500
G1 X158.124 Y173.992 E0.01004
G1 X126 Y141.868 E3.15544
G1 X125.927 Y141.749 E0.0097
G1 X125.929 Y141.628 E0.00841
