; generated by SuperSlicer 2.5.59 on 2022-10-30 at 18:28:54 UTC


;
;

;
;
; 

; external perimeters extrusion width = 0.52mm
; perimeters extrusion width = 0.56mm
; infill extrusion width = 0.70mm
; solid infill extrusion width = 0.70mm
; top infill extrusion width = 0.50mm
; first layer extrusion width = 0.60mm

; object:{"name":"braidaid final","id":"braidaid final.stl id:0 copy 0","object_center":[149.458201,150.151966,0.000000],"boundingbox_center":[149.458201,150.151966,23.500074],"boundingbox_size":[20.422801,20.194184,47.000148]}
; plater:{"center":[149.458201,150.151966,0.000000],"boundingbox_center":[149.458201,150.151966,23.500074],"boundingbox_size":[20.422801,20.194184,47.000148]}

;TYPE:Custom
PRINT_START EXTRUDER=260 BED=110
M107
G21 ; set units to millimeters
G90 ; use absolute coordinates
M83 ; use relative distances for extrusion
SET_PRESSURE_ADVANCE SMOOTH_TIME=0.02
SET_PRESSURE_ADVANCE ADVANCE=0.06
;_TOOLCHANGE 0
M104 S260 ; set temperature
M109 S260 ; set temperature and wait for it to be reached
M190 S110 ; set bed temperature and wait for it to be reached
M107
;LAYER_CHANGE
;Z:0.3
;HEIGHT:0.3
;BEFORE_LAYER_CHANGE
;0.3


G1 Z0.3 F24000
;AFTER_LAYER_CHANGE
;0.3
G92 E0
G1 E-0.6 F2400
M204 S10000
G1 X138.458 Y144.36 F24000
G1 E0.6 F2400
;TYPE:Skirt
;WIDTH:0.6
G1 F4667.4924
G1 X139.288 Y143.624 E0.0674
G1 X140.183 Y142.968 E0.06748
G1 X141.255 Y142.334 E0.07571
G1 X142.265 Y141.866 E0.06768
G1 X143.336 Y141.488 E0.06907
G1 X144.413 Y141.219 E0.06745
G1 X145.511 Y141.052 E0.06754
G1 X146.646 Y140.987 E0.06908
G1 X147.756 Y141.03 E0.06755
G1 X148.859 Y141.177 E0.06764
G1 X149.969 Y141.433 E0.06927
G1 X150.769 Y141.703 E0.05131
G1 X152.089 Y140.374 E0.1139
G1 X152.134 Y139.772 E0.0367
G1 X152.543 Y138.73 E0.06805
G1 X153.543 Y137.452 E0.09867
G1 X154.488 Y136.804 E0.06968
G1 X155.551 Y136.418 E0.06875
G1 X157.816 Y136.367 E0.13772
G1 X159.055 Y136.83 E0.08042
G1 X160.096 Y137.538 E0.0765
G1 X162.137 Y139.569 E0.17506
G1 X162.772 Y140.454 E0.06622
G1 X163.238 Y141.474 E0.06816
G1 X163.45 Y143.218 E0.10682
G1 X163.16 Y144.696 E0.09157
G1 X162.635 Y145.714 E0.06965
G1 X161.826 Y146.615 E0.07356
G1 X160.462 Y147.416 E0.09618
G1 X159.34 Y147.648 E0.06967
G1 X157.962 Y149.018 E0.11812
G1 X158.228 Y149.848 E0.053
G1 X158.488 Y151.115 E0.07862
G1 X158.598 Y152.188 E0.06558
G1 X158.61 Y153.267 E0.06562
G1 X158.503 Y154.501 E0.07526
G1 X158.273 Y155.697 E0.07405
G1 X157.975 Y156.711 E0.06428
G1 X157.592 Y157.685 E0.06363
G1 X157.043 Y158.767 E0.07374
G1 X156.386 Y159.787 E0.07378
G1 X155.695 Y160.659 E0.0676
G1 X154.912 Y161.474 E0.06876
G1 X154.052 Y162.215 E0.06897
G1 X153.147 Y162.855 E0.0674
G1 X152.169 Y163.418 E0.0686
G1 X151.15 Y163.882 E0.06805
G1 X149.555 Y164.382 E0.10164
G1 X148.135 Y164.562 E0.08702
G1 X147.134 Y164.493 E0.06099
G1 X146.296 Y164.222 E0.05352
G1 X145.791 Y164.363 E0.03191
G1 X144.088 Y164.374 E0.1035
G1 X142.874 Y164.073 E0.07608
G1 X141.72 Y163.612 E0.07554
G1 X140.668 Y163.055 E0.07233
G1 X139.686 Y162.401 E0.07176
G1 X138.802 Y161.68 E0.06936
G1 X137.974 Y160.857 E0.07091
G1 X137.247 Y159.979 E0.06935
G1 X136.608 Y159.035 E0.06928
G1 X136.063 Y158.035 E0.06927
G1 X135.616 Y156.987 E0.06924
G1 X135.272 Y155.901 E0.06926
G1 X135.032 Y154.776 E0.06993
G1 X134.901 Y153.633 E0.06996
G1 X134.882 Y152.481 E0.07002
G1 X134.974 Y151.335 E0.06989
G1 X135.176 Y150.204 E0.06983
G1 X135.484 Y149.108 E0.06924
G1 X135.901 Y148.031 E0.07021
G1 X136.415 Y147.012 E0.06935
G1 X137.022 Y146.05 E0.0692
G1 X137.709 Y145.162 E0.06825
G1 X138.407 Y144.415 E0.06214
G1 E-0.06 F2400
;WIPE_START
G1 F19200
G1 X139.288 Y143.624 E-0.14053
G1 X140.183 Y142.968 E-0.13181
G1 X141.255 Y142.334 E-0.14788
G1 X141.964 Y142.006 E-0.09278
;WIPE_END
G1 E-0.027 F2400
G1 X145.256 Y151.298 F24000
G1 E0.6 F2400
G1 F4667.4924
G1 X145.421 Y151.156 E0.01317
G1 X145.547 Y151.068 E0.00936
G1 X145.889 Y150.891 E0.02346
G1 X146.253 Y150.762 E0.02346
G1 X146.404 Y150.73 E0.00935
G1 X146.619 Y150.706 E0.01315
G1 X146.835 Y150.704 E0.01316
G1 X147.051 Y150.724 E0.01316
G1 X147.263 Y150.765 E0.01316
G1 X147.47 Y150.828 E0.01316
G1 X147.671 Y150.91 E0.01316
G1 X147.861 Y151.013 E0.01316
G1 X148.065 Y151.15 E0.01495
G1 X148.245 Y151.294 E0.014
G1 X148.347 Y151.396 E0.00877
G1 X148.43 Y151.505 E0.00834
G1 X148.652 Y151.872 E0.02605
G1 X148.806 Y152.227 E0.02354
G1 X148.847 Y152.374 E0.00926
G1 X148.885 Y152.587 E0.01315
G1 X148.901 Y152.802 E0.01315
G1 X148.898 Y152.958 E0.00948
G1 X148.838 Y153.337 E0.02331
G1 X148.727 Y153.704 E0.02331
G1 X148.662 Y153.846 E0.00948
G1 X148.554 Y154.033 E0.01315
G1 X148.427 Y154.208 E0.01315
G1 X148.284 Y154.37 E0.01315
G1 X148.124 Y154.516 E0.01315
G1 X147.951 Y154.646 E0.01315
G1 X147.766 Y154.758 E0.01315
G1 X147.625 Y154.826 E0.00955
G1 X146.899 Y155.062 E0.04638
G1 X146.855 Y155.077 E0.00286
G1 X146.79 Y155.101 E0.00416
G1 X146.747 Y155.118 E0.00283
G1 X146.641 Y155.161 E0.00699
G1 X145.74 Y154.764 E0.05985
G1 X145.573 Y154.667 E0.01174
G1 X145.397 Y154.54 E0.01316
G1 X145.235 Y154.397 E0.01316
G1 X145.129 Y154.281 E0.00952
G1 X144.909 Y153.968 E0.02329
G1 X144.734 Y153.627 E0.02329
G1 X144.682 Y153.48 E0.00952
G1 X144.645 Y153.331 E0.00933
G1 X144.602 Y152.947 E0.02349
G1 X144.612 Y152.56 E0.0235
G1 X144.636 Y152.409 E0.00933
G1 X144.691 Y152.199 E0.01317
G1 X144.767 Y151.996 E0.0132
G1 X144.861 Y151.806 E0.0129
G1 X144.974 Y151.625 E0.01296
G1 X145.107 Y151.454 E0.01314
G1 X145.205 Y151.352 E0.00861
G1 E-0.06 F2400
;WIPE_START
G1 F19200
G1 X145.421 Y151.156 E-0.03459
G1 X145.547 Y151.068 E-0.01828
G1 X145.889 Y150.891 E-0.04583
G1 X146.253 Y150.762 E-0.04582
G1 X146.404 Y150.73 E-0.01827
G1 X146.619 Y150.706 E-0.0257
G1 X146.835 Y150.704 E-0.0257
G1 X147.051 Y150.724 E-0.0257
G1 X147.263 Y150.765 E-0.0257
G1 X147.47 Y150.828 E-0.0257
G1 X147.671 Y150.91 E-0.0257
G1 X147.861 Y151.013 E-0.02571
G1 X148.065 Y151.15 E-0.02921
G1 X148.245 Y151.294 E-0.02735
G1 X148.347 Y151.396 E-0.01712
G1 X148.43 Y151.505 E-0.01629
G1 X148.652 Y151.872 E-0.05089
G1 X148.751 Y152.099 E-0.02942
;WIPE_END
G1 E-0.027 F2400
G1 X138.513 Y145.085 F24000
G1 E0.6 F2400
G1 F4667.4924
G1 X138.841 Y144.735 E0.02917
G1 X139.633 Y144.033 E0.06436
G1 X140.488 Y143.408 E0.0644
G1 X141.492 Y142.815 E0.07088
G1 X142.479 Y142.357 E0.06609
G1 X143.502 Y141.997 E0.06597
G1 X144.53 Y141.742 E0.06438
G1 X145.579 Y141.583 E0.06449
G1 X146.638 Y141.523 E0.0645
G1 X147.698 Y141.563 E0.06447
G1 X148.776 Y141.706 E0.06608
G1 X149.835 Y141.952 E0.06612
G1 X150.913 Y142.318 E0.06921
G1 X152.614 Y140.606 E0.14669
G1 X152.648 Y139.928 E0.04131
G1 X153.028 Y138.962 E0.06306
G1 X153.882 Y137.868 E0.08438
G1 X154.704 Y137.296 E0.06092
G1 X155.694 Y136.936 E0.064
G1 X157.679 Y136.887 E0.12074
G1 X158.781 Y137.292 E0.07138
G1 X159.774 Y137.967 E0.07299
G1 X161.715 Y139.899 E0.16649
G1 X162.322 Y140.744 E0.06326
G1 X162.733 Y141.657 E0.06084
G1 X162.916 Y143.159 E0.09202
G1 X162.666 Y144.485 E0.08201
G1 X162.175 Y145.437 E0.06514
G1 X161.458 Y146.223 E0.06465
G1 X160.233 Y146.93 E0.08598
G1 X159.078 Y147.153 E0.07153
G1 X157.351 Y148.87 E0.14802
G1 X157.707 Y149.97 E0.07029
G1 X157.961 Y151.209 E0.0769
G1 X158.064 Y152.23 E0.06238
G1 X158.075 Y153.235 E0.06108
G1 X157.974 Y154.414 E0.07195
G1 X157.756 Y155.559 E0.07086
G1 X157.472 Y156.526 E0.06131
G1 X157.099 Y157.477 E0.06212
G1 X156.585 Y158.488 E0.06891
G1 X155.942 Y159.486 E0.07215
G1 X155.284 Y160.315 E0.06441
G1 X154.535 Y161.094 E0.06567
G1 X153.713 Y161.8 E0.06588
G1 X152.848 Y162.41 E0.06432
G1 X151.913 Y162.947 E0.06554
G1 X150.943 Y163.388 E0.06476
G1 X149.462 Y163.854 E0.09439
G1 X148.145 Y164.025 E0.08077
G1 X147.204 Y163.961 E0.05731
G1 X146.305 Y163.66 E0.05767
G1 X145.747 Y163.828 E0.03543
G1 X144.184 Y163.846 E0.09501
G1 X143.021 Y163.558 E0.07287
G1 X141.933 Y163.12 E0.07128
G1 X140.931 Y162.588 E0.06893
G1 X139.994 Y161.963 E0.06852
G1 X139.151 Y161.273 E0.06619
G1 X138.362 Y160.487 E0.06775
G1 X137.668 Y159.647 E0.0662
G1 X137.059 Y158.746 E0.06615
G1 X136.539 Y157.79 E0.06614
G1 X136.114 Y156.789 E0.06611
G1 X135.787 Y155.752 E0.06613
G1 X135.558 Y154.677 E0.06678
G1 X135.435 Y153.585 E0.06681
G1 X135.418 Y152.486 E0.06686
G1 X135.504 Y151.416 E0.06522
G1 X135.696 Y150.336 E0.0667
G1 X135.988 Y149.289 E0.06611
G1 X136.386 Y148.26 E0.06705
G1 X136.875 Y147.287 E0.06619
G1 X137.468 Y146.346 E0.06762
G1 X138.125 Y145.5 E0.06513
G1 X138.462 Y145.14 E0.02995
G1 E-0.06 F2400
;WIPE_START
G1 F19200
G1 X138.841 Y144.735 E-0.06588
G1 X139.633 Y144.033 E-0.12573
G1 X140.488 Y143.408 E-0.1258
G1 X141.492 Y142.815 E-0.13846
G1 X141.929 Y142.612 E-0.05713
;WIPE_END
G1 E-0.027 F2400
G1 X144.713 Y151.091 F24000
G1 E0.6 F2400
G1 F4667.4924
G1 X144.887 Y150.909 E0.01531
G1 X145.092 Y150.733 E0.01643
G1 X145.269 Y150.609 E0.01313
G1 X145.676 Y150.398 E0.02786
G1 X146.108 Y150.245 E0.02785
G1 X146.319 Y150.2 E0.01313
G1 X146.587 Y150.171 E0.01642
G1 X146.857 Y150.169 E0.01642
G1 X147.126 Y150.193 E0.01642
G1 X147.392 Y150.245 E0.01642
G1 X147.65 Y150.322 E0.01642
G1 X147.9 Y150.426 E0.01642
G1 X148.138 Y150.553 E0.01642
G1 X148.383 Y150.718 E0.01798
G1 X148.603 Y150.895 E0.01716
G1 X148.75 Y151.042 E0.01263
G1 X148.873 Y151.202 E0.01226
G1 X149.13 Y151.626 E0.0301
G1 X149.312 Y152.047 E0.02792
G1 X149.37 Y152.254 E0.01304
G1 X149.417 Y152.52 E0.01642
G1 X149.438 Y152.789 E0.01642
G1 X149.432 Y153.006 E0.01323
G1 X149.362 Y153.457 E0.02772
G1 X149.229 Y153.893 E0.02772
G1 X149.139 Y154.091 E0.01323
G1 X149.004 Y154.325 E0.01641
G1 X148.845 Y154.544 E0.01641
G1 X148.666 Y154.746 E0.01641
G1 X148.468 Y154.929 E0.01641
G1 X148.252 Y155.091 E0.01642
G1 X148.021 Y155.231 E0.01642
G1 X147.823 Y155.324 E0.01329
G1 X147.087 Y155.564 E0.04706
G1 X147.049 Y155.577 E0.00247
G1 X146.996 Y155.596 E0.00343
G1 X146.949 Y155.614 E0.00302
G1 X146.632 Y155.743 E0.02081
G1 X145.496 Y155.243 E0.07543
G1 X145.28 Y155.117 E0.0152
G1 X145.061 Y154.958 E0.01642
G1 X144.859 Y154.779 E0.01642
G1 X144.712 Y154.618 E0.01327
G1 X144.449 Y154.246 E0.02771
G1 X144.242 Y153.84 E0.02771
G1 X144.168 Y153.635 E0.01327
G1 X144.116 Y153.425 E0.0131
G1 X144.065 Y152.97 E0.02788
G1 X144.077 Y152.511 E0.02789
G1 X144.111 Y152.298 E0.0131
G1 X144.18 Y152.037 E0.01644
G1 X144.275 Y151.783 E0.01646
G1 X144.393 Y151.544 E0.0162
G1 X144.535 Y151.318 E0.01625
G1 X144.666 Y151.149 E0.01297
G1 E-0.06 F2400
;WIPE_START
G1 F19200
G1 X144.887 Y150.909 E-0.03878
G1 X145.092 Y150.733 E-0.0321
G1 X145.269 Y150.609 E-0.02565
G1 X145.676 Y150.398 E-0.05441
G1 X146.108 Y150.245 E-0.0544
G1 X146.319 Y150.2 E-0.02564
G1 X146.587 Y150.171 E-0.03207
G1 X146.857 Y150.169 E-0.03208
G1 X147.126 Y150.193 E-0.03208
G1 X147.392 Y150.245 E-0.03208
G1 X147.65 Y150.322 E-0.03208
G1 X147.9 Y150.426 E-0.03208
G1 X148.138 Y150.553 E-0.03208
G1 X148.383 Y150.718 E-0.03512
G1 X148.53 Y150.836 E-0.02235
;WIPE_END
G1 E-0.027 F2400
G1 X138.263 Y146.194 F24000
G1 E0.6 F2400
G1 F4667.4924
G1 X138.524 Y145.857 E0.02596
G1 X139.223 Y145.111 E0.06214
G1 X139.979 Y144.443 E0.0613
G1 X140.794 Y143.848 E0.06134
G1 X141.73 Y143.295 E0.06612
G1 X142.669 Y142.858 E0.06295
G1 X143.644 Y142.514 E0.06288
G1 X144.623 Y142.27 E0.0613
G1 X145.647 Y142.115 E0.06295
G1 X146.655 Y142.059 E0.06143
G1 X147.665 Y142.097 E0.06141
G1 X148.692 Y142.235 E0.06298
G1 X149.701 Y142.471 E0.06299
G1 X150.684 Y142.802 E0.06311
G1 X151.03 Y142.96 E0.02311
G1 X153.144 Y140.833 E0.18226
G1 X153.164 Y140.08 E0.04579
G1 X153.512 Y139.194 E0.05788
G1 X154.221 Y138.285 E0.07009
G1 X154.981 Y137.756 E0.05628
G1 X155.833 Y137.455 E0.05492
G1 X157.542 Y137.407 E0.10398
G1 X158.565 Y137.783 E0.06623
G1 X159.45 Y138.394 E0.0654
G1 X161.294 Y140.231 E0.15823
G1 X161.844 Y140.989 E0.05697
G1 X162.228 Y141.84 E0.05671
G1 X162.382 Y143.104 E0.07742
G1 X162.17 Y144.278 E0.07254
G1 X161.754 Y145.103 E0.05617
G1 X161.091 Y145.831 E0.05984
G1 X160.009 Y146.442 E0.07557
G1 X159.056 Y146.618 E0.05887
G1 X158.862 Y146.613 E0.01182
G1 X156.714 Y148.748 E0.18413
G1 X156.889 Y149.151 E0.02676
G1 X157.191 Y150.117 E0.0615
G1 X157.429 Y151.277 E0.07199
G1 X157.528 Y152.248 E0.05935
G1 X157.539 Y153.227 E0.05954
G1 X157.442 Y154.354 E0.06874
G1 X157.238 Y155.42 E0.06601
G1 X156.962 Y156.364 E0.05979
G1 X156.605 Y157.269 E0.05914
G1 X156.127 Y158.21 E0.06412
G1 X155.499 Y159.185 E0.0705
G1 X154.872 Y159.972 E0.06119
G1 X154.158 Y160.713 E0.06259
G1 X153.374 Y161.385 E0.06279
G1 X152.55 Y161.965 E0.06123
G1 X151.658 Y162.476 E0.06249
G1 X150.737 Y162.893 E0.06148
G1 X149.368 Y163.326 E0.08728
G1 X148.155 Y163.489 E0.07443
G1 X147.276 Y163.429 E0.0535
G1 X146.311 Y163.095 E0.06212
G1 X145.698 Y163.293 E0.03914
G1 X144.278 Y163.318 E0.08632
G1 X143.203 Y163.054 E0.06731
G1 X142.146 Y162.629 E0.06926
G1 X141.195 Y162.122 E0.0655
G1 X140.302 Y161.525 E0.06529
G1 X139.501 Y160.867 E0.06301
G1 X138.749 Y160.117 E0.06458
G1 X138.09 Y159.317 E0.06304
G1 X137.51 Y158.457 E0.06302
G1 X137.016 Y157.546 E0.06301
G1 X136.612 Y156.592 E0.06298
G1 X136.301 Y155.604 E0.063
G1 X136.085 Y154.579 E0.06364
G1 X135.968 Y153.539 E0.06367
G1 X135.954 Y152.491 E0.06371
G1 X136.036 Y151.472 E0.06211
G1 X136.221 Y150.443 E0.06357
G1 X136.5 Y149.446 E0.06298
G1 X136.88 Y148.466 E0.06391
G1 X137.347 Y147.54 E0.06304
G1 X137.9 Y146.664 E0.06294
G1 X138.217 Y146.254 E0.03154
G1 E-0.06 F2400
;WIPE_START
G1 F19200
G1 X138.524 Y145.857 E-0.05962
G1 X139.223 Y145.111 E-0.12139
G1 X139.979 Y144.443 E-0.11974
G1 X140.794 Y143.848 E-0.11981
G1 X141.464 Y143.452 E-0.09244
;WIPE_END
G1 E-0.027 F2400
G1 X144.187 Y150.893 F24000
G1 E0.6 F2400
G1 F4667.4924
G1 X144.294 Y150.755 E0.01061
G1 X144.517 Y150.52 E0.0197
G1 X144.763 Y150.309 E0.0197
G1 X144.991 Y150.15 E0.0169
G1 X145.462 Y149.905 E0.03225
G1 X145.962 Y149.728 E0.03224
G1 X146.234 Y149.671 E0.0169
G1 X146.556 Y149.636 E0.01968
G1 X146.88 Y149.633 E0.01969
G1 X147.202 Y149.662 E0.01969
G1 X147.52 Y149.724 E0.01969
G1 X147.83 Y149.817 E0.01969
G1 X148.129 Y149.941 E0.01969
G1 X148.415 Y150.094 E0.01969
G1 X148.701 Y150.287 E0.021
G1 X148.962 Y150.496 E0.02031
G1 X149.153 Y150.688 E0.01649
G1 X149.316 Y150.899 E0.01617
G1 X149.607 Y151.38 E0.03415
G1 X149.817 Y151.867 E0.0323
G1 X149.893 Y152.134 E0.01683
G1 X149.949 Y152.452 E0.01968
G1 X149.974 Y152.775 E0.01968
G1 X149.967 Y153.055 E0.01699
G1 X149.885 Y153.577 E0.03214
G1 X149.731 Y154.083 E0.03214
G1 X149.616 Y154.337 E0.01699
G1 X149.453 Y154.617 E0.01968
G1 X149.264 Y154.879 E0.01968
G1 X149.049 Y155.121 E0.01968
G1 X148.811 Y155.341 E0.01968
G1 X148.552 Y155.535 E0.01968
G1 X148.275 Y155.703 E0.01968
G1 X148.022 Y155.823 E0.01703
G1 X147.256 Y156.072 E0.04895
G1 X147.22 Y156.084 E0.0023
G1 X147.147 Y156.112 E0.00473
G1 X146.606 Y156.331 E0.03551
G1 X146.536 Y156.291 E0.00496
G1 X146.447 Y156.246 E0.00605
G1 X145.253 Y155.721 E0.07928
G1 X144.988 Y155.567 E0.01865
G1 X144.725 Y155.377 E0.01969
G1 X144.484 Y155.161 E0.01969
G1 X144.294 Y154.955 E0.01702
G1 X143.99 Y154.523 E0.03212
G1 X143.749 Y154.053 E0.03212
G1 X143.655 Y153.789 E0.01702
G1 X143.588 Y153.52 E0.01688
G1 X143.529 Y152.993 E0.03227
G1 X143.543 Y152.462 E0.03227
G1 X143.586 Y152.188 E0.01688
G1 X143.669 Y151.874 E0.0197
G1 X143.783 Y151.57 E0.01973
G1 X143.925 Y151.283 E0.01949
G1 X144.095 Y151.01 E0.01955
G1 X144.141 Y150.952 E0.00451
G1 E-0.06 F2400
;WIPE_START
G1 F19200
G1 X144.294 Y150.755 E-0.02963
G1 X144.517 Y150.52 E-0.03848
G1 X144.763 Y150.309 E-0.03847
G1 X144.991 Y150.15 E-0.03302
G1 X145.462 Y149.905 E-0.063
G1 X145.962 Y149.728 E-0.06298
G1 X146.234 Y149.671 E-0.03301
G1 X146.556 Y149.636 E-0.03845
G1 X146.88 Y149.633 E-0.03846
G1 X147.202 Y149.662 E-0.03845
G1 X147.52 Y149.724 E-0.03845
G1 X147.83 Y149.817 E-0.03846
G1 X148.002 Y149.888 E-0.02215
;WIPE_END
G1 E-0.027 F2400
G1 X138.58 Y146.659 F24000
G1 E0.6 F2400
G1 F4667.4924
G1 X138.924 Y146.213 E0.03424
G1 X139.588 Y145.503 E0.05908
G1 X140.305 Y144.868 E0.05823
G1 X141.099 Y144.288 E0.05978
G1 X141.968 Y143.775 E0.06138
G1 X142.86 Y143.359 E0.05982
G1 X143.787 Y143.03 E0.05979
G1 X144.716 Y142.797 E0.05823
G1 X145.689 Y142.649 E0.05983
G1 X146.672 Y142.594 E0.05987
G1 X147.631 Y142.632 E0.05832
