; generated by A3dp-Slicer 2.5 on 2022-11-27 at 03:32:45 UTC


;
;

;
;
; 

; external perimeters extrusion width = 0.50mm
; perimeters extrusion width = 0.50mm
; infill extrusion width = 0.60mm
; solid infill extrusion width = 0.60mm
; top infill extrusion width = 0.50mm
; first layer extrusion width = 0.48mm

; object:{"name":"extruder_cover","id":"extruder_cover.stl id:0 copy 0","object_center":[150.041265,150.041460,0.000000],"boundingbox_center":[150.041265,150.041460,11.500000],"boundingbox_size":[59.891946,77.729044,23.000000]}
; plater:{"center":[150.041265,150.041460,0.000000],"boundingbox_center":[150.041265,150.041460,11.500000],"boundingbox_size":[59.891946,77.729044,23.000000]}

;TYPE:Custom
PRINT_START EXTRUDER=265 BED=113
M107
G21 ; set units to millimeters
G90 ; use absolute coordinates
M83 ; use relative distances for extrusion
SET_PRESSURE_ADVANCE SMOOTH_TIME=0.03
SET_PRESSURE_ADVANCE ADVANCE=0.045
;_TOOLCHANGE 0
M104 S265 ; set temperature
M109 S265 ; set temperature and wait for it to be reached
M190 S113 ; set bed temperature and wait for it to be reached
M107
;LAYER_CHANGE
;Z:0.2
;HEIGHT:0.2
;BEFORE_LAYER_CHANGE
;0.2


G1 Z0.2 F24000
;AFTER_LAYER_CHANGE
;0.2
G92 E0
G1 E-0.6 F2400
M204 S5000
G1 X127.55 Y109.415 F24000
G1 E0.6 F2400
;TYPE:Skirt
;WIDTH:0.48
G1 F1800
G1 X126.629 Y111.322 E0.07388
G1 X125.131 Y116.913 E0.20194
G1 X124.961 Y117.865 E0.03373
G1 X121.605 Y154.795 E1.29381
G1 X121.909 Y157.204 E0.08471
G1 X128.867 Y176.749 E0.72383
G1 X130.196 Y178.851 E0.08677
G1 X139.177 Y187.832 E0.44312
G1 X140.553 Y188.843 E0.05961
G1 X142.58 Y189.457 E0.07388
G1 X150.817 Y190.329 E0.28899
G1 X152.007 Y190.333 E0.04151
G1 X153.064 Y190.159 E0.03738
G1 X154.2 Y189.776 E0.04182
G1 X155.159 Y189.272 E0.03779
G1 X156.207 Y188.481 E0.04581
G1 X182.431 Y162.276 E1.29346
G1 X183.861 Y159.86 E0.09795
G1 X185.317 Y154.869 E0.18139
G1 X185.543 Y153.286 E0.05581
G1 X185.543 Y151.247 E0.07112
G1 X185.077 Y149 E0.08009
G1 X183.886 Y147.248 E0.07388
G1 X179.702 Y143.064 E0.20645
G1 X141.555 Y107.169 E1.82752
G1 X140.348 Y106.302 E0.05183
G1 X138.327 Y105.67 E0.07388
G1 X136.215 Y105.826 E0.07388
G1 X130.628 Y107.323 E0.20182
G1 X129.108 Y107.981 E0.05778
G1 X127.594 Y109.374 E0.07179
G1 X127.95 Y109.611 F24000
G1 F1800
G1 X127.051 Y111.435 E0.07095
G1 X125.553 Y117.026 E0.20194
G1 X125.397 Y117.904 E0.03113
G1 X122.04 Y154.835 E1.29381
G1 X122.321 Y157.057 E0.07816
G1 X129.279 Y176.602 E0.72383
G1 X130.505 Y178.542 E0.08007
G1 X139.486 Y187.523 E0.44312
G1 X140.685 Y188.418 E0.05221
G1 X142.626 Y189.022 E0.07095
G1 X150.863 Y189.894 E0.28899
G1 X151.977 Y189.897 E0.03887
G1 X152.953 Y189.737 E0.03449
G1 X154.019 Y189.379 E0.03925
G1 X154.921 Y188.905 E0.03553
G1 X155.92 Y188.151 E0.04367
G1 X182.122 Y161.967 E1.2924
G1 X183.441 Y159.738 E0.09038
G1 X184.897 Y154.747 E0.18139
G1 X185.106 Y153.286 E0.05149
G1 X185.106 Y151.247 E0.07112
G1 X184.707 Y149.248 E0.07114
G1 X183.577 Y147.557 E0.07095
G1 X179.393 Y143.373 E0.20645
G1 X141.255 Y107.488 E1.82706
G1 X140.284 Y106.766 E0.04222
G1 X138.358 Y106.114 E0.07095
G1 X136.328 Y106.248 E0.07095
G1 X130.741 Y107.745 E0.20182
G1 X129.478 Y108.269 E0.04772
G1 X127.995 Y109.571 E0.06885
G1 E-0.06 F2400
;WIPE_START
G1 F19200
G1 X129.478 Y108.269 E-0.23434
G1 X130.741 Y107.745 E-0.16243
G1 X131.686 Y107.492 E-0.11622
;WIPE_END
G1 E-0.027 F2400
; printing object extruder_cover.stl id:0 copy 0
G1 X139.6 Y176.422 F24000
G1 E0.6 F2400
;TYPE:Internal perimeter
G1 F1800
G1 X139.915 Y176.405 E0.011
G1 X140.255 Y176.336 E0.01212
G1 X140.746 Y176.158 E0.01822
G1 X140.535 Y176.776 E0.02278
G1 X140.442 Y177.178 E0.0144
G1 X140.39 Y177.587 E0.0144
G1 X140.38 Y177.995 E0.01421
G1 X140.401 Y178.336 E0.01193
G1 X140.465 Y178.741 E0.01431
G1 X140.57 Y179.14 E0.0144
G1 X140.716 Y179.527 E0.0144
G1 X140.899 Y179.896 E0.0144
G1 X141.12 Y180.245 E0.0144
G1 X141.374 Y180.571 E0.0144
G1 X141.66 Y180.868 E0.0144
G1 X141.974 Y181.136 E0.0144
G1 X142.311 Y181.368 E0.01427
G1 X142.61 Y181.535 E0.01193
G1 X142.983 Y181.702 E0.01425
G1 X143.374 Y181.831 E0.0144
G1 X143.777 Y181.92 E0.0144
G1 X144.187 Y181.968 E0.0144
G1 X144.6 Y181.975 E0.0144
G1 X145.011 Y181.939 E0.0144
G1 X145.417 Y181.862 E0.0144
G1 X145.813 Y181.745 E0.0144
G1 X146.194 Y181.588 E0.0144
G1 X146.558 Y181.393 E0.0144
G1 X146.901 Y181.162 E0.0144
G1 X147.215 Y180.901 E0.01426
G1 X147.457 Y180.659 E0.01193
G1 X147.718 Y180.345 E0.01426
G1 X147.949 Y180.002 E0.0144
G1 X148.144 Y179.638 E0.0144
G1 X148.301 Y179.257 E0.0144
G1 X148.418 Y178.861 E0.0144
G1 X148.495 Y178.455 E0.0144
G1 X148.531 Y178.044 E0.0144
G1 X148.524 Y177.631 E0.0144
G1 X148.476 Y177.222 E0.0144
G1 X148.387 Y176.819 E0.0144
G1 X148.258 Y176.427 E0.0144
G1 X148.091 Y176.054 E0.01425
G1 X147.923 Y175.755 E0.01193
G1 X147.691 Y175.418 E0.01427
G1 X147.424 Y175.104 E0.0144
G1 X147.126 Y174.818 E0.0144
G1 X146.801 Y174.564 E0.0144
G1 X146.452 Y174.344 E0.0144
G1 X146.082 Y174.16 E0.0144
G1 X145.696 Y174.015 E0.0144
G1 X145.297 Y173.909 E0.0144
G1 X144.889 Y173.845 E0.0144
G1 X144.48 Y173.822 E0.01429
G1 X144.139 Y173.835 E0.01194
G1 X143.734 Y173.886 E0.01423
G1 X143.332 Y173.979 E0.0144
G1 X142.941 Y174.113 E0.0144
G1 X142.566 Y174.285 E0.0144
G1 X142.21 Y174.495 E0.0144
G1 X141.953 Y174.684 E0.01116
G1 X141.99 Y174.002 E0.02383
G1 X141.959 Y173.656 E0.01212
G1 X141.877 Y173.319 E0.01212
G1 X141.747 Y172.996 E0.01212
G1 X141.571 Y172.697 E0.01212
G1 X141.354 Y172.426 E0.01212
G1 X141.1 Y172.189 E0.01212
G1 X140.814 Y171.992 E0.01212
G1 X140.502 Y171.839 E0.01212
G1 X140.171 Y171.733 E0.01212
G1 X139.828 Y171.676 E0.01212
G1 X139.481 Y171.67 E0.01212
G1 X139.137 Y171.714 E0.01212
G1 X138.802 Y171.808 E0.01212
G1 X138.485 Y171.95 E0.01212
G1 X138.192 Y172.136 E0.01212
G1 X137.929 Y172.363 E0.01212
G1 X137.702 Y172.626 E0.01212
G1 X137.516 Y172.919 E0.01212
G1 X137.374 Y173.236 E0.01212
G1 X137.28 Y173.571 E0.01212
G1 X137.236 Y173.915 E0.01212
G1 X137.242 Y174.262 E0.01212
G1 X137.299 Y174.605 E0.01212
G1 X137.405 Y174.936 E0.01212
G1 X137.558 Y175.248 E0.01212
G1 X137.755 Y175.534 E0.01212
G1 X137.992 Y175.788 E0.01212
G1 X138.263 Y176.005 E0.01212
G1 X138.562 Y176.181 E0.01212
G1 X138.885 Y176.311 E0.01212
G1 X139.222 Y176.393 E0.01212
G1 X139.54 Y176.422 E0.01114
G1 X139.576 Y175.986 F24000
;TYPE:External perimeter
G1 F1800
G1 X139.859 Y175.971 E0.00989
G1 X140.137 Y175.914 E0.00989
G1 X140.403 Y175.818 E0.00989
G1 X140.653 Y175.683 E0.00989
G1 X140.88 Y175.514 E0.00989
G1 X141.08 Y175.314 E0.00989
G1 X141.249 Y175.087 E0.00989
G1 X141.384 Y174.837 E0.00989
G1 X141.48 Y174.571 E0.00989
G1 X141.537 Y174.293 E0.00989
G1 X141.552 Y174.01 E0.00989
G1 X141.526 Y173.728 E0.00989
G1 X141.46 Y173.452 E0.00989
G1 X141.353 Y173.19 E0.00989
G1 X141.21 Y172.945 E0.00989
G1 X141.033 Y172.724 E0.00989
G1 X140.826 Y172.531 E0.00989
G1 X140.592 Y172.371 E0.00989
G1 X140.338 Y172.246 E0.00989
G1 X140.068 Y172.159 E0.00989
G1 X139.788 Y172.113 E0.00989
G1 X139.505 Y172.107 E0.00989
G1 X139.224 Y172.144 E0.00989
G1 X138.951 Y172.22 E0.00989
G1 X138.693 Y172.336 E0.00989
G1 X138.453 Y172.488 E0.00989
G1 X138.239 Y172.673 E0.00989
G1 X138.054 Y172.888 E0.00989
G1 X137.902 Y173.127 E0.00989
G1 X137.786 Y173.385 E0.00989
G1 X137.71 Y173.658 E0.00989
G1 X137.673 Y173.939 E0.00989
G1 X137.679 Y174.222 E0.00989
G1 X137.725 Y174.502 E0.00989
G1 X137.812 Y174.772 E0.00989
G1 X137.937 Y175.026 E0.00989
G1 X138.097 Y175.26 E0.00989
G1 X138.29 Y175.467 E0.00989
G1 X138.511 Y175.644 E0.00989
G1 X138.756 Y175.788 E0.00989
G1 X139.018 Y175.894 E0.00989
G1 X139.294 Y175.96 E0.00989
G1 X139.516 Y175.981 E0.00779
;WIPE_START
M204 S10000
G1 X139.778 Y176.331 F24000
;WIPE_END
G1 E-0.06 F2400
;WIPE_START
G1 F19200
M204 S5000
G1 X140.191 Y176.107 E-0.05578
G1 X140.485 Y176.001 E-0.03713
G1 X140.76 Y175.853 E-0.03712
G1 X141.011 Y175.666 E-0.03713
G1 X141.232 Y175.445 E-0.03712
G1 X141.419 Y175.194 E-0.03713
G1 X141.567 Y174.919 E-0.03712
G1 X141.673 Y174.625 E-0.03712
G1 X141.735 Y174.319 E-0.03713
G1 X141.753 Y174.006 E-0.03712
G1 X141.724 Y173.695 E-0.03713
G1 X141.65 Y173.391 E-0.03712
G1 X141.533 Y173.101 E-0.03713
G1 X141.484 Y173.016 E-0.01172
;WIPE_END
G1 E-0.027 F2400
G1 X144.585 Y181.537 F24000
G1 E0.6 F2400
G1 F1800
G1 X144.952 Y181.506 E0.01286
G1 X145.314 Y181.437 E0.01285
G1 X145.667 Y181.332 E0.01286
G1 X146.008 Y181.192 E0.01285
G1 X146.332 Y181.018 E0.01285
G1 X146.638 Y180.812 E0.01285
G1 X146.92 Y180.578 E0.01279
G1 X147.133 Y180.364 E0.01054
G1 X147.368 Y180.082 E0.01279
G1 X147.574 Y179.777 E0.01285
G1 X147.748 Y179.452 E0.01285
G1 X147.888 Y179.111 E0.01285
G1 X147.993 Y178.758 E0.01286
G1 X148.062 Y178.396 E0.01285
G1 X148.093 Y178.029 E0.01286
G1 X148.088 Y177.66 E0.01285
G1 X148.045 Y177.294 E0.01285
G1 X147.965 Y176.935 E0.01285
G1 X147.849 Y176.585 E0.01285
G1 X147.7 Y176.25 E0.01279
G1 X147.552 Y175.987 E0.01054
G1 X147.344 Y175.685 E0.0128
G1 X147.105 Y175.404 E0.01285
G1 X146.84 Y175.149 E0.01286
G1 X146.55 Y174.922 E0.01285
G1 X146.238 Y174.725 E0.01286
G1 X145.908 Y174.561 E0.01286
G1 X145.563 Y174.431 E0.01286
G1 X145.207 Y174.337 E0.01285
G1 X144.843 Y174.28 E0.01285
G1 X144.476 Y174.259 E0.0128
G1 X144.174 Y174.271 E0.01054
G1 X143.811 Y174.317 E0.01278
G1 X143.452 Y174.4 E0.01285
G1 X143.104 Y174.519 E0.01285
G1 X142.769 Y174.673 E0.01285
G1 X142.451 Y174.86 E0.01285
G1 X142.154 Y175.078 E0.01285
G1 X141.881 Y175.325 E0.01285
G1 X141.678 Y175.55 E0.01057
G1 X141.417 Y175.893 E0.01505
G1 X141.229 Y176.213 E0.01295
G1 X141.075 Y176.548 E0.01285
G1 X140.956 Y176.896 E0.01285
G1 X140.873 Y177.255 E0.01285
G1 X140.826 Y177.621 E0.01285
G1 X140.817 Y177.987 E0.01277
G1 X140.836 Y178.288 E0.01054
G1 X140.893 Y178.651 E0.01281
G1 X140.987 Y179.007 E0.01285
G1 X141.117 Y179.352 E0.01286
G1 X141.281 Y179.682 E0.01286
G1 X141.478 Y179.994 E0.01286
G1 X141.705 Y180.284 E0.01285
G1 X141.96 Y180.55 E0.01286
G1 X142.24 Y180.788 E0.01285
G1 X142.543 Y180.996 E0.0128
G1 X142.806 Y181.144 E0.01054
G1 X143.141 Y181.294 E0.01279
G1 X143.491 Y181.409 E0.01285
G1 X143.85 Y181.489 E0.01285
G1 X144.216 Y181.532 E0.01285
G1 X144.525 Y181.536 E0.01076
;WIPE_START
M204 S10000
G1 X144.802 Y181.873 F24000
;WIPE_END
G1 E-0.06 F2400
;WIPE_START
G1 F19200
M204 S5000
G1 X145.361 Y181.632 E-0.07224
G1 X145.734 Y181.521 E-0.04616
G1 X146.093 Y181.373 E-0.04616
G1 X146.436 Y181.19 E-0.04616
G1 X146.758 Y180.972 E-0.04616
G1 X147.055 Y180.725 E-0.04583
G1 X147.281 Y180.499 E-0.03805
G1 X147.528 Y180.202 E-0.04583
G1 X147.745 Y179.88 E-0.04616
G1 X147.929 Y179.537 E-0.04616
G1 X148.038 Y179.272 E-0.03409
;WIPE_END
G1 E-0.027 F2400
G1 X173.748 Y148.921 F24000
G1 E0.6 F2400
;TYPE:Internal perimeter
G1 F1800
G1 X173.594 Y148.709 E0.00912
G1 X174.126 Y148.177 E0.02624
G1 X175.156 Y148.177 E0.03592
G1 X175.178 Y148.459 E0.00985
G1 X174.624 Y148.548 E0.01959
G1 X174.21 Y148.685 E0.01521
G1 X173.802 Y148.893 E0.01599
G1 E-0.06 F2400
;WIPE_START
G1 F19200
G1 X174.21 Y148.685 E-0.05441
G1 X174.624 Y148.548 E-0.05178
G1 X175.178 Y148.459 E-0.06669
G1 X175.156 Y148.177 E-0.03354
G1 X174.126 Y148.177 E-0.12224
G1 X173.594 Y148.709 E-0.0893
G1 X173.748 Y148.921 E-0.03103
;WIPE_END
G1 E-0.09102 F2400
G1 X178.03 Y153.202 F24000
G1 E0.6 F2400
G1 F1800
G1 X178.265 Y152.741 E0.01808
G1 X178.397 Y152.344 E0.01459
G1 X178.466 Y151.993 E0.01247
G1 X178.477 Y151.828 E0.00577
G1 X178.773 Y151.838 E0.01032
G1 X178.773 Y152.824 E0.03441
G1 X178.241 Y153.356 E0.02624
G1 X178.079 Y153.238 E0.00702
G1 E-0.06 F2400
;WIPE_START
G1 F19200
G1 X178.241 Y153.356 E-0.02391
G1 X178.773 Y152.824 E-0.08929
G1 X178.773 Y151.838 E-0.11713
G1 X178.477 Y151.828 E-0.03513
G1 X178.466 Y151.993 E-0.01965
G1 X178.397 Y152.344 E-0.04244
G1 X178.265 Y152.741 E-0.04967
G1 X178.03 Y153.202 E-0.06153
;WIPE_END
G1 E-0.10126 F2400
G1 X144.407 Y165.34 F24000
G1 E0.6 F2400
G1 F1800
G1 X144.52 Y165.352 E0.00399
G1 X145.508 Y165.193 E0.03489
G1 X146.408 Y164.802 E0.03424
G1 X147.172 Y164.235 E0.03321
G1 X147.784 Y163.559 E0.0318
G1 X148.249 Y162.842 E0.02981
G1 X148.588 Y162.153 E0.02681
G1 X149.055 Y161.055 E0.04162
G1 X149.24 Y160.722 E0.01329
G1 X149.422 Y160.496 E0.01014
G1 X149.646 Y160.314 E0.01007
G1 X149.972 Y160.139 E0.01289
G1 X150.423 Y159.968 E0.01684
G1 X152.35 Y159.396 E0.07015
G1 X153.104 Y159.089 E0.02838
G1 X153.841 Y158.671 E0.02958
G1 X154.526 Y158.121 E0.03066
G1 X155.117 Y157.449 E0.03122
G1 X155.598 Y156.692 E0.03128
G1 X155.977 Y155.893 E0.03086
G1 X156.276 Y155.093 E0.02979
G1 X156.745 Y153.661 E0.05257
G1 X156.96 Y153.131 E0.01995
G1 X157.18 Y152.759 E0.0151
G1 X157.431 Y152.493 E0.01274
G1 X157.798 Y152.253 E0.01531
G1 X158.372 Y152 E0.02188
G1 X159.148 Y151.706 E0.02893
G1 X160.032 Y151.315 E0.03372
G1 X160.922 Y150.785 E0.03614
G1 X161.737 Y150.104 E0.03709
G1 X162.419 Y149.287 E0.03712
G1 X162.934 Y148.376 E0.03653
G1 X163.269 Y147.416 E0.03546
G1 X163.423 Y146.452 E0.03406
G1 X163.395 Y145.517 E0.03265
G1 X163.172 Y144.637 E0.03166
G1 X162.73 Y143.861 E0.03115
G1 X162.095 Y143.278 E0.03007
G1 X161.388 Y142.928 E0.02751
G1 X160.724 Y142.736 E0.02414
G1 X159.553 Y142.474 E0.04185
G1 X159.056 Y142.324 E0.01812
G1 X158.632 Y142.154 E0.01593
G1 X158.335 Y141.992 E0.01179
G1 X158.201 Y141.886 E0.00599
G1 X158.093 Y141.752 E0.006
G1 X157.929 Y141.456 E0.01179
G1 X157.756 Y141.034 E0.01593
G1 X157.602 Y140.538 E0.01812
G1 X157.33 Y139.37 E0.04185
G1 X157.133 Y138.706 E0.02414
G1 X156.778 Y138.003 E0.02751
G1 X156.19 Y137.372 E0.03008
G1 X155.41 Y136.937 E0.03116
G1 X154.529 Y136.721 E0.03166
G1 X153.593 Y136.7 E0.03265
G1 X153.109 Y136.781 E0.01714
G1 X152.63 Y136.862 E0.01692
G1 X151.673 Y137.204 E0.03546
G1 X150.766 Y137.726 E0.03653
G1 X149.955 Y138.415 E0.03712
G1 X149.28 Y139.235 E0.03708
G1 X148.757 Y140.13 E0.03614
G1 X148.373 Y141.017 E0.03372
G1 X148.085 Y141.794 E0.02893
G1 X147.837 Y142.37 E0.02189
G1 X147.6 Y142.739 E0.01531
G1 X147.336 Y142.992 E0.01273
G1 X146.965 Y143.215 E0.0151
G1 X146.437 Y143.434 E0.01995
G1 X145.009 Y143.915 E0.05257
G1 X144.211 Y144.22 E0.02979
G1 X143.415 Y144.606 E0.03086
G1 X142.662 Y145.092 E0.03127
G1 X141.995 Y145.689 E0.03122
G1 X141.45 Y146.378 E0.03066
G1 X141.038 Y147.119 E0.02957
G1 X140.738 Y147.875 E0.02838
G1 X140.181 Y149.807 E0.07015
G1 X140.013 Y150.259 E0.01684
G1 X139.84 Y150.586 E0.01289
G1 X139.66 Y150.812 E0.01007
G1 X139.436 Y150.996 E0.01014
G1 X139.104 Y151.183 E0.01329
G1 X138.011 Y151.659 E0.04161
G1 X137.324 Y152.004 E0.02681
G1 X136.611 Y152.474 E0.02981
G1 X135.94 Y153.091 E0.03181
G1 X135.379 Y153.86 E0.03321
G1 X134.995 Y154.763 E0.03423
G1 X134.844 Y155.752 E0.0349
G1 X134.953 Y156.753 E0.03515
G1 X135.305 Y157.691 E0.03496
G1 X135.853 Y158.512 E0.03442
G1 X136.54 Y159.181 E0.03347
G1 X137.301 Y159.685 E0.03184
G1 X138.065 Y160.03 E0.02924
G1 X139.222 Y160.399 E0.04236
G1 X139.512 Y160.521 E0.01099
G1 X139.628 Y160.606 E0.00502
G1 X139.714 Y160.721 E0.00502
G1 X139.839 Y161.01 E0.01098
G1 X140.216 Y162.164 E0.04236
G1 X140.568 Y162.925 E0.02924
G1 X141.077 Y163.683 E0.03184
G1 X141.752 Y164.364 E0.03348
G1 X142.577 Y164.906 E0.03442
G1 X143.518 Y165.25 E0.03496
G1 X144.347 Y165.334 E0.02907
G1 X144.451 Y164.905 F24000
G1 F1800
G1 X144.508 Y164.911 E0.00199
G1 X145.384 Y164.77 E0.03097
G1 X146.187 Y164.421 E0.03056
G1 X146.877 Y163.909 E0.02996
G1 X147.436 Y163.292 E0.02907
G1 X147.868 Y162.626 E0.02768
G1 X148.19 Y161.97 E0.0255
G1 X148.662 Y160.864 E0.04198
G1 X148.876 Y160.477 E0.0154
G1 X149.111 Y160.186 E0.01308
G1 X149.403 Y159.949 E0.01311
G1 X149.79 Y159.741 E0.01532
G1 X150.283 Y159.554 E0.01841
G1 X152.205 Y158.983 E0.06996
G1 X152.913 Y158.695 E0.02665
G1 X153.595 Y158.308 E0.02736
G1 X154.223 Y157.804 E0.02811
G1 X154.767 Y157.186 E0.02872
G1 X155.215 Y156.481 E0.02915
G1 X155.574 Y155.723 E0.02927
G1 X155.864 Y154.949 E0.02883
G1 X156.334 Y153.511 E0.05278
G1 X156.567 Y152.937 E0.02161
G1 X156.829 Y152.494 E0.01794
G1 X157.149 Y152.156 E0.01624
G1 X157.589 Y151.868 E0.01837
G1 X158.207 Y151.596 E0.02353
G1 X158.981 Y151.301 E0.02892
G1 X159.831 Y150.926 E0.0324
G1 X160.668 Y150.428 E0.034
G1 X161.427 Y149.793 E0.0345
