; generated by SuperSlicer 2.5.59 on 2022-12-02 at 05:08:24 UTC


;
;

;
;
; 

; external perimeters extrusion width = 0.50mm
; perimeters extrusion width = 0.50mm
; infill extrusion width = 0.60mm
; solid infill extrusion width = 0.60mm
; top infill extrusion width = 0.50mm

; object:{"name":"Voron_Design_Cube_v7","id":"Voron_Design_Cube_v7 id:0 copy 0","object_center":[149.999992,149.999992,0.000000],"boundingbox_center":[149.999992,149.999992,10.000000],"boundingbox_size":[28.284271,28.284271,20.000000]}
; plater:{"center":[149.999992,149.999992,0.000000],"boundingbox_center":[149.999992,149.999992,10.000000],"boundingbox_size":[28.284271,28.284271,20.000000]}

;TYPE:Custom
PRINT_START EXTRUDER=265 BED=105


; Pre-Processed for Cancel-Object support by preprocess_cancellation v0.2.0
; 1 known objects
EXCLUDE_OBJECT_DEFINE NAME=Voron_Design_Cube_v7_id_0_copy_0 CENTER=150.188,150.386 POLYGON=[[150.0,136.069],[136.069,150.0],[147.772,162.057],[149.889,163.821],[150.042,163.889],[162.073,152.212],[163.931,150.0],[150.0,136.069]]
M107
G21 ; set units to millimeters
G90 ; use absolute coordinates
M83 ; use relative distances for extrusion
SET_PRESSURE_ADVANCE SMOOTH_TIME=0.03
SET_PRESSURE_ADVANCE ADVANCE=0.045
;_TOOLCHANGE 0
M104 S265 ; set temperature
M109 S265 ; set temperature and wait for it to be reached
M190 S105 ; set bed temperature and wait for it to be reached
M107
;LAYER_CHANGE
;Z:0.2
;HEIGHT:0.2
;BEFORE_LAYER_CHANGE
;0.2


G1 Z0.2 F24000
;AFTER_LAYER_CHANGE
;0.2
G92 E0
G1 E-0.6 F2400
M204 S5000
G1 X138.953 Y138.953 F24000
G1 E0.6 F2400
;TYPE:Skirt
;WIDTH:0.48
G1 F1800
G1 X134.612 Y143.293 E0.2097
G1 X133.352 Y145.212 E0.07842
G1 X132.956 Y147.292 E0.07235
G1 X132.956 Y152.707 E0.18499
G1 X133.422 Y154.955 E0.07842
G1 X134.612 Y156.707 E0.07235
G1 X143.293 Y165.388 E0.41941
G1 X145.212 Y166.648 E0.07842
G1 X147.292 Y167.044 E0.07235
G1 X152.707 Y167.044 E0.18499
G1 X154.955 Y166.578 E0.07842
G1 X156.707 Y165.388 E0.07235
G1 X165.388 Y156.707 E0.41941
G1 X166.648 Y154.788 E0.07842
G1 X167.044 Y152.707 E0.07235
G1 X167.044 Y147.292 E0.18499
G1 X166.578 Y145.045 E0.07842
G1 X165.388 Y143.293 E0.07235
G1 X156.707 Y134.612 E0.41941
G1 X154.788 Y133.352 E0.07842
G1 X152.707 Y132.956 E0.07235
G1 X147.292 Y132.956 E0.18499
G1 X145.045 Y133.422 E0.07842
G1 X143.293 Y134.612 E0.07235
G1 X138.995 Y138.91 E0.20765
G1 X139.304 Y139.22 F24000
G1 F1800
G1 X134.921 Y143.602 E0.21175
G1 X133.789 Y145.298 E0.06965
G1 X133.393 Y147.292 E0.06947
G1 X133.393 Y152.707 E0.18499
G1 X133.791 Y154.707 E0.06965
G1 X134.921 Y156.398 E0.06947
G1 X143.602 Y165.079 E0.41941
G1 X145.298 Y166.211 E0.06965
G1 X147.292 Y166.607 E0.06947
G1 X152.707 Y166.607 E0.18499
G1 X154.707 Y166.209 E0.06965
G1 X156.398 Y165.079 E0.06947
G1 X165.079 Y156.398 E0.41941
G1 X166.211 Y154.702 E0.06965
G1 X166.607 Y152.707 E0.06947
G1 X166.607 Y147.292 E0.18499
G1 X166.209 Y145.293 E0.06965
G1 X165.079 Y143.602 E0.06947
G1 X156.398 Y134.921 E0.41941
G1 X154.702 Y133.789 E0.06965
G1 X152.707 Y133.393 E0.06947
G1 X147.292 Y133.393 E0.18499
G1 X145.293 Y133.791 E0.06965
G1 X143.602 Y134.921 E0.06947
G1 X139.347 Y139.177 E0.2056
G1 E-0.06 F2400
;WIPE_START
G1 F19200
G1 X136.292 Y142.232 E-0.513
;WIPE_END
G1 E-0.027 F2400
; printing object Voron_Design_Cube_v7 id:0 copy 0
EXCLUDE_OBJECT_START NAME=Voron_Design_Cube_v7_id_0_copy_0
G1 X149.874 Y156.905 F24000
G1 E0.6 F2400
;TYPE:Internal perimeter
;WIDTH:0.5
G1 F1800
G1 X150.292 Y156.901 E0.0149
G1 X150.908 Y156.848 E0.02211
G1 X151.607 Y156.719 E0.02539
G1 X152.293 Y156.517 E0.02556
G1 X152.955 Y156.245 E0.02557
G1 X153.585 Y155.905 E0.02557
G1 X154.177 Y155.503 E0.02557
G1 X154.711 Y155.052 E0.02497
G1 X155.052 Y154.711 E0.01721
G1 X155.503 Y154.177 E0.02497
G1 X155.905 Y153.585 E0.02557
G1 X156.242 Y152.96 E0.02538
G1 X156.481 Y152.389 E0.02212
G1 X156.631 Y151.937 E0.017
G1 X156.793 Y151.257 E0.02499
G1 X156.887 Y150.547 E0.02557
G1 X156.906 Y149.832 E0.02556
G1 X156.852 Y149.118 E0.02557
G1 X156.724 Y148.414 E0.02557
G1 X156.525 Y147.732 E0.0254
G1 X156.295 Y147.158 E0.02209
G1 X156.085 Y146.731 E0.01698
G1 X155.724 Y146.131 E0.02502
G1 X155.293 Y145.56 E0.02557
G1 X154.805 Y145.036 E0.02557
G1 X154.266 Y144.566 E0.02557
G1 X153.681 Y144.154 E0.02557
G1 X153.056 Y143.804 E0.02557
G1 X152.399 Y143.521 E0.02557
G1 X151.716 Y143.308 E0.02557
G1 X151.014 Y143.166 E0.02557
G1 X150.306 Y143.098 E0.02543
G1 X149.945 Y143.1 E0.0129
G1 X149.235 Y143.133 E0.02538
G1 X148.523 Y143.251 E0.02576
G1 X147.833 Y143.44 E0.02557
G1 X147.166 Y143.699 E0.02557
G1 X146.529 Y144.026 E0.02557
G1 X145.93 Y144.417 E0.02557
G1 X145.374 Y144.868 E0.02557
G1 X144.868 Y145.374 E0.02557
G1 X144.417 Y145.93 E0.02557
G1 X144.026 Y146.529 E0.02557
G1 X143.706 Y147.154 E0.02508
G1 X143.527 Y147.593 E0.01694
G1 X143.336 Y148.179 E0.02203
G1 X143.183 Y148.875 E0.02544
G1 X143.104 Y149.586 E0.02557
G1 X143.098 Y150.302 E0.02557
G1 X143.166 Y151.014 E0.02557
G1 X143.308 Y151.716 E0.02557
G1 X143.517 Y152.385 E0.02504
G1 X143.697 Y152.824 E0.01696
G1 X143.973 Y153.377 E0.02207
G1 X144.352 Y153.979 E0.02542
G1 X144.794 Y154.542 E0.02557
G1 X145.292 Y155.056 E0.02557
G1 X145.84 Y155.516 E0.02557
G1 X146.433 Y155.917 E0.02556
G1 X147.064 Y156.254 E0.02557
G1 X147.727 Y156.524 E0.02557
G1 X148.414 Y156.724 E0.02556
G1 X149.118 Y156.852 E0.02557
G1 X149.814 Y156.905 E0.02495
G1 X149.87 Y156.448 F24000
G1 F1800
G1 X150.27 Y156.444 E0.01428
G1 X150.847 Y156.395 E0.02069
G1 X151.5 Y156.274 E0.02374
G1 X152.141 Y156.085 E0.02387
G1 X152.759 Y155.831 E0.02387
G1 X153.348 Y155.514 E0.02388
G1 X153.9 Y155.138 E0.02387
G1 X154.401 Y154.715 E0.02343
G1 X154.715 Y154.401 E0.01584
G1 X155.138 Y153.9 E0.02343
G1 X155.514 Y153.348 E0.02387
G1 X155.829 Y152.763 E0.02374
G1 X156.053 Y152.228 E0.0207
G1 X156.191 Y151.812 E0.01568
G1 X156.343 Y151.173 E0.02345
G1 X156.431 Y150.511 E0.02387
G1 X156.449 Y149.843 E0.02387
G1 X156.398 Y149.177 E0.02388
G1 X156.279 Y148.519 E0.02388
G1 X156.093 Y147.881 E0.02375
G1 X155.877 Y147.344 E0.02068
G1 X155.684 Y146.95 E0.01566
G1 X155.345 Y146.388 E0.02347
G1 X154.942 Y145.854 E0.02388
G1 X154.487 Y145.365 E0.02387
G1 X153.983 Y144.926 E0.02388
G1 X153.437 Y144.541 E0.02387
G1 X152.854 Y144.215 E0.02387
G1 X152.24 Y143.95 E0.02388
G1 X151.602 Y143.751 E0.02387
G1 X150.947 Y143.619 E0.02387
G1 X150.285 Y143.555 E0.02377
G1 X149.956 Y143.557 E0.01173
G1 X149.283 Y143.589 E0.02407
G1 X148.621 Y143.698 E0.02397
G1 X147.977 Y143.874 E0.02387
G1 X147.354 Y144.117 E0.02388
G1 X146.759 Y144.422 E0.02387
G1 X146.2 Y144.787 E0.02388
G1 X145.681 Y145.208 E0.02387
G1 X145.208 Y145.681 E0.02388
G1 X144.787 Y146.2 E0.02387
G1 X144.422 Y146.759 E0.02388
G1 X144.121 Y147.345 E0.02351
G1 X143.956 Y147.75 E0.01564
G1 X143.777 Y148.299 E0.02063
G1 X143.635 Y148.949 E0.02378
G1 X143.561 Y149.614 E0.02388
G1 X143.555 Y150.282 E0.02387
G1 X143.619 Y150.947 E0.02388
G1 X143.751 Y151.602 E0.02387
G1 X143.947 Y152.23 E0.02349
G1 X144.113 Y152.635 E0.01565
G1 X144.372 Y153.152 E0.02066
G1 X144.726 Y153.715 E0.02376
G1 X145.139 Y154.241 E0.02387
G1 X145.604 Y154.721 E0.02388
G1 X146.116 Y155.15 E0.02387
G1 X146.669 Y155.525 E0.02387
G1 X147.259 Y155.84 E0.02388
G1 X147.878 Y156.092 E0.02388
G1 X148.519 Y156.279 E0.02387
G1 X149.177 Y156.398 E0.02388
G1 X149.81 Y156.446 E0.02271
G1 X149.866 Y155.991 F24000
G1 F1800
G1 X150.248 Y155.987 E0.01366
G1 X150.786 Y155.941 E0.01927
G1 X151.394 Y155.829 E0.02209
G1 X151.989 Y155.653 E0.02218
G1 X152.564 Y155.417 E0.02218
G1 X153.11 Y155.123 E0.02218
G1 X153.624 Y154.773 E0.02218
G1 X154.092 Y154.378 E0.0219
G1 X154.378 Y154.092 E0.01446
G1 X154.773 Y153.624 E0.0219
G1 X155.123 Y153.11 E0.02218
G1 X155.416 Y152.566 E0.02209
G1 X155.624 Y152.068 E0.01927
G1 X155.75 Y151.687 E0.01436
G1 X155.893 Y151.09 E0.02191
G1 X155.974 Y150.475 E0.02218
G1 X155.991 Y149.854 E0.02218
G1 X155.944 Y149.235 E0.02218
G1 X155.833 Y148.624 E0.02218
G1 X155.66 Y148.03 E0.0221
G1 X155.459 Y147.53 E0.01926
G1 X155.282 Y147.169 E0.01435
G1 X154.965 Y146.644 E0.02192
G1 X154.592 Y146.148 E0.02218
G1 X154.169 Y145.694 E0.02218
G1 X153.701 Y145.286 E0.02218
G1 X153.193 Y144.928 E0.02218
G1 X152.651 Y144.625 E0.02218
G1 X152.081 Y144.38 E0.02218
G1 X151.488 Y144.194 E0.02218
G1 X150.88 Y144.072 E0.02218
G1 X150.264 Y144.013 E0.02212
G1 X149.968 Y144.014 E0.01056
G1 X149.332 Y144.044 E0.02277
G1 X148.719 Y144.145 E0.02218
G1 X148.12 Y144.309 E0.02218
G1 X147.542 Y144.534 E0.02218
G1 X146.989 Y144.818 E0.02218
G1 X146.469 Y145.157 E0.02218
G1 X145.987 Y145.548 E0.02218
G1 X145.548 Y145.987 E0.02218
G1 X145.157 Y146.469 E0.02218
G1 X144.818 Y146.989 E0.02218
G1 X144.537 Y147.536 E0.02195
G1 X144.386 Y147.907 E0.01433
G1 X144.219 Y148.419 E0.01923
G1 X144.087 Y149.024 E0.02212
G1 X144.017 Y149.641 E0.02218
G1 X144.012 Y150.262 E0.02218
G1 X144.072 Y150.88 E0.02218
G1 X144.194 Y151.488 E0.02218
G1 X144.378 Y152.074 E0.02194
G1 X144.53 Y152.446 E0.01434
G1 X144.771 Y152.928 E0.01925
G1 X145.1 Y153.452 E0.02211
G1 X145.484 Y153.94 E0.02218
G1 X145.916 Y154.386 E0.02218
G1 X146.391 Y154.785 E0.02218
G1 X146.906 Y155.133 E0.02218
G1 X147.453 Y155.425 E0.02218
G1 X148.028 Y155.66 E0.02218
G1 X148.624 Y155.833 E0.02218
G1 X149.235 Y155.944 E0.02218
G1 X149.806 Y155.988 E0.02047
G1 X149.862 Y155.534 F24000
;TYPE:External perimeter
G1 F1800
G1 X150.227 Y155.53 E0.01304
G1 X150.725 Y155.488 E0.01785
G1 X151.287 Y155.384 E0.02045
G1 X151.837 Y155.222 E0.02048
G1 X152.368 Y155.003 E0.02049
G1 X152.873 Y154.732 E0.02049
G1 X153.347 Y154.409 E0.02049
G1 X153.782 Y154.041 E0.02036
G1 X154.041 Y153.782 E0.01308
G1 X154.409 Y153.347 E0.02036
G1 X154.732 Y152.873 E0.02049
G1 X155.003 Y152.369 E0.02045
G1 X155.196 Y151.908 E0.01785
G1 X155.31 Y151.561 E0.01304
G1 X155.443 Y151.007 E0.02037
G1 X155.518 Y150.438 E0.02049
G1 X155.534 Y149.865 E0.02048
G1 X155.49 Y149.293 E0.02049
G1 X155.388 Y148.729 E0.02049
G1 X155.228 Y148.18 E0.02045
G1 X155.042 Y147.716 E0.01785
G1 X154.881 Y147.389 E0.01303
G1 X154.586 Y146.9 E0.02037
G1 X154.241 Y146.442 E0.02049
G1 X153.85 Y146.023 E0.02049
G1 X153.418 Y145.646 E0.02049
G1 X152.949 Y145.315 E0.02049
G1 X152.449 Y145.036 E0.02049
G1 X151.922 Y144.809 E0.02049
G1 X151.375 Y144.638 E0.02049
G1 X150.813 Y144.524 E0.02049
G1 X150.243 Y144.47 E0.02046
G1 X149.98 Y144.471 E0.00939
G1 X149.38 Y144.499 E0.02146
G1 X148.817 Y144.592 E0.02038
G1 X148.264 Y144.744 E0.02049
G1 X147.729 Y144.951 E0.02049
G1 X147.219 Y145.213 E0.02049
G1 X146.739 Y145.527 E0.02049
G1 X146.294 Y145.888 E0.02049
G1 X145.888 Y146.294 E0.02049
G1 X145.527 Y146.739 E0.02049
G1 X145.213 Y147.219 E0.02049
G1 X144.953 Y147.727 E0.02039
G1 X144.815 Y148.065 E0.01303
G1 X144.661 Y148.539 E0.01783
G1 X144.538 Y149.099 E0.02046
G1 X144.474 Y149.668 E0.02049
G1 X144.47 Y150.242 E0.02049
G1 X144.524 Y150.813 E0.02049
G1 X144.638 Y151.375 E0.02048
G1 X144.808 Y151.919 E0.02038
G1 X144.946 Y152.257 E0.01303
G1 X145.169 Y152.703 E0.01784
G1 X145.475 Y153.188 E0.02046
G1 X145.829 Y153.639 E0.02049
G1 X146.227 Y154.051 E0.02049
G1 X146.667 Y154.42 E0.02049
G1 X147.142 Y154.741 E0.02049
G1 X147.648 Y155.011 E0.02049
G1 X148.179 Y155.227 E0.02049
G1 X148.729 Y155.388 E0.02048
G1 X149.293 Y155.49 E0.02049
G1 X149.802 Y155.529 E0.01822
;WIPE_START
M204 S10000
G1 X150.055 Y155.884 F24000
;WIPE_END
G1 E-0.06 F2400
;WIPE_START
G1 F19200
M204 S5000
G1 X150.751 Y155.686 E-0.08594
G1 X151.334 Y155.578 E-0.07036
G1 X151.904 Y155.41 E-0.07055
G1 X152.454 Y155.184 E-0.07056
G1 X152.977 Y154.903 E-0.07056
G1 X153.468 Y154.568 E-0.07056
G1 X153.918 Y154.189 E-0.06992
G1 X153.945 Y154.162 E-0.00455
;WIPE_END
G1 E-0.027 F2400
G1 X150 Y159.767 F24000
G1 E0.6 F2400
;TYPE:Internal perimeter
G1 F1800
G1 X147.964 Y159.767 E0.07274
G1 X140.233 Y152.036 E0.39061
G1 X140.233 Y147.964 E0.14547
G1 X147.964 Y140.233 E0.39061
G1 X152.036 Y140.233 E0.14547
G1 X159.767 Y147.964 E0.39061
G1 X159.767 Y152.036 E0.14547
G1 X152.036 Y159.767 E0.39061
G1 X150.06 Y159.767 E0.07059
G1 X150 Y160.224 F24000
G1 F1800
G1 X147.775 Y160.224 E0.0795
G1 X139.776 Y152.225 E0.40414
G1 X139.776 Y147.775 E0.159
G1 X147.775 Y139.776 E0.40414
G1 X152.225 Y139.776 E0.159
G1 X160.224 Y147.775 E0.40414
G1 X160.224 Y152.225 E0.159
G1 X152.225 Y160.224 E0.40414
G1 X150.06 Y160.224 E0.07736
G1 X150 Y160.681 F24000
G1 F1800
G1 X147.585 Y160.681 E0.08626
G1 X139.319 Y152.415 E0.41767
G1 X139.319 Y147.585 E0.17253
G1 X147.585 Y139.319 E0.41767
G1 X152.415 Y139.319 E0.17253
G1 X160.681 Y147.585 E0.41767
G1 X160.681 Y152.415 E0.17253
G1 X152.415 Y160.681 E0.41767
G1 X150.06 Y160.681 E0.08412
G1 X150 Y161.138 F24000
;TYPE:External perimeter
G1 F1800
G1 X147.396 Y161.138 E0.09303
G1 X138.862 Y152.604 E0.4312
G1 X138.862 Y147.396 E0.18606
G1 X147.396 Y138.862 E0.4312
G1 X152.604 Y138.862 E0.18606
G1 X161.138 Y147.396 E0.4312
G1 X161.138 Y152.604 E0.18606
G1 X152.604 Y161.138 E0.4312
G1 X150.06 Y161.138 E0.09088
;WIPE_START
M204 S10000
G1 X149.8 Y160.792 F24000
;WIPE_END
G1 E-0.06 F2400
;WIPE_START
G1 F19200
M204 S5000
G1 X147.479 Y160.938 E-0.27618
G1 X146.069 Y159.528 E-0.23682
;WIPE_END
G1 E-0.027 F2400
G1 X147.735 Y140.537 F24000
G1 E0.6 F2400
;TYPE:Solid infill
;WIDTH:0.6
G1 F3000
G1 X151.926 Y140.537 E0.18245
G1 X152.483 Y141.094 E0.0343
G1 X147.517 Y141.094 E0.21622
G1 X146.96 Y141.651 E0.0343
G1 X153.04 Y141.651 E0.26473
G1 X153.597 Y142.208 E0.0343
G1 X146.403 Y142.208 E0.31324
G1 X145.846 Y142.765 E0.0343
G1 X154.154 Y142.765 E0.36175
G1 X154.711 Y143.322 E0.0343
G1 X152.659 Y143.322 E0.08937
G1 X152.501 Y143.245 E0.00764
G1 X151.06 Y142.875 E0.06477
G1 X149.947 Y142.806 E0.04858
G1 X149.196 Y142.842 E0.03271
G1 X147.741 Y143.16 E0.06488
G1 X147.38 Y143.322 E0.01724
G1 X145.289 Y143.322 E0.09104
G1 X144.732 Y143.88 E0.0343
G1 X146.233 Y143.88 E0.06537
G1 X145.469 Y144.437 E0.04118
G1 X144.175 Y144.437 E0.05636
G1 X143.618 Y144.994 E0.0343
G1 X144.867 Y144.994 E0.05439
G1 X144.365 Y145.551 E0.03266
G1 X143.061 Y145.551 E0.05678
G1 X142.503 Y146.108 E0.0343
G1 X143.975 Y146.108 E0.06407
G1 X143.651 Y146.665 E0.02806
G1 X141.946 Y146.665 E0.07422
G1 X141.389 Y147.222 E0.0343
G1 X143.369 Y147.222 E0.08622
G1 X143.168 Y147.779 E0.02579
G1 X140.832 Y147.779 E0.10172
G1 X140.526 Y148.085 E0.01886
G1 X140.526 Y148.336 E0.01092
G1 X143.013 Y148.336 E0.10829
G1 X142.921 Y148.893 E0.02458
G1 X140.526 Y148.893 E0.10429
G1 X140.526 Y149.45 E0.02426
G1 X142.829 Y149.45 E0.10029
G1 X142.81 Y149.569 E0.00522
G1 X142.829 Y150.007 E0.01912
G1 X140.526 Y150.007 E0.10027
G1 X140.526 Y150.564 E0.02426
G1 X142.853 Y150.564 E0.10133
G1 X142.875 Y151.057 E0.02149
G1 X142.891 Y151.122 E0.00288
G1 X140.526 Y151.122 E0.10299
G1 X140.526 Y151.679 E0.02426
G1 X143.034 Y151.679 E0.10919
G1 X143.176 Y152.236 E0.02504
G1 X140.847 Y152.236 E0.10141
G1 X141.404 Y152.793 E0.0343
G1 X143.382 Y152.793 E0.08611
G1 X143.638 Y153.35 E0.0267
G1 X141.961 Y153.35 E0.07301
G1 X142.518 Y153.907 E0.0343
G1 X143.988 Y153.907 E0.064
G1 X144.381 Y154.464 E0.02967
G1 X143.075 Y154.464 E0.05684
G1 X143.632 Y155.021 E0.0343
G1 X144.879 Y155.021 E0.05427
G1 X145.477 Y155.578 E0.03559
G1 X144.19 Y155.578 E0.05606
G1 X144.747 Y156.135 E0.0343
G1 X146.764 Y156.135 E0.08784
G1 E-0.06 F2400
;WIPE_START
G1 F19200
G1 X144.747 Y156.135 E-0.23956
G1 X144.19 Y155.578 E-0.09355
G1 X145.477 Y155.578 E-0.15289
G1 X145.311 Y155.423 E-0.027
;WIPE_END
G1 E-0.027 F2400
G1 X153.246 Y143.88 F24000
G1 E0.6 F2400
G1 F3000
G1 X155.268 Y143.88 E0.08803
G1 X155.825 Y144.437 E0.0343
G1 X154.516 Y144.437 E0.05701
G1 X155.01 Y144.824 E0.02735
G1 X155.152 Y144.994 E0.00962
G1 X156.382 Y144.994 E0.05357
G1 X156.939 Y145.551 E0.0343
G1 X155.619 Y145.551 E0.05748
G1 X155.966 Y145.964 E0.02351
G1 X156.046 Y146.108 E0.00715
G1 X157.497 Y146.108 E0.06315
G1 X158.054 Y146.665 E0.0343
G1 X156.356 Y146.665 E0.07391
G1 X156.564 Y147.038 E0.01859
G1 X156.627 Y147.222 E0.00847
G1 X158.611 Y147.222 E0.08639
G1 X159.168 Y147.779 E0.0343
G1 X156.817 Y147.779 E0.10236
G1 X157.007 Y148.336 E0.02563
G1 X159.474 Y148.336 E0.10742
G1 X159.474 Y148.893 E0.02426
G1 X157.081 Y148.893 E0.10419
