; generated by SuperSlicer 2.5.59 on 2022-11-01 at 03:20:58 UTC


;
;

;
;
; 

; external perimeters extrusion width = 0.52mm
; perimeters extrusion width = 0.56mm
; infill extrusion width = 0.70mm
; solid infill extrusion width = 0.70mm
; top infill extrusion width = 0.50mm
; first layer extrusion width = 0.60mm

; object:{"name":"Calibration Flower v7","id":"Calibration Flower v7.stl id:0 copy 0","object_center":[149.999998,149.999998,0.000000],"boundingbox_center":[149.999998,149.999998,2.500000],"boundingbox_size":[110.000000,110.000000,5.000000]}
; plater:{"center":[149.999998,149.999998,0.000000],"boundingbox_center":[149.999998,149.999998,2.500000],"boundingbox_size":[110.000000,110.000000,5.000000]}

;TYPE:Custom
PRINT_START EXTRUDER=260 BED=110
M107
G21 ; set units to millimeters
G90 ; use absolute coordinates
M83 ; use relative distances for extrusion
SET_PRESSURE_ADVANCE SMOOTH_TIME=0.02
SET_PRESSURE_ADVANCE ADVANCE=0.06
;_TOOLCHANGE 0
M104 S260 ; set temperature
M109 S260 ; set temperature and wait for it to be reached
M190 S110 ; set bed temperature and wait for it to be reached
M107
;LAYER_CHANGE
;Z:0.3
;HEIGHT:0.3
;BEFORE_LAYER_CHANGE
;0.3


G1 Z0.3 F24000
;AFTER_LAYER_CHANGE
;0.3
G92 E0
G1 E-0.6 F2400
; printing object Calibration Flower v7.stl id:0 copy 0
M204 S3000
G1 X150.489 Y177.011 F24000
G1 E0.6 F2400
;TYPE:Internal perimeter
;WIDTH:0.6
G1 F9000
G1 X172.762 Y177.011 E1.33919
G1 X173.514 Y176.986 E0.04521
G1 X173.489 Y177.716 E0.04393
G1 X173.489 Y190.426 E0.7642
G1 X175.305 Y191.179 E0.11821
G1 X191.179 Y175.305 E1.34972
G1 X190.426 Y173.489 E0.11821
G1 X178.223 Y173.489 E0.73371
G1 X177.209 Y173.494 E0.06099
G1 X176.986 Y173.507 E0.01341
G1 X177.011 Y172.762 E0.04481
G1 X177.011 Y150.489 E1.33919
G1 X157.989 Y150.489 E1.14373
G1 X157.989 Y157.167 E0.40152
G1 X157.167 Y157.989 E0.06988
G1 X150.489 Y157.989 E0.40152
G1 X150.489 Y176.936 E1.13922
G1 E-0.06 F2400
;WIPE_START
G1 F19200
G1 X154.809 Y176.951 E-0.513
;WIPE_END
G1 E-0.027 F2400
G1 X174.024 Y190.068 F24000
G1 E0.6 F2400
G1 F9000
G1 X175.18 Y190.547 E0.07518
G1 X190.547 Y175.18 E1.30668
G1 X190.068 Y174.024 E0.07518
G1 X178.225 Y174.024 E0.7121
G1 X177.226 Y174.03 E0.06008
G1 X176.683 Y174.061 E0.03265
G1 X176.4 Y174.1 E0.0172
G1 X176.441 Y173.799 E0.01825
G1 X176.475 Y172.753 E0.0629
G1 X176.476 Y151.024 E1.30645
G1 X158.524 Y151.024 E1.07932
G1 X158.524 Y157.389 E0.38266
G1 X157.389 Y158.524 E0.09656
G1 X151.024 Y158.524 E0.38266
G1 X151.024 Y176.476 E1.07932
G1 X172.753 Y176.475 E1.30645
G1 X173.799 Y176.441 E0.0629
G1 X174.1 Y176.4 E0.01825
G1 X174.059 Y176.693 E0.01779
G1 X174.025 Y177.725 E0.0621
G1 X174.024 Y189.993 E0.73762
G1 E-0.06 F2400
;WIPE_START
G1 F19200
G1 X175.18 Y190.547 E-0.15211
G1 X177.328 Y188.398 E-0.36089
;WIPE_END
G1 E-0.027 F2400
G1 X151.56 Y175.94 F24000
G1 E0.6 F2400
;TYPE:External perimeter
G1 F4500
G1 X172.744 Y175.94 E1.27371
G1 X173.754 Y175.906 E0.06074
G1 X174.364 Y175.824 E0.03702
G1 X175.824 Y174.364 E0.12411
G1 X175.906 Y173.754 E0.03702
G1 X175.94 Y172.744 E0.06074
G1 X175.94 Y151.56 E1.27371
G1 X175.79 Y151.56 E0.00805
G1 X175.49 Y151.56 E0.01707
G1 X159.06 Y151.56 E0.98785
G1 X159.06 Y151.71 E0.00805
G1 X159.06 Y152.01 E0.01707
G1 X159.06 Y157.611 E0.33674
G1 X157.611 Y159.06 E0.12324
G1 X151.56 Y159.06 E0.36379
G1 X151.56 Y159.21 E0.00805
G1 X151.56 Y159.51 E0.01707
G1 X151.56 Y175.865 E0.98334
;WIPE_START
M204 S10000
G1 X151.56 Y176.44 F24000
;WIPE_END
G1 E-0.06 F2400
;WIPE_START
G1 F19200
M204 S3000
G1 X155.88 Y176.389 E-0.513
;WIPE_END
G1 E-0.027 F2400
G1 X175.054 Y189.915 F24000
G1 E0.6 F2400
G1 F4500
G1 X189.915 Y175.054 E1.26364
G1 X189.858 Y174.915 E0.00867
G1 X189.743 Y174.638 E0.01769
G1 X189.711 Y174.56 E0.00508
G1 X189.561 Y174.56 E0.00867
G1 X189.261 Y174.56 E0.01769
G1 X178.226 Y174.56 E0.66344
G1 X177.242 Y174.565 E0.05916
G1 X176.735 Y174.594 E0.03055
G1 X176.136 Y174.676 E0.03638
G1 X174.676 Y176.136 E0.12407
G1 X174.594 Y176.739 E0.03659
G1 X174.56 Y177.734 E0.0599
G1 X174.56 Y189.711 E0.72007
G1 X174.699 Y189.768 E0.00867
G1 X174.976 Y189.883 E0.01769
G1 X174.985 Y189.886 E0.00057
;WIPE_START
M204 S10000
G1 X175.451 Y190.219 F24000
;WIPE_END
G1 E-0.06 F2400
;WIPE_START
G1 F19200
M204 S3000
G1 X178.469 Y187.129 E-0.513
;WIPE_END
G1 E-0.027 F2400
G1 X177.989 Y172.511 F24000
G1 E0.6 F2400
;TYPE:Internal perimeter
G1 F9000
G1 X202.011 Y172.511 E1.44435
G1 X202.011 Y150.489 E1.3241
G1 X177.989 Y150.489 E1.44435
G1 X177.989 Y172.436 E1.31959
G1 X178.524 Y171.976 F24000
G1 F9000
G1 X201.476 Y171.976 E1.37994
G1 X201.476 Y151.024 E1.25969
G1 X178.524 Y151.024 E1.37994
G1 X178.524 Y171.901 E1.25518
G1 X179.06 Y171.44 F24000
;TYPE:External perimeter
G1 F4500
G1 X200.94 Y171.44 E1.31553
G1 X200.94 Y171.29 E0.00805
G1 X200.94 Y170.99 E0.01707
G1 X200.94 Y151.56 E1.16823
G1 X200.79 Y151.56 E0.00805
G1 X200.49 Y151.56 E0.01707
G1 X179.06 Y151.56 E1.28848
G1 X179.06 Y151.71 E0.00805
G1 X179.06 Y152.01 E0.01707
G1 X179.06 Y171.365 E1.16372
;WIPE_START
M204 S10000
G1 X179.06 Y171.94 F24000
;WIPE_END
G1 E-0.06 F2400
;WIPE_START
G1 F19200
M204 S3000
G1 X183.38 Y171.891 E-0.513
;WIPE_END
G1 E-0.027 F2400
G1 X172.989 Y149.511 F24000
G1 E0.6 F2400
;TYPE:Internal perimeter
G1 F9000
G1 X197.011 Y149.511 E1.44435
G1 X197.011 Y127.489 E1.3241
G1 X172.989 Y127.489 E1.44435
G1 X172.989 Y149.436 E1.31959
G1 X173.524 Y148.976 F24000
G1 F9000
G1 X196.476 Y148.976 E1.37994
G1 X196.476 Y128.024 E1.25969
G1 X173.524 Y128.024 E1.37994
G1 X173.524 Y148.901 E1.25518
G1 X174.06 Y148.44 F24000
;TYPE:External perimeter
G1 F4500
G1 X195.94 Y148.44 E1.31553
G1 X195.94 Y148.29 E0.00805
G1 X195.94 Y147.99 E0.01707
G1 X195.94 Y128.56 E1.16823
G1 X195.79 Y128.56 E0.00805
G1 X195.49 Y128.56 E0.01707
G1 X174.06 Y128.56 E1.28848
G1 X174.06 Y128.71 E0.00805
G1 X174.06 Y129.01 E0.01707
G1 X174.06 Y148.365 E1.16372
;WIPE_START
M204 S10000
G1 X174.06 Y148.94 F24000
;WIPE_END
G1 E-0.06 F2400
;WIPE_START
G1 F19200
M204 S3000
G1 X178.38 Y148.891 E-0.513
;WIPE_END
G1 E-0.027 F2400
G1 X173.489 Y126.511 F24000
G1 E0.6 F2400
;TYPE:Internal perimeter
G1 F9000
G1 X190.426 Y126.511 E1.01837
G1 X191.179 Y124.695 E0.11821
G1 X175.305 Y108.821 E1.34972
G1 X173.489 Y109.574 E0.11821
G1 X173.489 Y126.436 E1.01386
G1 X174.024 Y125.976 F24000
G1 F9000
G1 X190.068 Y125.976 E0.96465
G1 X190.547 Y124.82 E0.07518
G1 X175.18 Y109.453 E1.30668
G1 X174.024 Y109.932 E0.07518
G1 X174.024 Y125.901 E0.96014
G1 X174.56 Y125.44 F24000
;TYPE:External perimeter
G1 F4500
G1 X189.711 Y125.44 E0.91093
G1 X189.768 Y125.301 E0.00867
G1 X189.883 Y125.024 E0.01769
G1 X189.915 Y124.946 E0.00508
G1 X189.809 Y124.84 E0.00867
G1 X189.597 Y124.628 E0.01769
G1 X175.054 Y110.085 E1.23659
G1 X174.915 Y110.142 E0.00867
G1 X174.638 Y110.257 E0.01769
G1 X174.56 Y110.289 E0.00508
G1 X174.56 Y110.439 E0.00867
G1 X174.56 Y110.739 E0.01769
G1 X174.56 Y125.365 E0.87936
;WIPE_START
M204 S10000
G1 X174.56 Y125.94 F24000
;WIPE_END
G1 E-0.06 F2400
;WIPE_START
G1 F19200
M204 S3000
G1 X178.879 Y125.87 E-0.513
;WIPE_END
G1 E-0.027 F2400
G1 X150.489 Y122.011 F24000
G1 E0.6 F2400
;TYPE:Internal perimeter
G1 F9000
G1 X172.511 Y122.011 E1.3241
G1 X172.511 Y97.989 E1.44435
G1 X150.489 Y97.989 E1.3241
G1 X150.489 Y121.936 E1.43984
G1 X151.024 Y121.476 F24000
G1 F9000
G1 X171.976 Y121.476 E1.25969
G1 X171.976 Y98.524 E1.37994
G1 X151.024 Y98.524 E1.25969
G1 X151.024 Y121.401 E1.37543
G1 X151.56 Y120.94 F24000
;TYPE:External perimeter
G1 F4500
G1 X171.44 Y120.94 E1.19528
G1 X171.44 Y120.79 E0.00805
G1 X171.44 Y120.49 E0.01707
G1 X171.44 Y99.06 E1.28848
G1 X171.29 Y99.06 E0.00805
G1 X170.99 Y99.06 E0.01707
G1 X151.56 Y99.06 E1.16823
G1 X151.56 Y99.21 E0.00805
G1 X151.56 Y99.51 E0.01707
G1 X151.56 Y120.865 E1.28397
;WIPE_START
M204 S10000
G1 X151.56 Y121.44 F24000
;WIPE_END
G1 E-0.06 F2400
;WIPE_START
G1 F19200
M204 S3000
G1 X155.88 Y121.386 E-0.513
;WIPE_END
G1 E-0.027 F2400
G1 X149.511 Y127.011 F24000
G1 E0.6 F2400
;TYPE:Internal perimeter
G1 F9000
G1 X149.511 Y102.989 E1.44435
G1 X127.489 Y102.989 E1.3241
G1 X127.489 Y125.333 E1.34345
G1 X129.167 Y127.011 E0.14269
G1 X149.436 Y127.011 E1.21869
G1 X148.976 Y126.476 F24000
G1 F9000
G1 X148.976 Y103.524 E1.37994
G1 X128.024 Y103.524 E1.25969
G1 X128.024 Y125.111 E1.29791
G1 X129.389 Y126.476 E0.11601
G1 X148.901 Y126.476 E1.17315
G1 X148.44 Y125.94 F24000
;TYPE:External perimeter
G1 F4500
G1 X148.44 Y104.06 E1.31553
G1 X148.29 Y104.06 E0.00805
G1 X147.99 Y104.06 E0.01707
G1 X128.56 Y104.06 E1.16823
G1 X128.56 Y104.21 E0.00805
G1 X128.56 Y104.51 E0.01707
G1 X128.56 Y124.889 E1.22531
G1 X129.611 Y125.94 E0.08934
G1 X148.365 Y125.94 E1.1276
;WIPE_START
M204 S10000
G1 X148.94 Y125.94 F24000
;WIPE_END
G1 E-0.06 F2400
;WIPE_START
G1 F19200
M204 S3000
G1 X148.891 Y121.62 E-0.513
;WIPE_END
G1 E-0.027 F2400
G1 X142.011 Y149.511 F24000
G1 E0.6 F2400
;TYPE:Internal perimeter
G1 F9000
G1 X142.011 Y142.833 E0.40152
G1 X142.833 Y142.011 E0.06988
G1 X149.511 Y142.011 E0.40152
G1 X149.511 Y127.989 E0.8431
G1 X127.989 Y127.989 E1.29404
G1 X127.989 Y149.511 E1.29404
G1 X141.936 Y149.511 E0.83859
G1 X141.476 Y148.976 F24000
G1 F9000
G1 X141.476 Y142.611 E0.38266
G1 X142.611 Y141.476 E0.09656
G1 X148.976 Y141.476 E0.38266
G1 X148.976 Y128.524 E0.77869
G1 X128.524 Y128.524 E1.22963
G1 X128.524 Y148.976 E1.22963
G1 X141.401 Y148.976 E0.77418
G1 X140.94 Y148.44 F24000
;TYPE:External perimeter
G1 F4500
G1 X140.94 Y142.389 E0.36379
G1 X142.389 Y140.94 E0.12324
G1 X148.44 Y140.94 E0.36379
G1 X148.44 Y140.79 E0.00805
G1 X148.44 Y140.49 E0.01707
G1 X148.44 Y129.06 E0.68723
G1 X148.29 Y129.06 E0.00805
G1 X147.99 Y129.06 E0.01707
G1 X129.06 Y129.06 E1.13816
G1 X129.06 Y129.21 E0.00805
G1 X129.06 Y129.51 E0.01707
G1 X129.06 Y148.44 E1.13816
G1 X129.21 Y148.44 E0.00805
G1 X129.51 Y148.44 E0.01707
G1 X140.865 Y148.44 E0.68272
;WIPE_START
M204 S10000
G1 X141.44 Y148.44 F24000
;WIPE_END
G1 E-0.06 F2400
;WIPE_START
G1 F19200
M204 S3000
G1 X141.259 Y144.124 E-0.513
;WIPE_END
G1 E-0.027 F2400
G1 X126.511 Y126.511 F24000
G1 E0.6 F2400
;TYPE:Internal perimeter
G1 F9000
G1 X126.511 Y109.574 E1.01837
G1 X124.695 Y108.821 E0.11821
G1 X108.821 Y124.695 E1.34972
G1 X109.574 Y126.511 E0.11821
G1 X126.436 Y126.511 E1.01386
G1 X125.976 Y125.976 F24000
G1 F9000
G1 X125.976 Y109.932 E0.96465
G1 X124.82 Y109.453 E0.07518
G1 X109.453 Y124.82 E1.30668
G1 X109.932 Y125.976 E0.07518
G1 X125.901 Y125.976 E0.96014
G1 X125.44 Y125.44 F24000
;TYPE:External perimeter
G1 F4500
G1 X125.44 Y110.289 E0.91093
G1 X125.301 Y110.232 E0.00867
G1 X125.024 Y110.117 E0.01769
G1 X124.946 Y110.085 E0.00508
G1 X124.84 Y110.191 E0.00867
G1 X124.628 Y110.403 E0.01769
G1 X110.085 Y124.946 E1.23659
G1 X110.142 Y125.085 E0.00867
G1 X110.257 Y125.362 E0.01769
G1 X110.289 Y125.44 E0.00508
G1 X110.439 Y125.44 E0.00867
G1 X110.739 Y125.44 E0.01769
G1 X125.365 Y125.44 E0.87936
;WIPE_START
M204 S10000
G1 X125.94 Y125.44 F24000
;WIPE_END
G1 E-0.06 F2400
;WIPE_START
G1 F19200
M204 S3000
G1 X125.87 Y121.121 E-0.513
;WIPE_END
G1 E-0.027 F2400
G1 X127.011 Y149.511 F24000
G1 E0.6 F2400
;TYPE:Internal perimeter
G1 F9000
G1 X127.011 Y129.167 E1.2232
G1 X125.333 Y127.489 E0.14269
G1 X102.989 Y127.489 E1.34345
G1 X102.989 Y149.511 E1.3241
G1 X126.936 Y149.511 E1.43984
G1 X126.476 Y148.976 F24000
G1 F9000
G1 X126.476 Y129.389 E1.17766
G1 X125.111 Y128.024 E0.11601
G1 X103.524 Y128.024 E1.29791
G1 X103.524 Y148.976 E1.25969
G1 X126.401 Y148.976 E1.37543
G1 X125.94 Y148.44 F24000
;TYPE:External perimeter
G1 F4500
G1 X125.94 Y129.611 E1.13211
G1 X124.889 Y128.56 E0.08934
G1 X104.06 Y128.56 E1.25236
G1 X104.06 Y128.71 E0.00805
G1 X104.06 Y129.01 E0.01707
G1 X104.06 Y148.44 E1.16823
G1 X104.21 Y148.44 E0.00805
G1 X104.51 Y148.44 E0.01707
G1 X125.865 Y148.44 E1.28397
;WIPE_START
M204 S10000
G1 X126.44 Y148.44 F24000
;WIPE_END
G1 E-0.06 F2400
;WIPE_START
G1 F19200
M204 S3000
G1 X126.383 Y144.12 E-0.513
;WIPE_END
G1 E-0.027 F2400
G1 X122.011 Y172.511 F24000
G1 E0.6 F2400
;TYPE:Internal perimeter
G1 F9000
G1 X122.011 Y150.489 E1.3241
G1 X97.989 Y150.489 E1.44435
G1 X97.989 Y172.511 E1.3241
G1 X121.936 Y172.511 E1.43984
G1 X121.476 Y171.976 F24000
G1 F9000
G1 X121.476 Y151.024 E1.25969
G1 X98.524 Y151.024 E1.37994
G1 X98.524 Y171.976 E1.25969
G1 X121.401 Y171.976 E1.37543
G1 X120.94 Y171.44 F24000
;TYPE:External perimeter
G1 F4500
G1 X120.94 Y151.56 E1.19528
G1 X120.79 Y151.56 E0.00805
G1 X120.49 Y151.56 E0.01707
G1 X99.06 Y151.56 E1.28848
G1 X99.06 Y151.71 E0.00805
G1 X99.06 Y152.01 E0.01707
G1 X99.06 Y171.44 E1.16823
G1 X99.21 Y171.44 E0.00805
G1 X99.51 Y171.44 E0.01707
G1 X120.865 Y171.44 E1.28397
;WIPE_START
M204 S10000
G1 X121.44 Y171.44 F24000
;WIPE_END
G1 E-0.06 F2400
;WIPE_START
G1 F19200
M204 S3000
G1 X121.386 Y167.12 E-0.513
;WIPE_END
G1 E-0.027 F2400
G1 X149.511 Y172.011 F24000
G1 E0.6 F2400
;TYPE:Internal perimeter
G1 F9000
G1 X149.511 Y157.989 E0.8431
G1 X142.011 Y157.989 E0.45094
G1 X142.011 Y150.489 E0.45094
G1 X122.989 Y150.489 E1.14372
G1 X122.989 Y172.011 E1.29404
G1 X149.436 Y172.011 E1.59015
G1 X148.976 Y171.476 F24000
G1 F9000
G1 X148.976 Y158.524 E0.77869
G1 X141.476 Y158.524 E0.45094
G1 X141.476 Y151.024 E0.45094
G1 X123.524 Y151.024 E1.07932
G1 X123.524 Y171.476 E1.22963
G1 X148.901 Y171.476 E1.52574
G1 X148.44 Y170.94 F24000
;TYPE:External perimeter
G1 F4500
G1 X148.44 Y159.06 E0.71428
G1 X148.29 Y159.06 E0.00805
G1 X147.99 Y159.06 E0.01707
G1 X140.94 Y159.06 E0.42388
G1 X140.94 Y158.91 E0.00805
G1 X140.94 Y158.61 E0.01707
G1 X140.94 Y151.56 E0.42388
G1 X140.79 Y151.56 E0.00805
G1 X140.49 Y151.56 E0.01707
G1 X124.06 Y151.56 E0.98785
G1 X124.06 Y151.71 E0.00805
G1 X124.06 Y152.01 E0.01707
G1 X124.06 Y170.94 E1.13816
G1 X124.21 Y170.94 E0.00805
G1 X124.51 Y170.94 E0.01707
G1 X148.365 Y170.94 E1.43428
;WIPE_START
M204 S10000
G1 X148.94 Y170.94 F24000
;WIPE_END
G1 E-0.06 F2400
;WIPE_START
G1 F19200
M204 S3000
G1 X148.851 Y166.621 E-0.513
;WIPE_END
G1 E-0.027 F2400
G1 X149.511 Y197.011 F24000
G1 E0.6 F2400
;TYPE:Internal perimeter
G1 F9000
G1 X149.511 Y172.989 E1.44435
G1 X127.489 Y172.989 E1.3241
G1 X127.489 Y197.011 E1.44435
G1 X149.436 Y197.011 E1.31959
G1 X148.976 Y196.476 F24000
G1 F9000
G1 X148.976 Y173.524 E1.37994
G1 X128.024 Y173.524 E1.25969
G1 X128.024 Y196.476 E1.37994
G1 X148.901 Y196.476 E1.25518
G1 X148.44 Y195.94 F24000
;TYPE:External perimeter
G1 F4500
G1 X148.44 Y174.06 E1.31553
G1 X148.29 Y174.06 E0.00805
G1 X147.99 Y174.06 E0.01707
G1 X128.56 Y174.06 E1.16823
G1 X128.56 Y174.21 E0.00805
G1 X128.56 Y174.51 E0.01707
G1 X128.56 Y195.94 E1.28848
G1 X128.71 Y195.94 E0.00805
G1 X129.01 Y195.94 E0.01707
G1 X148.365 Y195.94 E1.16372
;WIPE_START
M204 S10000
G1 X148.94 Y195.94 F24000
;WIPE_END
G1 E-0.06 F2400
;WIPE_START
G1 F19200
M204 S3000
G1 X148.891 Y191.62 E-0.513
;WIPE_END
G1 E-0.027 F2400
G1 X126.511 Y190.426 F24000
G1 E0.6 F2400
;TYPE:Internal perimeter
G1 F9000
G1 X126.511 Y173.489 E1.01837
G1 X109.574 Y173.489 E1.01837
G1 X108.821 Y175.305 E0.11821
G1 X124.695 Y191.179 E1.34972
G1 X126.442 Y190.455 E0.1137
G1 X125.976 Y190.068 F24000
G1 F9000
G1 X125.976 Y174.024 E0.96465
G1 X109.932 Y174.024 E0.96465
G1 X109.453 Y175.18 E0.07518
G1 X124.82 Y190.547 E1.30668
G1 X125.906 Y190.097 E0.07067
G1 X124.946 Y189.915 F24000
;TYPE:External perimeter
G1 F4500
G1 X125.44 Y189.711 E0.03214
G1 X125.44 Y189.561 E0.00867
G1 X125.44 Y189.261 E0.01769
G1 X125.44 Y174.56 E0.88387
G1 X125.29 Y174.56 E0.00805
G1 X124.99 Y174.56 E0.01707
G1 X110.289 Y174.56 E0.88387
G1 X110.232 Y174.699 E0.00867
G1 X110.117 Y174.976 E0.01769
G1 X110.085 Y175.054 E0.00508
G1 X110.191 Y175.16 E0.00867
G1 X110.403 Y175.372 E0.01769
G1 X124.893 Y189.862 E1.23208
;WIPE_START
M204 S10000
G1 X125.196 Y190.348 F24000
;WIPE_END
G1 E-0.06 F2400
;WIPE_START
G1 F19200
M204 S3000
G1 X125.69 Y189.878 E-0.081
G1 X125.69 Y186.24 E-0.432
;WIPE_END
G1 E-0.027 F2400
G1 X150.489 Y202.011 F24000
G1 E0.6 F2400
;TYPE:Internal perimeter
G1 F9000
G1 X172.511 Y202.011 E1.3241
G1 X172.511 Y177.989 E1.44435
G1 X150.489 Y177.989 E1.3241
G1 X150.489 Y201.936 E1.43984
G1 X151.024 Y201.476 F24000
G1 F9000
G1 X171.976 Y201.476 E1.25969
