; generated by SuperSlicer 2.5.59 on 2023-08-22 at 00:49:15 UTC


;
;

;
;
; 

; external perimeters extrusion width = 0.50mm
; perimeters extrusion width = 0.50mm
; infill extrusion width = 0.75mm
; solid infill extrusion width = 0.65mm
; top infill extrusion width = 0.60mm
; first layer extrusion width = 0.60mm

; object:{"name":"chubefxd","id":"chubefxd id:0 copy 0","object_center":[150.000000,150.000000,0.000000],"boundingbox_center":[150.000000,150.000000,2.000000],"boundingbox_size":[33.112698,33.112698,4.000000]}
EXCLUDE_OBJECT_DEFINE NAME=chubefxd_id_0_copy_0 CENTER=150.000000,150.000000 POLYGON=[[133.443648,152.121328],[133.452208,151.990800],[133.477720,151.862496],[133.519776,151.738640],[133.577624,151.621328],[133.650296,151.512560],[133.736544,151.414208],[151.414208,133.736544],[151.512560,133.650296],[151.621328,133.577624],[151.738640,133.519776],[151.862496,133.477720],[151.990800,133.452208],[152.121328,133.443648],[152.251840,133.452208],[152.380144,133.477720],[152.504000,133.519776],[152.621328,133.577624],[152.730080,133.650296],[152.828432,133.736544],[166.263456,147.171568],[166.349696,147.269920],[166.422384,147.378672],[166.480224,147.496000],[166.522272,147.619856],[166.547792,147.748160],[166.556352,147.878672],[166.547792,148.009200],[166.522272,148.137504],[166.480224,148.261376],[166.422384,148.378672],[166.349696,148.487440],[166.263456,148.585792],[148.585792,166.263456],[148.487440,166.349696],[148.378672,166.422384],[148.261376,166.480224],[148.137504,166.522272],[148.009200,166.547792],[147.878672,166.556352],[147.748160,166.547792],[147.619856,166.522272],[147.496000,166.480224],[147.378672,166.422384],[147.269920,166.349696],[147.171568,166.263456],[133.736544,152.828432],[133.650296,152.730080],[133.577624,152.621328],[133.519776,152.504000],[133.477720,152.380144],[133.452208,152.251840],[133.443648,152.121328]]
; plater:{"center":[150.000000,150.000000,0.000000],"boundingbox_center":[150.000000,150.000000,2.000000],"boundingbox_size":[33.112698,33.112698,4.000000]}

;TYPE:Custom
PRINT_START EXTRUDER=265 BED=110 AREA_START=127.024,127.024 AREA_END=172.976,172.976
M107
G21 ; set units to millimeters
G90 ; use absolute coordinates
M83 ; use relative distances for extrusion
SET_PRESSURE_ADVANCE SMOOTH_TIME=0.02
SET_PRESSURE_ADVANCE ADVANCE=0.022
;_TOOLCHANGE 0
M104 S265 ; set temperature
M109 S265 ; set temperature and wait for it to be reached
M190 S110 ; set bed temperature and wait for it to be reached
M107
;LAYER_CHANGE
;Z:0.25
;HEIGHT:0.25
;BEFORE_LAYER_CHANGE
TIMELAPSE_TAKE_FRAME
;0.25


G1 Z0.25 F36000
;AFTER_LAYER_CHANGE
;0.25
G92 E0
G1 E-0.8 F3600
G1 Z0.35 F36000
M204 S5000
G1 X137.722 Y139.095
G1 Z0.25
G1 E0.8 F3600
;TYPE:Skirt
;WIDTH:0.6
G1 F1800
G1 X135.069 Y141.721 E0.18866
G1 X129.27 Y147.66 E0.4195
G1 X128.726 Y148.356 E0.04464
G1 X128.227 Y149.221 E0.05048
G1 X127.7 Y150.772 E0.08279
G1 X127.577 Y151.643 E0.04449
G1 X127.677 Y153.397 E0.08876
G1 X127.935 Y154.362 E0.05048
G1 X128.66 Y155.831 E0.08279
G1 X129.53 Y156.904 E0.06982
G1 X143.466 Y170.811 E0.99503
G1 X144.828 Y171.721 E0.08279
G1 X145.638 Y172.065 E0.04448
G1 X147.358 Y172.423 E0.08877
G1 X149.111 Y172.323 E0.08876
G1 X150.076 Y172.065 E0.05048
G1 X151.545 Y171.34 E0.08279
G1 X152.573 Y170.514 E0.06665
G1 X164.931 Y158.279 E0.8789
G1 X170.73 Y152.34 E0.4195
G1 X171.274 Y151.644 E0.04464
G1 X171.773 Y150.779 E0.05048
G1 X172.3 Y149.228 E0.08279
G1 X172.423 Y148.357 E0.04448
G1 X172.323 Y146.603 E0.08876
G1 X172.065 Y145.638 E0.05047
G1 X171.34 Y144.169 E0.0828
G1 X170.47 Y143.096 E0.06982
G1 X156.534 Y129.189 E0.99503
G1 X155.831 Y128.66 E0.04448
G1 X154.362 Y127.935 E0.08279
G1 X153.397 Y127.677 E0.05048
G1 X152.523 Y127.57 E0.04448
G1 X150.889 Y127.677 E0.0828
G1 X149.924 Y127.935 E0.05047
G1 X148.455 Y128.66 E0.0828
G1 X147.427 Y129.486 E0.06665
G1 X137.775 Y139.042 E0.68645
G1 X138.159 Y139.43 F36000
G1 F1800
G1 X135.455 Y142.108 E0.19231
G1 X129.681 Y148.02 E0.41769
G1 X129.18 Y148.659 E0.04103
G1 X128.717 Y149.462 E0.04687
G1 X128.236 Y150.878 E0.07558
G1 X128.123 Y151.679 E0.04087
G1 X128.213 Y153.29 E0.08155
G1 X128.453 Y154.186 E0.04687
G1 X129.114 Y155.527 E0.07559
G1 X129.917 Y156.517 E0.06441
G1 X143.735 Y170.319 E0.98706
G1 X144.374 Y170.82 E0.04103
G1 X145.177 Y171.283 E0.04687
G1 X146.593 Y171.764 E0.07558
G1 X147.394 Y171.877 E0.04087
G1 X149.005 Y171.787 E0.08155
G1 X149.9 Y171.547 E0.04686
G1 X151.242 Y170.886 E0.07558
G1 X152.191 Y170.124 E0.06153
G1 X164.545 Y157.892 E0.8786
G1 X170.319 Y151.98 E0.41769
G1 X170.82 Y151.341 E0.04103
G1 X171.283 Y150.538 E0.04686
G1 X171.764 Y149.122 E0.07558
G1 X171.877 Y148.321 E0.04087
G1 X171.787 Y146.71 E0.08155
G1 X171.547 Y145.814 E0.04686
G1 X170.886 Y144.473 E0.07559
G1 X170.083 Y143.483 E0.06441
G1 X156.173 Y129.6 E0.99323
G1 X155.527 Y129.114 E0.04087
G1 X154.186 Y128.453 E0.07559
G1 X153.29 Y128.213 E0.04687
G1 X152.488 Y128.115 E0.04087
G1 X150.995 Y128.213 E0.07559
G1 X150.1 Y128.453 E0.04686
G1 X148.758 Y129.114 E0.07559
G1 X147.809 Y129.876 E0.06153
G1 X138.213 Y139.378 E0.6825
G1 E-0.08 F3600
;WIPE_START
G1 F28800
M204 S10000
G1 X142.306 Y135.325 E-0.684
;WIPE_END
G1 E-0.036 F3600
G1 Z0.35 F36000
; printing object chubefxd id:0 copy 0
EXCLUDE_OBJECT_START NAME=chubefxd_id_0_copy_0
; acceleration to travel
G1 X142.032 Y154.851
; decel to extrusion
M204 S5000
G1 X141.983 Y158.374
; end travel
G1 Z0.25
G1 E0.8 F3600
;TYPE:Internal perimeter
G1 F1800
G1 X142.005 Y158.393 E0.00148
G1 X142.234 Y158.556 E0.01424
G1 X142.481 Y158.693 E0.01425
G1 X142.742 Y158.801 E0.01425
G1 X143.012 Y158.879 E0.01425
G1 X143.29 Y158.926 E0.01425
G1 X143.572 Y158.942 E0.01425
G1 X143.853 Y158.926 E0.01425
G1 X144.131 Y158.879 E0.01425
G1 X144.402 Y158.801 E0.01425
G1 X144.662 Y158.693 E0.01425
G1 X144.909 Y158.556 E0.01424
G1 X145.139 Y158.393 E0.01425
G1 X145.349 Y158.206 E0.01425
G1 X145.537 Y157.995 E0.01425
G1 X145.7 Y157.766 E0.01425
G1 X145.836 Y157.519 E0.01425
G1 X145.944 Y157.258 E0.01425
G1 X146.022 Y156.988 E0.01425
G1 X146.069 Y156.71 E0.01425
G1 X146.085 Y156.428 E0.01424
G1 X146.069 Y156.147 E0.01424
G1 X146.022 Y155.869 E0.01425
G1 X145.944 Y155.598 E0.01425
G1 X145.836 Y155.338 E0.01425
G1 X145.761 Y155.201 E0.00787
G1 X145.7 Y155.091 E0.00638
G1 X145.537 Y154.861 E0.01425
G1 X145.349 Y154.651 E0.01425
G1 X145.139 Y154.463 E0.01425
G1 X144.909 Y154.3 E0.01425
G1 X144.662 Y154.164 E0.01424
G1 X144.402 Y154.056 E0.01425
G1 X144.131 Y153.978 E0.01425
G1 X143.853 Y153.931 E0.01425
G1 X143.572 Y153.915 E0.01425
G1 X143.29 Y153.931 E0.01425
G1 X143.012 Y153.978 E0.01425
G1 X142.742 Y154.056 E0.01425
G1 X142.481 Y154.164 E0.01425
G1 X142.232 Y154.301 E0.01439
G1 X141.986 Y154.48 E0.01537
G1 X141.794 Y154.651 E0.01297
G1 X141.607 Y154.861 E0.01425
G1 X141.444 Y155.091 E0.01425
G1 X141.307 Y155.338 E0.01424
G1 X141.199 Y155.598 E0.01425
G1 X141.121 Y155.869 E0.01425
G1 X141.074 Y156.147 E0.01425
G1 X141.058 Y156.428 E0.01425
G1 X141.074 Y156.71 E0.01425
G1 X141.121 Y156.988 E0.01425
G1 X141.199 Y157.258 E0.01425
G1 X141.307 Y157.519 E0.01425
G1 X141.444 Y157.765 E0.01424
G1 X141.607 Y157.995 E0.01425
G1 X141.794 Y158.206 E0.01425
G1 X141.927 Y158.324 E0.00898
G1 X142.351 Y157.969 F36000
;TYPE:External perimeter
G1 F1800
G1 X142.526 Y158.093 E0.01082
G1 X142.719 Y158.2 E0.01114
G1 X142.922 Y158.284 E0.01114
G1 X143.134 Y158.345 E0.01114
G1 X143.352 Y158.382 E0.01114
G1 X143.572 Y158.395 E0.01114
G1 X143.792 Y158.382 E0.01114
G1 X144.009 Y158.345 E0.01114
G1 X144.221 Y158.284 E0.01114
G1 X144.425 Y158.2 E0.01114
G1 X144.618 Y158.093 E0.01114
G1 X144.798 Y157.966 E0.01114
G1 X144.962 Y157.819 E0.01114
G1 X145.109 Y157.654 E0.01114
G1 X145.237 Y157.474 E0.01114
G1 X145.343 Y157.281 E0.01114
G1 X145.428 Y157.078 E0.01114
G1 X145.489 Y156.866 E0.01114
G1 X145.526 Y156.648 E0.01114
G1 X145.538 Y156.428 E0.01114
G1 X145.526 Y156.208 E0.01114
G1 X145.489 Y155.991 E0.01114
G1 X145.428 Y155.779 E0.01114
G1 X145.343 Y155.575 E0.01114
G1 X145.283 Y155.466 E0.00632
G1 X145.237 Y155.382 E0.00483
G1 X145.109 Y155.202 E0.01114
G1 X144.962 Y155.038 E0.01114
G1 X144.798 Y154.891 E0.01114
G1 X144.618 Y154.763 E0.01114
G1 X144.425 Y154.657 E0.01114
G1 X144.221 Y154.572 E0.01114
G1 X144.009 Y154.511 E0.01114
G1 X143.792 Y154.474 E0.01114
G1 X143.572 Y154.462 E0.01114
G1 X143.352 Y154.474 E0.01114
G1 X143.134 Y154.511 E0.01114
G1 X142.922 Y154.572 E0.01114
G1 X142.719 Y154.657 E0.01114
G1 X142.526 Y154.763 E0.01114
G1 X142.329 Y154.906 E0.01227
G1 X142.181 Y155.038 E0.01001
G1 X142.034 Y155.202 E0.01114
G1 X141.907 Y155.382 E0.01114
G1 X141.8 Y155.575 E0.01114
G1 X141.716 Y155.779 E0.01114
G1 X141.655 Y155.991 E0.01114
G1 X141.618 Y156.208 E0.01114
G1 X141.605 Y156.428 E0.01114
G1 X141.618 Y156.648 E0.01114
G1 X141.655 Y156.866 E0.01114
G1 X141.716 Y157.078 E0.01114
G1 X141.8 Y157.281 E0.01114
G1 X141.907 Y157.474 E0.01114
G1 X142.034 Y157.654 E0.01114
G1 X142.181 Y157.819 E0.01114
G1 X142.295 Y157.92 E0.00768
;WIPE_START
M204 S10000
G1 X142.286 Y158.465 F36000
;WIPE_END
G1 E-0.08 F3600
;WIPE_START
G1 F28800
G1 X142.61 Y158.425 E-0.03872
G1 X142.84 Y158.521 E-0.02952
G1 X143.079 Y158.589 E-0.02952
G1 X143.324 Y158.631 E-0.02952
G1 X143.572 Y158.645 E-0.02952
G1 X143.82 Y158.631 E-0.02952
G1 X144.065 Y158.589 E-0.02952
G1 X144.304 Y158.521 E-0.02952
G1 X144.534 Y158.425 E-0.02952
G1 X144.751 Y158.305 E-0.02952
G1 X144.954 Y158.161 E-0.02952
G1 X145.139 Y157.996 E-0.02952
G1 X145.305 Y157.81 E-0.02952
G1 X145.449 Y157.608 E-0.02952
G1 X145.569 Y157.39 E-0.02952
G1 X145.664 Y157.16 E-0.02952
G1 X145.733 Y156.922 E-0.02952
G1 X145.774 Y156.676 E-0.02952
G1 X145.788 Y156.428 E-0.02952
G1 X145.774 Y156.18 E-0.02952
G1 X145.733 Y155.935 E-0.02952
G1 X145.664 Y155.696 E-0.02952
G1 X145.582 Y155.499 E-0.02538
;WIPE_END
G1 E-0.036 F3600
G1 Z0.35 F36000
; acceleration to travel
G1 X156.559 Y144.242
; decel to extrusion
M204 S5000
G1 X158.54 Y142.211
; end travel
G1 Z0.25
G1 E0.8 F3600
;TYPE:Internal perimeter
G1 F1800
G1 X158.393 Y142.005 E0.01277
G1 X158.206 Y141.794 E0.01425
G1 X157.995 Y141.607 E0.01425
G1 X157.766 Y141.444 E0.01425
G1 X157.665 Y141.388 E0.00581
G1 X157.519 Y141.307 E0.00844
G1 X157.258 Y141.199 E0.01425
G1 X156.988 Y141.121 E0.01425
G1 X156.71 Y141.074 E0.01425
G1 X156.428 Y141.058 E0.01425
G1 X156.147 Y141.074 E0.01424
G1 X155.869 Y141.121 E0.01425
G1 X155.784 Y141.146 E0.00449
G1 X155.598 Y141.199 E0.00975
G1 X155.338 Y141.307 E0.01425
G1 X155.091 Y141.444 E0.01425
G1 X154.861 Y141.607 E0.01424
G1 X154.651 Y141.794 E0.01425
G1 X154.463 Y142.005 E0.01425
G1 X154.3 Y142.235 E0.01425
G1 X154.164 Y142.481 E0.01424
G1 X154.056 Y142.742 E0.01425
G1 X153.978 Y143.012 E0.01425
G1 X153.931 Y143.29 E0.01425
G1 X153.915 Y143.572 E0.01425
G1 X153.931 Y143.853 E0.01425
G1 X153.978 Y144.131 E0.01425
G1 X154.056 Y144.402 E0.01425
G1 X154.164 Y144.662 E0.01425
G1 X154.244 Y144.808 E0.00844
G1 X154.3 Y144.909 E0.00581
G1 X154.463 Y145.139 E0.01425
G1 X154.651 Y145.349 E0.01425
G1 X154.861 Y145.537 E0.01425
G1 X155.091 Y145.7 E0.01425
G1 X155.338 Y145.836 E0.01424
G1 X155.598 Y145.944 E0.01425
G1 X155.869 Y146.022 E0.01425
G1 X156.147 Y146.069 E0.01425
G1 X156.428 Y146.085 E0.01425
G1 X156.71 Y146.069 E0.01425
G1 X156.988 Y146.022 E0.01425
G1 X157.258 Y145.944 E0.01425
G1 X157.519 Y145.836 E0.01425
G1 X157.682 Y145.746 E0.00941
G1 X157.766 Y145.7 E0.00483
G1 X157.995 Y145.537 E0.01425
G1 X158.206 Y145.349 E0.01425
G1 X158.393 Y145.139 E0.01425
G1 X158.556 Y144.909 E0.01425
G1 X158.693 Y144.662 E0.01425
G1 X158.801 Y144.402 E0.01425
G1 X158.879 Y144.131 E0.01425
G1 X158.926 Y143.853 E0.01425
G1 X158.942 Y143.572 E0.01425
G1 X158.926 Y143.29 E0.01425
G1 X158.879 Y143.012 E0.01425
G1 X158.801 Y142.742 E0.01425
G1 X158.693 Y142.481 E0.01425
G1 X158.579 Y142.275 E0.01193
G1 X158.093 Y142.526 F36000
;TYPE:External perimeter
G1 F1800
G1 X157.966 Y142.346 E0.01114
G1 X157.819 Y142.181 E0.01114
G1 X157.654 Y142.034 E0.01114
G1 X157.474 Y141.907 E0.01114
G1 X157.401 Y141.866 E0.00426
G1 X157.281 Y141.8 E0.00689
G1 X157.078 Y141.716 E0.01114
G1 X156.866 Y141.655 E0.01114
G1 X156.648 Y141.618 E0.01114
G1 X156.428 Y141.605 E0.01114
G1 X156.208 Y141.618 E0.01114
G1 X155.991 Y141.655 E0.01114
G1 X155.935 Y141.671 E0.00294
G1 X155.779 Y141.716 E0.0082
G1 X155.575 Y141.8 E0.01114
G1 X155.382 Y141.907 E0.01114
G1 X155.202 Y142.034 E0.01114
G1 X155.038 Y142.181 E0.01114
G1 X154.891 Y142.346 E0.01114
G1 X154.763 Y142.526 E0.01114
G1 X154.657 Y142.719 E0.01114
G1 X154.572 Y142.922 E0.01114
G1 X154.511 Y143.134 E0.01114
G1 X154.474 Y143.352 E0.01114
G1 X154.462 Y143.572 E0.01114
G1 X154.474 Y143.792 E0.01114
G1 X154.511 Y144.009 E0.01114
G1 X154.572 Y144.221 E0.01114
G1 X154.657 Y144.425 E0.01114
G1 X154.723 Y144.544 E0.00689
G1 X154.763 Y144.618 E0.00426
G1 X154.891 Y144.798 E0.01114
G1 X155.038 Y144.962 E0.01114
G1 X155.202 Y145.109 E0.01114
G1 X155.382 Y145.237 E0.01114
G1 X155.575 Y145.343 E0.01114
G1 X155.779 Y145.428 E0.01114
G1 X155.991 Y145.489 E0.01114
G1 X156.208 Y145.526 E0.01114
G1 X156.428 Y145.538 E0.01114
G1 X156.648 Y145.526 E0.01114
G1 X156.866 Y145.489 E0.01114
G1 X157.078 Y145.428 E0.01114
G1 X157.281 Y145.343 E0.01114
G1 X157.418 Y145.268 E0.00786
G1 X157.474 Y145.237 E0.00328
G1 X157.654 Y145.109 E0.01114
G1 X157.819 Y144.962 E0.01114
G1 X157.966 Y144.798 E0.01114
G1 X158.093 Y144.618 E0.01114
G1 X158.2 Y144.425 E0.01114
G1 X158.284 Y144.221 E0.01114
G1 X158.345 Y144.009 E0.01114
G1 X158.382 Y143.792 E0.01114
G1 X158.395 Y143.572 E0.01114
G1 X158.382 Y143.352 E0.01114
G1 X158.345 Y143.134 E0.01114
G1 X158.284 Y142.922 E0.01114
G1 X158.2 Y142.719 E0.01114
G1 X158.129 Y142.591 E0.00735
;WIPE_START
M204 S10000
G1 X158.318 Y142.079 F36000
;WIPE_END
G1 E-0.08 F3600
;WIPE_START
G1 F28800
G1 X157.996 Y142.004 E-0.03935
G1 X157.81 Y141.839 E-0.02952
G1 X157.608 Y141.695 E-0.02952
G1 X157.522 Y141.647 E-0.01167
G1 X157.39 Y141.575 E-0.01785
G1 X157.16 Y141.479 E-0.02952
G1 X156.921 Y141.411 E-0.02952
G1 X156.676 Y141.369 E-0.02952
G1 X156.428 Y141.355 E-0.02952
G1 X156.18 Y141.369 E-0.02952
G1 X155.935 Y141.411 E-0.02952
G1 X155.866 Y141.431 E-0.00858
G1 X155.696 Y141.479 E-0.02094
G1 X155.466 Y141.575 E-0.02952
G1 X155.249 Y141.695 E-0.02952
G1 X155.046 Y141.839 E-0.02952
G1 X154.861 Y142.004 E-0.02952
G1 X154.695 Y142.19 E-0.02952
G1 X154.551 Y142.392 E-0.02952
G1 X154.431 Y142.61 E-0.02952
G1 X154.336 Y142.84 E-0.02952
G1 X154.267 Y143.079 E-0.02952
G1 X154.226 Y143.324 E-0.02952
G1 X154.212 Y143.572 E-0.02952
G1 X154.223 Y143.78 E-0.02475
;WIPE_END
G1 E-0.036 F3600
G1 Z0.35 F36000
; acceleration to travel
G1 X148.935 Y145.822
; decel to extrusion
M204 S5000
G1 X147.98 Y146.191
; end travel
G1 Z0.25
G1 E0.8 F3600
;TYPE:Internal perimeter
G1 F1800
G1 X147.916 Y146.223 E0.00361
G1 X147.572 Y146.434 E0.02044
G1 X147.249 Y146.677 E0.02044
G1 X146.95 Y146.95 E0.02044
G1 X146.677 Y147.249 E0.02044
G1 X146.434 Y147.572 E0.02044
G1 X146.223 Y147.916 E0.02044
G1 X146.044 Y148.279 E0.02044
G1 X145.9 Y148.657 E0.02044
G1 X145.793 Y149.047 E0.02044
G1 X145.722 Y149.445 E0.02044
G1 X145.687 Y149.864 E0.02122
G1 X145.702 Y150.331 E0.02361
G1 X145.736 Y150.655 E0.01648
G1 X145.816 Y151.051 E0.02044
G1 X145.933 Y151.438 E0.02044
G1 X146.085 Y151.813 E0.02044
G1 X146.272 Y152.172 E0.02044
G1 X146.492 Y152.511 E0.02044
G1 X146.743 Y152.829 E0.02044
G1 X147.022 Y153.121 E0.02044
G1 X147.327 Y153.386 E0.02044
G1 X147.656 Y153.622 E0.02044
G1 X148.006 Y153.825 E0.02044
G1 X148.372 Y153.995 E0.02044
G1 X148.754 Y154.13 E0.02044
G1 X149.146 Y154.229 E0.02044
G1 X149.546 Y154.29 E0.02044
G1 X149.949 Y154.314 E0.02044
G1 X150.354 Y154.299 E0.02044
G1 X150.755 Y154.247 E0.02044
G1 X151.149 Y154.158 E0.02044
G1 X151.533 Y154.032 E0.02044
G1 X151.904 Y153.871 E0.02044
G1 X152.258 Y153.676 E0.02044
G1 X152.593 Y153.448 E0.02044
G1 X152.904 Y153.19 E0.02044
G1 X153.19 Y152.904 E0.02044
G1 X153.448 Y152.593 E0.02044
G1 X153.676 Y152.258 E0.02044
G1 X153.871 Y151.904 E0.02044
G1 X154.032 Y151.533 E0.02044
G1 X154.158 Y151.149 E0.02044
G1 X154.247 Y150.755 E0.02044
G1 X154.299 Y150.354 E0.02044
