; generated by SuperSlicer 2.5.59 on 2022-12-02 at 02:19:46 UTC


;
;

;
;
; 

; external perimeters extrusion width = 0.50mm
; perimeters extrusion width = 0.50mm
; infill extrusion width = 0.60mm
; solid infill extrusion width = 0.60mm
; top infill extrusion width = 0.50mm

; object:{"name":"Cleaning adaptor SL1S","id":"Cleaning adaptor SL1S.stl id:0 copy 0","object_center":[150.000000,150.000000,0.000000],"boundingbox_center":[150.000000,150.000000,10.000000],"boundingbox_size":[55.926219,43.905447,20.000000]}
; plater:{"center":[150.000000,150.000000,0.000000],"boundingbox_center":[150.000000,150.000000,10.000000],"boundingbox_size":[55.926219,43.905447,20.000000]}

;TYPE:Custom
PRINT_START EXTRUDER=265 BED=105


; Pre-Processed for Cancel-Object support by preprocess_cancellation v0.2.0
; 1 known objects
EXCLUDE_OBJECT_DEFINE NAME=Cleaning_adaptor_SL1S_stl_id_0_copy_0 CENTER=154.381,149.911 POLYGON=[[165.216,128.076],[164.721,128.12],[164.185,128.274],[163.691,128.531],[163.245,128.894],[122.004,170.135],[122.004,171.572],[122.357,171.924],[123.836,171.882],[153.119,166.725],[153.223,166.673],[153.513,166.475],[153.86,166.143],[177.177,142.826],[177.541,142.379],[177.72,142.062],[177.898,141.584],[177.988,141.055],[177.971,140.486],[177.839,139.935],[177.645,139.512],[177.386,139.118],[167.011,128.734],[166.605,128.448],[166.133,128.231],[165.568,128.098],[165.216,128.076]]
M107
G21 ; set units to millimeters
G90 ; use absolute coordinates
M83 ; use relative distances for extrusion
SET_PRESSURE_ADVANCE SMOOTH_TIME=0.03
SET_PRESSURE_ADVANCE ADVANCE=0.045
;_TOOLCHANGE 0
M104 S265 ; set temperature
M109 S265 ; set temperature and wait for it to be reached
M190 S105 ; set bed temperature and wait for it to be reached
M107
;LAYER_CHANGE
;Z:0.2
;HEIGHT:0.2
;BEFORE_LAYER_CHANGE
;0.2


G1 Z0.2 F24000
;AFTER_LAYER_CHANGE
;0.2
G92 E0
G1 E-0.6 F2400
M204 S5000
G1 X142.753 Y142.537 F24000
G1 E0.6 F2400
;TYPE:Skirt
;WIDTH:0.48
G1 F1800
G1 X121.88 Y163.442 E1.00923
G1 X120.817 Y165.012 E0.06478
G1 X120.094 Y167.966 E0.10387
G1 X120.557 Y170.032 E0.07235
G1 X121.748 Y171.783 E0.07235
G1 X122.146 Y172.181 E0.01922
G1 X123.114 Y172.957 E0.04238
G1 X125.082 Y173.737 E0.07235
G1 X127.2 Y173.738 E0.07235
G1 X157.572 Y167.969 E1.05613
G1 X158.764 Y167.602 E0.04262
G1 X160.515 Y166.412 E0.07235
G1 X180.92 Y145.986 E0.98631
G1 X181.599 Y145.113 E0.03779
G1 X182.17 Y144.101 E0.03969
G1 X182.685 Y141.559 E0.08861
G1 X182.223 Y139.493 E0.07235
G1 X181.033 Y137.741 E0.07235
G1 X168.434 Y125.141 E0.60872
G1 X166.218 Y123.778 E0.08886
G1 X164.119 Y123.501 E0.07235
G1 X162.065 Y124.015 E0.07235
G1 X161.057 Y124.586 E0.03956
G1 X160.189 Y125.262 E0.03758
G1 X142.86 Y142.429 E0.83333
G1 X142.795 Y142.494 E0.00314
G1 X143.105 Y142.803 F24000
G1 F1800
G1 X122.2 Y163.739 E1.01073
G1 X121.198 Y165.227 E0.06127
G1 X120.528 Y167.79 E0.09051
G1 X120.927 Y169.784 E0.06947
G1 X122.057 Y171.474 E0.06947
G1 X122.455 Y171.872 E0.01922
G1 X125.085 Y173.292 E0.10212
G1 X127.119 Y173.309 E0.06947
G1 X157.49 Y167.54 E1.05613
G1 X158.516 Y167.233 E0.03658
G1 X160.206 Y166.103 E0.06947
G1 X180.589 Y145.701 E0.98523
G1 X181.231 Y144.877 E0.03566
G1 X181.773 Y143.919 E0.03762
G1 X182.25 Y141.735 E0.07637
G1 X181.853 Y139.741 E0.06947
G1 X180.724 Y138.05 E0.06947
G1 X168.125 Y125.451 E0.60869
G1 X166.234 Y124.246 E0.07661
G1 X164.225 Y123.933 E0.06947
G1 X162.248 Y124.412 E0.06947
G1 X161.293 Y124.953 E0.0375
G1 X160.475 Y125.592 E0.03546
G1 X143.169 Y142.738 E0.83226
G1 X143.147 Y142.76 E0.00108
G1 E-0.06 F2400
;WIPE_START
G1 F19200
G1 X140.095 Y145.817 E-0.513
;WIPE_END
G1 E-0.027 F2400
; printing object Cleaning adaptor SL1S.stl id:0 copy 0
EXCLUDE_OBJECT_START NAME=Cleaning_adaptor_SL1S_stl_id_0_copy_0
G1 X152.694 Y152.55 F24000
G1 E0.6 F2400
;TYPE:Internal perimeter
;WIDTH:0.5
G1 F1800
G1 X149.751 Y147.454 E0.21021
G1 X149.175 Y146.528 E0.03897
G1 X149.474 Y146.247 E0.01464
G1 X164.362 Y131.36 E0.75219
G1 X174.819 Y141.818 E0.52835
G1 X156.864 Y159.772 E0.90715
G1 X152.724 Y152.601 E0.29582
G1 X152.298 Y152.778 F24000
G1 F1800
G1 X149.359 Y147.689 E0.20994
G1 X148.792 Y146.777 E0.03839
G1 X148.561 Y146.478 E0.01349
G1 X149.156 Y145.919 E0.02915
G1 X164.362 Y130.713 E0.76826
G1 X175.465 Y141.818 E0.561
G1 X156.766 Y160.517 E0.94476
G1 X152.328 Y152.83 E0.3171
G1 X151.902 Y153.007 F24000
G1 F1800
G1 X148.967 Y147.924 E0.20967
G1 X148.416 Y147.037 E0.0373
G1 X147.946 Y146.428 E0.02749
G1 X148.095 Y146.3 E0.00703
G1 X148.838 Y145.591 E0.03669
G1 X164.362 Y130.067 E0.78434
G1 X176.111 Y141.818 E0.59366
G1 X156.668 Y161.261 E0.98237
G1 X151.932 Y153.059 E0.33839
G1 E-0.06 F2400
;WIPE_START
G1 F19200
G1 X149.772 Y149.317 E-0.513
;WIPE_END
G1 E-0.027 F2400
G1 X126.176 Y167.86 F24000
G1 E0.6 F2400
;TYPE:External perimeter
G1 F1800
G1 X126.069 Y167.753 E0.00542
G1 X126.126 Y167.641 E0.00425
G1 X126.235 Y167.43 E0.00827
G1 X126.541 Y167.1 E0.01608
G1 X147.029 Y146.612 E1.03517
G1 X147.788 Y145.961 E0.03572
G1 X148.518 Y145.264 E0.03607
G1 X164.062 Y129.72 E0.78534
G1 X164.264 Y129.545 E0.00953
G1 X164.403 Y129.462 E0.00579
G1 X164.492 Y129.55 E0.00421
G1 X164.536 Y129.594 E0.00199
G1 X176.717 Y141.777 E0.61547
G1 X176.652 Y141.884 E0.0042
G1 X176.635 Y141.913 E0.00097
G1 X176.459 Y142.117 E0.00961
G1 X156.57 Y162.006 E1.00487
G1 X156.507 Y161.897 E0.00363
G1 X156.382 Y161.681 E0.0081
G1 X148.575 Y148.159 E0.55782
G1 X148.04 Y147.298 E0.03621
G1 X147.551 Y146.665 E0.02857
G1 X147.463 Y146.754 E0.00383
G1 X147.286 Y146.93 E0.0083
G1 X126.829 Y167.388 E1.03361
G1 X126.499 Y167.694 E0.01608
G1 X126.23 Y167.833 E0.01081
;WIPE_START
M204 S10000
G1 X126.113 Y167.465 F24000
;WIPE_END
G1 E-0.06 F2400
;WIPE_START
G1 F19200
M204 S5000
G1 X126.685 Y167.239 E-0.07299
G1 X129.305 Y164.619 E-0.44001
;WIPE_END
G1 E-0.027 F2400
G1 X163.565 Y132.232 F24000
G1 E0.6 F2400
;TYPE:Solid infill
;WIDTH:0.6
G1 F3000
G1 X164.819 Y132.232 E0.05463
G1 X165.376 Y132.789 E0.0343
G1 X163.346 Y132.789 E0.08841
G1 X162.788 Y133.346 E0.03432
G1 X165.933 Y133.346 E0.13695
G1 X166.49 Y133.903 E0.0343
G1 X162.23 Y133.903 E0.18549
G1 X161.673 Y134.46 E0.03432
G1 X167.047 Y134.46 E0.23403
G1 X167.604 Y135.017 E0.0343
G1 X161.115 Y135.017 E0.28257
G1 X160.557 Y135.574 E0.03432
G1 X168.162 Y135.574 E0.33111
G1 X168.719 Y136.131 E0.0343
G1 X159.999 Y136.131 E0.37965
G1 X159.442 Y136.688 E0.03432
G1 X169.276 Y136.688 E0.42819
G1 X169.833 Y137.245 E0.0343
G1 X158.884 Y137.245 E0.47673
G1 X158.326 Y137.802 E0.03432
G1 X170.39 Y137.802 E0.52527
G1 X170.947 Y138.36 E0.0343
G1 X157.768 Y138.36 E0.57381
G1 X157.211 Y138.917 E0.03432
G1 X171.504 Y138.917 E0.62235
G1 X172.061 Y139.474 E0.0343
G1 X156.653 Y139.474 E0.67089
G1 X156.095 Y140.031 E0.03432
G1 X172.618 Y140.031 E0.71943
G1 X173.175 Y140.588 E0.0343
G1 X155.537 Y140.588 E0.76797
G1 X154.979 Y141.145 E0.03432
G1 X173.732 Y141.145 E0.81651
G1 X174.289 Y141.702 E0.0343
G1 X154.422 Y141.702 E0.86505
G1 X153.864 Y142.259 E0.03432
G1 X173.963 Y142.259 E0.87514
G1 X173.406 Y142.816 E0.0343
G1 X153.306 Y142.816 E0.87517
G1 X152.748 Y143.373 E0.03432
G1 X172.849 Y143.373 E0.8752
G1 X172.291 Y143.93 E0.0343
G1 X152.191 Y143.93 E0.87523
G1 X151.633 Y144.487 E0.03432
G1 X171.734 Y144.487 E0.87526
G1 X171.177 Y145.045 E0.0343
G1 X151.075 Y145.045 E0.87529
G1 X150.517 Y145.602 E0.03432
G1 X170.62 Y145.602 E0.87532
G1 X170.063 Y146.159 E0.0343
G1 X149.96 Y146.159 E0.87535
G1 X149.542 Y146.576 E0.0257
G1 X149.623 Y146.716 E0.00705
G1 X169.506 Y146.716 E0.86574
G1 X168.949 Y147.273 E0.0343
G1 X149.947 Y147.273 E0.8274
G1 X150.27 Y147.83 E0.02805
G1 X168.392 Y147.83 E0.78906
G1 X167.835 Y148.387 E0.0343
G1 X150.593 Y148.387 E0.75072
G1 X150.917 Y148.944 E0.02805
G1 X167.278 Y148.944 E0.71239
G1 X166.721 Y149.501 E0.0343
G1 X151.24 Y149.501 E0.67405
G1 X151.564 Y150.058 E0.02805
G1 X166.164 Y150.058 E0.63571
G1 X165.606 Y150.615 E0.0343
G1 X151.887 Y150.615 E0.59738
G1 X152.21 Y151.172 E0.02805
G1 X165.049 Y151.172 E0.55904
G1 X164.492 Y151.729 E0.0343
G1 X152.534 Y151.729 E0.5207
G1 X152.857 Y152.287 E0.02805
G1 X163.935 Y152.287 E0.48236
G1 X163.378 Y152.844 E0.0343
G1 X153.181 Y152.844 E0.44403
G1 X153.504 Y153.401 E0.02805
G1 X162.821 Y153.401 E0.40569
G1 X162.264 Y153.958 E0.0343
G1 X153.827 Y153.958 E0.36735
G1 X154.151 Y154.515 E0.02805
G1 X161.707 Y154.515 E0.32901
G1 X161.15 Y155.072 E0.0343
G1 X154.474 Y155.072 E0.29068
G1 X154.798 Y155.629 E0.02805
G1 X160.593 Y155.629 E0.25234
G1 X160.036 Y156.186 E0.0343
G1 X155.121 Y156.186 E0.214
G1 X155.444 Y156.743 E0.02805
G1 X159.479 Y156.743 E0.17566
G1 X158.922 Y157.3 E0.0343
G1 X155.768 Y157.3 E0.13733
G1 X156.091 Y157.857 E0.02805
G1 X158.364 Y157.857 E0.09899
G1 X157.807 Y158.414 E0.0343
G1 X156.414 Y158.414 E0.06065
G1 X156.738 Y158.971 E0.02805
G1 X157.589 Y158.971 E0.03706
;LAYER_CHANGE
;Z:0.4
;HEIGHT:0.2
;BEFORE_LAYER_CHANGE
;0.4


; stop printing object Cleaning adaptor SL1S.stl id:0 copy 0
EXCLUDE_OBJECT_END NAME=Cleaning_adaptor_SL1S_stl_id_0_copy_0
M204 S10000
G1 Z0.4 F24000
;AFTER_LAYER_CHANGE
;0.4
G92 E0
M104 S260 ; set temperature
; printing object Cleaning adaptor SL1S.stl id:0 copy 0
EXCLUDE_OBJECT_START NAME=Cleaning_adaptor_SL1S_stl_id_0_copy_0
G1 X156.97 Y159.376
;TYPE:Internal perimeter
;WIDTH:0.5
G1 F12000
G1 X149.527 Y146.484 E0.53181
G1 X164.609 Y131.403 E0.76199
G1 X174.776 Y141.57 E0.51369
G1 X157.013 Y159.333 E0.89748
G1 X156.872 Y160.12 F24000
G1 F12000
G1 X148.956 Y146.409 E0.56563
G1 X164.609 Y130.756 E0.79085
G1 X175.423 Y141.57 E0.54635
G1 X156.915 Y160.078 E0.93509
G1 X156.774 Y160.865 F24000
G1 F12000
G1 X148.385 Y146.334 E0.59944
G1 X164.609 Y130.11 E0.81971
G1 X176.069 Y141.57 E0.57901
G1 X156.817 Y160.822 E0.9727
G1 X156.676 Y161.609 F24000
G1 F12000
G1 X147.814 Y146.259 E0.63325
G1 X164.197 Y129.875 E0.82775
G1 X164.369 Y129.727 E0.00811
G1 X164.541 Y129.616 E0.00732
G1 X164.686 Y129.549 E0.00572
;TYPE:Overhang perimeter
G1 F1800
G1 X164.692 Y129.546 E0.00022
G1 X176.632 Y141.487 E0.6033
;TYPE:Internal perimeter
G1 F12000
G1 X176.564 Y141.635 E0.00582
G1 X176.453 Y141.809 E0.00738
G1 X176.303 Y141.982 E0.00817
G1 X156.719 Y161.567 E0.98949
G1 X156.578 Y162.354 F24000
;TYPE:Overhang perimeter
;WIDTH:0.4
;HEIGHT:0.4
G1 F1800
G1 X156.55 Y162.305 E0.00275
;WIDTH:0.5
;HEIGHT:0.2

G1 X148.352 Y148.105 E0.58578
G1 X148.012 Y147.517 E0.02429
G1 X147.611 Y146.821 E0.02869
G1 X147.546 Y146.885 E0.00325
G1 X126.937 Y167.495 E1.04128
G1 X126.594 Y167.812 E0.01668
G1 X126.547 Y167.85 E0.00215
G1 X126.412 Y167.957 E0.00615
G1 X126.237 Y168.096 E0.00799
;WIDTH:0.4
;HEIGHT:0.4

G1 X125.837 Y168.37 E0.0238
G1 X125.582 Y168.518 E0.01452
G1 X125.41 Y168.347 E0.01192
G1 X125.559 Y168.091 E0.01452
G1 X125.827 Y167.699 E0.02332
G1 X125.972 Y167.517 E0.01147
;WIDTH:0.5
;HEIGHT:0.2

G1 X126.079 Y167.382 E0.00615
G1 X126.117 Y167.335 E0.00215
G1 X126.434 Y166.992 E0.01668
G1 X147.009 Y146.417 E1.03952
G1 X147.667 Y145.759 E0.03328
;WIDTH:0.4
;HEIGHT:0.4

G1 X163.885 Y129.541 E1.12638
G1 X164.094 Y129.36 E0.01355
G1 X164.32 Y129.215 E0.01321
G1 X164.566 Y129.101 E0.01331
G1 X164.823 Y129.031 E0.01306
G1 X165.035 Y129.242 E0.01471

G1 X177.148 Y141.357 E0.84132
G1 X177.081 Y141.607 E0.01273
G1 X176.966 Y141.855 E0.01343
G1 X176.82 Y142.083 E0.01331
G1 X176.638 Y142.294 E0.01365
G1 X156.621 Y162.311 E1.39026
G1 X147.605 Y146.318 F24000
;TYPE:Gap fill
;WIDTH:0.332951
;HEIGHT:0.2
G1 F12000
G1 X147.501 Y146.428 E0.00343
G1 X137.096 Y156.833 E0.33359
G1 X126.69 Y167.239 E0.33359
G1 X126.532 Y167.397 E0.00507
;WIDTH:0.298684
G1 X126.374 Y167.555 E0.00447
G1 X126.216 Y167.713 E0.00445
;WIDTH:0.197451
G1 X126.059 Y167.87 E0.00269
;WIDTH:0.150186
G1 X125.95 Y167.979 E0.00129
G1 E-0.06 F2400
;WIPE_START
G1 F19200
G1 X126.059 Y167.87 E-0.0183
;WIPE_END
G1 E-0.5217 F2400
G1 X173.904 Y142.366 F24000
G1 E0.6 F2400
;TYPE:Solid infill
;WIDTH:0.6
G1 F16155.679
G1 X173.904 Y141.113 E0.05459
G1 X173.347 Y140.555 E0.0343
G1 X173.347 Y142.585 E0.08836
G1 X172.79 Y143.142 E0.0343
G1 X172.79 Y139.998 E0.13687
G1 X172.233 Y139.441 E0.0343
G1 X172.233 Y143.699 E0.18539
G1 X171.676 Y144.256 E0.0343
G1 X171.676 Y138.884 E0.2339
G1 X171.119 Y138.327 E0.0343
G1 X171.119 Y144.813 E0.28242
G1 X170.562 Y145.37 E0.0343
G1 X170.562 Y137.77 E0.33093
G1 X170.005 Y137.213 E0.0343
G1 X170.005 Y145.927 E0.37944
G1 X169.447 Y146.484 E0.0343
G1 X169.447 Y136.656 E0.42796
G1 X168.89 Y136.099 E0.0343
G1 X168.89 Y147.041 E0.47647
G1 X168.333 Y147.598 E0.0343
G1 X168.333 Y135.541 E0.52499
G1 X167.776 Y134.984 E0.0343
G1 X167.776 Y148.156 E0.5735
G1 X167.219 Y148.713 E0.0343
G1 X167.219 Y134.427 E0.62202
G1 X166.662 Y133.87 E0.0343
G1 X166.662 Y149.27 E0.67053
G1 X166.105 Y149.827 E0.0343
G1 X166.105 Y133.313 E0.71905
G1 X165.548 Y132.756 E0.0343
G1 X165.548 Y150.384 E0.76756
G1 X164.991 Y150.941 E0.0343
G1 X164.991 Y132.199 E0.81607
G1 X164.609 Y131.817 E0.0235
G1 X164.434 Y131.992 E0.0108
G1 X164.434 Y151.498 E0.84932
G1 X163.877 Y152.055 E0.0343
G1 X163.877 Y132.549 E0.84932
G1 X163.32 Y133.107 E0.0343
G1 X163.32 Y152.612 E0.84932
G1 X162.763 Y153.169 E0.0343
G1 X162.763 Y133.664 E0.84932
G1 X162.205 Y134.221 E0.0343
G1 X162.205 Y153.726 E0.84932
G1 X161.648 Y154.283 E0.0343
G1 X161.648 Y134.778 E0.84932
G1 X161.091 Y135.335 E0.0343
G1 X161.091 Y154.84 E0.84932
G1 X160.534 Y155.398 E0.0343
G1 X160.534 Y135.892 E0.84932
G1 X159.977 Y136.449 E0.0343
G1 X159.977 Y155.955 E0.84932
G1 X159.42 Y156.512 E0.0343
G1 X159.42 Y137.006 E0.84932
G1 X158.863 Y137.563 E0.0343
G1 X158.863 Y157.069 E0.84932
G1 X158.306 Y157.626 E0.0343
G1 X158.306 Y138.12 E0.84932
G1 X157.749 Y138.677 E0.0343
G1 X157.749 Y158.183 E0.84932
G1 X157.192 Y158.74 E0.0343
G1 X157.192 Y139.234 E0.84932
G1 X156.635 Y139.792 E0.0343
G1 X156.635 Y158.208 E0.8019
G1 X156.078 Y157.243 E0.04851
G1 X156.078 Y140.349 E0.73563
G1 X155.521 Y140.906 E0.0343
G1 X155.521 Y156.278 E0.66936
G1 X154.963 Y155.314 E0.04851
G1 X154.963 Y141.463 E0.60309
G1 X154.406 Y142.02 E0.0343
G1 X154.406 Y154.349 E0.53682
G1 X153.849 Y153.384 E0.04851
G1 X153.849 Y142.577 E0.47055
G1 X153.292 Y143.134 E0.0343
G1 X153.292 Y152.419 E0.40429
G1 X152.735 Y151.454 E0.04851
G1 X152.735 Y143.691 E0.33802
G1 X152.178 Y144.248 E0.0343
G1 X152.178 Y150.489 E0.27175
G1 X151.621 Y149.524 E0.04851
G1 X151.621 Y144.805 E0.20548
G1 X151.064 Y145.362 E0.0343
G1 X151.064 Y148.559 E0.13921
G1 X150.507 Y147.594 E0.04851
G1 X150.507 Y145.919 E0.07294
G1 X149.95 Y146.476 E0.0343
G1 X149.95 Y147.109 E0.02753
;LAYER_CHANGE
;Z:0.6
;HEIGHT:0.2
;BEFORE_LAYER_CHANGE
;0.6


; stop printing object Cleaning adaptor SL1S.stl id:0 copy 0
EXCLUDE_OBJECT_END NAME=Cleaning_adaptor_SL1S_stl_id_0_copy_0
G1 Z0.6 F24000
;AFTER_LAYER_CHANGE
;0.6
G92 E0
; printing object Cleaning adaptor SL1S.stl id:0 copy 0
EXCLUDE_OBJECT_START NAME=Cleaning_adaptor_SL1S_stl_id_0_copy_0
G1 X149.363 Y147.447
;TYPE:Internal perimeter
;WIDTH:0.5
G1 F12000
G1 X148.704 Y146.305 E0.04712
G1 X164.72 Y130.289 E0.80918
G1 X166.065 Y131.632 E0.06791
G1 X175.889 Y141.461 E0.49645
G1 X156.881 Y160.468 E0.96035
G1 X149.393 Y147.499 E0.53501
G1 X148.997 Y147.728 F24000
G1 F12000
G1 X148.133 Y146.23 E0.06179
G1 X164.332 Y130.031 E0.81845
G1 X164.47 Y129.911 E0.00655
G1 X164.595 Y129.831 E0.00528
G1 X164.808 Y129.732 E0.0084
G1 X166.388 Y131.308 E0.07975
G1 X176.446 Y141.372 E0.5083
G1 X176.349 Y141.582 E0.00828
G1 X176.269 Y141.708 E0.00532
G1 X176.148 Y141.848 E0.0066
G1 X156.783 Y161.213 E0.9784
G1 X149.027 Y147.78 E0.55414
G1 X148.632 Y148.008 F24000
G1 F12000
G1 X147.561 Y146.155 E0.07647
G1 X164.02 Y129.696 E0.83156
G1 X164.196 Y129.544 E0.0083
G1 X164.374 Y129.429 E0.00757
G1 X164.575 Y129.336 E0.00792
G1 X164.792 Y129.269 E0.00811
G1 X164.966 Y129.244 E0.00628
G1 X166.712 Y130.985 E0.0881
G1 X176.936 Y141.215 E0.5167
G1 X176.912 Y141.38 E0.00595
G1 X176.845 Y141.599 E0.0082
G1 X176.751 Y141.802 E0.00799
G1 X176.636 Y141.982 E0.00763
G1 X176.483 Y142.159 E0.00836
G1 X156.685 Y161.957 E1.00028
G1 X148.662 Y148.06 E0.57328
G1 X148.266 Y148.289 F24000
;TYPE:Overhang perimeter
G1 F1800
G1 X147.619 Y147.169 E0.04619
G1 X147.596 Y147.192 E0.00116
;WIDTH:0.4
;HEIGHT:0.4

