; generated by SuperSlicer 2.5.59 on 2022-10-12 at 05:57:42 UTC


;
;

;
;
; 

; external perimeters extrusion width = 0.63mm
; perimeters extrusion width = 0.68mm
; infill extrusion width = 0.84mm
; solid infill extrusion width = 0.84mm
; top infill extrusion width = 0.60mm
; first layer extrusion width = 0.80mm

; external perimeters extrusion width = 0.63mm
; perimeters extrusion width = 0.68mm
; infill extrusion width = 0.84mm
; solid infill extrusion width = 0.84mm
; top infill extrusion width = 0.60mm
; first layer extrusion width = 0.80mm

; object:{"name":"Cover_Angled","id":"Cover_Angled.stl id:0 copy 0","object_center":[150.000000,150.000000,0.000000],"boundingbox_center":[150.000000,150.000000,2.750000],"boundingbox_size":[38.303095,38.303095,5.500000]}
; object:{"name":"Cover_Angled","id":"Cover_Angled.stl id:1 copy 0","object_center":[165.000000,165.000000,0.000000],"boundingbox_center":[165.000000,165.000000,2.750000],"boundingbox_size":[38.303095,38.303095,5.500000]}
; plater:{"center":[157.500000,157.500000,0.000000],"boundingbox_center":[157.500000,157.500000,2.750000],"boundingbox_size":[53.303095,53.303095,5.500000]}

;TYPE:Custom
PRINT_START EXTRUDER=255 BED=115


; Pre-Processed for Cancel-Object support by preprocess_cancellation v0.2.0
; 2 known objects
EXCLUDE_OBJECT_DEFINE NAME=Cover_Angled_stl_id_0_copy_0 CENTER=150.694,149.319 POLYGON=[[159.735,131.163],[159.228,131.215],[158.506,131.416],[157.831,131.764],[157.237,132.248],[132.248,157.237],[131.768,157.826],[131.518,158.27],[131.334,158.739],[131.215,159.228],[131.164,159.976],[131.217,160.482],[131.337,160.972],[131.813,162.101],[132.523,163.377],[133.073,164.181],[133.681,164.942],[134.344,165.656],[135.058,166.319],[135.819,166.927],[136.623,167.477],[137.465,167.966],[138.342,168.391],[139.033,168.665],[139.767,168.818],[140.276,168.836],[140.605,168.805],[141.261,168.667],[141.954,168.366],[142.375,168.09],[142.763,167.752],[167.752,142.763],[168.236,142.169],[168.582,141.499],[168.734,141.019],[168.836,140.276],[168.784,139.518],[168.577,138.786],[168.186,137.9],[167.729,137.04],[166.929,135.821],[165.996,134.697],[165.305,134.006],[164.567,133.37],[163.38,132.525],[162.535,132.034],[161.216,131.424],[160.729,131.268],[160.227,131.181],[159.735,131.163]]
EXCLUDE_OBJECT_DEFINE NAME=Cover_Angled_stl_id_1_copy_0 CENTER=165.693,164.321 POLYGON=[[174.735,146.163],[174.228,146.215],[173.506,146.416],[172.831,146.764],[172.237,147.248],[147.248,172.237],[146.768,172.826],[146.518,173.27],[146.334,173.739],[146.215,174.228],[146.164,174.976],[146.217,175.482],[146.337,175.972],[146.813,177.101],[147.523,178.377],[148.073,179.181],[148.681,179.942],[149.344,180.656],[150.058,181.319],[150.819,181.927],[151.623,182.477],[152.465,182.966],[153.342,183.391],[154.033,183.665],[154.767,183.818],[155.276,183.836],[155.605,183.805],[156.261,183.667],[156.954,183.366],[157.375,183.09],[157.763,182.752],[182.752,157.763],[183.236,157.169],[183.582,156.499],[183.734,156.019],[183.836,155.276],[183.784,154.518],[183.577,153.786],[183.186,152.9],[182.729,152.04],[181.929,150.821],[180.996,149.697],[180.305,149.006],[179.567,148.37],[178.38,147.525],[177.535,147.034],[176.216,146.424],[175.729,146.268],[175.227,146.181],[174.735,146.163]]
M107
G21 ; set units to millimeters
G90 ; use absolute coordinates
M83 ; use relative distances for extrusion
SET_PRESSURE_ADVANCE ADVANCE=0.01
SET_PRESSURE_ADVANCE SMOOTH=0.04

;_TOOLCHANGE 0
M104 S255 ; set temperature
M109 S255 ; set temperature and wait for it to be reached
M190 S115 ; set bed temperature and wait for it to be reached
M107
;LAYER_CHANGE
;Z:0.24
;HEIGHT:0.24
;BEFORE_LAYER_CHANGE
;0.24


G1 Z0.24 F24000
;AFTER_LAYER_CHANGE
;0.24
G92 E0
G1 E-0.6 F3600
M204 S10000
G1 Z0.84 F24000
G1 X139.824 Y139.615
G1 Z0.24
G1 E0.6 F2400
;TYPE:Skirt
;WIDTH:0.675
G1 F5613.5123
G1 X126.728 Y152.731 E1.07239
G1 X125.499 Y154.449 E0.12224
G1 X124.826 Y155.834 E0.08907
G1 X124.341 Y157.374 E0.0934
G1 X124.081 Y159.049 E0.09809
G1 X124.076 Y160.588 E0.08902
G1 X124.29 Y162.112 E0.08906
G1 X124.991 Y164.278 E0.13171
G1 X126.889 Y167.876 E0.23538
G1 X127.902 Y169.278 E0.10005
G1 X128.902 Y170.408 E0.0873
G1 X145.246 Y186.698 E1.33517
G1 X147.738 Y188.441 E0.17594
G1 X150.232 Y189.793 E0.16413
G1 X152.244 Y190.554 E0.12445
G1 X154.504 Y190.934 E0.1326
G1 X156.019 Y190.916 E0.08762
G1 X157.042 Y190.78 E0.05971
G1 X158.685 Y190.359 E0.09814
G1 X160.689 Y189.424 E0.12793
G1 X162.022 Y188.48 E0.09451
G1 X162.79 Y187.79 E0.05979
G1 X188.272 Y162.269 E2.08658
G1 X189.425 Y160.687 E0.11324
G1 X190.103 Y159.343 E0.0871
G1 X190.619 Y157.792 E0.09461
G1 X190.883 Y156.356 E0.08448
G1 X190.952 Y155.268 E0.06304
G1 X190.854 Y153.704 E0.0907
G1 X190.554 Y152.242 E0.0863
G1 X190.092 Y150.921 E0.08098
G1 X189.311 Y149.242 E0.10715
G1 X188.349 Y147.602 E0.11001
G1 X186.88 Y145.617 E0.14288
G1 X185.873 Y144.502 E0.08692
G1 X170.688 Y129.311 E1.24275
G1 X169.215 Y127.98 E0.11484
G1 X166.949 Y126.367 E0.16095
G1 X164.403 Y125.042 E0.16606
G1 X162.858 Y124.478 E0.09518
G1 X160.527 Y124.07 E0.13691
G1 X158.213 Y124.174 E0.13402
G1 X156.633 Y124.543 E0.09383
G1 X155.657 Y124.897 E0.0601
G1 X153.631 Y126.02 E0.13402
G1 X152.21 Y127.21 E0.1072
G1 X139.888 Y139.551 E1.00904
G1 X140.328 Y139.991 F24000
G1 F5613.5123
G1 X127.191 Y153.148 E1.07577
G1 X126.046 Y154.748 E0.11382
G1 X125.41 Y156.052 E0.08393
G1 X124.951 Y157.5 E0.08787
G1 X124.703 Y159.081 E0.09257
G1 X124.697 Y160.53 E0.08387
G1 X124.896 Y161.967 E0.08391
G1 X125.571 Y164.048 E0.12659
G1 X127.424 Y167.557 E0.22958
G1 X128.374 Y168.871 E0.09382
G1 X129.343 Y169.967 E0.08462
G1 X145.662 Y186.234 E1.33317
G1 X148.079 Y187.919 E0.17045
G1 X150.505 Y189.232 E0.15961
G1 X152.402 Y189.951 E0.11738
G1 X154.532 Y190.311 E0.12497
G1 X155.546 Y190.32 E0.05871
G1 X156.915 Y190.169 E0.07969
G1 X158.488 Y189.768 E0.0939
G1 X160.378 Y188.884 E0.12072
G1 X161.613 Y188.009 E0.08759
G1 X162.35 Y187.349 E0.05722
G1 X187.809 Y161.852 E2.08473
G1 X188.884 Y160.376 E0.10561
G1 X189.534 Y159.089 E0.08341
G1 X190.019 Y157.622 E0.08939
G1 X190.265 Y156.274 E0.07933
G1 X190.329 Y155.251 E0.05926
G1 X190.238 Y153.8 E0.08411
G1 X189.951 Y152.4 E0.0827
G1 X189.521 Y151.172 E0.07524
G1 X188.756 Y149.524 E0.10514
G1 X187.835 Y147.954 E0.10533
G1 X186.393 Y146.006 E0.14021
G1 X185.416 Y144.927 E0.08425
G1 X170.247 Y129.752 E1.24141
G1 X168.808 Y128.452 E0.11216
G1 X166.636 Y126.906 E0.15428
G1 X164.162 Y125.617 E0.16138
G1 X162.67 Y125.072 E0.09194
G1 X160.474 Y124.692 E0.1289
G1 X158.295 Y124.792 E0.12626
G1 X156.803 Y125.144 E0.08868
G1 X155.911 Y125.466 E0.05488
G1 X154.001 Y126.522 E0.12626
G1 X152.651 Y127.651 E0.10179
G1 X140.392 Y139.928 E1.00381
G1 X140.833 Y140.368 F24000
G1 F5613.5123
G1 X127.654 Y153.566 E1.07914
G1 X126.593 Y155.047 E0.1054
G1 X125.994 Y156.27 E0.07879
G1 X125.562 Y157.626 E0.08235
G1 X125.326 Y159.112 E0.08705
G1 X125.317 Y160.473 E0.07873
G1 X125.503 Y161.822 E0.07877
G1 X126.151 Y163.819 E0.12146
G1 X127.959 Y167.237 E0.22377
G1 X128.847 Y168.464 E0.08759
G1 X129.783 Y169.526 E0.08195
G1 X146.078 Y185.769 E1.33116
G1 X148.419 Y187.396 E0.16495
G1 X150.777 Y188.671 E0.1551
G1 X152.559 Y189.348 E0.11031
G1 X154.559 Y189.688 E0.11734
G1 X156.789 Y189.559 E0.12927
G1 X158.291 Y189.176 E0.08966
G1 X160.067 Y188.343 E0.1135
G1 X161.909 Y186.908 E0.1351
G1 X187.119 Y161.686 E2.06324
G1 X187.976 Y160.629 E0.07874
G1 X188.787 Y159.233 E0.0934
G1 X189.256 Y158.028 E0.07483
G1 X189.647 Y156.191 E0.10865
G1 X189.706 Y155.234 E0.05548
G1 X189.622 Y153.897 E0.07752
G1 X189.348 Y152.558 E0.0791
G1 X188.951 Y151.424 E0.06951
G1 X188.2 Y149.807 E0.10314
G1 X187.32 Y148.306 E0.10066
G1 X185.906 Y146.395 E0.13754
G1 X184.959 Y145.351 E0.08157
G1 X169.806 Y130.192 E1.24008
G1 X168.401 Y128.925 E0.10949
G1 X166.603 Y127.619 E0.12856
G1 X164.222 Y126.328 E0.1567
G1 X162.482 Y125.667 E0.10775
G1 X160.422 Y125.313 E0.12089
G1 X158.377 Y125.41 E0.11849
G1 X156.165 Y126.036 E0.13299
G1 X154.371 Y127.024 E0.11849
G1 X153.092 Y128.092 E0.09638
G1 X140.897 Y140.304 E0.99858
G1 X141.337 Y140.744 F24000
G1 F5613.5123
G1 X128.117 Y153.983 E1.08252
G1 X127.14 Y155.346 E0.09698
G1 X126.578 Y156.488 E0.07365
G1 X126.173 Y157.752 E0.07683
G1 X125.949 Y159.144 E0.08153
G1 X125.938 Y160.415 E0.07359
G1 X126.109 Y161.676 E0.07363
G1 X126.848 Y163.863 E0.13353
G1 X128.495 Y166.917 E0.20078
G1 X130.224 Y169.085 E0.16045
G1 X146.494 Y185.304 E1.32915
G1 X148.759 Y186.874 E0.15945
G1 X151.049 Y188.11 E0.15058
G1 X152.717 Y188.745 E0.10324
G1 X154.586 Y189.065 E0.1097
G1 X156.663 Y188.948 E0.12037
G1 X158.094 Y188.584 E0.08542
G1 X159.756 Y187.803 E0.10629
G1 X161.468 Y186.467 E0.12562
G1 X186.656 Y161.269 E2.06139
G1 X187.474 Y160.259 E0.07519
G1 X188.217 Y158.979 E0.08563
G1 X188.656 Y157.859 E0.06961
G1 X189.029 Y156.109 E0.1035
G1 X189.006 Y153.994 E0.12242
G1 X188.744 Y152.715 E0.0755
G1 X188.38 Y151.675 E0.06377
G1 X187.644 Y150.09 E0.10113
G1 X186.806 Y148.658 E0.09598
G1 X185.419 Y146.784 E0.13486
G1 X184.502 Y145.775 E0.0789
G1 X169.365 Y130.633 E1.23874
G1 X167.994 Y129.397 E0.10682
G1 X166.261 Y128.14 E0.12388
G1 X163.95 Y126.889 E0.15203
G1 X162.294 Y126.261 E0.1025
G1 X160.37 Y125.934 E0.11289
G1 X158.459 Y126.028 E0.11073
G1 X156.419 Y126.605 E0.12265
G1 X154.741 Y127.526 E0.11073
G1 X153.533 Y128.532 E0.09097
G1 X141.401 Y140.681 E0.99335
G1 E-0.06 F3600
;WIPE_START
G1 F19200
M204 S3000
G1 X139.366 Y142.719 E-0.513
;WIPE_END
G1 E-0.027 F3600
G1 Z0.84 F24000
; printing object Cover_Angled.stl id:0 copy 0
EXCLUDE_OBJECT_START NAME=Cover_Angled_stl_id_0_copy_0
G1 X149.136 Y156.487
G1 Z0.24
G1 E0.6 F2400
;TYPE:Internal perimeter
;WIDTH:0.8
G1 F9000
G1 X144.951 Y160.672 E0.41106
G1 X144.775 Y159.862 E0.05758
G1 X144.572 Y159.252 E0.04461
G1 X144.194 Y158.425 E0.06318
G1 X143.866 Y157.873 E0.04461
G1 X143.284 Y157.094 E0.06753
G1 X142.552 Y156.363 E0.07188
G1 X141.774 Y155.78 E0.06753
G1 X141.221 Y155.452 E0.04461
G1 X140.337 Y155.048 E0.06753
G1 X139.558 Y154.82 E0.05643
G1 X143.513 Y150.864 E0.38852
G1 X143.79 Y152.018 E0.0824
G1 X144.182 Y152.964 E0.07117
G1 X144.681 Y153.779 E0.06638
G1 X145.083 Y154.289 E0.04512
G1 X145.759 Y154.965 E0.06638
G1 X146.588 Y155.568 E0.07117
G1 X147.44 Y156.001 E0.06638
G1 X148.049 Y156.226 E0.04512
G1 X149.048 Y156.466 E0.07136
G1 E-0.06 F3600
;WIPE_START
G1 F19200
G1 X147.039 Y158.529 E-0.513
;WIPE_END
G1 E-0.027 F3600
G1 Z0.84 F24000
G1 X150.98 Y155.702
G1 Z0.24
G1 E0.6 F2400
G1 F9000
G1 X144.318 Y162.363 E0.65436
G1 X144.283 Y161.381 E0.0683
G1 X144.228 Y160.871 E0.03562
G1 X144.052 Y160.06 E0.0576
G1 X143.874 Y159.527 E0.03904
G1 X143.53 Y158.772 E0.05761
G1 X143.243 Y158.289 E0.03904
G1 X142.717 Y157.586 E0.06102
G1 X142.061 Y156.93 E0.06444
G1 X141.357 Y156.403 E0.06102
G1 X140.874 Y156.117 E0.03904
G1 X140.075 Y155.752 E0.06102
G1 X139.232 Y155.504 E0.06102
G1 X138.679 Y155.404 E0.03903
G1 X137.965 Y155.353 E0.04968
G1 X144.239 Y149.08 E0.61623
G1 X144.239 Y150.399 E0.09165
G1 X144.305 Y150.957 E0.03899
G1 X144.504 Y151.786 E0.05923
G1 X144.851 Y152.624 E0.06299
G1 X145.296 Y153.351 E0.05922
G1 X145.644 Y153.791 E0.03899
G1 X146.247 Y154.394 E0.05923
G1 X146.981 Y154.927 E0.06299
G1 X147.74 Y155.314 E0.05922
G1 X148.267 Y155.509 E0.03899
G1 X149.096 Y155.708 E0.05922
G1 X149.998 Y155.779 E0.06285
G1 X150.89 Y155.709 E0.06216
G1 X150.115 Y155.019 F24000
G1 F9000
G1 X150.788 Y154.966 E0.04689
G1 X151.554 Y154.782 E0.05467
G1 X152.246 Y154.495 E0.05207
G1 X152.659 Y154.264 E0.03286
G1 X153.149 Y153.908 E0.04208
G1 X153.464 Y154.276 E0.03364
G1 X143.456 Y164.284 E0.983
G1 X143.101 Y164.055 E0.02933
G1 X143.321 Y163.465 E0.0438
G1 X143.496 Y162.663 E0.057
G1 X143.552 Y161.88 E0.05452
G1 X143.536 Y161.434 E0.03098
G1 X143.488 Y160.99 E0.03098
G1 X143.329 Y160.258 E0.05203
G1 X143.177 Y159.801 E0.03346
G1 X142.866 Y159.12 E0.05203
G1 X142.62 Y158.706 E0.03346
G1 X142.15 Y158.077 E0.05452
G1 X141.569 Y157.497 E0.057
G1 X140.941 Y157.027 E0.05452
G1 X140.527 Y156.781 E0.03346
G1 X139.813 Y156.455 E0.05452
G1 X139.059 Y156.233 E0.05452
G1 X138.585 Y156.148 E0.03346
G1 X137.838 Y156.095 E0.05203
G1 X137.357 Y156.112 E0.03346
G1 X136.537 Y156.229 E0.05748
G1 X136.368 Y155.892 E0.02624
G1 X145.724 Y146.536 E0.91895
G1 X146.092 Y146.851 E0.03364
G1 X145.713 Y147.373 E0.04482
G1 X145.372 Y148.041 E0.05207
G1 X145.209 Y148.485 E0.03286
G1 X145.043 Y149.175 E0.04933
G1 X144.987 Y149.645 E0.03286
G1 X144.987 Y150.355 E0.04933
G1 X145.043 Y150.825 E0.03286
G1 X145.218 Y151.554 E0.05207
G1 X145.52 Y152.283 E0.0548
G1 X145.912 Y152.922 E0.05207
G1 X146.204 Y153.293 E0.03286
G1 X146.734 Y153.823 E0.05207
G1 X147.373 Y154.287 E0.0548
G1 X148.041 Y154.628 E0.05207
G1 X148.485 Y154.791 E0.03286
G1 X149.213 Y154.966 E0.05207
G1 X150.026 Y155.026 E0.05657
G1 E-0.06 F3600
;WIPE_START
G1 F19200
G1 X150.788 Y154.966 E-0.13628
G1 X151.554 Y154.782 E-0.14019
G1 X152.246 Y154.495 E-0.13353
G1 X152.659 Y154.264 E-0.08426
G1 X152.744 Y154.202 E-0.01874
;WIPE_END
G1 E-0.027 F3600
G1 Z0.84 F24000
G1 X146.882 Y146.031
G1 Z0.24
G1 E0.6 F2400
G1 F9000
G1 X146.594 Y145.666 E0.03233
G1 X148.821 Y143.439 E0.21874
G1 X149.162 Y143.617 E0.02672
G1 X149.075 Y144.104 E0.03436
G1 X149.016 Y145.104 E0.06957
G1 X148.495 Y145.204 E0.03684
G1 X147.724 Y145.516 E0.05777
G1 X146.959 Y145.984 E0.06231
G1 E-0.06 F3600
;WIPE_START
G1 F19200
G1 X146.594 Y145.666 E-0.08628
G1 X148.288 Y143.972 E-0.42672
;WIPE_END
G1 E-0.027 F3600
G1 Z0.84 F24000
G1 X155.72 Y139.189
G1 Z0.24
G1 E0.6 F2400
G1 F9000
G1 X154.809 Y139.124 E0.06344
G1 X154.327 Y139.141 E0.03346
G1 X153.508 Y139.259 E0.05748
G1 X153.339 Y138.921 E0.02624
G1 X156.1 Y136.16 E0.27118
G1 X156.461 Y136.421 E0.03095
G1 X156.096 Y137.153 E0.05685
G1 X155.936 Y137.601 E0.033
G1 X155.772 Y138.331 E0.052
G1 X155.725 Y139.099 E0.05345
G1 E-0.06 F3600
;WIPE_START
G1 F19200
G1 X154.809 Y139.124 E-0.1633
G1 X154.327 Y139.141 E-0.08581
G1 X153.508 Y139.259 E-0.14741
G1 X153.339 Y138.921 E-0.0673
G1 X153.534 Y138.726 E-0.04918
;WIPE_END
G1 E-0.027 F3600
G1 Z0.84 F24000
G1 X150.057 Y154.273
G1 Z0.24
G1 E0.6 F2400
G1 F9000
G1 X150.671 Y154.224 E0.0428
G1 X151.322 Y154.068 E0.04648
G1 X151.919 Y153.821 E0.04491
G1 X152.255 Y153.633 E0.02672
G1 X152.778 Y153.253 E0.04491
G1 X153.253 Y152.778 E0.04662
G1 X153.648 Y152.234 E0.04668
G1 X153.942 Y151.655 E0.04512
G1 X154.077 Y151.281 E0.02762
G1 X154.22 Y150.614 E0.04742
G1 X154.228 Y149.78 E0.05793
G1 X154.674 Y149.848 E0.03132
G1 X155.113 Y149.856 E0.03051
G1 X155.828 Y149.763 E0.05012
G1 X156.499 Y149.566 E0.04853
G1 X156.87 Y149.412 E0.02793
G1 X157.469 Y149.085 E0.04739
G1 X158.055 Y148.647 E0.0508
G1 X158.553 Y148.149 E0.04895
G1 X158.967 Y147.596 E0.04801
G1 X159.172 Y147.25 E0.02789
G1 X159.459 Y146.621 E0.04801
G1 X159.654 Y145.958 E0.04801
G1 X159.725 Y145.563 E0.02789
G1 X159.773 Y144.896 E0.04646
G1 X159.76 Y144.517 E0.02634
G1 X159.719 Y144.14 E0.02634
G1 X159.577 Y143.486 E0.0465
G1 X159.407 Y142.977 E0.03724
G1 X159.876 Y143.104 E0.03377
G1 X160.518 Y143.169 E0.04478
G1 X160.902 Y143.161 E0.02672
G1 X161.539 Y143.071 E0.04466
G1 X162.177 Y142.872 E0.04642
G1 X162.752 Y142.585 E0.04466
G1 X163.073 Y142.373 E0.02671
G1 X163.563 Y141.956 E0.04466
G1 X163.979 Y141.467 E0.04466
G1 X164.191 Y141.146 E0.02671
G1 X164.467 Y140.593 E0.04291
G1 X164.596 Y140.231 E0.02671
G1 X164.738 Y139.604 E0.04466
G1 X164.778 Y138.936 E0.04642
G1 X164.713 Y138.297 E0.04466
G1 X164.629 Y137.921 E0.02671
G1 X164.422 Y137.34 E0.04291
G1 X164.25 Y136.996 E0.02671
G1 X163.895 Y136.459 E0.04466
G1 X163.459 Y135.986 E0.04466
G1 X163.166 Y135.737 E0.02671
G1 X162.63 Y135.383 E0.04466
G1 X162.02 Y135.108 E0.04642
G1 X161.375 Y134.936 E0.04642
G1 X160.735 Y134.871 E0.04466
G1 X160.376 Y134.878 E0.02496
G1 X160.018 Y134.914 E0.02496
G1 X159.391 Y135.056 E0.04466
G1 X158.771 Y135.305 E0.04642
G1 X158.199 Y135.651 E0.04642
G1 X157.69 Y136.084 E0.04642
G1 X157.273 Y136.574 E0.04466
G1 X157.061 Y136.894 E0.02671
G1 X156.785 Y137.447 E0.04291
G1 X156.656 Y137.809 E0.02671
G1 X156.515 Y138.437 E0.04466
G1 X156.475 Y139.104 E0.04644
