; generated by SuperSlicer 2.5.59 on 2023-06-08 at 00:09:07 UTC


;
;

;
;
; 

; external perimeters extrusion width = 0.50mm
; perimeters extrusion width = 0.50mm
; infill extrusion width = 0.50mm
; solid infill extrusion width = 0.50mm
; top infill extrusion width = 0.60mm

; external perimeters extrusion width = 0.50mm
; perimeters extrusion width = 0.50mm
; infill extrusion width = 0.50mm
; solid infill extrusion width = 0.50mm
; top infill extrusion width = 0.60mm

; object:{"name":"e_collet_clip","id":"e_collet_clip.stl id:0 copy 0","object_center":[143.210409,156.789591,0.000000],"boundingbox_center":[143.210409,156.789591,5.000000],"boundingbox_size":[11.835706,11.835706,10.000000]}
EXCLUDE_OBJECT_DEFINE NAME=e_collet_clip_stl_id_0_copy_0 CENTER=143.210409,156.789591 POLYGON=[[137.292560,159.210656],[137.292816,159.178976],[137.294320,159.156544],[137.299568,159.114784],[137.303648,159.093648],[137.313312,159.056112],[137.328944,159.011424],[137.399808,158.836352],[139.321552,154.088896],[139.447392,153.803616],[139.453936,153.790016],[139.590560,153.526640],[139.605328,153.500288],[139.750496,153.259008],[139.775120,153.220960],[139.926640,153.001728],[139.962576,152.953168],[140.118288,152.755776],[140.166944,152.698048],[140.338752,152.507232],[140.387344,152.456640],[140.575056,152.273664],[140.622880,152.229968],[140.826192,152.056128],[140.872560,152.018976],[141.091040,151.855520],[141.135344,151.824560],[141.368480,151.672736],[141.410128,151.647488],[141.657328,151.508544],[141.695776,151.488544],[142.686896,150.998624],[142.817264,150.937040],[142.955136,150.894864],[143.097664,150.872944],[143.241840,150.871728],[143.384688,150.891296],[143.523232,150.931184],[143.654624,150.990592],[143.776096,151.068256],[143.885136,151.162592],[148.837408,156.114864],[148.931744,156.223904],[149.009408,156.345376],[149.068816,156.476768],[149.108704,156.615312],[149.128272,156.758160],[149.127056,156.902352],[149.105136,157.044864],[149.062960,157.182736],[149.001376,157.313104],[148.511456,158.304224],[148.491456,158.342672],[148.352512,158.589872],[148.327264,158.631520],[148.175440,158.864656],[148.144480,158.908960],[147.981024,159.127440],[147.943872,159.173808],[147.770032,159.377120],[147.726336,159.424944],[147.543360,159.612656],[147.492768,159.661248],[147.301952,159.833056],[147.244224,159.881712],[147.046832,160.037424],[146.998272,160.073360],[146.779040,160.224880],[146.740992,160.249504],[146.499712,160.394672],[146.473360,160.409440],[146.209984,160.546064],[146.196384,160.552608],[145.911104,160.678448],[141.163648,162.600192],[140.988576,162.671056],[140.943888,162.686688],[140.906352,162.696352],[140.885216,162.700432],[140.843456,162.705680],[140.821024,162.707184],[140.789344,162.707440],[140.777968,162.707056],[140.735088,162.703232],[140.733920,162.703072],[140.678336,162.692320],[140.671792,162.690608],[140.651120,162.684624],[140.623824,162.675136],[140.571584,162.651872],[140.233312,162.466048],[139.905040,162.263056],[139.587664,162.043456],[139.282000,161.807824],[138.988864,161.556784],[138.709008,161.290992],[138.443216,161.011136],[138.192176,160.718000],[137.956544,160.412336],[137.736944,160.094960],[137.533952,159.766688],[137.348128,159.428416],[137.324864,159.376176],[137.315392,159.348880],[137.309392,159.328208],[137.307680,159.321664],[137.296944,159.266080],[137.296768,159.264912],[137.292944,159.222032],[137.292560,159.210656]]
; object:{"name":"e_fs_adapter_bowden","id":"e_fs_adapter_bowden.stl id:1 copy 0","object_center":[151.920898,148.079103,0.000000],"boundingbox_center":[151.920898,148.079103,8.000000],"boundingbox_size":[21.573201,21.573201,16.000000]}
EXCLUDE_OBJECT_DEFINE NAME=e_fs_adapter_bowden_stl_id_1_copy_0 CENTER=151.920898,148.079103 POLYGON=[[141.134288,145.086272],[141.138864,144.981696],[141.149072,144.898544],[141.175184,144.775696],[141.193024,144.715456],[141.246736,144.579136],[141.265088,144.541488],[141.351312,144.397984],[141.363472,144.380944],[141.485776,144.237744],[148.079552,137.643984],[148.222736,137.521680],[148.239776,137.509520],[148.383280,137.423296],[148.420928,137.404944],[148.557248,137.351232],[148.617488,137.333392],[148.740336,137.307280],[148.823488,137.297072],[148.928064,137.292496],[149.032656,137.297072],[149.115792,137.307280],[149.238640,137.333392],[149.298896,137.351232],[149.435216,137.404944],[149.472848,137.423296],[149.616368,137.509520],[149.633408,137.521680],[149.776592,137.643984],[154.655648,142.523008],[161.726704,149.594080],[162.356016,150.223408],[162.478320,150.366592],[162.490480,150.383632],[162.576704,150.527152],[162.595056,150.564784],[162.648768,150.701104],[162.666608,150.761360],[162.692720,150.884224],[162.702928,150.967344],[162.707504,151.071936],[162.702928,151.176512],[162.692720,151.259664],[162.666608,151.382512],[162.648768,151.442752],[162.595056,151.579072],[162.576704,151.616720],[162.490480,151.760224],[162.478320,151.777264],[162.356032,151.920464],[155.762256,158.514240],[155.619072,158.636528],[155.602016,158.648688],[155.458512,158.734912],[155.420864,158.753264],[155.284544,158.806976],[155.224304,158.824816],[155.101456,158.850928],[155.018304,158.861136],[154.913728,158.865712],[154.809136,158.861136],[154.726016,158.850928],[154.603152,158.824816],[154.542912,158.806976],[154.406592,158.753264],[154.368944,158.734912],[154.225440,158.648688],[154.208384,158.636528],[154.065200,158.514224],[152.445920,156.894960],[147.213328,151.662368],[141.485776,145.934800],[141.363472,145.791616],[141.351312,145.774560],[141.265088,145.631056],[141.246736,145.593408],[141.193024,145.457088],[141.175184,145.396848],[141.149072,145.273984],[141.138864,145.190864],[141.134288,145.086272]]
; plater:{"center":[150.000027,149.999973,0.000000],"boundingbox_center":[150.000027,149.999973,8.000000],"boundingbox_size":[25.414942,25.414941,16.000000]}

;TYPE:Custom
PRINT_START EXTRUDER=245 BED=110 AREA_START=131.06,131.354 AREA_END=167.02,168.962
M107
G21 ; set units to millimeters
G90 ; use absolute coordinates
M83 ; use relative distances for extrusion
SET_PRESSURE_ADVANCE SMOOTH_TIME=0.02
SET_PRESSURE_ADVANCE ADVANCE=0.02
;_TOOLCHANGE 0
M104 S245 ; set temperature
M109 S245 ; set temperature and wait for it to be reached
M190 S110 ; set bed temperature and wait for it to be reached
M107
;LAYER_CHANGE
;Z:0.2
;HEIGHT:0.2
;BEFORE_LAYER_CHANGE
TIMELAPSE_TAKE_FRAME
;0.2


G1 Z0.2 F48000
;AFTER_LAYER_CHANGE
;0.2
G92 E0
G1 E-0.8 F2400
M204 S5000
G1 Z0.3 F48000
G1 X138.88 Y139.279
G1 Z0.2
G1 E0.8 F2400
;TYPE:Skirt
;WIDTH:0.6
G1 F4200
G1 X137.258 Y140.896 E0.09656
G1 X136.463 Y142.108 E0.06111
G1 X136.027 Y143.183 E0.04889
G1 X131.833 Y157.313 E0.62129
G1 X131.607 Y159.395 E0.08829
G1 X132.28 Y161.739 E0.10279
G1 X133.105 Y163.181 E0.07003
G1 X133.943 Y164.313 E0.05937
G1 X134.884 Y165.335 E0.05858
G1 X135.983 Y166.293 E0.06145
G1 X137.065 Y167.053 E0.05574
G1 X138.525 Y167.845 E0.06998
G1 X141.108 Y168.408 E0.11144
G1 X143.216 Y167.982 E0.09069
G1 X148.544 Y165.811 E0.2425
G1 X156.292 Y161.899 E0.36586
G1 X157.219 Y161.315 E0.04618
G1 X157.93 Y160.706 E0.03948
G1 X164.549 Y154.087 E0.39455
G1 X165.049 Y153.52 E0.03188
G1 X165.751 Y152.423 E0.05493
G1 X166.314 Y150.842 E0.07071
G1 X166.463 Y149.408 E0.0608
G1 X166.291 Y147.964 E0.06129
G1 X165.792 Y146.571 E0.06235
G1 X165.044 Y145.396 E0.05872
G1 X153.542 Y133.825 E0.68775
G1 X152.831 Y133.216 E0.03945
G1 X151.733 Y132.549 E0.05414
G1 X150.316 Y132.061 E0.0632
G1 X148.824 Y131.911 E0.06321
G1 X147.373 Y132.093 E0.06162
G1 X146.11 Y132.542 E0.0565
G1 X144.852 Y133.323 E0.06242
G1 X138.933 Y139.226 E0.35235
G1 X139.306 Y139.602 F48000
G1 F4200
G1 X138.06 Y140.837 E0.07398
G1 X137.598 Y141.361 E0.02943
G1 X136.963 Y142.354 E0.04969
G1 X136.561 Y143.341 E0.04494
G1 X132.367 Y157.471 E0.62129
G1 X132.156 Y159.254 E0.07567
G1 X132.659 Y161.237 E0.08621
G1 X133.423 Y162.645 E0.06757
G1 X134.367 Y163.952 E0.06794
G1 X135.267 Y164.931 E0.05608
G1 X136.316 Y165.847 E0.05868
G1 X137.355 Y166.577 E0.05352
G1 X138.763 Y167.341 E0.06757
G1 X140.999 Y167.851 E0.09665
G1 X143.007 Y167.466 E0.08621
G1 X148.318 Y165.302 E0.24175
G1 X156.041 Y161.402 E0.36465
G1 X156.879 Y160.874 E0.04177
G1 X157.536 Y160.312 E0.03645
G1 X164.155 Y153.694 E0.39455
G1 X164.616 Y153.17 E0.02943
G1 X165.252 Y152.177 E0.04969
G1 X165.768 Y150.732 E0.06467
G1 X165.906 Y149.418 E0.0557
G1 X165.747 Y148.088 E0.05645
G1 X165.29 Y146.813 E0.05709
G1 X164.603 Y145.736 E0.05385
G1 X153.148 Y134.219 E0.68473
G1 X152.491 Y133.657 E0.03642
G1 X151.498 Y133.054 E0.04897
G1 X150.19 Y132.604 E0.0583
G1 X148.824 Y132.468 E0.05789
G1 X147.498 Y132.635 E0.0563
G1 X146.356 Y133.042 E0.05111
G1 X145.203 Y133.756 E0.05718
G1 X139.359 Y139.549 E0.34684
G1 E-0.08 F2400
;WIPE_START
G1 F38400
G1 X145.203 Y133.756 E-0.48855
G1 X146.356 Y133.042 E-0.08054
G1 X147.498 Y132.635 E-0.07199
G1 X148.216 Y132.545 E-0.04291
;WIPE_END
G1 E-0.036 F2400
G1 Z0.3 F48000
; printing object e_collet_clip.stl id:0 copy 0
EXCLUDE_OBJECT_START NAME=e_collet_clip_stl_id_0_copy_0
G1 X143.607 Y160.015
G1 Z0.2
G1 E0.8 F2400
;TYPE:Internal perimeter
;WIDTH:0.5
G1 F4200
G1 X143.639 Y160.26 E0.00853
G1 X141.079 Y161.296 E0.09551
G1 X140.724 Y161.086 E0.01424
G1 X140.558 Y160.973 E0.00695
G1 X140.197 Y160.704 E0.01557
G1 X139.957 Y160.499 E0.01091
G1 X139.723 Y160.277 E0.01117
G1 X139.501 Y160.043 E0.01117
G1 X139.296 Y159.803 E0.01091
G1 X139.027 Y159.442 E0.01557
G1 X138.914 Y159.276 E0.00695
G1 X138.704 Y158.921 E0.01424
G1 X139.74 Y156.361 E0.09551
G1 X139.985 Y156.393 E0.00853
G1 X140.023 Y156.685 E0.01019
G1 X140.101 Y157.036 E0.01243
G1 X140.182 Y157.293 E0.00934
G1 X140.346 Y157.708 E0.01543
G1 X140.522 Y158.039 E0.01296
G1 X140.72 Y158.343 E0.01254
G1 X140.938 Y158.621 E0.01223
G1 X141.116 Y158.815 E0.0091
G1 X141.372 Y159.056 E0.01219
G1 X141.666 Y159.287 E0.01292
G1 X142.046 Y159.525 E0.01551
G1 X142.286 Y159.65 E0.00938
G1 X142.616 Y159.788 E0.01235
G1 X142.961 Y159.898 E0.01254
G1 X143.315 Y159.977 E0.01254
G1 X143.533 Y160.005 E0.0076
G1 E-0.08 F2400
;WIPE_START
G1 F38400
G1 X143.315 Y159.977 E-0.01305
G1 X142.961 Y159.898 E-0.02153
G1 X142.616 Y159.788 E-0.02152
G1 X142.286 Y159.65 E-0.0212
G1 X142.046 Y159.525 E-0.01609
G1 X141.666 Y159.287 E-0.02662
G1 X141.372 Y159.056 E-0.02218
G1 X141.116 Y158.815 E-0.02092
G1 X140.938 Y158.621 E-0.01562
G1 X140.72 Y158.343 E-0.02099
G1 X140.522 Y158.039 E-0.02152
G1 X140.346 Y157.708 E-0.02225
G1 X140.182 Y157.293 E-0.02648
G1 X140.101 Y157.036 E-0.01603
G1 X140.023 Y156.685 E-0.02133
G1 X139.985 Y156.393 E-0.0175
G1 X139.74 Y156.361 E-0.01465
G1 X138.704 Y158.921 E-0.16397
G1 X138.914 Y159.276 E-0.02445
G1 X139.027 Y159.442 E-0.01193
G1 X139.296 Y159.803 E-0.02673
G1 X139.501 Y160.043 E-0.01873
G1 X139.723 Y160.277 E-0.01917
G1 X139.957 Y160.499 E-0.01917
G1 X140.197 Y160.704 E-0.01873
G1 X140.558 Y160.973 E-0.02673
G1 X140.724 Y161.086 E-0.01193
G1 X140.767 Y161.111 E-0.00297
;WIPE_END
G1 E-0.036 F2400
G1 Z0.3 F48000
G1 X147.942 Y156.329
G1 Z0.2
G1 E0.8 F2400
G1 F4200
G1 X148.312 Y156.705 E0.01823
G1 X148.347 Y156.782 E0.00291
G1 X148.346 Y156.866 E0.00291
G1 X148.327 Y156.915 E0.00183
G1 X148.201 Y157.101 E0.00777
G1 X148.11 Y157.267 E0.00655
G1 X147.938 Y157.694 E0.01591
G1 X147.818 Y157.945 E0.00963
G1 X147.684 Y158.187 E0.00957
G1 X147.533 Y158.42 E0.00957
G1 X147.368 Y158.642 E0.00959
G1 X147.21 Y158.83 E0.00849
G1 X146.996 Y159.054 E0.01071
G1 X146.793 Y159.239 E0.00952
G1 X146.58 Y159.409 E0.0094
G1 X146.363 Y159.561 E0.00916
G1 X146.118 Y159.71 E0.00995
G1 X145.874 Y159.838 E0.00951
G1 X145.61 Y159.955 E0.00999
G1 X141.052 Y161.8 E0.17008
G1 X140.775 Y161.652 E0.01085
G1 X140.477 Y161.471 E0.01205
G1 X140.293 Y161.346 E0.0077
G1 X139.912 Y161.062 E0.01644
G1 X139.651 Y160.839 E0.01185
G1 X139.399 Y160.601 E0.01201
G1 X139.161 Y160.349 E0.01201
G1 X138.938 Y160.088 E0.01185
G1 X138.654 Y159.707 E0.01644
G1 X138.529 Y159.523 E0.0077
G1 X138.348 Y159.225 E0.01205
G1 X138.2 Y158.948 E0.01085
G1 X140.045 Y154.39 E0.17008
G1 X140.162 Y154.126 E0.00999
G1 X140.29 Y153.882 E0.00954
G1 X140.433 Y153.646 E0.00954
G1 X140.59 Y153.421 E0.00948
G1 X140.781 Y153.184 E0.01052
G1 X140.947 Y153.003 E0.0085
G1 X141.145 Y152.812 E0.00952
G1 X141.383 Y152.613 E0.01071
G1 X141.58 Y152.467 E0.00849
G1 X141.813 Y152.316 E0.00959
G1 X142.055 Y152.182 E0.00957
G1 X142.306 Y152.062 E0.00963
G1 X142.733 Y151.89 E0.01591
G1 X142.899 Y151.799 E0.00655
G1 X143.107 Y151.662 E0.00862
G1 X143.162 Y151.65 E0.00195
G1 X143.218 Y151.653 E0.00195
G1 X143.271 Y151.673 E0.00195
G1 X143.337 Y151.725 E0.0029
G1 X143.669 Y152.059 E0.0163
G1 X143.255 Y152.471 E0.02019
G1 X143.11 Y152.503 E0.00514
G1 X142.807 Y152.596 E0.01096
G1 X142.51 Y152.718 E0.01112
G1 X142.227 Y152.864 E0.01101
G1 X142.029 Y152.988 E0.00809
G1 X141.703 Y153.229 E0.01401
G1 X141.462 Y153.452 E0.01137
G1 X141.25 Y153.686 E0.01091
G1 X141.109 Y153.867 E0.00792
G1 X140.935 Y154.13 E0.01091
G1 X140.781 Y154.412 E0.01112
G1 X140.654 Y154.707 E0.01112
G1 X140.551 Y155.02 E0.0114
G1 X140.467 Y155.415 E0.01395
G1 X140.435 Y155.646 E0.00806
G1 X140.42 Y155.966 E0.01107
G1 X140.432 Y156.287 E0.01112
G1 X140.474 Y156.606 E0.01112
G1 X140.543 Y156.918 E0.01105
G1 X140.613 Y157.141 E0.00807
G1 X140.762 Y157.516 E0.01397
G1 X140.916 Y157.807 E0.01139
G1 X141.092 Y158.076 E0.01112
G1 X141.287 Y158.325 E0.01092
G1 X141.441 Y158.494 E0.00792
G1 X141.671 Y158.71 E0.0109
G1 X141.929 Y158.913 E0.01136
G1 X142.273 Y159.128 E0.01402
G1 X142.48 Y159.236 E0.0081
G1 X142.774 Y159.359 E0.011
G1 X143.08 Y159.456 E0.01112
G1 X143.394 Y159.526 E0.01112
G1 X143.713 Y159.568 E0.01112
G1 X144.034 Y159.58 E0.01112
G1 X144.354 Y159.565 E0.01107
G1 X144.585 Y159.533 E0.00806
G1 X144.98 Y159.449 E0.01395
G1 X145.293 Y159.346 E0.0114
G1 X145.588 Y159.219 E0.01112
G1 X145.87 Y159.065 E0.01112
G1 X146.133 Y158.891 E0.01091
G1 X146.314 Y158.75 E0.00792
G1 X146.548 Y158.538 E0.01091
G1 X146.771 Y158.297 E0.01137
G1 X147.012 Y157.971 E0.01401
G1 X147.136 Y157.773 E0.00809
G1 X147.282 Y157.49 E0.01101
G1 X147.404 Y157.193 E0.01112
G1 X147.497 Y156.89 E0.01096
G1 X147.529 Y156.745 E0.00514
G1 X147.889 Y156.383 E0.01766
G1 X147.941 Y155.682 F48000
;TYPE:External perimeter
G1 F4200
G1 X148.609 Y156.35 E0.03269
G1 X148.679 Y156.431 E0.0037
G1 X148.73 Y156.51 E0.00326
G1 X148.769 Y156.596 E0.00326
G1 X148.795 Y156.687 E0.00326
G1 X148.808 Y156.78 E0.00326
G1 X148.807 Y156.875 E0.00326
G1 X148.793 Y156.968 E0.00326
G1 X148.765 Y157.058 E0.00326
G1 X148.725 Y157.142 E0.00321
G1 X148.592 Y157.34 E0.00825
G1 X148.524 Y157.463 E0.00488
G1 X148.357 Y157.878 E0.01545
G1 X148.225 Y158.155 E0.01062
G1 X148.076 Y158.423 E0.0106
G1 X147.909 Y158.68 E0.0106
G1 X147.727 Y158.926 E0.01061
G1 X147.55 Y159.136 E0.00947
G1 X147.315 Y159.381 E0.01174
G1 X147.089 Y159.587 E0.01057
G1 X146.854 Y159.775 E0.01041
G1 X146.614 Y159.943 E0.01016
G1 X146.343 Y160.109 E0.01097
G1 X146.073 Y160.25 E0.01055
G1 X145.788 Y160.376 E0.01076
G1 X141.035 Y162.3 E0.17736
G1 X140.876 Y162.225 E0.00607
G1 X140.548 Y162.049 E0.01287
G1 X140.23 Y161.855 E0.01287
G1 X140.028 Y161.718 E0.00845
G1 X139.627 Y161.419 E0.0173
G1 X139.346 Y161.18 E0.01278
G1 X139.076 Y160.924 E0.01285
G1 X138.82 Y160.654 E0.01285
G1 X138.581 Y160.373 E0.01278
G1 X138.282 Y159.972 E0.0173
G1 X138.145 Y159.77 E0.00845
G1 X137.951 Y159.452 E0.01287
G1 X137.775 Y159.124 E0.01287
G1 X137.7 Y158.965 E0.00607
G1 X139.624 Y154.212 E0.17736
G1 X139.75 Y153.927 E0.01076
G1 X139.892 Y153.657 E0.01056
G1 X140.05 Y153.396 E0.01056
G1 X140.225 Y153.146 E0.01053
G1 X140.435 Y152.886 E0.01155
G1 X140.619 Y152.684 E0.00948
G1 X140.839 Y152.472 E0.01058
G1 X141.1 Y152.254 E0.01174
G1 X141.32 Y152.091 E0.00947
G1 X141.577 Y151.924 E0.0106
G1 X141.845 Y151.775 E0.0106
G1 X142.122 Y151.643 E0.01062
G1 X142.537 Y151.476 E0.01545
G1 X142.66 Y151.408 E0.00488
G1 X142.858 Y151.275 E0.00825
G1 X142.942 Y151.235 E0.00321
G1 X143.032 Y151.207 E0.00326
G1 X143.125 Y151.193 E0.00326
G1 X143.22 Y151.192 E0.00326
G1 X143.313 Y151.205 E0.00326
