; generated by SuperSlicer 2.5.59 on 2022-10-28 at 06:10:27 UTC


;
;

;
;
; 

; external perimeters extrusion width = 0.52mm
; perimeters extrusion width = 0.56mm
; infill extrusion width = 0.70mm
; solid infill extrusion width = 0.70mm
; top infill extrusion width = 0.50mm
; first layer extrusion width = 0.60mm

; object:{"name":"exhaust_filter_grill","id":"exhaust_filter_grill.stl id:0 copy 0","object_center":[150.000071,150.000076,0.000000],"boundingbox_center":[150.000071,150.000076,2.800003],"boundingbox_size":[131.170255,131.170250,5.600006]}
; plater:{"center":[150.000071,150.000076,0.000000],"boundingbox_center":[150.000071,150.000076,2.800003],"boundingbox_size":[131.170255,131.170250,5.600006]}

;TYPE:Custom
PRINT_START EXTRUDER=260 BED=110
M107
G21 ; set units to millimeters
G90 ; use absolute coordinates
M83 ; use relative distances for extrusion
SET_PRESSURE_ADVANCE SMOOTH_TIME=0.02
SET_PRESSURE_ADVANCE ADVANCE=0.065
;_TOOLCHANGE 0
M104 S260 ; set temperature
M109 S260 ; set temperature and wait for it to be reached
M190 S110 ; set bed temperature and wait for it to be reached
M107
;LAYER_CHANGE
;Z:0.3
;HEIGHT:0.3
;BEFORE_LAYER_CHANGE
;0.3


G1 Z0.3 F24000
;AFTER_LAYER_CHANGE
;0.3
G92 E0
G1 E-0.6 F2400
; printing object exhaust_filter_grill.stl id:0 copy 0
M204 S3000
G1 X153.905 Y139.481 F24000
G1 E0.6 F2400
;TYPE:Internal perimeter
;WIDTH:0.6
G1 F6921.6317
G1 X154.367 Y139.093 E0.03863
G1 X154.754 Y138.632 E0.03863
G1 X154.859 Y139.225 E0.03863
G1 X155.065 Y139.791 E0.03863
G1 X154.499 Y139.585 E0.03863
G1 X153.979 Y139.494 E0.03382
G1 E-0.06 F2400
;WIPE_START
G1 F19200
G1 X154.367 Y139.093 E-0.06616
G1 X154.754 Y138.632 E-0.07154
G1 X154.859 Y139.225 E-0.07153
G1 X155.065 Y139.791 E-0.07154
G1 X154.499 Y139.585 E-0.07154
G1 X153.979 Y139.494 E-0.06263
;WIPE_END
G1 E-0.12507 F2400
G1 X163.927 Y147.916 F24000
G1 E0.6 F2400
G1 F6921.4768
G1 X164.062 Y147.94 E0.00878
G1 X163.601 Y148.327 E0.03863
G1 X163.213 Y148.789 E0.03863
G1 X163.109 Y148.195 E0.03863
G1 X162.903 Y147.629 E0.03863
G1 X163.469 Y147.835 E0.03863
G1 X163.853 Y147.903 E0.02504
G1 E-0.06 F2400
;WIPE_START
G1 F19200
G1 X164.062 Y147.94 E-0.02517
G1 X163.601 Y148.327 E-0.07153
G1 X163.213 Y148.789 E-0.07153
G1 X163.109 Y148.195 E-0.07153
G1 X162.903 Y147.629 E-0.07153
G1 X163.469 Y147.835 E-0.07153
G1 X163.853 Y147.903 E-0.04637
;WIPE_END
G1 E-0.1108 F2400
G1 X177.64 Y145.722 F24000
G1 E0.6 F2400
G1 F9000
G1 X176.269 Y147.093 E0.12429
G1 X176.175 Y146.558 E0.03482
G1 X176.059 Y146.24 E0.02168
G1 X175.89 Y145.947 E0.02168
G1 X175.673 Y145.689 E0.02168
G1 X175.414 Y145.471 E0.02168
G1 X175.121 Y145.302 E0.02168
G1 X174.684 Y145.143 E0.02988
G1 X175.231 Y144.684 E0.04581
G1 X175.69 Y144.137 E0.04581
G1 X175.849 Y144.574 E0.02988
G1 X176.018 Y144.867 E0.02168
G1 X176.236 Y145.126 E0.02168
G1 X176.495 Y145.343 E0.02168
G1 X176.787 Y145.512 E0.02168
G1 X177.105 Y145.628 E0.02168
G1 X177.566 Y145.709 E0.03001
G1 E-0.06 F2400
;WIPE_START
G1 F19200
G1 X176.269 Y147.093 E-0.22514
G1 X176.175 Y146.558 E-0.06448
G1 X176.059 Y146.24 E-0.04014
G1 X175.89 Y145.947 E-0.04014
G1 X175.673 Y145.689 E-0.04014
G1 X175.414 Y145.471 E-0.04014
G1 X175.121 Y145.302 E-0.04014
G1 X174.942 Y145.237 E-0.02268
;WIPE_END
G1 E-0.027 F2400
G1 X179.201 Y132.643 F24000
G1 E0.6 F2400
G1 F6921.4822
G1 X179.336 Y132.666 E0.00878
G1 X178.874 Y133.054 E0.03863
G1 X178.487 Y133.515 E0.03863
G1 X178.382 Y132.922 E0.03863
G1 X178.176 Y132.356 E0.03863
G1 X178.742 Y132.562 E0.03863
G1 X179.127 Y132.63 E0.02504
G1 E-0.06 F2400
;WIPE_START
G1 F19200
G1 X179.336 Y132.666 E-0.02517
G1 X178.874 Y133.054 E-0.07153
G1 X178.487 Y133.515 E-0.07153
G1 X178.382 Y132.922 E-0.07153
G1 X178.176 Y132.356 E-0.07153
G1 X178.742 Y132.562 E-0.07153
G1 X179.127 Y132.63 E-0.04637
;WIPE_END
G1 E-0.1108 F2400
G1 X192.913 Y130.449 F24000
G1 E0.6 F2400
G1 F9000
G1 X191.543 Y131.819 E0.12429
G1 X191.448 Y131.284 E0.03482
G1 X191.333 Y130.967 E0.02168
G1 X191.164 Y130.674 E0.02168
G1 X190.947 Y130.415 E0.02168
G1 X190.688 Y130.198 E0.02168
G1 X190.395 Y130.029 E0.02168
G1 X189.957 Y129.869 E0.02988
G1 X190.504 Y129.41 E0.04581
G1 X190.963 Y128.863 E0.04581
G1 X191.123 Y129.301 E0.02988
G1 X191.292 Y129.594 E0.02168
G1 X191.509 Y129.853 E0.02168
G1 X191.768 Y130.07 E0.02168
G1 X192.061 Y130.239 E0.02168
G1 X192.378 Y130.354 E0.02168
G1 X192.839 Y130.436 E0.03001
G1 E-0.06 F2400
;WIPE_START
G1 F19200
G1 X191.543 Y131.819 E-0.22514
G1 X191.448 Y131.284 E-0.06448
G1 X191.333 Y130.967 E-0.04014
G1 X191.164 Y130.674 E-0.04014
G1 X190.947 Y130.415 E-0.04014
G1 X190.688 Y130.198 E-0.04014
G1 X190.395 Y130.029 E-0.04014
G1 X190.215 Y129.963 E-0.02268
;WIPE_END
G1 E-0.027 F2400
G1 X194.474 Y117.369 F24000
G1 E0.6 F2400
G1 F6921.5415
G1 X194.609 Y117.393 E0.00878
G1 X194.148 Y117.78 E0.03863
G1 X193.76 Y118.242 E0.03863
G1 X193.656 Y117.648 E0.03863
G1 X193.45 Y117.082 E0.03863
G1 X194.016 Y117.288 E0.03863
G1 X194.4 Y117.356 E0.02504
G1 E-0.06 F2400
;WIPE_START
G1 F19200
G1 X194.609 Y117.393 E-0.02517
G1 X194.148 Y117.78 E-0.07153
G1 X193.76 Y118.242 E-0.07153
G1 X193.656 Y117.648 E-0.07154
G1 X193.45 Y117.082 E-0.07153
G1 X194.016 Y117.288 E-0.07153
G1 X194.4 Y117.356 E-0.04637
;WIPE_END
G1 E-0.11079 F2400
G1 X113.877 Y207.213 F24000
G1 E0.6 F2400
G1 F9000
G1 X108.7 Y212.389 E0.4695
G1 X108.542 Y212.529 E0.01353
G1 X108.334 Y212.661 E0.0158
G1 X108.111 Y212.75 E0.01539
G1 X108.002 Y212.773 E0.00714
G1 X107.729 Y212.79 E0.01755
G1 X107.606 Y212.78 E0.00792
G1 X107.486 Y212.754 E0.00789
G1 X107.142 Y212.603 E0.02407
G1 X107.053 Y212.543 E0.00687
G1 X106.878 Y212.389 E0.01494
G1 X98.604 Y204.115 E0.75049
G1 X97.176 Y202.647 E0.13132
G1 X95.8 Y201.154 E0.13022
G1 X94.465 Y199.624 E0.13023
G1 X93.172 Y198.058 E0.13022
G1 X91.922 Y196.458 E0.13023
G1 X90.717 Y194.824 E0.13021
G1 X89.556 Y193.158 E0.13022
G1 X88.441 Y191.461 E0.13023
G1 X87.407 Y189.789 E0.12611
G1 X87.307 Y189.596 E0.01392
G1 X87.255 Y189.452 E0.0098
G1 X87.222 Y189.303 E0.00979
G1 X87.207 Y189.151 E0.0098
G1 X87.212 Y189.026 E0.00801
G1 X87.263 Y188.756 E0.01762
G1 X87.303 Y188.641 E0.00785
G1 X87.372 Y188.504 E0.0098
G1 X87.457 Y188.377 E0.0098
G1 X87.612 Y188.201 E0.01504
G1 X188.201 Y87.612 E9.12328
G1 X188.377 Y87.457 E0.01503
G1 X188.481 Y87.387 E0.00803
G1 X188.711 Y87.279 E0.01632
G1 X188.848 Y87.238 E0.00913
G1 X188.979 Y87.216 E0.00853
G1 X189.232 Y87.216 E0.01623
G1 X189.479 Y87.265 E0.01612
G1 X189.596 Y87.307 E0.00797
G1 X189.789 Y87.407 E0.01392
G1 X191.461 Y88.441 E0.12611
G1 X193.158 Y89.556 E0.13022
G1 X194.824 Y90.717 E0.13022
G1 X196.458 Y91.922 E0.13022
G1 X198.058 Y93.172 E0.13022
G1 X199.624 Y94.465 E0.13022
G1 X201.154 Y95.8 E0.13022
G1 X202.647 Y97.176 E0.13023
G1 X204.115 Y98.604 E0.13132
G1 X212.389 Y106.878 E0.75048
G1 X212.543 Y107.053 E0.01494
G1 X212.612 Y107.154 E0.00783
G1 X212.719 Y107.383 E0.01622
G1 X212.781 Y107.626 E0.01607
G1 X212.79 Y107.729 E0.00665
G1 X212.773 Y108.002 E0.01755
G1 X212.748 Y108.121 E0.00778
G1 X212.697 Y108.264 E0.00974
G1 X212.628 Y108.4 E0.00974
G1 X212.543 Y108.525 E0.00975
G1 X212.389 Y108.7 E0.01494
G1 X207.213 Y113.877 E0.4695
G1 X206.94 Y113.648 E0.02281
G1 X206.981 Y113.536 E0.00769
G1 X207.119 Y112.754 E0.05089
G1 X207.119 Y111.961 E0.05089
G1 X206.981 Y111.179 E0.05089
G1 X206.71 Y110.433 E0.05089
G1 X206.313 Y109.746 E0.05089
G1 X205.875 Y109.224 E0.04374
G1 X202.828 Y106.177 E0.27633
G1 X203.593 Y105.444 E0.06794
G1 X203.968 Y104.959 E0.03933
G1 X204.329 Y104.298 E0.04832
G1 X204.578 Y103.568 E0.04942
G1 X204.698 Y102.807 E0.04942
G1 X204.687 Y102.037 E0.04941
G1 X204.545 Y101.28 E0.04942
G1 X204.276 Y100.558 E0.04942
G1 X203.888 Y99.892 E0.04942
G1 X203.391 Y99.303 E0.04942
G1 X202.802 Y98.806 E0.04943
G1 X202.136 Y98.418 E0.04941
G1 X201.414 Y98.149 E0.04942
G1 X200.657 Y98.007 E0.04941
G1 X199.887 Y97.996 E0.04942
G1 X199.126 Y98.116 E0.04942
G1 X198.396 Y98.365 E0.04941
G1 X197.72 Y98.734 E0.04942
G1 X197.132 Y99.202 E0.04819
G1 X196.716 Y99.654 E0.03939
G1 X196.551 Y99.9 E0.019
G1 X193.47 Y96.819 E0.27942
G1 X192.948 Y96.381 E0.04374
G1 X192.261 Y95.984 E0.05089
G1 X191.515 Y95.713 E0.05089
G1 X190.733 Y95.575 E0.05089
G1 X189.94 Y95.575 E0.05088
G1 X189.158 Y95.713 E0.05089
G1 X189.046 Y95.754 E0.00769
G1 X188.693 Y95.333 E0.0352
G1 X188.219 Y94.935 E0.03971
G1 X187.682 Y94.626 E0.03971
G1 X187.101 Y94.414 E0.03971
G1 X186.491 Y94.306 E0.03971
G1 X185.872 Y94.306 E0.03971
G1 X185.262 Y94.414 E0.03971
G1 X184.68 Y94.626 E0.03971
G1 X184.144 Y94.935 E0.03972
G1 X183.755 Y95.262 E0.03257
G1 X171.629 Y107.387 E1.09976
G1 X171.303 Y107.776 E0.03257
G1 X170.993 Y108.313 E0.03971
G1 X170.782 Y108.894 E0.03971
G1 X170.663 Y109.569 E0.04391
G1 X169.988 Y109.688 E0.04391
G1 X169.407 Y109.899 E0.03971
G1 X168.87 Y110.209 E0.03972
G1 X168.481 Y110.535 E0.03257
G1 X156.356 Y122.661 E1.09976
G1 X156.029 Y123.05 E0.03257
G1 X155.72 Y123.586 E0.03971
G1 X155.508 Y124.168 E0.03971
G1 X155.389 Y124.842 E0.04391
G1 X154.715 Y124.961 E0.04391
G1 X154.133 Y125.173 E0.03971
G1 X153.597 Y125.482 E0.03972
G1 X153.208 Y125.809 E0.03256
G1 X141.082 Y137.934 E1.09976
G1 X140.756 Y138.323 E0.03257
G1 X140.446 Y138.86 E0.03972
G1 X140.235 Y139.441 E0.0397
G1 X140.116 Y140.116 E0.04391
G1 X139.441 Y140.235 E0.04391
G1 X138.86 Y140.446 E0.03971
G1 X138.323 Y140.756 E0.03972
G1 X137.934 Y141.082 E0.03257
G1 X125.809 Y153.208 E1.09976
G1 X125.482 Y153.597 E0.03257
G1 X125.173 Y154.133 E0.03972
G1 X124.961 Y154.715 E0.0397
G1 X124.842 Y155.389 E0.04391
G1 X124.168 Y155.508 E0.0439
G1 X123.586 Y155.72 E0.03971
G1 X123.05 Y156.029 E0.03972
G1 X122.661 Y156.356 E0.03257
G1 X110.535 Y168.481 E1.09975
G1 X110.209 Y168.87 E0.03257
G1 X109.899 Y169.407 E0.03972
G1 X109.687 Y169.988 E0.0397
G1 X109.569 Y170.663 E0.04391
G1 X108.894 Y170.782 E0.04391
G1 X108.313 Y170.993 E0.03971
G1 X107.776 Y171.303 E0.03971
G1 X107.387 Y171.629 E0.03257
G1 X95.262 Y183.755 E1.09975
G1 X94.935 Y184.144 E0.03257
G1 X94.626 Y184.68 E0.03972
G1 X94.414 Y185.262 E0.03971
G1 X94.306 Y185.872 E0.03971
G1 X94.306 Y186.491 E0.03972
G1 X94.414 Y187.101 E0.03971
G1 X94.626 Y187.683 E0.03972
G1 X94.935 Y188.219 E0.03971
G1 X95.333 Y188.693 E0.03971
G1 X95.754 Y189.046 E0.0352
G1 X95.713 Y189.158 E0.00769
G1 X95.575 Y189.94 E0.0509
G1 X95.575 Y190.733 E0.05088
G1 X95.713 Y191.515 E0.05089
G1 X95.984 Y192.261 E0.05089
G1 X96.381 Y192.948 E0.05089
G1 X96.819 Y193.47 E0.04374
G1 X99.891 Y196.542 E0.27858
G1 X99.41 Y196.924 E0.03942
G1 X98.994 Y197.376 E0.03939
G1 X98.492 Y198.123 E0.05771
G1 X98.185 Y198.879 E0.05232
G1 X98.022 Y199.632 E0.04941
G1 X97.989 Y200.402 E0.04941
G1 X98.088 Y201.166 E0.04941
G1 X98.316 Y201.902 E0.0494
G1 X98.666 Y202.588 E0.0494
G1 X99.106 Y203.174 E0.04702
G1 X99.52 Y203.588 E0.03754
G1 X100.138 Y204.051 E0.04954
G1 X100.962 Y204.441 E0.05849
G1 X101.559 Y204.61 E0.03978
G1 X102.292 Y204.705 E0.04741
G1 X103.062 Y204.672 E0.04941
G1 X103.815 Y204.509 E0.04941
G1 X104.529 Y204.219 E0.04941
G1 X105.222 Y203.788 E0.05238
G1 X105.871 Y203.166 E0.05759
G1 X106.152 Y202.803 E0.02948
G1 X109.224 Y205.875 E0.27863
G1 X109.746 Y206.313 E0.04375
G1 X110.433 Y206.71 E0.05088
G1 X111.179 Y206.981 E0.05089
G1 X111.961 Y207.119 E0.05089
G1 X112.754 Y207.119 E0.05089
G1 X113.536 Y206.981 E0.05089
G1 X113.648 Y206.94 E0.00769
G1 X113.829 Y207.155 E0.018
G1 X113.876 Y206.287 F24000
G1 F9000
G1 X114.043 Y206.578 E0.02152
G1 X114.381 Y206.98 E0.0337
G1 X114.645 Y207.202 E0.02209
G1 X109.067 Y212.78 E0.50592
G1 X108.865 Y212.958 E0.01728
G1 X108.579 Y213.14 E0.02173
G1 X108.484 Y213.187 E0.00679
G1 X108.268 Y213.264 E0.01473
G1 X108.076 Y213.305 E0.01256
G1 X107.723 Y213.327 E0.02271
G1 X107.526 Y213.31 E0.01268
G1 X107.32 Y213.266 E0.0135
G1 X106.882 Y213.074 E0.03064
G1 X106.725 Y212.968 E0.0122
G1 X106.512 Y212.78 E0.01821
G1 X98.222 Y204.491 E0.75181
G1 X96.787 Y203.016 E0.13202
G1 X95.401 Y201.512 E0.13116
G1 X94.056 Y199.97 E0.13116
G1 X92.754 Y198.393 E0.13115
G1 X91.496 Y196.781 E0.13116
G1 X90.282 Y195.136 E0.13115
G1 X89.113 Y193.458 E0.13115
G1 X87.99 Y191.749 E0.13116
G1 X86.94 Y190.053 E0.12791
G1 X86.815 Y189.811 E0.01746
G1 X86.74 Y189.603 E0.0142
G1 X86.691 Y189.387 E0.0142
G1 X86.671 Y189.166 E0.0142
G1 X86.678 Y188.967 E0.01279
G1 X86.744 Y188.617 E0.02281
G1 X86.809 Y188.431 E0.01266
G1 X86.908 Y188.233 E0.0142
G1 X87.032 Y188.05 E0.0142
G1 X87.221 Y187.835 E0.01834
G1 X187.835 Y87.221 E9.12548
G1 X188.049 Y87.032 E0.01833
G1 X188.216 Y86.92 E0.01288
G1 X188.519 Y86.777 E0.02151
G1 X188.727 Y86.715 E0.01388
G1 X188.935 Y86.68 E0.01356
G1 X189.284 Y86.681 E0.02239
G1 X189.623 Y86.747 E0.02211
G1 X189.811 Y86.815 E0.01283
G1 X190.053 Y86.94 E0.01746
G1 X191.749 Y87.99 E0.12791
G1 X193.458 Y89.113 E0.13116
G1 X195.136 Y90.282 E0.13115
G1 X196.782 Y91.496 E0.13116
G1 X198.393 Y92.754 E0.13115
G1 X199.97 Y94.056 E0.13116
G1 X201.512 Y95.401 E0.13116
G1 X203.016 Y96.787 E0.13116
G1 X204.491 Y98.222 E0.13203
G1 X212.78 Y106.512 E0.75181
G1 X212.968 Y106.725 E0.01821
G1 X213.078 Y106.889 E0.01268
G1 X213.226 Y107.201 E0.02215
G1 X213.311 Y107.536 E0.02216
G1 X213.327 Y107.723 E0.01204
G1 X213.305 Y108.076 E0.02271
G1 X213.264 Y108.268 E0.01256
G1 X213.19 Y108.475 E0.01411
G1 X213.091 Y108.671 E0.01411
G1 X212.968 Y108.854 E0.01412
G1 X212.78 Y109.067 E0.01822
G1 X207.202 Y114.645 E0.50592
G1 X206.98 Y114.381 E0.02209
G1 X206.578 Y114.043 E0.0337
G1 X206.287 Y113.876 E0.02151
G1 X206.462 Y113.396 E0.03271
G1 X206.583 Y112.707 E0.04488
G1 X206.583 Y112.007 E0.04488
G1 X206.462 Y111.318 E0.04488
G1 X206.223 Y110.661 E0.04488
G1 X205.873 Y110.055 E0.04488
G1 X205.479 Y109.586 E0.03924
G1 X201.948 Y106.055 E0.32029
G1 X202.614 Y105.64 E0.05032
G1 X203.193 Y105.085 E0.05145
G1 X203.518 Y104.665 E0.03405
G1 X203.837 Y104.081 E0.04265
G1 X204.056 Y103.439 E0.04351
G1 X204.162 Y102.769 E0.04352
G1 X204.152 Y102.091 E0.04351
G1 X204.027 Y101.424 E0.04352
G1 X203.79 Y100.788 E0.04352
G1 X203.448 Y100.202 E0.04352
G1 X203.011 Y99.683 E0.04352
G1 X202.492 Y99.246 E0.04352
G1 X201.906 Y98.904 E0.04351
G1 X201.27 Y98.667 E0.04352
G1 X200.603 Y98.542 E0.04351
G1 X199.925 Y98.532 E0.04352
G1 X199.255 Y98.638 E0.04352
G1 X198.613 Y98.857 E0.04351
G1 X198.017 Y99.182 E0.04351
G1 X197.498 Y99.595 E0.04255
G1 X197.138 Y99.987 E0.0341
G1 X196.632 Y100.739 E0.05814
G1 X193.108 Y97.215 E0.31965
G1 X192.639 Y96.821 E0.03924
G1 X192.033 Y96.471 E0.04488
G1 X191.376 Y96.232 E0.04488
G1 X190.687 Y96.111 E0.04488
G1 X189.987 Y96.111 E0.04487
G1 X189.298 Y96.232 E0.04488
G1 X188.818 Y96.407 E0.03271
G1 X188.651 Y96.116 E0.02151
G1 X188.313 Y95.714 E0.0337
G1 X187.91 Y95.376 E0.0337
G1 X187.455 Y95.113 E0.0337
G1 X186.961 Y94.933 E0.0337
G1 X186.444 Y94.842 E0.0337
G1 X185.919 Y94.842 E0.0337
G1 X185.401 Y94.933 E0.0337
G1 X184.907 Y95.113 E0.0337
G1 X184.452 Y95.376 E0.0337
G1 X184.117 Y95.657 E0.02806
G1 X172.025 Y107.749 E1.09676
G1 X171.743 Y108.085 E0.02806
G1 X171.481 Y108.54 E0.0337
G1 X171.301 Y109.034 E0.0337
G1 X171.21 Y109.551 E0.0337
G1 X171.21 Y110.111 E0.03592
G1 X170.591 Y110.125 E0.03969
G1 X170.128 Y110.207 E0.03017
G1 X169.634 Y110.387 E0.0337
G1 X169.179 Y110.649 E0.03371
G1 X168.843 Y110.931 E0.02806
G1 X156.751 Y123.023 E1.09676
G1 X156.47 Y123.358 E0.02806
G1 X156.207 Y123.813 E0.0337
G1 X156.027 Y124.307 E0.0337
G1 X155.936 Y124.824 E0.0337
G1 X155.936 Y125.389 E0.03621
G1 X155.372 Y125.389 E0.03621
G1 X154.854 Y125.48 E0.0337
G1 X154.36 Y125.66 E0.0337
G1 X153.905 Y125.923 E0.03371
G1 X153.57 Y126.204 E0.02806
G1 X141.478 Y138.296 E1.09676
G1 X141.196 Y138.632 E0.02806
G1 X140.934 Y139.087 E0.0337
G1 X140.754 Y139.581 E0.0337
G1 X140.663 Y140.098 E0.0337
G1 X140.663 Y140.663 E0.03621
G1 X140.098 Y140.663 E0.03621
G1 X139.581 Y140.754 E0.0337
G1 X139.087 Y140.934 E0.0337
G1 X138.632 Y141.196 E0.0337
G1 X138.296 Y141.478 E0.02806
G1 X126.204 Y153.57 E1.09676
G1 X125.923 Y153.905 E0.02806
G1 X125.66 Y154.36 E0.0337
G1 X125.48 Y154.854 E0.03369
G1 X125.389 Y155.372 E0.0337
G1 X125.389 Y155.936 E0.03621
G1 X124.824 Y155.936 E0.03621
G1 X124.307 Y156.027 E0.0337
G1 X123.813 Y156.207 E0.0337
G1 X123.358 Y156.47 E0.0337
