; generated by A3dp-Slicer 2.5 on 2022-11-21 at 01:49:52 UTC


;
;

;
;
; 

; external perimeters extrusion width = 0.50mm
; perimeters extrusion width = 0.50mm
; infill extrusion width = 0.75mm
; solid infill extrusion width = 0.75mm
; top infill extrusion width = 0.50mm
; support material extrusion width = 0.50mm

; object:{"name":"Fanduct40_Dragon_7mm","id":"Fanduct40_Dragon_7mm.stl id:0 copy 0","object_center":[150.000000,150.000000,0.000000],"boundingbox_center":[150.000000,150.000000,21.022999],"boundingbox_size":[50.594911,50.798557,42.045998]}
; plater:{"center":[150.000000,150.000000,0.000000],"boundingbox_center":[150.000000,150.000000,21.022999],"boundingbox_size":[50.594911,50.798557,42.045998]}

;TYPE:Custom
PRINT_START EXTRUDER=260 BED=110
M107
G21 ; set units to millimeters
G90 ; use absolute coordinates
M83 ; use relative distances for extrusion
SET_PRESSURE_ADVANCE SMOOTH_TIME=0.03
SET_PRESSURE_ADVANCE ADVANCE=0.06
;_TOOLCHANGE 0
M104 S260 ; set temperature
M109 S260 ; set temperature and wait for it to be reached
M190 S110 ; set bed temperature and wait for it to be reached
M107
;LAYER_CHANGE
;Z:0.2
;HEIGHT:0.2
;BEFORE_LAYER_CHANGE
;0.2


G1 Z0.2 F24000
;AFTER_LAYER_CHANGE
;0.2
G92 E0
G1 E-0.6 F2400
M204 S5000
G1 X133.91 Y134.178 F24000
G1 E0.6 F2400
;TYPE:Skirt
;WIDTH:0.6
G1 F3600
G1 X125.574 Y142.498 E0.54555
G1 X124.175 Y144.748 E0.12274
G1 X121.306 Y153.197 E0.41331
G1 X121.002 Y155.329 E0.09973
G1 X121.491 Y157.424 E0.09966
G1 X122.705 Y159.199 E0.09966
G1 X141.783 Y178.279 E1.24982
G1 X143.112 Y179.364 E0.07948
G1 X144.513 Y180.192 E0.07535
G1 X145.756 Y180.661 E0.06156
G1 X146.668 Y180.89 E0.04354
G1 X147.984 Y181.066 E0.06151
G1 X149.133 Y181.088 E0.05322
G1 X150.664 Y180.913 E0.07138
G1 X151.414 Y180.724 E0.03581
G1 X153.458 Y179.855 E0.10291
G1 X154.551 Y179.146 E0.06037
G1 X155.562 Y178.279 E0.06167
G1 X178.197 Y155.643 E1.48281
G1 X179.268 Y154.333 E0.07838
G1 X180.049 Y152.971 E0.07271
G1 X180.49 Y151.889 E0.05412
G1 X180.908 Y150.065 E0.08668
G1 X180.983 Y148.901 E0.05405
G1 X180.877 Y147.358 E0.07162
G1 X180.623 Y146.115 E0.05876
G1 X179.969 Y144.382 E0.08581
G1 X179.495 Y143.556 E0.0441
G1 X178.502 Y142.234 E0.07658
G1 X157.301 Y121.006 E1.38973
G1 X156.74 Y120.506 E0.03481
G1 X155.47 Y119.686 E0.07002
G1 X154.483 Y119.268 E0.04966
G1 X153.106 Y118.96 E0.06535
G1 X152.663 Y118.917 E0.02063
G1 X150.574 Y119.078 E0.09704
G1 X148.811 Y119.737 E0.08719
G1 X147.516 Y120.6 E0.07207
G1 X133.963 Y134.126 E0.88695
G1 X134.356 Y134.519 F24000
G1 F3600
G1 X125.968 Y142.892 E0.549
G1 X124.702 Y144.927 E0.11102
G1 X121.834 Y153.376 E0.41331
G1 X121.553 Y155.102 E0.081
G1 X121.961 Y157.107 E0.09474
G1 X123.099 Y158.806 E0.09474
G1 X142.177 Y177.885 E1.24982
G1 X143.452 Y178.923 E0.07615
G1 X144.768 Y179.696 E0.07068
G1 X145.892 Y180.121 E0.05568
G1 X146.804 Y180.35 E0.04354
G1 X147.994 Y180.509 E0.05564
G1 X149.143 Y180.531 E0.05322
G1 X150.528 Y180.372 E0.06457
G1 X151.278 Y180.184 E0.03581
G1 X153.209 Y179.357 E0.09731
G1 X154.198 Y178.715 E0.05461
G1 X155.168 Y177.885 E0.05916
G1 X177.804 Y155.249 E1.48281
G1 X178.826 Y153.993 E0.07505
G1 X179.533 Y152.762 E0.06577
G1 X179.974 Y151.679 E0.05412
G1 X180.352 Y150.029 E0.0784
G1 X180.427 Y148.865 E0.05405
G1 X180.331 Y147.47 E0.06478
G1 X180.077 Y146.227 E0.05876
G1 X179.485 Y144.659 E0.07762
G1 X179.012 Y143.833 E0.0441
G1 X178.077 Y142.595 E0.07185
G1 X156.907 Y121.4 E1.38764
G1 X156.382 Y120.933 E0.03256
G1 X155.208 Y120.178 E0.06466
G1 X154.297 Y119.793 E0.04581
G1 X153.052 Y119.515 E0.05911
G1 X152.608 Y119.471 E0.02063
G1 X150.687 Y119.624 E0.0893
G1 X149.057 Y120.237 E0.08064
G1 X147.867 Y121.032 E0.06633
G1 X134.409 Y134.466 E0.88081
G1 E-0.06 F2400
;WIPE_START
G1 F19200
G1 X137.466 Y131.414 E-0.513
;WIPE_END
G1 E-0.027 F2400
; printing object Fanduct40_Dragon_7mm.stl id:0 copy 0
G1 X148.248 Y174.984 F24000
G1 E0.6 F2400
;TYPE:External perimeter
;WIDTH:0.5
G1 F3600
G1 X148.126 Y174.982 E0.00461
G1 X147.27 Y174.767 E0.03355
G1 X146.807 Y174.528 E0.0198
G1 X146.075 Y173.965 E0.0351
G1 X127.185 Y155.073 E1.01535
G1 X127.274 Y154.985 E0.00426
G1 X127.451 Y154.808 E0.00901
G1 X127.751 Y154.508 E0.01614
G1 X127.839 Y154.596 E0.00426
G1 X127.851 Y154.608 E0.00012
G1 X141.652 Y168.41 E0.74184
G1 X143.459 Y168.959 E0.07178
G1 X146.051 Y169.457 E0.10029
G1 X147.475 Y169.524 E0.05418
G1 X148.408 Y169.515 E0.03548
G1 X149.687 Y169.549 E0.04864
G1 X150.924 Y169.497 E0.04703
G1 X152.196 Y169.322 E0.04881
G1 X154.813 Y168.698 E0.10227
G1 X155.698 Y168.407 E0.03539
G1 X157.3 Y166.802 E0.08618
G1 X157.388 Y166.891 E0.00424
G1 X157.565 Y167.067 E0.00899
G1 X157.866 Y167.368 E0.01618
G1 X157.778 Y167.457 E0.00426
G1 X157.601 Y167.634 E0.00901
G1 X151.268 Y173.967 E0.34041
G1 X150.71 Y174.426 E0.02745
G1 X149.904 Y174.829 E0.03425
G1 X149.213 Y175.002 E0.02708
G1 X148.323 Y174.986 E0.03385
;WIPE_START
M204 S10000
G1 X148.006 Y174.547 F24000
;WIPE_END
M204 S5000
G1 X148.232 Y173.607
G1 F3600
G1 X148.26 Y173.621 E0.0012
G1 X149.639 Y173.381 E0.0532
G1 X150.322 Y172.691 E0.03691
G1 X150.574 Y171.897 E0.03168
G1 X150.413 Y171.032 E0.03343
G1 X149.905 Y170.301 E0.03382
G1 X149.475 Y170.12 E0.01773
G1 X149.081 Y169.99 E0.01574
G1 X148.272 Y169.968 E0.03076
G1 X147.663 Y170.158 E0.02424
G1 X146.802 Y171.302 E0.05442
G1 X147.025 Y172.719 E0.05454
G1 X147.51 Y173.245 E0.02717
G1 X148.165 Y173.573 E0.02786
;WIPE_START
M204 S10000
G1 X148.261 Y174.106 F24000
;WIPE_END
M204 S5000
G1 X148.256 Y174.527
;TYPE:Internal perimeter
G1 F3600
G1 X148.187 Y174.526 E0.00262
G1 X147.433 Y174.336 E0.02957
G1 X147.053 Y174.141 E0.01623
G1 X146.377 Y173.621 E0.0324
G1 X142.005 Y169.248 E0.23501
G1 X142.134 Y169.034 E0.00949
G1 X143.349 Y169.404 E0.04829
G1 X145.997 Y169.912 E0.10245
G1 X147.233 Y169.97 E0.04703
G1 X146.32 Y171.181 E0.05763
G1 X146.595 Y172.927 E0.06716
G1 X147.23 Y173.616 E0.03561
G1 X148.19 Y174.097 E0.04081
G1 X149.861 Y173.807 E0.06447
G1 X150.725 Y172.934 E0.04665
G1 X151.044 Y171.925 E0.04023
G1 X150.844 Y170.851 E0.04152
G1 X150.24 Y169.983 E0.04021
G1 X150.965 Y169.953 E0.02757
G1 X152.28 Y169.772 E0.05048
G1 X154.938 Y169.138 E0.10384
G1 X155.184 Y169.057 E0.00983
G1 X155.316 Y169.272 E0.0096
G1 X150.961 Y173.628 E0.23412
G1 X150.46 Y174.04 E0.02465
G1 X149.744 Y174.398 E0.03039
G1 X149.161 Y174.544 E0.02287
G1 X148.331 Y174.529 E0.03154
G1 E-0.06 F2400
;WIPE_START
G1 F19200
G1 X149.161 Y174.544 E-0.09855
G1 X149.744 Y174.398 E-0.07145
G1 X150.46 Y174.04 E-0.09497
G1 X150.961 Y173.628 E-0.07701
G1 X151.979 Y172.61 E-0.17103
;WIPE_END
G1 E-0.027 F2400
G1 X146.029 Y172.562 F24000
G1 E0.6 F2400
;TYPE:Gap fill
;WIDTH:0.600737
G1 F3600
G1 X146.105 Y172.711 E0.00775
;WIDTH:0.488686
G1 X146.13 Y172.76 E0.00207
G1 X146.202 Y172.901 E0.00586
;WIDTH:0.325641
G1 X146.274 Y173.042 E0.00372
;WIDTH:0.281103
G1 X146.314 Y173.099 E0.00139
G1 X146.586 Y173.383 E0.00779
G1 X146.825 Y173.602 E0.00642
;WIDTH:0.143248
G1 X147.065 Y173.821 E0.0027
G1 X147.201 Y173.908 E0.00135
G1 X147.366 Y173.992 E0.00155
G1 X147.531 Y174.076 E0.00155
G1 X147.685 Y174.133 E0.00137
G1 X147.73 Y174.15 E0.0004
G1 E-0.06 F2400
;WIPE_START
G1 F19200
G1 X147.685 Y174.133 E-0.0057
G1 X147.531 Y174.076 E-0.01957
G1 X147.366 Y173.992 E-0.022
G1 X147.201 Y173.908 E-0.022
G1 X147.065 Y173.821 E-0.0192
G1 X146.825 Y173.602 E-0.0385
G1 X146.586 Y173.383 E-0.0385
G1 X146.45 Y173.241 E-0.02334
G1 X146.314 Y173.099 E-0.02334
G1 X146.274 Y173.042 E-0.00832
G1 X146.202 Y172.901 E-0.01877
G1 X146.13 Y172.76 E-0.01877
G1 X146.105 Y172.711 E-0.00662
G1 X146.029 Y172.562 E-0.01985
;WIPE_END
G1 E-0.25552 F2400
G1 X150.156 Y173.891 F24000
G1 E0.6 F2400
;WIDTH:0.179974
G1 F3600
G1 X150.297 Y173.789 E0.00199
G1 X150.518 Y173.587 E0.00342
;WIDTH:0.25392
G1 X150.74 Y173.385 E0.00526
G1 X150.869 Y173.256 E0.0032
G1 X150.997 Y173.126 E0.0032
G1 X151.086 Y172.992 E0.00283
;WIDTH:0.322119
G1 X151.144 Y172.896 E0.00261
;WIDTH:0.388816
G1 X151.203 Y172.799 E0.00324
;WIDTH:0.455514
G1 X151.261 Y172.703 E0.00386
;WIDTH:0.522211
G1 X151.32 Y172.607 E0.00449
G1 X151.382 Y172.505 E0.00478
;WIDTH:0.653182
G1 X151.444 Y172.402 E0.00608
G1 E-0.06 F2400
;WIPE_START
G1 F19200
G1 X151.382 Y172.505 E-0.01423
G1 X151.32 Y172.607 E-0.01423
G1 X151.261 Y172.703 E-0.01337
G1 X151.203 Y172.799 E-0.01337
G1 X151.144 Y172.896 E-0.01337
G1 X151.086 Y172.992 E-0.01337
G1 X150.997 Y173.126 E-0.01913
G1 X150.869 Y173.256 E-0.02166
G1 X150.74 Y173.385 E-0.02166
G1 X150.518 Y173.587 E-0.03562
G1 X150.297 Y173.789 E-0.03562
G1 X150.156 Y173.891 E-0.02069
;WIPE_END
G1 E-0.3037 F2400
G1 X150.626 Y170.477 F24000
G1 E0.6 F2400
;TYPE:Solid infill
;WIDTH:0.75
G1 F6000
G1 X153.632 Y170.477 E0.1767
G1 X152.925 Y171.184 E0.05879
G1 X151.251 Y171.184 E0.09839
G1 X151.383 Y171.891 E0.04229
G1 X152.648 Y171.891 E0.07434
G1 E-0.06 F2400
;WIPE_START
G1 F19200
G1 X151.383 Y171.891 E-0.15015
G1 X151.251 Y171.184 E-0.08542
G1 X152.925 Y171.184 E-0.19872
G1 X153.393 Y170.715 E-0.07871
;WIPE_END
G1 E-0.027 F2400
G1 X152.335 Y170.059 F24000
G1 E0.6 F2400
;TYPE:Gap fill
;WIDTH:0.19292
G1 F3600
G1 X152.59 Y170.028 E0.00321
;WIDTH:0.262841
G1 X152.846 Y169.997 E0.00471
;WIDTH:0.332761
G1 X153.101 Y169.966 E0.0062
;WIDTH:0.402682
G1 X153.357 Y169.935 E0.0077
;WIDTH:0.472602
G1 X153.612 Y169.904 E0.0092
;WIDTH:0.542522
G1 X153.868 Y169.873 E0.01069
G1 X153.995 Y169.874 E0.00529
;WIDTH:0.603533
G1 X154.097 Y169.816 E0.00546
;WIDTH:0.535098
G1 X154.199 Y169.759 E0.00479
;WIDTH:0.466662
G1 X154.301 Y169.701 E0.00413
;WIDTH:0.398227
G1 X154.403 Y169.643 E0.00346
;WIDTH:0.329791
G1 X154.505 Y169.586 E0.00279
;WIDTH:0.261356
G1 X154.607 Y169.528 E0.00213
;WIDTH:0.19292
G1 X154.709 Y169.471 E0.00146
G1 X155.429 Y169.054 F24000
;WIDTH:0.702149
G1 F3600
G1 X155.54 Y168.986 E0.00713
;WIDTH:0.563531
G1 X155.651 Y168.918 E0.00563
G1 X155.762 Y168.849 E0.00566
;WIDTH:0.442288
G1 X155.874 Y168.781 E0.00434
G1 X155.945 Y168.725 E0.00302
G1 X156.623 Y168.046 E0.03183
G1 X157.3 Y167.368 E0.03183
G1 X157.434 Y167.234 E0.0063
G1 E-0.06 F2400
;WIPE_START
G1 F19200
G1 X157.3 Y167.368 E-0.02252
G1 X156.623 Y168.046 E-0.11384
G1 X155.945 Y168.725 E-0.11384
G1 X155.874 Y168.781 E-0.01078
G1 X155.762 Y168.849 E-0.01553
G1 X155.651 Y168.918 E-0.01553
G1 X155.54 Y168.986 E-0.01546
G1 X155.429 Y169.054 E-0.01546
;WIPE_END
G1 E-0.21705 F2400
G1 X146.779 Y170.514 F24000
G1 E0.6 F2400
;TYPE:Solid infill
;WIDTH:0.75
G1 F6000
G1 X143.751 Y170.514 E0.17799
G1 X144.458 Y171.221 E0.05879
G1 X145.983 Y171.221 E0.08966
G1 X146.094 Y171.928 E0.04208
G1 X144.735 Y171.928 E0.07991
G1 E-0.06 F2400
;WIPE_START
G1 F19200
G1 X146.094 Y171.928 E-0.1614
G1 X145.983 Y171.221 E-0.085
G1 X144.458 Y171.221 E-0.18109
G1 X143.949 Y170.712 E-0.08551
;WIPE_END
G1 E-0.027 F2400
G1 X145.449 Y170.101 F24000
G1 E0.6 F2400
;TYPE:Gap fill
;WIDTH:0.19292
G1 F3600
G1 X145.127 Y170.07 E0.00404
;WIDTH:0.260532
G1 X144.804 Y170.039 E0.00586
;WIDTH:0.328144
G1 X144.482 Y170.009 E0.00768
;WIDTH:0.395755
G1 X144.16 Y169.978 E0.0095
;WIDTH:0.463367
G1 X143.837 Y169.947 E0.01132
;WIDTH:0.530978
G1 X143.515 Y169.917 E0.01314
G1 X143.386 Y169.921 E0.00523
G1 X143.23 Y169.837 E0.00718
;WIDTH:0.484957
G1 X143.116 Y169.769 E0.00488
;WIDTH:0.411948
G1 X143.002 Y169.701 E0.00407
;WIDTH:0.338939
G1 X142.889 Y169.632 E0.00327
;WIDTH:0.26593
G1 X142.775 Y169.564 E0.00246
;WIDTH:0.19292
G1 X142.661 Y169.496 E0.00166
G1 X141.889 Y169.033 F24000
;WIDTH:0.695641
G1 F3600
G1 X141.78 Y168.967 E0.00691
;WIDTH:0.552489
G1 X141.67 Y168.902 E0.0054
G1 X141.576 Y168.845 E0.00465
;WIDTH:0.44591
G1 X141.482 Y168.789 E0.00368
G1 X141.407 Y168.73 E0.0032
G1 X134.579 Y161.902 E0.32358
G1 X127.751 Y155.073 E0.32358
G1 X127.617 Y154.939 E0.00634
G1 E-0.06 F2400
;WIPE_START
G1 F19200
G1 X127.751 Y155.073 E-0.02248
G1 X130.672 Y157.994 E-0.49052
;WIPE_END
G1 E-0.027 F2400
G1 X130.618 Y147.188 F24000
G1 E0.6 F2400
;TYPE:External perimeter
;WIDTH:0.5
G1 F3600
G1 X130.054 Y146.624 E0.03032
G1 X130.142 Y146.536 E0.00424
G1 X130.319 Y146.359 E0.00899
G1 X133.589 Y143.091 E0.1757
G1 X133.677 Y143.179 E0.00426
G1 X133.694 Y143.196 E0.00042
G1 X134.152 Y143.654 E0.02461
G1 X134.064 Y143.743 E0.00426
G1 X133.887 Y143.919 E0.00901
G1 X130.671 Y147.135 E0.17285
;WIPE_START
M204 S10000
G1 X130.489 Y146.705 F24000
;WIPE_END
M204 S5000
G1 X130.485 Y146.757
;TYPE:Gap fill
;WIDTH:0.419445
G1 F3600
G1 X130.618 Y146.624 E0.00589
G1 X132.103 Y145.139 E0.06576
G1 X133.589 Y143.654 E0.06576
G1 X133.722 Y143.521 E0.00587
G1 E-0.06 F2400
;WIPE_START
G1 F19200
G1 X133.589 Y143.654 E-0.02228
G1 X132.103 Y145.139 E-0.24944
G1 X130.667 Y146.576 E-0.24128
;WIPE_END
G1 E-0.027 F2400
G1 X160.623 Y164.613 F24000
G1 E0.6 F2400
;TYPE:External perimeter
;WIDTH:0.5
G1 F3600
G1 X160.058 Y164.047 E0.03041
G1 X160.146 Y163.959 E0.00426
G1 X160.323 Y163.782 E0.00901
G1 X168.315 Y155.788 E0.4296
G1 X169.223 Y152.307 E0.13675
G1 X169.424 Y149.796 E0.09574
G1 X169.432 Y148.389 E0.05348
G1 X169.456 Y147.974 E0.01579
G1 X169.41 Y146.717 E0.0478
G1 X168.865 Y143.576 E0.12116
G1 X168.309 Y141.754 E0.07242
G1 X153.477 Y126.92 E0.79727
G1 X153.137 Y126.652 E0.01645
G1 X152.589 Y126.431 E0.02244
G1 X151.586 Y126.486 E0.03817
G1 X150.903 Y126.903 E0.03042
G1 X136.908 Y140.898 E0.75221
G1 X136.82 Y140.809 E0.00424
G1 X136.643 Y140.633 E0.00899
G1 X136.344 Y140.333 E0.01608
G1 X136.432 Y140.245 E0.00426
G1 X136.609 Y140.068 E0.00901
G1 X151.357 Y125.32 E0.79269
G1 X151.525 Y125.184 E0.00823
G1 X151.832 Y125.033 E0.01301
G1 X152.104 Y124.977 E0.01054
G1 X152.479 Y125.014 E0.01432
G1 X152.623 Y125.065 E0.00583
G1 X152.849 Y125.185 E0.0097
G1 X153.006 Y125.317 E0.00779
G1 X173.87 Y146.182 E1.12145
G1 X174.226 Y146.601 E0.02092
G1 X174.668 Y147.373 E0.03378
G1 X174.907 Y148.543 E0.04541
G1 X174.837 Y149.634 E0.04154
G1 X174.425 Y150.647 E0.04157
G1 X173.883 Y151.352 E0.0338
G1 X160.676 Y164.56 E0.70987
;WIPE_START
M204 S10000
G1 X160.494 Y164.13 F24000
;WIPE_END
G1 E-0.06 F2400
;WIPE_START
G1 F19200
M204 S5000
G1 X163.517 Y161.044 E-0.513
;WIPE_END
G1 E-0.027 F2400
G1 X171.866 Y150.661 F24000
G1 E0.6 F2400
G1 F3600
G1 X173.104 Y150.031 E0.05282
G1 X173.57 Y148.907 E0.04622
G1 X173.133 Y147.571 E0.05344
G1 X172.655 Y147.159 E0.02397
G1 X172.204 Y146.945 E0.01897
G1 X171.761 Y146.964 E0.01686
G1 X170.927 Y147.001 E0.03172
G1 X170.471 Y147.393 E0.02285
G1 X170.031 Y147.788 E0.02249
G1 X169.878 Y148.636 E0.03276
G1 X169.918 Y149.456 E0.03118
G1 X170.223 Y150.009 E0.02404
G1 X170.929 Y150.512 E0.03294
G1 X171.796 Y150.674 E0.03351
;WIPE_START
M204 S10000
G1 X172.219 Y151.015 F24000
;WIPE_END
G1 E-0.06 F2400
;WIPE_START
G1 F19200
M204 S5000
G1 X173.3 Y150.212 E-0.15992
G1 X173.836 Y148.917 E-0.16635
G1 X173.349 Y147.427 E-0.18623
G1 X173.346 Y147.424 E-0.00051
;WIPE_END
G1 E-0.027 F2400
G1 X152.994 Y125.952 F24000
G1 E0.6 F2400
;TYPE:Internal perimeter
G1 F3600
G1 X151.278 Y126.045 E0.0653
G1 X151.663 Y125.66 E0.02067
G1 X151.773 Y125.571 E0.00537
G1 X151.982 Y125.469 E0.00884
G1 X152.128 Y125.438 E0.00568
G1 X152.379 Y125.463 E0.00957
G1 X152.439 Y125.484 E0.00241
G1 X152.592 Y125.566 E0.00659
G1 X152.697 Y125.654 E0.00521
G1 X152.941 Y125.899 E0.01314
G1 E-0.06 F2400
;WIPE_START
G1 F19200
G1 X152.697 Y125.654 E-0.04107
G1 X152.592 Y125.566 E-0.01628
G1 X152.439 Y125.484 E-0.02059
G1 X152.379 Y125.463 E-0.00754
G1 X152.128 Y125.438 E-0.02991
G1 X151.982 Y125.469 E-0.01774
G1 X151.773 Y125.571 E-0.02763
G1 X151.663 Y125.66 E-0.01678
G1 X151.278 Y126.045 E-0.06459
G1 X152.994 Y125.952 E-0.20403
;WIPE_END
G1 E-0.09382 F2400
G1 X168.901 Y155.354 F24000
G1 E0.6 F2400
G1 F3600
G1 X169.676 Y152.383 E0.11668
G1 X169.842 Y150.299 E0.07946
G1 X170.746 Y150.943 E0.04216
G1 X171.897 Y151.158 E0.04452
G1 X173.462 Y150.361 E0.06672
G1 X174.056 Y148.926 E0.05905
G1 X173.528 Y147.307 E0.06471
G1 X172.907 Y146.772 E0.03116
G1 X172.298 Y146.483 E0.02563
G1 X171.741 Y146.508 E0.02117
G1 X170.749 Y146.551 E0.03773
G1 X170.17 Y147.049 E0.02905
G1 X169.889 Y147.301 E0.01434
G1 X169.866 Y146.67 E0.02403
G1 X169.31 Y143.47 E0.12342
G1 X168.934 Y142.235 E0.04909
G1 X169.148 Y142.106 E0.0095
G1 X173.534 Y146.492 E0.23572
