; generated by SuperSlicer 2.5.59 on 2023-08-18 at 03:37:15 UTC


;
;

;
;
; 

; external perimeters extrusion width = 0.50mm
; perimeters extrusion width = 0.50mm
; infill extrusion width = 0.75mm
; solid infill extrusion width = 0.65mm
; top infill extrusion width = 0.60mm
; first layer extrusion width = 0.60mm

; object:{"name":"YACS","id":"YACS.stl id:0 copy 0","object_center":[150.000000,150.000000,0.000000],"boundingbox_center":[150.000000,150.000000,2.500000],"boundingbox_size":[104.000000,104.000000,5.000000]}
EXCLUDE_OBJECT_DEFINE NAME=YACS_stl_id_0_copy_0 CENTER=150.000000,150.000000 POLYGON=[[98.000000,102.000000],[102.000000,98.000000],[198.000000,98.000000],[202.000000,102.000000],[202.000000,198.000000],[198.000000,202.000000],[102.000000,202.000000],[98.000000,198.000000],[98.000000,102.000000]]
; plater:{"center":[150.000000,150.000000,0.000000],"boundingbox_center":[150.000000,150.000000,2.500000],"boundingbox_size":[104.000000,104.000000,5.000000]}

;TYPE:Custom
PRINT_START EXTRUDER=260 BED=110 AREA_START=91.1519,91.1519 AREA_END=208.848,208.848
M107
G21 ; set units to millimeters
G90 ; use absolute coordinates
M83 ; use relative distances for extrusion
SET_PRESSURE_ADVANCE SMOOTH_TIME=0.02
SET_PRESSURE_ADVANCE ADVANCE=0.022
;_TOOLCHANGE 0
M104 S260 ; set temperature
M109 S260 ; set temperature and wait for it to be reached
M190 S110 ; set bed temperature and wait for it to be reached
M107
;LAYER_CHANGE
;Z:0.2
;HEIGHT:0.2
;BEFORE_LAYER_CHANGE
TIMELAPSE_TAKE_FRAME
;0.2


G1 Z0.2 F36000
;AFTER_LAYER_CHANGE
;0.2
G92 E0
G1 E-0.8 F3600
G1 Z0.3 F36000
M204 S5000
G1 X94.921 Y95.852
G1 Z0.2
G1 E0.8 F3600
;TYPE:Skirt
;WIDTH:0.6
G1 F1800
G1 X93.399 Y97.359 E0.08831
G1 X92.106 Y99.372 E0.09865
G1 X91.709 Y101.487 E0.08869
G1 X91.709 Y198.513 E4.00001
G1 X92.048 Y200.474 E0.08204
G1 X93.132 Y202.332 E0.08869
G1 X97.359 Y206.601 E0.24764
G1 X99.372 Y207.894 E0.09865
G1 X101.487 Y208.291 E0.08869
G1 X198.513 Y208.291 E4.00001
G1 X200.474 Y207.952 E0.08204
G1 X202.332 Y206.868 E0.08869
G1 X206.601 Y202.641 E0.24764
G1 X207.894 Y200.628 E0.09865
G1 X208.291 Y198.513 E0.08869
G1 X208.291 Y101.487 E4.00001
G1 X207.952 Y99.526 E0.08204
G1 X206.868 Y97.668 E0.08869
G1 X202.641 Y93.399 E0.24764
G1 X200.628 Y92.106 E0.09865
G1 X198.513 Y91.709 E0.08869
G1 X101.487 Y91.709 E4.00001
G1 X99.526 Y92.048 E0.08204
G1 X97.668 Y93.132 E0.08869
G1 X94.975 Y95.799 E0.15624
G1 X95.366 Y96.194 F36000
G1 F1800
G1 X93.82 Y97.724 E0.08964
G1 X92.662 Y99.48 E0.08674
G1 X92.266 Y101.487 E0.08432
G1 X92.266 Y198.513 E4.00001
G1 X92.54 Y200.192 E0.07011
G1 X93.554 Y201.968 E0.08432
G1 X97.724 Y206.18 E0.24434
G1 X99.48 Y207.338 E0.08674
G1 X101.487 Y207.734 E0.08432
G1 X198.513 Y207.734 E4.00001
G1 X200.192 Y207.46 E0.07011
G1 X201.968 Y206.446 E0.08432
G1 X206.18 Y202.276 E0.24434
G1 X207.338 Y200.52 E0.08674
G1 X207.734 Y198.513 E0.08432
G1 X207.734 Y101.487 E4.00001
G1 X207.46 Y99.808 E0.07011
G1 X206.446 Y98.032 E0.08432
G1 X202.276 Y93.82 E0.24434
G1 X200.52 Y92.662 E0.08674
G1 X198.513 Y92.266 E0.08432
G1 X101.487 Y92.266 E4.00001
G1 X99.808 Y92.54 E0.07011
G1 X98.032 Y93.554 E0.08432
G1 X95.419 Y96.141 E0.15161
G1 E-0.08 F3600
;WIPE_START
G1 F28800
M204 S10000
G1 X98.032 Y93.554 E-0.43671
G1 X99.808 Y92.54 E-0.24287
G1 X99.845 Y92.534 E-0.00442
;WIPE_END
G1 E-0.036 F3600
G1 Z0.3 F36000
; printing object YACS.stl id:0 copy 0
EXCLUDE_OBJECT_START NAME=YACS_stl_id_0_copy_0
; acceleration to travel
G1 X103.747 Y179.835
; decel to extrusion
M204 S5000
G1 X104.451 Y195.589
; end travel
G1 Z0.2
G1 E0.8 F3600
;TYPE:Internal perimeter
G1 F1800
G1 X105.253 Y197.526 E0.08642
G1 X194.747 Y197.526 E3.68945
G1 X195.561 Y195.561 E0.08769
G1 X197.526 Y194.747 E0.08769
G1 X197.526 Y105.253 E3.68945
G1 X195.56 Y104.44 E0.08769
G1 X194.747 Y102.474 E0.08769
G1 X105.253 Y102.474 E3.68945
G1 X104.439 Y104.439 E0.08769
G1 X102.474 Y105.253 E0.08769
G1 X102.474 Y194.747 E3.68945
G1 X104.399 Y195.544 E0.08587
G1 X104.754 Y195.088 F36000
G1 F1800
G1 X104.866 Y195.134 E0.00501
G1 X105.626 Y196.969 E0.08186
G1 X194.374 Y196.969 E3.65875
G1 X195.134 Y195.134 E0.08186
G1 X196.969 Y194.374 E0.08186
G1 X196.969 Y105.626 E3.65875
G1 X195.134 Y104.866 E0.08186
G1 X194.374 Y103.031 E0.08186
G1 X105.626 Y103.031 E3.65875
G1 X104.866 Y104.866 E0.08186
G1 X103.031 Y105.626 E0.08186
G1 X103.031 Y194.374 E3.65875
G1 X104.684 Y195.059 E0.07376
G1 E-0.08 F3600
;WIPE_START
G1 F28800
M204 S10000
G1 X103.031 Y194.374 E-0.21246
G1 X103.031 Y190.404 E-0.47154
;WIPE_END
G1 E-0.036 F3600
G1 Z0.3 F36000
; acceleration to travel
G1 X180.122 Y195.431
; decel to extrusion
M204 S5000
G1 X194.033 Y196.338
; end travel
G1 Z0.2
G1 E0.8 F3600
G1 F1800
G1 X194.492 Y195.23 E0.04944
G1 X150.008 Y150.746 E2.59351
G1 X148.978 Y151.775 E0.06
G1 X105.508 Y195.23 E2.53395
G1 X105.998 Y196.412 E0.05273
G1 X194.002 Y196.412 E3.62806
G1 X194.004 Y196.407 E0.0002
G1 X193.63 Y195.855 F36000
;TYPE:External perimeter
G1 F1800
G1 X193.834 Y195.361 E0.02204
G1 X150.008 Y151.534 E2.5552
G1 X149.372 Y152.169 E0.03704
G1 X106.166 Y195.361 E2.51861
G1 X106.37 Y195.855 E0.02204
G1 X193.555 Y195.855 E3.59428
;WIPE_START
M204 S10000
G1 X194.113 Y195.984 F36000
;WIPE_END
G1 E-0.08 F3600
;WIPE_START
G1 F28800
G1 X194.129 Y195.302 E-0.081
G1 X190.539 Y191.711 E-0.603
;WIPE_END
G1 E-0.036 F3600
G1 Z0.3 F36000
; acceleration to travel
G1 X117.929 Y194.019
; decel to extrusion
M204 S5000
G1 X104.827 Y194.435
; end travel
G1 Z0.2
G1 E0.8 F3600
;TYPE:Internal perimeter
G1 F1800
G1 X149.254 Y149.992 E2.59067
G1 X104.77 Y105.508 E2.59351
G1 X104.281 Y105.711 E0.0218
G1 X103.588 Y105.998 E0.03093
G1 X103.588 Y194.002 E3.62806
G1 X104.77 Y194.492 E0.05273
G1 X104.774 Y194.488 E0.0002
G1 X104.639 Y193.834 F36000
;TYPE:External perimeter
G1 F1800
G1 X148.466 Y149.992 E2.55565
G1 X104.639 Y106.166 E2.5552
G1 X104.495 Y106.226 E0.00645
G1 X104.145 Y106.37 E0.01558
G1 X104.145 Y193.63 E3.59737
G1 X104.57 Y193.806 E0.01895
;WIPE_START
M204 S10000
G1 X105.036 Y194.139 F36000
;WIPE_END
G1 E-0.08 F3600
;WIPE_START
G1 F28800
G1 X109.092 Y190.049 E-0.684
;WIPE_END
G1 E-0.036 F3600
G1 Z0.3 F36000
; acceleration to travel
G1 X181.389 Y117.854
; decel to extrusion
M204 S5000
G1 X194.435 Y104.827
; end travel
G1 Z0.2
G1 E0.8 F3600
;TYPE:Internal perimeter
G1 F1800
G1 X194.492 Y104.77 E0.00329
G1 X194.002 Y103.588 E0.05273
G1 X105.998 Y103.588 E3.62806
G1 X105.508 Y104.77 E0.05273
G1 X149.992 Y149.254 E2.59351
G1 X194.382 Y104.88 E2.58758
G1 X193.834 Y104.639 F36000
;TYPE:External perimeter
G1 F1800
G1 X193.63 Y104.145 E0.02204
G1 X106.37 Y104.145 E3.59737
G1 X106.166 Y104.639 E0.02204
G1 X149.992 Y148.466 E2.5552
G1 X193.781 Y104.692 E2.55256
;WIPE_START
M204 S10000
G1 X194.267 Y104.389 F36000
;WIPE_END
G1 E-0.08 F3600
;WIPE_START
G1 F28800
G1 X193.797 Y103.895 E-0.08101
G1 X188.719 Y103.895 E-0.60299
;WIPE_END
G1 E-0.036 F3600
G1 Z0.3 F36000
; acceleration to travel
G1 X195.173 Y180.254
; decel to extrusion
M204 S5000
G1 X196.338 Y194.033
; end travel
G1 Z0.2
G1 E0.8 F3600
;TYPE:Internal perimeter
G1 F1800
G1 X196.412 Y194.002 E0.00329
G1 X196.412 Y105.998 E3.62806
G1 X195.23 Y105.508 E0.05273
G1 X194.425 Y106.313 E0.04692
G1 X150.746 Y150.008 E2.54704
G1 X195.23 Y194.492 E2.59351
G1 X196.269 Y194.061 E0.04635
G1 X195.855 Y193.63 F36000
;TYPE:External perimeter
G1 F1800
G1 X195.855 Y106.37 E3.59737
G1 X195.361 Y106.166 E0.02204
G1 X194.819 Y106.707 E0.03157
G1 X151.534 Y150.008 E2.52407
G1 X195.361 Y193.834 E2.5552
G1 X195.785 Y193.659 E0.01895
;WIPE_START
M204 S10000
G1 X196.35 Y193.565 F36000
;WIPE_END
G1 E-0.08 F3600
;WIPE_START
G1 F28800
G1 X196.334 Y187.805 E-0.684
;WIPE_END
G1 E-0.036 F3600
G1 Z0.3 F36000
; acceleration to travel
G1 X116.031 Y114.727
; decel to extrusion
M204 S5000
G1 X101.54 Y101.54
; end travel
G1 Z0.2
G1 E0.8 F3600
;TYPE:Internal perimeter
G1 F1800
G1 X101.957 Y101.56 E0.01721
G1 X102.505 Y101.566 E0.0226
G1 X196.991 Y101.566 E3.89527
G1 X198.039 Y101.561 E0.0432
G1 X198.46 Y101.54 E0.0174
G1 X198.44 Y101.957 E0.01721
G1 X198.434 Y102.505 E0.0226
G1 X198.434 Y196.991 E3.89527
G1 X198.439 Y198.039 E0.0432
G1 X198.46 Y198.46 E0.0174
G1 X198.043 Y198.44 E0.01721
G1 X197.495 Y198.434 E0.0226
G1 X103.009 Y198.434 E3.89527
G1 X101.961 Y198.439 E0.0432
G1 X101.54 Y198.46 E0.0174
G1 X101.56 Y198.043 E0.01721
G1 X101.566 Y197.495 E0.0226
G1 X101.566 Y103.009 E3.89527
G1 X101.561 Y101.961 E0.0432
G1 X101.544 Y101.615 E0.01431
G1 X100.953 Y100.953 F36000
G1 F1800
G1 X101.973 Y101.003 E0.04209
G1 X102.508 Y101.009 E0.02204
G1 X196.989 Y101.009 E3.89509
G1 X198.023 Y101.004 E0.04264
G1 X199.047 Y100.953 E0.04223
G1 X198.997 Y101.973 E0.04209
G1 X198.991 Y102.508 E0.02204
G1 X198.991 Y196.989 E3.89509
G1 X198.996 Y198.023 E0.04264
G1 X199.047 Y199.047 E0.04223
G1 X198.027 Y198.997 E0.04209
G1 X197.492 Y198.991 E0.02204
G1 X103.011 Y198.991 E3.89509
G1 X101.977 Y198.996 E0.04264
G1 X100.953 Y199.047 E0.04223
G1 X101.003 Y198.027 E0.04209
G1 X101.009 Y197.492 E0.02204
G1 X101.009 Y103.011 E3.89509
G1 X101.004 Y101.977 E0.04264
G1 X100.957 Y101.028 E0.03914
G1 X100.37 Y100.44 F36000
G1 F1800
G1 X100.367 Y100.367 E0.00303
G1 X101.99 Y100.446 E0.06698
G1 X102.511 Y100.452 E0.02148
G1 X196.988 Y100.452 E3.89491
G1 X198.008 Y100.447 E0.04208
G1 X199.633 Y100.367 E0.06707
G1 X199.554 Y101.99 E0.06698
G1 X199.548 Y102.511 E0.02148
G1 X199.548 Y196.988 E3.89491
G1 X199.553 Y198.008 E0.04208
G1 X199.633 Y199.633 E0.06707
G1 X198.01 Y199.554 E0.06698
G1 X197.489 Y199.548 E0.02148
G1 X103.012 Y199.548 E3.89491
G1 X101.992 Y199.553 E0.04208
G1 X100.367 Y199.633 E0.06707
G1 X100.446 Y198.01 E0.06698
G1 X100.452 Y197.489 E0.02148
G1 X100.452 Y103.012 E3.89491
G1 X100.447 Y101.992 E0.04208
G1 X100.374 Y100.515 E0.06094
G1 X99.845 Y101.105 F36000
;TYPE:External perimeter
G1 F1800
G1 X99.07 Y101.215 E0.03229
G1 X98.199 Y101.215 E0.0359
G1 X98.683 Y100.732 E0.0282
G1 X99.058 Y100.446 E0.01944
G1 X99.429 Y100.117 E0.02043
G1 X99.777 Y99.777 E0.02007
G1 X100.117 Y99.429 E0.02007
G1 X100.446 Y99.058 E0.02043
G1 X100.732 Y98.683 E0.01944
G1 X101.215 Y98.199 E0.0282
G1 X101.215 Y99.07 E0.0359
G1 X101.105 Y99.845 E0.03229
G1 X102.006 Y99.889 E0.03719
G1 X102.513 Y99.895 E0.02091
G1 X196.986 Y99.895 E3.89473
G1 X197.993 Y99.89 E0.04152
G1 X198.895 Y99.845 E0.03722
G1 X198.785 Y99.07 E0.03229
G1 X198.785 Y98.199 E0.0359
G1 X199.268 Y98.683 E0.0282
G1 X199.554 Y99.058 E0.01944
G1 X199.883 Y99.429 E0.02043
G1 X200.223 Y99.777 E0.02007
G1 X200.571 Y100.117 E0.02007
G1 X200.942 Y100.446 E0.02043
G1 X201.317 Y100.732 E0.01944
G1 X201.801 Y101.215 E0.0282
G1 X200.93 Y101.215 E0.0359
G1 X200.155 Y101.105 E0.03229
G1 X200.111 Y102.006 E0.03719
G1 X200.105 Y102.513 E0.02091
G1 X200.105 Y196.986 E3.89473
G1 X200.11 Y197.993 E0.04152
G1 X200.155 Y198.895 E0.03722
G1 X200.93 Y198.785 E0.03229
G1 X201.801 Y198.785 E0.0359
G1 X201.317 Y199.268 E0.0282
G1 X200.942 Y199.554 E0.01944
G1 X200.571 Y199.883 E0.02043
G1 X200.223 Y200.223 E0.02007
G1 X199.883 Y200.571 E0.02007
G1 X199.554 Y200.942 E0.02043
G1 X199.268 Y201.317 E0.01944
G1 X198.785 Y201.801 E0.0282
G1 X198.785 Y200.93 E0.0359
G1 X198.895 Y200.155 E0.03229
G1 X197.994 Y200.111 E0.03719
G1 X197.487 Y200.105 E0.02091
G1 X103.014 Y200.105 E3.89473
G1 X102.007 Y200.11 E0.04152
G1 X101.105 Y200.155 E0.03722
G1 X101.215 Y200.93 E0.03229
G1 X101.215 Y201.801 E0.0359
G1 X100.732 Y201.317 E0.0282
G1 X100.446 Y200.942 E0.01944
G1 X100.117 Y200.571 E0.02043
G1 X99.777 Y200.223 E0.02007
G1 X99.429 Y199.883 E0.02007
G1 X99.058 Y199.554 E0.02043
G1 X98.683 Y199.268 E0.01944
G1 X98.199 Y198.785 E0.0282
G1 X99.07 Y198.785 E0.0359
G1 X99.845 Y198.895 E0.03229
G1 X99.889 Y197.994 E0.03719
G1 X99.895 Y197.487 E0.02091
G1 X99.895 Y103.014 E3.89473
G1 X99.89 Y102.007 E0.04152
G1 X99.849 Y101.18 E0.03413
;WIPE_START
M204 S10000
G1 X99.79 Y100.608 F36000
;WIPE_END
M204 S5000
G1 X99.376 Y100.912
;TYPE:Gap fill
;WIDTH:0.717215
G1 F1800
G1 X99.455 Y100.854 E0.0049
;WIDTH:0.656667
G1 X99.598 Y100.734 E0.00847
;WIDTH:0.602572
G1 X99.705 Y100.634 E0.00608
;WIDTH:0.662062
G1 X99.808 Y100.538 E0.00643
;WIDTH:0.623592
G1 X99.856 Y100.414 E0.00573
;WIDTH:0.488868
G1 X99.917 Y100.258 E0.00551
;WIDTH:0.308343
G1 X99.977 Y100.102 E0.00328
G1 X100.102 Y99.977 E0.00349
G1 X100.206 Y99.937 E0.00219
;WIDTH:0.43729
G1 X100.362 Y99.876 E0.00488
;WIDTH:0.592026
G1 X100.518 Y99.816 E0.00679
;WIDTH:0.667652
G1 X100.634 Y99.705 E0.00742
;WIDTH:0.602644
G1 X100.73 Y99.603 E0.00581
;WIDTH:0.645499
G1 X100.833 Y99.484 E0.00702
;WIDTH:0.711906
G1 X100.912 Y99.376 E0.00662
G1 E-0.08 F3600
;WIPE_START
G1 F28800
M204 S10000
G1 X100.833 Y99.484 E-0.01587
G1 X100.73 Y99.603 E-0.01869
G1 X100.634 Y99.705 E-0.01667
G1 X100.518 Y99.816 E-0.01907
G1 X100.362 Y99.876 E-0.01984
G1 X100.206 Y99.937 E-0.01984
G1 X100.102 Y99.977 E-0.01323
G1 X99.977 Y100.102 E-0.02108
G1 X99.917 Y100.258 E-0.01984
G1 X99.856 Y100.414 E-0.01984
G1 X99.808 Y100.538 E-0.01583
G1 X99.705 Y100.634 E-0.01667
G1 X99.598 Y100.734 E-0.01742
G1 X99.455 Y100.854 E-0.02213
G1 X99.376 Y100.912 E-0.01167
;WIPE_END
G1 E-0.45231 F3600
G1 Z0.3 F36000
; acceleration to travel
G1 X104.202 Y101.743
; decel to extrusion
M204 S5000
G1 X105.077 Y101.894
; end travel
G1 Z0.2
G1 E0.8 F3600
;TYPE:Solid infill
;WIDTH:0.6
G1 F3000
G1 X101.863 Y101.894 E0.1325
G1 X101.863 Y102.451 E0.02297
G1 X104.866 Y102.451 E0.12382
G1 X104.872 Y102.552 E0.00417
G1 X104.683 Y103.008 E0.02036
G1 X101.863 Y103.008 E0.11625
G1 X101.863 Y103.565 E0.02297
G1 X104.452 Y103.565 E0.10673
G1 X104.221 Y104.122 E0.02486
G1 X101.863 Y104.122 E0.09722
G1 X101.863 Y104.679 E0.02297
G1 X103.642 Y104.679 E0.07335
G1 X105.062 Y105.062 F36000
;TYPE:Gap fill
;WIDTH:0.573401
G1 F1800
G1 X194.938 Y194.938 E4.98974
G1 E-0.08 F3600
;WIPE_START
G1 F28800
M204 S10000
G1 X190.865 Y190.865 E-0.684
;WIPE_END
G1 E-0.036 F3600
G1 Z0.3 F36000
; acceleration to travel
G1 X195.891 Y194.481
; decel to extrusion
M204 S5000
G1 X196.802 Y195.137
; end travel
G1 Z0.2
G1 E0.8 F3600
;TYPE:Solid infill
;WIDTH:0.6
G1 F3000
G1 X197.607 Y195.137 E0.0332
G1 X198.137 Y195.165 E0.02188
G1 X198.137 Y195.694 E0.02182
G1 X196.083 Y195.694 E0.08469
G1 X195.808 Y195.808 E0.01227
G1 X195.624 Y196.251 E0.01978
G1 X198.137 Y196.251 E0.10359
G1 X198.137 Y196.808 E0.02297
G1 X195.393 Y196.808 E0.11311
G1 X195.163 Y197.365 E0.02486
G1 X198.137 Y197.365 E0.12262
G1 X198.137 Y197.922 E0.02297
G1 X194.913 Y197.922 E0.1329
G1 X194.888 Y197.968 F36000
;TYPE:Gap fill
;WIDTH:0.371611
G1 F1800
G1 X194.779 Y197.974 E0.00266
;WIDTH:0.437402
G1 X194.67 Y197.98 E0.00319
G1 X105.33 Y197.98 E2.60812
G1 X105.221 Y197.974 E0.00319
;WIDTH:0.371356
G1 X105.112 Y197.968 E0.00265
G1 E-0.08 F3600
;WIPE_START
G1 F28800
M204 S10000
G1 X105.221 Y197.974 E-0.01297
G1 X105.33 Y197.98 E-0.01297
G1 X110.871 Y197.98 E-0.65807
;WIPE_END
G1 E-0.036 F3600
G1 Z0.3 F36000
; acceleration to travel
G1 X105.951 Y195.403
; decel to extrusion
M204 S5000
G1 X105.063 Y194.937
; end travel
G1 Z0.2
G1 E0.8 F3600
;WIDTH:0.5732
G1 F1800
G1 X194.937 Y105.063 E4.98784
G1 E-0.08 F3600
;WIPE_START
G1 F28800
M204 S10000
G1 X190.865 Y109.135 E-0.684
;WIPE_END
G1 E-0.036 F3600
G1 Z0.3 F36000
; acceleration to travel
G1 X194.273 Y103.118
; decel to extrusion
M204 S5000
G1 X194.888 Y102.032
; end travel
G1 Z0.2
G1 E0.8 F3600
;WIDTH:0.371356
G1 F1800
G1 X194.779 Y102.026 E0.00265
;WIDTH:0.437402
G1 X194.67 Y102.02 E0.00319
G1 X105.33 Y102.02 E2.60812
G1 X105.221 Y102.026 E0.00319
;WIDTH:0.371611
G1 X105.112 Y102.032 E0.00266
G1 E-0.08 F3600
;WIPE_START
G1 F28800
M204 S10000
G1 X105.221 Y102.026 E-0.01298
G1 X105.33 Y102.02 E-0.01298
G1 X110.872 Y102.02 E-0.65805
;WIPE_END
G1 E-0.036 F3600
G1 Z0.3 F36000
; acceleration to travel
G1 X103.383 Y104.639
; decel to extrusion
M204 S5000
G1 X102.032 Y105.112
; end travel
G1 Z0.2
G1 E0.8 F3600
;WIDTH:0.371343
G1 F1800
G1 X102.026 Y105.221 E0.00265
;WIDTH:0.437402
G1 X102.02 Y105.33 E0.00319
G1 X102.02 Y194.67 E2.60812
G1 X102.026 Y194.779 E0.00319
;WIDTH:0.371625
G1 X102.032 Y194.888 E0.00266
G1 X103.198 Y195.137 F36000
;TYPE:Solid infill
;WIDTH:0.6
G1 F3000
