; generated by SuperSlicer 2.5.59 on 2023-08-18 at 04:56:41 UTC


;
;

;
;
; 

; external perimeters extrusion width = 0.50mm
; perimeters extrusion width = 0.50mm
; infill extrusion width = 0.75mm
; solid infill extrusion width = 0.65mm
; top infill extrusion width = 0.60mm
; first layer extrusion width = 0.60mm

; object:{"name":"35mmFridgeHolder_B&W","id":"35mmFridgeHolder_B&W id:0 copy 0","object_center":[150.000000,150.000000,0.000000],"boundingbox_center":[150.000000,150.000000,95.000000],"boundingbox_size":[57.000000,72.763458,190.000000]}
EXCLUDE_OBJECT_DEFINE NAME=35mmFridgeHolder_B_W_id_0_copy_0 CENTER=150.000000,150.000000 POLYGON=[[121.500000,113.618272],[178.500000,113.618272],[178.500000,186.381728],[121.500000,186.381728],[121.500000,113.618272]]
; plater:{"center":[150.000000,150.000000,0.000000],"boundingbox_center":[150.000000,150.000000,95.000000],"boundingbox_size":[57.000000,72.763458,190.000000]}

;TYPE:Custom
PRINT_START EXTRUDER=255 BED=110 AREA_START=115.207,123.489 AREA_END=184.793,192.674
M107
G21 ; set units to millimeters
G90 ; use absolute coordinates
M83 ; use relative distances for extrusion
;_TOOLCHANGE 0
M104 S255 ; set temperature
M109 S255 ; set temperature and wait for it to be reached
M190 S110 ; set bed temperature and wait for it to be reached
M107
;LAYER_CHANGE
;Z:0.2
;HEIGHT:0.2
;BEFORE_LAYER_CHANGE
TIMELAPSE_TAKE_FRAME
;0.2


G1 Z0.2 F36000
;AFTER_LAYER_CHANGE
;0.2
G92 E0
G1 E-0.8 F3600
G1 Z0.3 F36000
M204 S5000
G1 X117.297 Y125.94
G1 Z0.2
G1 E0.8 F3600
;TYPE:Skirt
;WIDTH:0.6
G1 F1800
G1 X116.161 Y127.767 E0.07673
G1 X115.764 Y129.882 E0.07673
G1 X115.764 Y186.282 E2.01164
G1 X116.367 Y188.864 E0.09459
G1 X117.658 Y190.585 E0.07673
G1 X119.485 Y191.721 E0.07673
G1 X121.6 Y192.117 E0.07673
G1 X178.4 Y192.117 E2.02591
G1 X180.983 Y191.515 E0.09459
G1 X182.703 Y190.223 E0.07673
G1 X183.839 Y188.396 E0.07673
G1 X184.236 Y186.282 E0.07673
G1 X184.236 Y129.882 E2.01164
G1 X183.633 Y127.299 E0.09459
G1 X182.342 Y125.579 E0.07673
G1 X180.515 Y124.443 E0.07673
G1 X178.4 Y124.046 E0.07673
G1 X121.6 Y124.046 E2.02591
G1 X119.017 Y124.649 E0.09459
G1 X117.357 Y125.895 E0.07406
G1 X117.824 Y126.204 F36000
G1 F1800
G1 X116.718 Y127.875 E0.07147
G1 X116.321 Y129.882 E0.07295
G1 X116.321 Y186.282 E2.01164
G1 X116.74 Y188.342 E0.075
G1 X117.888 Y190.035 E0.07295
G1 X119.594 Y191.164 E0.07295
G1 X121.6 Y191.56 E0.07295
G1 X178.4 Y191.56 E2.02591
G1 X180.461 Y191.141 E0.075
G1 X182.153 Y189.993 E0.07295
G1 X183.282 Y188.288 E0.07295
G1 X183.679 Y186.282 E0.07295
G1 X183.679 Y129.882 E2.01164
G1 X183.26 Y127.821 E0.075
G1 X182.112 Y126.129 E0.07295
G1 X180.406 Y124.999 E0.07295
G1 X178.4 Y124.603 E0.07295
G1 X121.6 Y124.603 E2.02591
G1 X119.539 Y125.022 E0.075
G1 X117.875 Y126.151 E0.07174
G1 E-0.8 F3600
M204 S10000
G1 Z0.3 F36000
; printing object 35mmFridgeHolder_B&W id:0 copy 0
EXCLUDE_OBJECT_START NAME=35mmFridgeHolder_B_W_id_0_copy_0
; acceleration to travel
G1 X156.911 Y164.924
; decel to extrusion
M204 S5000
G1 X176.429 Y184.31
; end travel
G1 Z0.2
G1 E0.8 F3600
;TYPE:Internal perimeter
G1 F1800
G1 X123.571 Y184.31 E1.88529
G1 X123.571 Y131.853 E1.87103
G1 X176.429 Y131.853 E1.88529
G1 X176.429 Y184.235 E1.86835
G1 X176.986 Y184.868 F36000
G1 F1800
G1 X123.014 Y184.868 E1.92503
G1 X123.014 Y131.296 E1.91077
G1 X176.986 Y131.296 E1.92503
G1 X176.986 Y184.793 E1.90809
G1 X177.543 Y185.425 F36000
G1 F1800
G1 X122.457 Y185.425 E1.96477
G1 X122.457 Y130.739 E1.9505
G1 X177.543 Y130.739 E1.96477
G1 X177.543 Y185.35 E1.94783
G1 X178.1 Y185.982 F36000
;TYPE:External perimeter
G1 F1800
G1 X121.9 Y185.982 E2.00451
G1 X121.9 Y130.182 E1.99024
G1 X178.1 Y130.182 E2.00451
G1 X178.1 Y185.907 E1.98757
;WIPE_START
M204 S10000
G1 X177.667 Y185.732 F36000
;WIPE_END
G1 E-0.8 F3600
G1 Z0.3 F36000
; acceleration to travel
G1 X141.712 Y150.089
; decel to extrusion
M204 S5000
G1 X123.655 Y132.187
; end travel
G1 Z0.2
G1 E0.8 F3600
;TYPE:Solid infill
G1 F3000
G1 X176.106 Y132.187 E1.87079
G1 X176.106 Y132.744 E0.01987
G1 X123.894 Y132.744 E1.86225
G1 X123.894 Y133.301 E0.01987
G1 X176.106 Y133.301 E1.86225
G1 X176.106 Y133.858 E0.01987
G1 X123.894 Y133.858 E1.86225
G1 X123.894 Y134.416 E0.01987
G1 X176.106 Y134.416 E1.86225
G1 X176.106 Y134.973 E0.01987
G1 X123.894 Y134.973 E1.86225
G1 X123.894 Y135.53 E0.01987
G1 X176.106 Y135.53 E1.86225
G1 X176.106 Y136.087 E0.01987
G1 X123.894 Y136.087 E1.86225
G1 X123.894 Y136.644 E0.01987
G1 X176.106 Y136.644 E1.86225
G1 X176.106 Y137.201 E0.01987
G1 X123.894 Y137.201 E1.86225
G1 X123.894 Y137.758 E0.01987
G1 X176.106 Y137.758 E1.86225
G1 X176.106 Y138.315 E0.01987
G1 X123.894 Y138.315 E1.86225
G1 X123.894 Y138.872 E0.01987
G1 X176.106 Y138.872 E1.86225
G1 X176.106 Y139.429 E0.01987
G1 X123.894 Y139.429 E1.86225
G1 X123.894 Y139.986 E0.01987
G1 X176.106 Y139.986 E1.86225
G1 X176.106 Y140.543 E0.01987
G1 X123.894 Y140.543 E1.86225
G1 X123.894 Y141.101 E0.01987
G1 X176.106 Y141.101 E1.86225
G1 X176.106 Y141.658 E0.01987
G1 X123.894 Y141.658 E1.86225
G1 X123.894 Y142.215 E0.01987
G1 X176.106 Y142.215 E1.86225
G1 X176.106 Y142.772 E0.01987
G1 X123.894 Y142.772 E1.86225
G1 X123.894 Y143.329 E0.01987
G1 X176.106 Y143.329 E1.86225
G1 X176.106 Y143.886 E0.01987
G1 X123.894 Y143.886 E1.86225
G1 X123.894 Y144.443 E0.01987
G1 X176.106 Y144.443 E1.86225
G1 X176.106 Y145 E0.01987
G1 X123.894 Y145 E1.86225
G1 X123.894 Y145.557 E0.01987
G1 X176.106 Y145.557 E1.86225
G1 X176.106 Y146.114 E0.01987
G1 X123.894 Y146.114 E1.86225
G1 X123.894 Y146.671 E0.01987
G1 X176.106 Y146.671 E1.86225
G1 X176.106 Y147.228 E0.01987
G1 X123.894 Y147.228 E1.86225
G1 X123.894 Y147.785 E0.01987
G1 X176.106 Y147.785 E1.86225
G1 X176.106 Y148.343 E0.01987
G1 X123.894 Y148.343 E1.86225
G1 X123.894 Y148.9 E0.01987
G1 X176.106 Y148.9 E1.86225
G1 X176.106 Y149.457 E0.01987
G1 X123.894 Y149.457 E1.86225
G1 X123.894 Y150.014 E0.01987
G1 X176.106 Y150.014 E1.86225
G1 X176.106 Y150.571 E0.01987
G1 X123.894 Y150.571 E1.86225
G1 X123.894 Y151.128 E0.01987
G1 X176.106 Y151.128 E1.86225
G1 X176.106 Y151.685 E0.01987
G1 X123.894 Y151.685 E1.86225
G1 X123.894 Y152.242 E0.01987
G1 X176.106 Y152.242 E1.86225
G1 X176.106 Y152.799 E0.01987
G1 X123.894 Y152.799 E1.86225
G1 X123.894 Y153.356 E0.01987
G1 X176.106 Y153.356 E1.86225
G1 X176.106 Y153.913 E0.01987
G1 X123.894 Y153.913 E1.86225
G1 X123.894 Y154.47 E0.01987
G1 X176.106 Y154.47 E1.86225
G1 X176.106 Y155.027 E0.01987
G1 X123.894 Y155.027 E1.86225
G1 X123.894 Y155.585 E0.01987
G1 X176.106 Y155.585 E1.86225
G1 X176.106 Y156.142 E0.01987
G1 X123.894 Y156.142 E1.86225
G1 X123.894 Y156.699 E0.01987
G1 X176.106 Y156.699 E1.86225
G1 X176.106 Y157.256 E0.01987
G1 X123.894 Y157.256 E1.86225
G1 X123.894 Y157.813 E0.01987
G1 X176.106 Y157.813 E1.86225
G1 X176.106 Y158.37 E0.01987
G1 X123.894 Y158.37 E1.86225
G1 X123.894 Y158.927 E0.01987
G1 X176.106 Y158.927 E1.86225
G1 X176.106 Y159.484 E0.01987
G1 X123.894 Y159.484 E1.86225
G1 X123.894 Y160.041 E0.01987
G1 X176.106 Y160.041 E1.86225
G1 X176.106 Y160.598 E0.01987
G1 X123.894 Y160.598 E1.86225
G1 X123.894 Y161.155 E0.01987
G1 X176.106 Y161.155 E1.86225
G1 X176.106 Y161.712 E0.01987
G1 X123.894 Y161.712 E1.86225
G1 X123.894 Y162.27 E0.01987
G1 X176.106 Y162.27 E1.86225
G1 X176.106 Y162.827 E0.01987
G1 X123.894 Y162.827 E1.86225
G1 X123.894 Y163.384 E0.01987
G1 X176.106 Y163.384 E1.86225
G1 X176.106 Y163.941 E0.01987
G1 X123.894 Y163.941 E1.86225
G1 X123.894 Y164.498 E0.01987
G1 X176.106 Y164.498 E1.86225
G1 X176.106 Y165.055 E0.01987
G1 X123.894 Y165.055 E1.86225
G1 X123.894 Y165.612 E0.01987
G1 X176.106 Y165.612 E1.86225
G1 X176.106 Y166.169 E0.01987
G1 X123.894 Y166.169 E1.86225
G1 X123.894 Y166.726 E0.01987
G1 X176.106 Y166.726 E1.86225
G1 X176.106 Y167.283 E0.01987
G1 X123.894 Y167.283 E1.86225
G1 X123.894 Y167.84 E0.01987
G1 X176.106 Y167.84 E1.86225
G1 X176.106 Y168.397 E0.01987
G1 X123.894 Y168.397 E1.86225
G1 X123.894 Y168.954 E0.01987
G1 X176.106 Y168.954 E1.86225
G1 X176.106 Y169.512 E0.01987
G1 X123.894 Y169.512 E1.86225
G1 X123.894 Y170.069 E0.01987
G1 X176.106 Y170.069 E1.86225
G1 X176.106 Y170.626 E0.01987
G1 X123.894 Y170.626 E1.86225
G1 X123.894 Y171.183 E0.01987
G1 X176.106 Y171.183 E1.86225
G1 X176.106 Y171.74 E0.01987
G1 X123.894 Y171.74 E1.86225
G1 X123.894 Y172.297 E0.01987
G1 X176.106 Y172.297 E1.86225
G1 X176.106 Y172.854 E0.01987
G1 X123.894 Y172.854 E1.86225
G1 X123.894 Y173.411 E0.01987
G1 X176.106 Y173.411 E1.86225
G1 X176.106 Y173.968 E0.01987
G1 X123.894 Y173.968 E1.86225
G1 X123.894 Y174.525 E0.01987
G1 X176.106 Y174.525 E1.86225
G1 X176.106 Y175.082 E0.01987
G1 X123.894 Y175.082 E1.86225
G1 X123.894 Y175.639 E0.01987
G1 X176.106 Y175.639 E1.86225
G1 X176.106 Y176.196 E0.01987
G1 X123.894 Y176.196 E1.86225
G1 X123.894 Y176.754 E0.01987
G1 X176.106 Y176.754 E1.86225
G1 X176.106 Y177.311 E0.01987
G1 X123.894 Y177.311 E1.86225
G1 X123.894 Y177.868 E0.01987
G1 X176.106 Y177.868 E1.86225
G1 X176.106 Y178.425 E0.01987
G1 X123.894 Y178.425 E1.86225
G1 X123.894 Y178.982 E0.01987
G1 X176.106 Y178.982 E1.86225
G1 X176.106 Y179.539 E0.01987
G1 X123.894 Y179.539 E1.86225
G1 X123.894 Y180.096 E0.01987
G1 X176.106 Y180.096 E1.86225
G1 X176.106 Y180.653 E0.01987
G1 X123.894 Y180.653 E1.86225
G1 X123.894 Y181.21 E0.01987
G1 X176.106 Y181.21 E1.86225
G1 X176.106 Y181.767 E0.01987
G1 X123.894 Y181.767 E1.86225
G1 X123.894 Y182.324 E0.01987
G1 X176.106 Y182.324 E1.86225
G1 X176.106 Y182.881 E0.01987
G1 X123.894 Y182.881 E1.86225
G1 X123.894 Y183.439 E0.01987
G1 X176.345 Y183.439 E1.87079
G1 X176.15 Y183.875 F36000
;TYPE:Gap fill
;WIDTH:0.357815
G1 F1800
G1 X123.85 Y183.875 E1.05445
;LAYER_CHANGE
;Z:0.44
;HEIGHT:0.24
;BEFORE_LAYER_CHANGE
TIMELAPSE_TAKE_FRAME
;0.44


; stop printing object 35mmFridgeHolder_B&W id:0 copy 0
EXCLUDE_OBJECT_END NAME=35mmFridgeHolder_B_W_id_0_copy_0
M204 S10000
G1 Z0.44 F36000
;AFTER_LAYER_CHANGE
;0.44
G92 E0
M104 S260 ; set temperature
; printing object 35mmFridgeHolder_B&W id:0 copy 0
EXCLUDE_OBJECT_START NAME=35mmFridgeHolder_B_W_id_0_copy_0
G1 X176.406 Y184.288
;TYPE:Internal perimeter
;WIDTH:0.5
G1 F10800
G1 X123.594 Y184.288 E1.81981
G1 X123.594 Y131.656 E1.81361
G1 X176.406 Y131.656 E1.81981
G1 X176.406 Y184.213 E1.81103
G1 X176.855 Y184.736 F36000
G1 F10800
G1 X123.145 Y184.736 E1.85072
G1 X123.145 Y131.207 E1.84452
G1 X176.855 Y131.207 E1.85072
G1 X176.855 Y184.661 E1.84194
G1 X177.303 Y185.185 F36000
G1 F10800
G1 X122.697 Y185.185 E1.88163
G1 X122.697 Y130.759 E1.87543
G1 X177.303 Y130.759 E1.88163
G1 X177.303 Y185.11 E1.87284
G1 X177.752 Y185.633 F36000
G1 F10800
G1 X122.248 Y185.633 E1.91254
G1 X122.248 Y130.31 E1.90634
G1 X177.752 Y130.31 E1.91254
G1 X177.752 Y185.558 E1.90375
G1 X178.2 Y186.082 F36000
;TYPE:External perimeter
G1 F6000
G1 X121.8 Y186.082 E1.94345
G1 X121.8 Y129.884 E1.93647
G1 X178.2 Y129.93 E1.94345
G1 X178.2 Y186.007 E1.93229
;WIPE_START
G1 X177.767 Y185.832 F36000
;WIPE_END
G1 X176.092 Y131.7
;TYPE:Solid infill
;WIDTH:0.65
G1 F16708.563
G1 X176.092 Y183.986 E2.40423
G1 X175.493 Y183.986 E0.02752
G1 X175.493 Y131.958 E2.39239
G1 X174.895 Y131.958 E0.02752
G1 X174.895 Y183.986 E2.39239
G1 X174.296 Y183.986 E0.02752
G1 X174.296 Y131.958 E2.39239
G1 X173.698 Y131.958 E0.02752
G1 X173.698 Y183.986 E2.39239
G1 X173.099 Y183.986 E0.02752
G1 X173.099 Y131.958 E2.39239
G1 X172.501 Y131.958 E0.02752
G1 X172.501 Y183.986 E2.39239
G1 X171.902 Y183.986 E0.02752
G1 X171.902 Y131.958 E2.39239
G1 X171.304 Y131.958 E0.02752
G1 X171.304 Y183.986 E2.39239
G1 X170.705 Y183.986 E0.02752
G1 X170.705 Y131.958 E2.39239
G1 X170.107 Y131.958 E0.02752
G1 X170.107 Y183.986 E2.39239
G1 X169.508 Y183.986 E0.02752
G1 X169.508 Y131.958 E2.39239
G1 X168.91 Y131.958 E0.02752
G1 X168.91 Y183.986 E2.39239
G1 X168.311 Y183.986 E0.02752
G1 X168.311 Y131.958 E2.39239
G1 X167.713 Y131.958 E0.02752
G1 X167.713 Y183.986 E2.39239
G1 X167.114 Y183.986 E0.02752
G1 X167.114 Y131.958 E2.39239
G1 X166.516 Y131.958 E0.02752
G1 X166.516 Y183.986 E2.39239
G1 X165.917 Y183.986 E0.02752
G1 X165.917 Y131.958 E2.39239
G1 X165.319 Y131.958 E0.02752
G1 X165.319 Y183.986 E2.39239
G1 X164.72 Y183.986 E0.02752
G1 X164.72 Y131.958 E2.39239
G1 X164.122 Y131.958 E0.02752
G1 X164.122 Y183.986 E2.39239
G1 X163.523 Y183.986 E0.02752
G1 X163.524 Y131.958 E2.39239
G1 X162.925 Y131.958 E0.02752
G1 X162.925 Y183.986 E2.39239
G1 X162.327 Y183.986 E0.02752
G1 X162.327 Y131.958 E2.39239
G1 X161.728 Y131.958 E0.02752
G1 X161.728 Y183.986 E2.39239
G1 X161.13 Y183.986 E0.02752
G1 X161.13 Y131.958 E2.39239
G1 X160.531 Y131.958 E0.02752
G1 X160.531 Y183.986 E2.39239
G1 X159.933 Y183.986 E0.02752
G1 X159.933 Y131.958 E2.39239
G1 X159.334 Y131.958 E0.02752
G1 X159.334 Y183.986 E2.39239
G1 X158.736 Y183.986 E0.02752
G1 X158.736 Y131.958 E2.39239
G1 X158.137 Y131.958 E0.02752
G1 X158.137 Y183.986 E2.39239
G1 X157.539 Y183.986 E0.02752
G1 X157.539 Y131.958 E2.39239
G1 X156.94 Y131.958 E0.02752
G1 X156.94 Y183.986 E2.39239
G1 X156.342 Y183.986 E0.02752
G1 X156.342 Y131.958 E2.39239
G1 X155.743 Y131.958 E0.02752
G1 X155.743 Y183.986 E2.39239
G1 X155.145 Y183.986 E0.02752
G1 X155.145 Y131.958 E2.39239
G1 X154.546 Y131.958 E0.02752
G1 X154.546 Y183.986 E2.39239
G1 X153.948 Y183.986 E0.02752
G1 X153.948 Y131.958 E2.39239
G1 X153.349 Y131.958 E0.02752
G1 X153.349 Y183.986 E2.39239
G1 X152.751 Y183.986 E0.02752
G1 X152.751 Y131.958 E2.39239
G1 X152.152 Y131.958 E0.02752
G1 X152.152 Y183.986 E2.39239
G1 X151.554 Y183.986 E0.02752
G1 X151.554 Y131.958 E2.39239
G1 X150.955 Y131.958 E0.02752
G1 X150.955 Y183.986 E2.39239
G1 X150.357 Y183.986 E0.02752
G1 X150.357 Y131.958 E2.39239
G1 X149.758 Y131.958 E0.02752
G1 X149.758 Y183.986 E2.39239
G1 X149.16 Y183.986 E0.02752
G1 X149.16 Y131.958 E2.39239
G1 X148.561 Y131.958 E0.02752
G1 X148.561 Y183.986 E2.39239
G1 X147.963 Y183.986 E0.02752
G1 X147.963 Y131.958 E2.39239
G1 X147.364 Y131.958 E0.02752
G1 X147.364 Y183.986 E2.39239
G1 X146.766 Y183.986 E0.02752
G1 X146.766 Y131.958 E2.39239
G1 X146.167 Y131.958 E0.02752
G1 X146.167 Y183.986 E2.39239
G1 X145.569 Y183.986 E0.02752
G1 X145.569 Y131.958 E2.39239
G1 X144.97 Y131.958 E0.02752
G1 X144.97 Y183.986 E2.39239
G1 X144.372 Y183.986 E0.02752
G1 X144.372 Y131.958 E2.39239
G1 X143.773 Y131.958 E0.02752
G1 X143.773 Y183.986 E2.39239
G1 X143.175 Y183.986 E0.02752
G1 X143.175 Y131.958 E2.39239
G1 X142.576 Y131.958 E0.02752
G1 X142.576 Y183.986 E2.39239
G1 X141.978 Y183.986 E0.02752
G1 X141.978 Y131.958 E2.39239
G1 X141.379 Y131.958 E0.02752
G1 X141.379 Y183.986 E2.39239
G1 X140.781 Y183.986 E0.02752
G1 X140.781 Y131.958 E2.39239
G1 X140.182 Y131.958 E0.02752
G1 X140.182 Y183.986 E2.39239
G1 X139.584 Y183.986 E0.02752
G1 X139.584 Y131.958 E2.39239
G1 X138.985 Y131.958 E0.02752
G1 X138.985 Y183.986 E2.39239
G1 X138.387 Y183.986 E0.02752
G1 X138.387 Y131.958 E2.39239
G1 X137.788 Y131.958 E0.02752
G1 X137.788 Y183.986 E2.39239
G1 X137.19 Y183.986 E0.02752
G1 X137.19 Y131.958 E2.39239
G1 X136.591 Y131.958 E0.02752
G1 X136.591 Y183.986 E2.39239
G1 X135.993 Y183.986 E0.02752
G1 X135.993 Y131.958 E2.39239
G1 X135.394 Y131.958 E0.02752
G1 X135.394 Y183.986 E2.39239
G1 X134.796 Y183.986 E0.02752
G1 X134.796 Y131.958 E2.39239
G1 X134.197 Y131.958 E0.02752
G1 X134.197 Y183.986 E2.39239
G1 X133.599 Y183.986 E0.02752
G1 X133.599 Y131.958 E2.39239
G1 X133 Y131.958 E0.02752
G1 X133 Y183.986 E2.39239
G1 X132.402 Y183.986 E0.02752
G1 X132.402 Y131.958 E2.39239
G1 X131.803 Y131.958 E0.02752
G1 X131.803 Y183.986 E2.39239
G1 X131.205 Y183.986 E0.02752
G1 X131.205 Y131.958 E2.39239
G1 X130.606 Y131.958 E0.02752
G1 X130.606 Y183.986 E2.39239
G1 X130.008 Y183.986 E0.02752
G1 X130.008 Y131.958 E2.39239
G1 X129.409 Y131.958 E0.02752
G1 X129.409 Y183.986 E2.39239
G1 X128.811 Y183.986 E0.02752
G1 X128.811 Y131.958 E2.39239
G1 X128.212 Y131.958 E0.02752
G1 X128.212 Y183.986 E2.39239
G1 X127.614 Y183.986 E0.02752
G1 X127.614 Y131.958 E2.39239
G1 X127.015 Y131.958 E0.02752
G1 X127.015 Y183.986 E2.39239
G1 X126.417 Y183.986 E0.02752
G1 X126.417 Y131.958 E2.39239
G1 X125.818 Y131.958 E0.02752
G1 X125.818 Y183.986 E2.39239
G1 X125.22 Y183.986 E0.02752
