; generated by SuperSlicer 2.5.59 on 2023-06-22 at 06:02:43 UTC


;
;

;
;
; 

; external perimeters extrusion width = 0.50mm
; perimeters extrusion width = 0.50mm
; infill extrusion width = 0.75mm
; solid infill extrusion width = 0.65mm
; top infill extrusion width = 0.60mm
; first layer extrusion width = 0.60mm

; external perimeters extrusion width = 0.50mm
; perimeters extrusion width = 0.50mm
; infill extrusion width = 0.75mm
; solid infill extrusion width = 0.65mm
; top infill extrusion width = 0.60mm
; first layer extrusion width = 0.60mm

; object:{"name":"Filament port hard plastic (1)","id":"Filament port hard plastic (1).stl id:0 copy 0","object_center":[150.000002,150.000002,0.000000],"boundingbox_center":[150.000002,150.000002,4.800000],"boundingbox_size":[189.515511,196.762062,9.600000]}
EXCLUDE_OBJECT_DEFINE NAME=Filament_port_hard_plastic_1_stl_id_0_copy_0 CENTER=150.000002,150.000002 POLYGON=[[55.242240,235.154224],[55.267992,233.974592],[55.396452,232.801696],[55.626640,231.644464],[55.956816,230.511712],[56.384476,229.412016],[56.906336,228.353808],[57.518440,227.345088],[58.216140,226.393568],[58.994104,225.506480],[221.466048,55.787980],[222.318368,54.972068],[223.238576,54.233544],[224.219632,53.578032],[225.254096,53.010512],[226.334080,52.535316],[227.451376,52.156052],[228.597456,51.875620],[229.763632,51.696136],[230.941008,51.618964],[232.120640,51.644716],[233.293520,51.773180],[234.450752,52.003372],[235.583520,52.333544],[236.683200,52.761200],[237.741424,53.283052],[238.750128,53.895172],[239.701648,54.592864],[240.588752,55.370836],[241.404656,56.223160],[242.143184,57.143348],[242.798704,58.124404],[243.366208,59.158868],[243.841424,60.238844],[244.220672,61.356140],[244.501120,62.502228],[244.680608,63.668396],[244.757760,64.845780],[244.732016,66.025408],[244.603552,67.198296],[244.373360,68.355528],[244.043184,69.488296],[243.615536,70.587968],[243.093664,71.646192],[242.481568,72.654896],[241.783856,73.606432],[241.005888,74.493520],[78.533936,244.212016],[77.681624,245.027920],[76.761432,245.766464],[75.780368,246.421968],[74.745920,246.989488],[73.665928,247.464688],[72.548640,247.843952],[71.402544,248.124384],[70.236376,248.303872],[69.058992,248.381024],[67.879368,248.355280],[66.706484,248.226816],[65.549256,247.996624],[64.416480,247.666464],[63.316796,247.238816],[62.258576,246.716944],[61.249880,246.104832],[60.298340,245.407152],[59.411256,244.629168],[58.595336,243.776864],[57.856812,242.856640],[57.201296,241.875600],[56.633772,240.841136],[56.158584,239.761152],[55.779336,238.643856],[55.498888,237.497776],[55.319396,236.331600],[55.242240,235.154224]]
; object:{"name":"Body1","id":"Body1.stl id:1 copy 0","object_center":[129.271922,130.156275,0.000000],"boundingbox_center":[129.271922,130.156275,4.762577],"boundingbox_size":[95.972505,95.971672,9.525154]}
EXCLUDE_OBJECT_DEFINE NAME=Body1_stl_id_1_copy_0 CENTER=129.271922,130.156275 POLYGON=[[81.285656,166.077008],[81.361544,164.726160],[81.588184,163.392304],[81.962736,162.092176],[82.480512,160.842192],[83.134976,159.658064],[83.917936,158.554608],[84.819480,157.545792],[156.661952,85.704152],[157.670800,84.802616],[158.774224,84.019688],[159.958384,83.365216],[161.208368,82.847456],[162.508496,82.472928],[163.842368,82.246304],[165.193200,82.170440],[166.544064,82.246320],[167.877936,82.472952],[169.178032,82.847528],[170.428016,83.365280],[171.612160,84.019752],[172.715600,84.802688],[173.724448,85.704256],[173.724464,85.704272],[174.626000,86.713104],[175.408928,87.816544],[176.063376,89.000712],[176.581136,90.250712],[176.955680,91.550808],[177.182320,92.884680],[177.258176,94.235536],[177.182288,95.586392],[176.955648,96.920256],[176.581088,98.220352],[176.063328,99.470328],[175.408848,100.654504],[174.625920,101.757936],[173.724368,102.766760],[101.881880,174.608400],[100.873048,175.509936],[99.769592,176.292880],[98.585432,176.947296],[97.335432,177.465056],[96.035328,177.839632],[94.701480,178.066256],[93.350616,178.142128],[91.999760,178.066240],[90.665880,177.839568],[89.365816,177.465024],[88.115816,176.947232],[86.931664,176.292800],[85.828200,175.509824],[84.819400,174.608304],[83.917832,173.599424],[83.134896,172.495984],[82.480472,171.311824],[82.480456,171.311792],[81.962704,170.061824],[81.588152,168.761712],[81.361528,167.427872],[81.285656,166.077008]]
; plater:{"center":[150.000002,150.000002,0.000000],"boundingbox_center":[150.000002,150.000002,4.800000],"boundingbox_size":[189.515511,196.762062,9.600000]}

;TYPE:Custom
PRINT_START EXTRUDER=255 BED=110 AREA_START=48.475,44.8335 AREA_END=251.525,255.167
M107
G21 ; set units to millimeters
G90 ; use absolute coordinates
M83 ; use relative distances for extrusion
SET_PRESSURE_ADVANCE SMOOTH_TIME=0.02
SET_PRESSURE_ADVANCE ADVANCE=0.02
;_TOOLCHANGE 0
M104 S255 ; set temperature
M109 S255 ; set temperature and wait for it to be reached
M190 S110 ; set bed temperature and wait for it to be reached
M107
;LAYER_CHANGE
;Z:0.2
;HEIGHT:0.2
;BEFORE_LAYER_CHANGE
TIMELAPSE_TAKE_FRAME
;0.2


G1 Z0.2 F36000
;AFTER_LAYER_CHANGE
;0.2
G92 E0
G1 E-0.8 F3600
G1 Z0.3 F36000
M204 S5000
G1 X117.084 Y117.085
G1 Z0.2
G1 E0.8 F3600
;TYPE:Skirt
;WIDTH:0.6
G1 F1800
G1 X80.542 Y153.626 E2.22617
G1 X79.417 Y154.871 E0.07231
G1 X77.881 Y157.037 E0.11439
G1 X76.944 Y158.807 E0.08625
G1 X76.368 Y160.203 E0.06505
G1 X50.128 Y228.865 E3.16656
G1 X49.647 Y230.446 E0.07116
G1 X49.297 Y232.095 E0.07263
G1 X49.091 Y233.768 E0.07262
G1 X49.043 Y235.962 E0.09453
G1 X49.354 Y238.806 E0.12325
G1 X49.876 Y240.937 E0.09452
G1 X50.913 Y243.604 E0.12325
G1 X51.968 Y245.527 E0.09453
G1 X53.66 Y247.835 E0.12325
G1 X54.81 Y249.068 E0.07263
G1 X56.062 Y250.196 E0.07262
G1 X57.409 Y251.211 E0.07264
G1 X58.838 Y252.104 E0.07261
G1 X60.34 Y252.87 E0.07263
G1 X61.904 Y253.501 E0.07263
G1 X63.516 Y253.994 E0.07262
G1 X65.165 Y254.345 E0.07262
G1 X66.838 Y254.551 E0.07263
G1 X68.523 Y254.61 E0.07263
G1 X70.206 Y254.521 E0.07262
G1 X71.876 Y254.287 E0.07262
G1 X73.518 Y253.908 E0.07263
G1 X75.122 Y253.387 E0.07263
G1 X76.674 Y252.729 E0.07262
G1 X78.597 Y251.673 E0.09453
G1 X79.987 Y250.718 E0.07263
G1 X81.288 Y249.646 E0.07262
G1 X246.554 Y77.008 E10.29549
G1 X247.852 Y75.238 E0.09453
G1 X249.228 Y72.73 E0.12325
G1 X250.023 Y70.685 E0.09453
G1 X250.704 Y67.905 E0.12326
G1 X250.942 Y65.724 E0.09453
G1 X250.957 Y64.038 E0.07262
G1 X250.825 Y62.358 E0.07263
G1 X250.266 Y59.552 E0.12325
G1 X249.561 Y57.474 E0.09453
G1 X248.296 Y54.908 E0.12325
G1 X247.077 Y53.083 E0.09453
G1 X246.004 Y51.783 E0.07262
G1 X244.822 Y50.58 E0.07262
G1 X242.591 Y48.789 E0.12325
G1 X240.715 Y47.651 E0.09453
G1 X238.097 Y46.499 E0.12325
G1 X236.484 Y46.006 E0.07263
G1 X234.835 Y45.655 E0.07262
G1 X232.654 Y45.416 E0.09453
G1 X229.794 Y45.479 E0.12325
G1 X227.625 Y45.812 E0.09453
G1 X225.993 Y46.235 E0.07263
G1 X223.326 Y47.271 E0.12325
G1 X157.686 Y77.933 E3.12099
G1 X156.153 Y78.765 E0.07515
G1 X154.499 Y79.894 E0.08625
G1 X152.742 Y81.427 E0.10046
G1 X117.137 Y117.032 E2.16916
G1 X117.531 Y117.426 F36000
G1 F1800
G1 X80.936 Y154.02 E2.22941
G1 X79.832 Y155.242 E0.07097
G1 X78.368 Y157.306 E0.10901
G1 X77.459 Y159.02 E0.08356
G1 X76.889 Y160.401 E0.06439
G1 X50.648 Y229.064 E3.16656
G1 X50.182 Y230.601 E0.0692
G1 X49.843 Y232.203 E0.07053
G1 X49.645 Y233.828 E0.07053
G1 X49.599 Y235.925 E0.09035
G1 X49.905 Y238.721 E0.12116
G1 X50.404 Y240.758 E0.09034
G1 X51.423 Y243.379 E0.12116
G1 X52.432 Y245.218 E0.09035
G1 X54.095 Y247.486 E0.12115
G1 X55.212 Y248.683 E0.07054
G1 X56.43 Y249.777 E0.07053
G1 X57.738 Y250.761 E0.07054
G1 X59.127 Y251.628 E0.07052
G1 X60.587 Y252.37 E0.07054
G1 X62.105 Y252.982 E0.07053
G1 X63.672 Y253.46 E0.07053
G1 X65.273 Y253.799 E0.07053
G1 X66.899 Y253.997 E0.07053
G1 X68.535 Y254.053 E0.07054
G1 X70.17 Y253.966 E0.07053
G1 X71.791 Y253.736 E0.07053
G1 X73.386 Y253.367 E0.07053
G1 X74.943 Y252.86 E0.07053
G1 X76.449 Y252.219 E0.07053
G1 X78.288 Y251.21 E0.09034
G1 X79.638 Y250.284 E0.07054
G1 X80.902 Y249.243 E0.07053
G1 X246.136 Y76.64 E10.2934
G1 X247.376 Y74.949 E0.09035
G1 X248.728 Y72.483 E0.12115
G1 X249.489 Y70.529 E0.09035
G1 X250.157 Y67.797 E0.12116
G1 X250.385 Y65.712 E0.09034
G1 X250.401 Y64.075 E0.07053
G1 X250.274 Y62.442 E0.07054
G1 X249.725 Y59.684 E0.12116
G1 X249.051 Y57.698 E0.09035
G1 X247.807 Y55.176 E0.12115
G1 X246.642 Y53.432 E0.09035
G1 X245.602 Y52.168 E0.07053
G1 X244.455 Y50.999 E0.07053
G1 X242.262 Y49.239 E0.12116
G1 X240.469 Y48.151 E0.09035
G1 X237.895 Y47.018 E0.12115
G1 X236.328 Y46.54 E0.07054
G1 X234.727 Y46.201 E0.07053
G1 X232.642 Y45.973 E0.09035
G1 X229.83 Y46.034 E0.12116
G1 X227.757 Y46.353 E0.09034
G1 X226.172 Y46.762 E0.07053
G1 X223.551 Y47.781 E0.12116
G1 X157.922 Y78.438 E3.12045
G1 X156.422 Y79.253 E0.07352
G1 X154.821 Y80.348 E0.08356
G1 X153.136 Y81.821 E0.09643
G1 X117.584 Y117.373 E2.16593
G1 E-0.08 F3600
;WIPE_START
G1 F28800
M204 S10000
G1 X121.657 Y113.3 E-0.684
;WIPE_END
G1 E-0.036 F3600
G1 Z0.3 F36000
; printing object Filament port hard plastic (1).stl id:0 copy 0
EXCLUDE_OBJECT_START NAME=Filament_port_hard_plastic_1_stl_id_0_copy_0
; acceleration to travel
G1 X220.392 Y68.212
; decel to extrusion
M204 S5000
G1 X238.209 Y60.076
; end travel
G1 Z0.2
G1 E0.8 F3600
;TYPE:Internal perimeter
G1 F1800
G1 X238.205 Y59.773 E0.01306
G1 X238.139 Y59.425 E0.01525
G1 X238.013 Y59.094 E0.01526
G1 X237.832 Y58.789 E0.01527
G1 X237.598 Y58.517 E0.01547
G1 X237.298 Y58.276 E0.01659
G1 X236.981 Y58.106 E0.01547
G1 X236.645 Y57.995 E0.01526
G1 X236.298 Y57.945 E0.01509
G1 X235.972 Y57.952 E0.01406
G1 X235.606 Y58.023 E0.01606
G1 X235.28 Y58.151 E0.01509
G1 X234.977 Y58.334 E0.01522
G1 X234.74 Y58.541 E0.01359
G1 X65.1 Y235.747 E10.56792
G1 X64.904 Y235.993 E0.01354
G1 X64.733 Y236.308 E0.01542
G1 X64.62 Y236.65 E0.01554
G1 X64.569 Y236.987 E0.0147
G1 X64.576 Y237.329 E0.01474
G1 X64.644 Y237.682 E0.01548
G1 X64.776 Y238.022 E0.01568
G1 X64.96 Y238.324 E0.01526
G1 X65.193 Y238.59 E0.01521
G1 X65.47 Y238.812 E0.01528
G1 X65.788 Y238.985 E0.01561
G1 X66.123 Y239.098 E0.01523
G1 X66.47 Y239.151 E0.01512
G1 X66.813 Y239.143 E0.01478
G1 X67.169 Y239.074 E0.01562
G1 X67.496 Y238.947 E0.01514
G1 X67.8 Y238.764 E0.01528
G1 X68.04 Y238.555 E0.0137
G1 X237.676 Y61.352 E10.56772
G1 X237.873 Y61.107 E0.01353
G1 X238.04 Y60.803 E0.01496
G1 X238.159 Y60.448 E0.01611
G1 X238.205 Y60.151 E0.01296
G1 X237.585 Y60.408 F36000
;TYPE:External perimeter
G1 F1800
G1 X237.616 Y60.316 E0.00414
G1 X237.652 Y60.084 E0.01014
G1 X237.648 Y59.829 E0.01096
G1 X237.6 Y59.577 E0.01107
G1 X237.509 Y59.337 E0.01107
G1 X237.378 Y59.116 E0.01107
G1 X237.209 Y58.919 E0.01116
G1 X236.989 Y58.743 E0.01216
G1 X236.761 Y58.62 E0.01116
G1 X236.517 Y58.54 E0.01107
G1 X236.264 Y58.503 E0.011
G1 X236.031 Y58.508 E0.01003
G1 X235.761 Y58.561 E0.01184
G1 X235.527 Y58.652 E0.01085
G1 X235.307 Y58.785 E0.01105
G1 X235.125 Y58.944 E0.01042
G1 X65.52 Y236.114 E10.56577
G1 X65.37 Y236.302 E0.01035
G1 X65.247 Y236.53 E0.01115
G1 X65.164 Y236.78 E0.01135
G1 X65.127 Y237.024 E0.01062
G1 X65.132 Y237.271 E0.01064
G1 X65.182 Y237.528 E0.01127
G1 X65.277 Y237.774 E0.01139
G1 X65.411 Y237.993 E0.01105
G1 X65.58 Y238.186 E0.01103
G1 X65.78 Y238.346 E0.01106
G1 X66.011 Y238.473 E0.01137
G1 X66.254 Y238.554 E0.01103
G1 X66.506 Y238.593 E0.01097
G1 X66.753 Y238.587 E0.01066
G1 X67.014 Y238.537 E0.01142
G1 X67.25 Y238.445 E0.01092
G1 X67.471 Y238.313 E0.01109
G1 X67.654 Y238.152 E0.01051
G1 X237.257 Y60.985 E10.56559
G1 X237.408 Y60.796 E0.0104
G1 X237.528 Y60.578 E0.01073
G1 X237.561 Y60.479 E0.00452
;WIPE_START
M204 S10000
G1 X238.075 Y60.308 F36000
;WIPE_END
G1 E-0.08 F3600
;WIPE_START
G1 F28800
G1 X237.902 Y60.101 E-0.03207
G1 X237.898 Y59.804 E-0.03528
G1 X237.842 Y59.509 E-0.03568
G1 X237.736 Y59.228 E-0.0357
G1 X237.582 Y58.969 E-0.03571
G1 X237.384 Y58.739 E-0.03609
G1 X237.128 Y58.533 E-0.039
G1 X236.86 Y58.39 E-0.03609
G1 X236.574 Y58.296 E-0.0357
G1 X236.28 Y58.253 E-0.03537
G1 X236.005 Y58.259 E-0.03264
G1 X235.692 Y58.319 E-0.03786
G1 X235.416 Y58.427 E-0.03515
G1 X235.159 Y58.582 E-0.03562
G1 X234.952 Y58.763 E-0.03264
G1 X234.059 Y59.696 E-0.15338
;WIPE_END
G1 E-0.036 F3600
G1 Z0.3 F36000
; acceleration to travel
G1 X86.987 Y216.791
; decel to extrusion
M204 S5000
G1 X60.447 Y245.139
; end travel
G1 Z0.2
G1 E0.8 F3600
;TYPE:Internal perimeter
G1 F1800
G1 X59.619 Y244.413 E0.04748
G1 X58.856 Y243.616 E0.04748
G1 X58.166 Y242.757 E0.04748
G1 X57.554 Y241.84 E0.04748
G1 X57.024 Y240.874 E0.04748
G1 X56.58 Y239.865 E0.04748
G1 X56.226 Y238.821 E0.04748
G1 X55.964 Y237.751 E0.04748
G1 X55.796 Y236.661 E0.04748
G1 X55.724 Y235.561 E0.04748
G1 X55.748 Y234.459 E0.04748
G1 X55.868 Y233.364 E0.04748
G1 X56.083 Y232.282 E0.04748
G1 X56.391 Y231.224 E0.04748
G1 X56.791 Y230.197 E0.04749
G1 X57.278 Y229.208 E0.04748
G1 X57.85 Y228.266 E0.04748
G1 X58.502 Y227.377 E0.04748
G1 X59.243 Y226.533 E0.04839
G1 X222.502 Y55.991 E10.17044
G1 X223.313 Y55.215 E0.04838
G1 X224.173 Y54.525 E0.04749
G1 X225.09 Y53.913 E0.04748
G1 X226.056 Y53.382 E0.04748
G1 X227.065 Y52.938 E0.04748
G1 X228.109 Y52.584 E0.04748
G1 X229.179 Y52.322 E0.04748
G1 X230.269 Y52.154 E0.04748
G1 X231.369 Y52.082 E0.04748
G1 X231.722 Y52.09 E0.01523
G1 X232.471 Y52.106 E0.03226
G1 X233.566 Y52.226 E0.04748
G1 X234.647 Y52.441 E0.04748
G1 X235.706 Y52.75 E0.04748
G1 X236.733 Y53.149 E0.04748
G1 X237.722 Y53.637 E0.04748
G1 X238.664 Y54.209 E0.04748
G1 X239.553 Y54.861 E0.04748
G1 X240.382 Y55.587 E0.04748
G1 X241.144 Y56.384 E0.04748
G1 X241.834 Y57.243 E0.04748
G1 X242.446 Y58.16 E0.04748
G1 X242.976 Y59.126 E0.04748
G1 X243.42 Y60.135 E0.04749
G1 X243.774 Y61.179 E0.04748
G1 X244.036 Y62.249 E0.04748
G1 X244.204 Y63.339 E0.04748
G1 X244.276 Y64.439 E0.04748
G1 X244.252 Y65.541 E0.04749
G1 X244.132 Y66.636 E0.04748
G1 X243.917 Y67.718 E0.04748
G1 X243.609 Y68.776 E0.04748
G1 X243.209 Y69.803 E0.04748
G1 X242.722 Y70.792 E0.04748
G1 X242.15 Y71.734 E0.04748
G1 X241.498 Y72.623 E0.04748
G1 X240.757 Y73.467 E0.04839
G1 X77.498 Y244.009 E10.17044
G1 X76.687 Y244.785 E0.04839
G1 X75.827 Y245.475 E0.04748
G1 X74.91 Y246.088 E0.04748
G1 X73.944 Y246.618 E0.04748
G1 X72.935 Y247.062 E0.04748
G1 X71.891 Y247.416 E0.04748
G1 X70.821 Y247.678 E0.04748
G1 X69.731 Y247.846 E0.04748
G1 X68.631 Y247.918 E0.04748
G1 X67.529 Y247.894 E0.04748
G1 X66.434 Y247.774 E0.04748
G1 X65.353 Y247.559 E0.04748
G1 X64.294 Y247.25 E0.04749
G1 X63.267 Y246.851 E0.04748
G1 X62.278 Y246.363 E0.04748
G1 X61.336 Y245.791 E0.04748
G1 X60.508 Y245.184 E0.04425
G1 X60.098 Y245.574 F36000
;TYPE:External perimeter
G1 F1800
G1 X59.233 Y244.815 E0.04958
G1 X58.437 Y243.984 E0.04958
G1 X57.717 Y243.087 E0.04958
G1 X57.077 Y242.13 E0.04958
G1 X56.524 Y241.121 E0.04958
G1 X56.06 Y240.067 E0.04958
G1 X55.69 Y238.977 E0.04958
G1 X55.417 Y237.859 E0.04958
G1 X55.242 Y236.722 E0.04958
G1 X55.166 Y235.573 E0.04958
G1 X55.191 Y234.423 E0.04958
G1 X55.317 Y233.279 E0.04958
G1 X55.541 Y232.15 E0.04958
G1 X55.863 Y231.045 E0.04958
G1 X56.281 Y229.972 E0.04958
G1 X56.79 Y228.94 E0.04958
G1 X57.387 Y227.956 E0.04958
G1 X58.067 Y227.028 E0.04958
G1 X58.832 Y226.156 E0.04996
G1 X222.108 Y55.597 E10.17149
G1 X222.946 Y54.796 E0.04995
G1 X223.843 Y54.075 E0.04958
G1 X224.8 Y53.436 E0.04958
G1 X225.809 Y52.882 E0.04958
G1 X226.863 Y52.419 E0.04958
G1 X227.953 Y52.049 E0.04958
G1 X229.071 Y51.775 E0.04958
G1 X230.208 Y51.6 E0.04958
G1 X231.356 Y51.525 E0.04958
G1 X231.734 Y51.533 E0.01628
G1 X232.507 Y51.55 E0.0333
G1 X233.651 Y51.675 E0.04958
G1 X234.78 Y51.9 E0.04958
G1 X235.885 Y52.222 E0.04958
G1 X236.958 Y52.639 E0.04958
G1 X237.99 Y53.148 E0.04958
G1 X238.974 Y53.745 E0.04958
G1 X239.902 Y54.426 E0.04958
G1 X240.767 Y55.185 E0.04958
G1 X241.563 Y56.016 E0.04958
G1 X242.283 Y56.913 E0.04958
G1 X242.923 Y57.87 E0.04958
G1 X243.476 Y58.879 E0.04958
G1 X243.94 Y59.933 E0.04958
G1 X244.31 Y61.023 E0.04958
G1 X244.583 Y62.141 E0.04958
G1 X244.758 Y63.278 E0.04958
G1 X244.834 Y64.427 E0.04958
G1 X244.809 Y65.577 E0.04958
G1 X244.683 Y66.721 E0.04958
G1 X244.459 Y67.85 E0.04958
