; generated by SuperSlicer 2.5.59 on 2022-10-07 at 06:49:16 UTC


;
;

;
;
; 

; external perimeters extrusion width = 0.60mm
; perimeters extrusion width = 0.60mm
; infill extrusion width = 0.72mm
; solid infill extrusion width = 0.72mm
; top infill extrusion width = 0.60mm
; first layer extrusion width = 0.72mm

; object:{"name":"Shape-Box","id":"Shape-Box id:0 copy 0","object_center":[150.000000,150.000000,0.000000],"boundingbox_center":[150.000000,150.000000,0.250000],"boundingbox_size":[75.000000,75.000000,0.500000]}
; plater:{"center":[150.000000,150.000000,0.000000],"boundingbox_center":[150.000000,150.000000,0.250000],"boundingbox_size":[75.000000,75.000000,0.500000]}

;TYPE:Custom
PRINT_START EXTRUDER=235 BED=110 


; Pre-Processed for Cancel-Object support by preprocess_cancellation v0.2.0
; 1 known objects
EXCLUDE_OBJECT_DEFINE NAME=Shape_Box_id_0_copy_0 CENTER=149.839,150.067 POLYGON=[[112.8,112.8],[112.8,187.2],[187.2,187.2],[187.2,112.8],[112.8,112.8]]
M107
G21 ; set units to millimeters
G90 ; use absolute coordinates
M83 ; use relative distances for extrusion
SET_PRESSURE_ADVANCE ADVANCE=0.01
SET_PRESSURE_ADVANCE SMOOTH=0.04

;_TOOLCHANGE 0
M104 S235 ; set temperature
M109 S235 ; set temperature and wait for it to be reached
M190 S110 ; set bed temperature and wait for it to be reached
M107
;LAYER_CHANGE
;Z:0.25
;HEIGHT:0.25
;BEFORE_LAYER_CHANGE
;0.25


G1 Z0.25 F18000
;AFTER_LAYER_CHANGE
;0.25
G92 E0
G1 E-0.6 F3600
M204 S1500
G1 Z0.85 F18000
G1 X107.575 Y108.438
G1 Z0.25
G1 E0.6 F2400
;TYPE:Skirt
;WIDTH:0.72
G1 X106.431 Y110.434 E0.14818
G1 X106.034 Y112.7 E0.14818
G1 X106.034 Y187.3 E4.80505
G1 X106.146 Y188.515 E0.07861
G1 X106.949 Y190.671 E0.14818
G1 X108.438 Y192.425 E0.14818
G1 X110.434 Y193.569 E0.14818
G1 X112.7 Y193.966 E0.14818
G1 X187.3 Y193.966 E4.80505
G1 X188.515 Y193.854 E0.07861
G1 X190.671 Y193.051 E0.14818
G1 X192.425 Y191.562 E0.14818
G1 X193.569 Y189.566 E0.14818
G1 X193.966 Y187.3 E0.14818
G1 X193.966 Y112.7 E4.80505
G1 X193.854 Y111.485 E0.07861
G1 X193.051 Y109.329 E0.14818
G1 X191.562 Y107.575 E0.14818
G1 X189.566 Y106.431 E0.14818
G1 X187.3 Y106.034 E0.14818
G1 X112.7 Y106.034 E4.80505
G1 X111.485 Y106.146 E0.07861
G1 X109.329 Y106.949 E0.14818
G1 X107.643 Y108.38 E0.14239
G1 X108.213 Y108.728 F18000
G1 F2400
G1 X107.097 Y110.555 E0.1379
G1 X106.7 Y112.7 E0.14052
G1 X106.7 Y187.3 E4.80505
G1 X107.361 Y190.037 E0.18138
G1 X108.693 Y191.765 E0.14052
G1 X110.555 Y192.903 E0.14052
G1 X112.7 Y193.3 E0.14052
G1 X187.3 Y193.3 E4.80505
G1 X190.037 Y192.639 E0.18138
G1 X191.765 Y191.307 E0.14052
G1 X192.903 Y189.445 E0.14052
G1 X193.3 Y187.3 E0.14052
G1 X193.3 Y112.7 E4.80505
G1 X192.639 Y109.963 E0.18138
G1 X191.307 Y108.235 E0.14052
G1 X189.445 Y107.097 E0.14052
G1 X187.3 Y106.7 E0.14052
G1 X112.7 Y106.7 E4.80505
G1 X109.963 Y107.361 E0.18138
G1 X108.274 Y108.663 E0.13735
G1 X108.845 Y109.039 F18000
G1 F2400
G1 X107.763 Y110.683 E0.12676
G1 X107.367 Y112.7 E0.13242
G1 X107.367 Y187.3 E4.80505
G1 X107.803 Y189.411 E0.13887
G1 X108.965 Y191.107 E0.13242
G1 X110.683 Y192.237 E0.13242
G1 X112.7 Y192.633 E0.13242
G1 X187.3 Y192.633 E4.80505
G1 X189.411 Y192.197 E0.13887
G1 X191.107 Y191.035 E0.13242
G1 X192.237 Y189.317 E0.13242
G1 X192.633 Y187.3 E0.13242
G1 X192.633 Y112.7 E4.80505
G1 X192.197 Y110.589 E0.13887
G1 X191.035 Y108.893 E0.13242
G1 X189.317 Y107.763 E0.13242
G1 X187.3 Y107.367 E0.13242
G1 X112.7 Y107.367 E4.80505
G1 X110.589 Y107.803 E0.13887
G1 X108.895 Y108.964 E0.13228
G1 E-0.06 F3600
;WIPE_START
G1 F14400
G1 X107.763 Y110.683 E-0.48873
G1 X107.743 Y110.783 E-0.02427
;WIPE_END
G1 E-0.027 F3600
G1 Z0.85 F18000
; printing object Shape-Box id:0 copy 0
EXCLUDE_OBJECT_START NAME=Shape_Box_id_0_copy_0
G1 X115.059 Y115.059
G1 Z0.25
G1 E0.6 F2400
;TYPE:Internal perimeter
G1 X184.941 Y115.059 E4.50115
G1 X184.941 Y184.941 E4.50115
G1 X115.059 Y184.941 E4.50115
G1 X115.059 Y115.149 E4.49536
G1 X114.393 Y114.393 F18000
G1 F2400
G1 X185.607 Y114.393 E4.58699
G1 X185.607 Y185.607 E4.58699
G1 X114.393 Y185.607 E4.58699
G1 X114.393 Y114.483 E4.5812
G1 X113.726 Y113.726 F18000
G1 F2400
G1 X186.274 Y113.726 E4.67283
G1 X186.274 Y186.274 E4.67283
G1 X113.726 Y186.274 E4.67283
G1 X113.726 Y113.816 E4.66704
G1 X113.06 Y113.06 F18000
;TYPE:External perimeter
G1 F2400
G1 X186.94 Y113.06 E4.75867
G1 X186.94 Y186.94 E4.75867
G1 X113.06 Y186.94 E4.75867
G1 X113.06 Y113.15 E4.75288
;WIPE_START
M204 S5000
G1 X113.58 Y113.36 F18000
;WIPE_END
G1 E-0.06 F3600
;WIPE_START
G1 F14400
M204 S1500
G1 X115.74 Y113.36 E-0.513
;WIPE_END
G1 E-0.027 F3600
G1 Z0.85 F18000
G1 X183.461 Y115.192
G1 Z0.25
G1 E0.6 F2400
;TYPE:Solid infill
;WIDTH:0.714387
G1 F3000
G1 X184.521 Y116.253 E0.09584
G1 X184.521 Y117.195 E0.06022
G1 X182.805 Y115.479 E0.15512
G1 X181.863 Y115.479 E0.06022
G1 X184.521 Y118.137 E0.24029
G1 X184.521 Y119.08 E0.06022
G1 X180.92 Y115.479 E0.32546
G1 X179.978 Y115.479 E0.06022
G1 X184.521 Y120.022 E0.41063
G1 X184.521 Y120.965 E0.06022
G1 X179.035 Y115.479 E0.4958
G1 X178.093 Y115.479 E0.06022
G1 X184.521 Y121.907 E0.58097
G1 X184.521 Y122.849 E0.06022
G1 X177.151 Y115.479 E0.66614
G1 X176.208 Y115.479 E0.06022
G1 X184.521 Y123.792 E0.75131
G1 X184.521 Y124.734 E0.06022
G1 X175.266 Y115.479 E0.83649
G1 X174.324 Y115.479 E0.06022
G1 X184.521 Y125.676 E0.92166
G1 X184.521 Y126.619 E0.06022
G1 X173.381 Y115.479 E1.00683
G1 X172.439 Y115.479 E0.06022
G1 X184.521 Y127.561 E1.092
G1 X184.521 Y128.503 E0.06022
G1 X171.497 Y115.479 E1.17717
G1 X170.554 Y115.479 E0.06022
G1 X184.521 Y129.446 E1.26234
G1 X184.521 Y130.388 E0.06022
G1 X169.612 Y115.479 E1.34751
G1 X168.67 Y115.479 E0.06022
G1 X184.521 Y131.33 E1.43268
G1 X184.521 Y132.273 E0.06022
G1 X167.727 Y115.479 E1.51785
G1 X166.785 Y115.479 E0.06022
G1 X184.521 Y133.215 E1.60302
G1 X184.521 Y134.158 E0.06022
G1 X165.842 Y115.479 E1.6882
G1 X164.9 Y115.479 E0.06022
G1 X184.521 Y135.1 E1.77337
G1 X184.521 Y136.042 E0.06022
G1 X163.958 Y115.479 E1.85854
G1 X163.015 Y115.479 E0.06022
G1 X184.521 Y136.985 E1.94371
G1 X184.521 Y137.927 E0.06022
G1 X162.073 Y115.479 E2.02888
G1 X161.131 Y115.479 E0.06022
G1 X184.521 Y138.869 E2.11405
G1 X184.521 Y139.812 E0.06022
G1 X160.188 Y115.479 E2.19922
G1 X159.246 Y115.479 E0.06022
G1 X184.521 Y140.754 E2.28439
G1 X184.521 Y141.696 E0.06022
G1 X158.304 Y115.479 E2.36956
G1 X157.361 Y115.479 E0.06022
G1 X184.521 Y142.639 E2.45473
G1 X184.521 Y143.581 E0.06022
G1 X156.419 Y115.479 E2.53991
G1 X155.476 Y115.479 E0.06022
G1 X184.521 Y144.524 E2.62508
G1 X184.521 Y145.466 E0.06022
G1 X154.534 Y115.479 E2.71025
G1 X153.592 Y115.479 E0.06022
G1 X184.521 Y146.408 E2.79542
G1 X184.521 Y147.351 E0.06022
G1 X152.649 Y115.479 E2.88059
G1 X151.707 Y115.479 E0.06022
G1 X184.521 Y148.293 E2.96576
G1 X184.521 Y149.235 E0.06022
G1 X150.765 Y115.479 E3.05093
G1 X149.822 Y115.479 E0.06022
G1 X184.521 Y150.178 E3.1361
G1 X184.521 Y151.12 E0.06022
G1 X148.88 Y115.479 E3.22127
G1 X147.938 Y115.479 E0.06022
G1 X184.521 Y152.062 E3.30644
G1 X184.521 Y153.005 E0.06022
G1 X146.995 Y115.479 E3.39162
G1 X146.053 Y115.479 E0.06022
G1 X184.521 Y153.947 E3.47679
G1 X184.521 Y154.889 E0.06022
G1 X145.111 Y115.479 E3.56196
G1 X144.168 Y115.479 E0.06022
G1 X184.521 Y155.832 E3.64713
G1 X184.521 Y156.774 E0.06022
G1 X143.226 Y115.479 E3.7323
G1 X142.283 Y115.479 E0.06022
G1 X184.521 Y157.717 E3.81747
G1 X184.521 Y158.659 E0.06022
G1 X141.341 Y115.479 E3.90264
G1 X140.399 Y115.479 E0.06022
G1 X184.521 Y159.601 E3.98781
G1 X184.521 Y160.544 E0.06022
G1 X139.456 Y115.479 E4.07298
G1 X138.514 Y115.479 E0.06022
G1 X184.521 Y161.486 E4.15815
G1 X184.521 Y162.428 E0.06022
G1 X137.572 Y115.479 E4.24333
G1 X136.629 Y115.479 E0.06022
G1 X184.521 Y163.371 E4.3285
G1 X184.521 Y164.313 E0.06022
G1 X135.687 Y115.479 E4.41367
G1 X134.745 Y115.479 E0.06022
G1 X184.521 Y165.255 E4.49884
G1 X184.521 Y166.198 E0.06022
G1 X133.802 Y115.479 E4.58401
G1 X132.86 Y115.479 E0.06022
G1 X184.521 Y167.14 E4.66918
G1 X184.521 Y168.083 E0.06022
G1 X131.917 Y115.479 E4.75435
G1 X130.975 Y115.479 E0.06022
G1 X184.521 Y169.025 E4.83952
G1 X184.521 Y169.967 E0.06022
G1 X130.033 Y115.479 E4.92469
G1 X129.09 Y115.479 E0.06022
G1 X184.521 Y170.91 E5.00986
G1 X184.521 Y171.852 E0.06022
G1 X128.148 Y115.479 E5.09503
G1 X127.206 Y115.479 E0.06022
G1 X184.521 Y172.794 E5.18021
G1 X184.521 Y173.737 E0.06022
G1 X126.263 Y115.479 E5.26538
G1 X125.321 Y115.479 E0.06022
G1 X184.521 Y174.679 E5.35055
G1 X184.521 Y175.621 E0.06022
G1 X124.379 Y115.479 E5.43572
G1 X123.436 Y115.479 E0.06022
G1 X184.521 Y176.564 E5.52089
G1 X184.521 Y177.506 E0.06022
G1 X122.494 Y115.479 E5.60606
G1 X121.552 Y115.479 E0.06022
G1 X184.521 Y178.448 E5.69123
G1 X184.521 Y179.391 E0.06022
G1 X120.609 Y115.479 E5.7764
G1 X119.667 Y115.479 E0.06022
G1 X184.521 Y180.333 E5.86157
G1 X184.521 Y181.276 E0.06022
G1 X118.724 Y115.479 E5.94674
G1 X117.782 Y115.479 E0.06022
G1 X184.521 Y182.218 E6.03192
G1 X184.521 Y183.16 E0.06022
G1 X116.84 Y115.479 E6.11709
G1 X115.897 Y115.479 E0.06022
G1 X184.521 Y184.103 E6.20226
G1 X184.521 Y184.521 E0.02675
G1 X183.997 Y184.521 E0.03348
G1 X115.479 Y116.003 E6.19274
G1 X115.479 Y116.945 E0.06022
G1 X183.055 Y184.521 E6.10757
G1 X182.113 Y184.521 E0.06022
G1 X115.479 Y117.887 E6.0224
G1 X115.479 Y118.83 E0.06022
G1 X181.17 Y184.521 E5.93723
G1 X180.228 Y184.521 E0.06022
G1 X115.479 Y119.772 E5.85206
G1 X115.479 Y120.714 E0.06022
G1 X179.286 Y184.521 E5.76689
G1 X178.343 Y184.521 E0.06022
G1 X115.479 Y121.657 E5.68172
G1 X115.479 Y122.599 E0.06022
G1 X177.401 Y184.521 E5.59654
G1 X176.458 Y184.521 E0.06022
G1 X115.479 Y123.542 E5.51137
G1 X115.479 Y124.484 E0.06022
G1 X175.516 Y184.521 E5.4262
G1 X174.574 Y184.521 E0.06022
G1 X115.479 Y125.426 E5.34103
G1 X115.479 Y126.369 E0.06022
G1 X173.631 Y184.521 E5.25586
G1 X172.689 Y184.521 E0.06022
G1 X115.479 Y127.311 E5.17069
G1 X115.479 Y128.253 E0.06022
G1 X171.747 Y184.521 E5.08552
G1 X170.804 Y184.521 E0.06022
G1 X115.479 Y129.196 E5.00035
G1 X115.479 Y130.138 E0.06022
G1 X169.862 Y184.521 E4.91518
G1 X168.92 Y184.521 E0.06022
G1 X115.479 Y131.08 E4.83001
G1 X115.479 Y132.023 E0.06022
G1 X167.977 Y184.521 E4.74483
G1 X167.035 Y184.521 E0.06022
G1 X115.479 Y132.965 E4.65966
G1 X115.479 Y133.907 E0.06022
G1 X166.093 Y184.521 E4.57449
G1 X165.15 Y184.521 E0.06022
G1 X115.479 Y134.85 E4.48932
G1 X115.479 Y135.792 E0.06022
G1 X164.208 Y184.521 E4.40415
G1 X163.265 Y184.521 E0.06022
G1 X115.479 Y136.735 E4.31898
G1 X115.479 Y137.677 E0.06022
G1 X162.323 Y184.521 E4.23381
G1 X161.381 Y184.521 E0.06022
G1 X115.479 Y138.619 E4.14864
G1 X115.479 Y139.562 E0.06022
G1 X160.438 Y184.521 E4.06347
G1 X159.496 Y184.521 E0.06022
G1 X115.479 Y140.504 E3.9783
G1 X115.479 Y141.446 E0.06022
G1 X158.554 Y184.521 E3.89312
G1 X157.611 Y184.521 E0.06022
G1 X115.479 Y142.389 E3.80795
G1 X115.479 Y143.331 E0.06022
G1 X156.669 Y184.521 E3.72278
G1 X155.727 Y184.521 E0.06022
G1 X115.479 Y144.273 E3.63761
G1 X115.479 Y145.216 E0.06022
G1 X154.784 Y184.521 E3.55244
G1 X153.842 Y184.521 E0.06022
G1 X115.479 Y146.158 E3.46727
G1 X115.479 Y147.101 E0.06022
G1 X152.899 Y184.521 E3.3821
G1 X151.957 Y184.521 E0.06022
G1 X115.479 Y148.043 E3.29693
G1 X115.479 Y148.985 E0.06022
G1 X151.015 Y184.521 E3.21176
G1 X150.072 Y184.521 E0.06022
G1 X115.479 Y149.928 E3.12659
G1 X115.479 Y150.87 E0.06022
G1 X149.13 Y184.521 E3.04142
G1 X148.188 Y184.521 E0.06022
G1 X115.479 Y151.812 E2.95624
G1 X115.479 Y152.755 E0.06022
G1 X147.245 Y184.521 E2.87107
G1 X146.303 Y184.521 E0.06022
G1 X115.479 Y153.697 E2.7859
G1 X115.479 Y154.639 E0.06022
G1 X145.361 Y184.521 E2.70073
G1 X144.418 Y184.521 E0.06022
G1 X115.479 Y155.582 E2.61556
G1 X115.479 Y156.524 E0.06022
G1 X143.476 Y184.521 E2.53039
G1 X142.534 Y184.521 E0.06022
G1 X115.479 Y157.466 E2.44522
G1 X115.479 Y158.409 E0.06022
G1 X141.591 Y184.521 E2.36005
G1 X140.649 Y184.521 E0.06022
G1 X115.479 Y159.351 E2.27488
G1 X115.479 Y160.294 E0.06022
G1 X139.706 Y184.521 E2.18971
G1 X138.764 Y184.521 E0.06022
G1 X115.479 Y161.236 E2.10453
G1 X115.479 Y162.178 E0.06022
G1 X137.822 Y184.521 E2.01936
G1 X136.879 Y184.521 E0.06022
G1 X115.479 Y163.121 E1.93419
G1 X115.479 Y164.063 E0.06022
G1 X135.937 Y184.521 E1.84902
G1 X134.995 Y184.521 E0.06022
G1 X115.479 Y165.005 E1.76385
G1 X115.479 Y165.948 E0.06022
G1 X134.052 Y184.521 E1.67868
G1 X133.11 Y184.521 E0.06022
G1 X115.479 Y166.89 E1.59351
G1 X115.479 Y167.832 E0.06022
G1 X132.168 Y184.521 E1.50834
G1 X131.225 Y184.521 E0.06022
G1 X115.479 Y168.775 E1.42317
G1 X115.479 Y169.717 E0.06022
G1 X130.283 Y184.521 E1.338
G1 X129.34 Y184.521 E0.06022
G1 X115.479 Y170.66 E1.25282
G1 X115.479 Y171.602 E0.06022
G1 X128.398 Y184.521 E1.16765
G1 X127.456 Y184.521 E0.06022
G1 X115.479 Y172.544 E1.08248
G1 X115.479 Y173.487 E0.06022
G1 X126.513 Y184.521 E0.99731
G1 X125.571 Y184.521 E0.06022
G1 X115.479 Y174.429 E0.91214
G1 X115.479 Y175.371 E0.06022
G1 X124.629 Y184.521 E0.82697
G1 X123.686 Y184.521 E0.06022
G1 X115.479 Y176.314 E0.7418
G1 X115.479 Y177.256 E0.06022
G1 X122.744 Y184.521 E0.65663
G1 X121.802 Y184.521 E0.06022
G1 X115.479 Y178.198 E0.57146
G1 X115.479 Y179.141 E0.06022
G1 X120.859 Y184.521 E0.48629
G1 X119.917 Y184.521 E0.06022
G1 X115.479 Y180.083 E0.40111
G1 X115.479 Y181.025 E0.06022
G1 X118.975 Y184.521 E0.31594
G1 X118.032 Y184.521 E0.06022
G1 X115.479 Y181.968 E0.23077
G1 X115.479 Y182.91 E0.06022
G1 X117.09 Y184.521 E0.1456
G1 X116.147 Y184.521 E0.06022
G1 X115.192 Y183.566 E0.08633
;LAYER_CHANGE
;Z:0.45
;HEIGHT:0.2
;BEFORE_LAYER_CHANGE
;0.45


; stop printing object Shape-Box id:0 copy 0
EXCLUDE_OBJECT_END NAME=Shape_Box_id_0_copy_0
M204 S5000
G1 Z0.45 F18000
;AFTER_LAYER_CHANGE
;0.45
G92 E0
M104 S230 ; set temperature
G1 E-0.6 F3600
M204 S3000
G1 Z1.05 F18000
; printing object Shape-Box id:0 copy 0
EXCLUDE_OBJECT_START NAME=Shape_Box_id_0_copy_0
G1 X114.471 Y114.471
G1 Z0.45
G1 E0.6 F2400
;TYPE:Internal perimeter
;WIDTH:0.6
G1 F12000
G1 X185.529 Y114.471 E3.06108
G1 X185.529 Y185.529 E3.06108
G1 X114.471 Y185.529 E3.06108
G1 X114.471 Y114.561 E3.0572
G1 X113.914 Y113.914 F18000
G1 F12000
G1 X186.086 Y113.914 E3.10907
G1 X186.086 Y186.086 E3.10907
G1 X113.914 Y186.086 E3.10907
G1 X113.914 Y114.004 E3.1052
G1 X113.357 Y113.357 F18000
G1 F12000
G1 X186.643 Y113.357 E3.15707
G1 X186.643 Y186.643 E3.15707
G1 X113.357 Y186.643 E3.15707
G1 X113.357 Y113.447 E3.15319
G1 X112.8 Y113.06 F18000
;TYPE:External perimeter
G1 F9000
G1 X112.8 Y112.8 E0.0112
G1 X187.2 Y112.8 E3.20507
G1 X187.2 Y187.2 E3.20507
G1 X112.8 Y187.2 E3.20507
G1 X112.8 Y113.15 E3.18999
;WIPE_START
M204 S5000
G1 X113.32 Y112.76 F18000
;WIPE_END
G1 E-0.06 F3600
;WIPE_START
G1 F14400
G1 X115.48 Y112.77 E-0.513
;WIPE_END
G1 E-0.027 F3600
G1 Z1.05 F18000
G1 X185.438 Y184.312
G1 Z0.45
G1 E0.6 F2400
;TYPE:Top solid infill
;WIDTH:0.584117
G1 F13829.148
G1 X184.552 Y185.199 E0.05258
G1 X183.764 Y185.199 E0.03304
G1 X185.199 Y183.764 E0.0851
G1 X185.199 Y182.976 E0.03304
G1 X182.976 Y185.199 E0.13183
G1 X182.188 Y185.199 E0.03304
G1 X185.199 Y182.188 E0.17855
G1 X185.199 Y181.4 E0.03304
G1 X181.4 Y185.199 E0.22528
G1 X180.613 Y185.199 E0.03304
G1 X185.199 Y180.613 E0.27201
G1 X185.199 Y179.825 E0.03304
G1 X179.825 Y185.199 E0.31873
G1 X179.037 Y185.199 E0.03304
G1 X185.199 Y179.037 E0.36546
G1 X185.199 Y178.249 E0.03304
G1 X178.249 Y185.199 E0.41218
G1 X177.461 Y185.199 E0.03304
G1 X185.199 Y177.461 E0.45891
G1 X185.199 Y176.674 E0.03304
G1 X176.674 Y185.199 E0.50564
G1 X175.886 Y185.199 E0.03304
G1 X185.199 Y175.886 E0.55236
G1 X185.199 Y175.098 E0.03304
G1 X175.098 Y185.199 E0.59909
G1 X174.31 Y185.199 E0.03304
G1 X185.199 Y174.31 E0.64581
G1 X185.199 Y173.522 E0.03304
G1 X173.522 Y185.199 E0.69254
G1 X172.734 Y185.199 E0.03304
G1 X185.199 Y172.734 E0.73927
G1 X185.199 Y171.947 E0.03304
G1 X171.947 Y185.199 E0.78599
G1 X171.159 Y185.199 E0.03304
G1 X185.199 Y171.159 E0.83272
G1 X185.199 Y170.371 E0.03304
G1 X170.371 Y185.199 E0.87944
G1 X169.583 Y185.199 E0.03304
G1 X185.199 Y169.583 E0.92617
G1 X185.199 Y168.795 E0.03304
G1 X168.795 Y185.199 E0.9729
G1 X168.007 Y185.199 E0.03304
G1 X185.199 Y168.007 E1.01962
