; generated by A3dp-Slicer 2.5 on 2023-08-28 at 07:21:57 UTC


;
;

;
;
; 

; external perimeters extrusion width = 0.55mm
; perimeters extrusion width = 0.55mm
; infill extrusion width = 0.55mm
; solid infill extrusion width = 0.55mm
; top infill extrusion width = 0.55mm
; first layer extrusion width = 0.55mm

; object:{"name":"Shape-Box","id":"Shape-Box id:0 copy 0","object_center":[150.000000,150.000000,0.000000],"boundingbox_center":[150.000000,150.000000,0.250000],"boundingbox_size":[106.066017,106.066017,0.500000]}
EXCLUDE_OBJECT_DEFINE NAME=Shape_Box_id_0_copy_0 CENTER=150.000000,150.000000 POLYGON=[[96.966992,150.000000],[150.000000,96.966992],[203.033008,150.000000],[150.000000,203.033008],[96.966992,150.000000]]
; plater:{"center":[150.000000,150.000000,0.000000],"boundingbox_center":[150.000000,150.000000,0.250000],"boundingbox_size":[106.066017,106.066017,0.500000]}

;TYPE:Custom
PRINT_START EXTRUDER=260 BED=115 AREA_START=90.199,90.199 AREA_END=209.801,209.801
M107
G21 ; set units to millimeters
G90 ; use absolute coordinates
M83 ; use relative distances for extrusion
;_BEFORE_TOOLCHANGE 0
SET_PRESSURE_ADVANCE SMOOTH_TIME=0.015
;_TOOLCHANGE 0
M104 S260 ; set temperature
M109 S260 ; set temperature and wait for it to be reached
M190 S115 ; set bed temperature and wait for it to be reached
M107
;LAYER_CHANGE
;Z:0.2
;HEIGHT:0.2
;BEFORE_LAYER_CHANGE
TIMELAPSE_TAKE_FRAME
;0.2


G1 Z0.2 F48000
;AFTER_LAYER_CHANGE
;0.2
G92 E0
G1 E-0.8 F3600
G1 Z0.3 F48000
M204 S5000
G1 X119.16 Y119.16
G1 Z0.2
G1 E0.8 F3600
;TYPE:Skirt
;WIDTH:0.6
G1 F1800
G1 X92.446 Y145.874 E1.46997
G1 X91.046 Y148.126 E0.10319
G1 X90.743 Y150.256 E0.08371
G1 X91.232 Y152.351 E0.08371
G1 X92.446 Y154.126 E0.08371
G1 X145.874 Y207.554 E2.93994
G1 X148.126 Y208.954 E0.10319
G1 X150.256 Y209.257 E0.08371
G1 X152.351 Y208.768 E0.08371
G1 X154.126 Y207.554 E0.08371
G1 X207.554 Y154.126 E2.93994
G1 X208.954 Y151.874 E0.10319
G1 X209.257 Y149.744 E0.08371
G1 X208.768 Y147.649 E0.08371
G1 X207.554 Y145.874 E0.08371
G1 X154.126 Y92.446 E2.93994
G1 X151.874 Y91.046 E0.10319
G1 X149.744 Y90.743 E0.08371
G1 X147.649 Y91.232 E0.08371
G1 X145.874 Y92.446 E0.08371
G1 X119.213 Y119.107 E1.46705
G1 X119.607 Y119.501 F48000
G1 F1800
G1 X92.84 Y146.268 E1.47289
G1 X91.679 Y148.021 E0.08182
G1 X91.294 Y150.029 E0.07958
G1 X91.702 Y152.034 E0.07958
G1 X92.84 Y153.732 E0.07958
G1 X146.268 Y207.16 E2.93994
G1 X148.021 Y208.321 E0.08182
G1 X150.029 Y208.706 E0.07958
G1 X152.034 Y208.298 E0.07958
G1 X153.732 Y207.16 E0.07958
G1 X207.16 Y153.732 E2.93994
G1 X208.321 Y151.979 E0.08182
G1 X208.706 Y149.971 E0.07958
G1 X208.298 Y147.966 E0.07958
G1 X207.16 Y146.268 E0.07958
G1 X153.732 Y92.84 E2.93994
G1 X151.979 Y91.679 E0.08182
G1 X149.971 Y91.294 E0.07958
G1 X147.966 Y91.702 E0.07958
G1 X146.268 Y92.84 E0.07958
G1 X119.66 Y119.448 E1.46413
SET_PRESSURE_ADVANCE ADVANCE=0.0022
G1 E-0.08 F3600
;WIPE_START
G1 F38400
M204 S10000
G1 X125.091 Y114.017 E-0.684
;WIPE_END
G1 E-0.036 F3600
G1 Z0.3 F48000
; printing object Shape-Box id:0 copy 0
EXCLUDE_OBJECT_START NAME=Shape_Box_id_0_copy_0
; acceleration to travel
G1 X189.311 Y144.505
; decel to extrusion
M204 S5000
G1 X200.887 Y150
; end travel
G1 Z0.2
G1 E0.8 F3600
;TYPE:Internal perimeter
;WIDTH:0.55
G1 F1800
G1 X150 Y200.887 E2.54883
G1 X99.113 Y150 E2.54883
G1 X150 Y99.113 E2.54883
G1 X200.834 Y149.947 E2.54618
G1 X201.604 Y150 F48000
G1 F1800
G1 X150 Y201.604 E2.58475
G1 X98.396 Y150 E2.58475
G1 X150 Y98.396 E2.58475
G1 X201.551 Y149.947 E2.5821
G1 X202.321 Y150 F48000
G1 F1800
G1 X150 Y202.321 E2.62067
G1 X97.679 Y150 E2.62067
G1 X150 Y97.679 E2.62067
G1 X202.268 Y149.947 E2.61802
G1 X203.038 Y150 F48000
;TYPE:External perimeter
G1 F1800
G1 X150 Y203.038 E2.65659
G1 X96.962 Y150 E2.65659
G1 X150 Y96.962 E2.65659
G1 X202.985 Y149.947 E2.65393
;WIPE_START
M204 S10000
G1 X202.555 Y150.129 F48000
;WIPE_END
SET_PRESSURE_ADVANCE ADVANCE=0
G1 E-0.08 F3600
;WIPE_START
G1 F38400
G1 X197.125 Y155.56 E-0.684
;WIPE_END
G1 E-0.036 F3600
G1 Z0.3 F48000
; acceleration to travel
G1 X157.579 Y193.492
; decel to extrusion
M204 S5000
G1 X150.432 Y200.347
; end travel
G1 Z0.2
G1 E0.8 F3600
;TYPE:Solid infill
G1 F3000
G1 X149.876 Y200.347 E0.01971
G1 X149.369 Y199.84 E0.0254
G1 X150.631 Y199.84 E0.04471
G1 X151.138 Y199.333 E0.0254
G1 X148.862 Y199.333 E0.08063
G1 X148.355 Y198.826 E0.0254
G1 X151.645 Y198.826 E0.11655
G1 X152.152 Y198.319 E0.0254
G1 X147.848 Y198.319 E0.15247
G1 X147.34 Y197.812 E0.0254
G1 X152.66 Y197.812 E0.18839
G1 X153.167 Y197.305 E0.0254
G1 X146.833 Y197.305 E0.22431
G1 X146.326 Y196.797 E0.0254
G1 X153.674 Y196.797 E0.26023
G1 X154.181 Y196.29 E0.0254
G1 X145.819 Y196.29 E0.29615
G1 X145.312 Y195.783 E0.0254
G1 X154.688 Y195.783 E0.33206
G1 X155.195 Y195.276 E0.0254
G1 X144.805 Y195.276 E0.36798
G1 X144.298 Y194.769 E0.0254
G1 X155.702 Y194.769 E0.4039
G1 X156.209 Y194.262 E0.0254
G1 X143.791 Y194.262 E0.43982
G1 X143.284 Y193.755 E0.0254
G1 X156.716 Y193.755 E0.47574
G1 X157.223 Y193.248 E0.0254
G1 X142.777 Y193.248 E0.51166
G1 X142.27 Y192.741 E0.0254
G1 X157.73 Y192.741 E0.54758
G1 X158.237 Y192.234 E0.0254
G1 X141.763 Y192.234 E0.5835
G1 X141.256 Y191.727 E0.0254
G1 X158.744 Y191.727 E0.61942
G1 X159.252 Y191.22 E0.0254
G1 X140.748 Y191.22 E0.65534
G1 X140.241 Y190.712 E0.0254
G1 X159.759 Y190.712 E0.69126
G1 X160.266 Y190.205 E0.0254
G1 X139.734 Y190.205 E0.72717
G1 X139.227 Y189.698 E0.0254
G1 X160.773 Y189.698 E0.76309
G1 X161.28 Y189.191 E0.0254
G1 X138.72 Y189.191 E0.79901
G1 X138.213 Y188.684 E0.0254
G1 X161.787 Y188.684 E0.83493
G1 X162.294 Y188.177 E0.0254
G1 X137.706 Y188.177 E0.87085
G1 X137.199 Y187.67 E0.0254
G1 X162.801 Y187.67 E0.90677
G1 X163.308 Y187.163 E0.0254
G1 X136.692 Y187.163 E0.94269
G1 X136.185 Y186.656 E0.0254
G1 X163.815 Y186.656 E0.97861
G1 X164.322 Y186.149 E0.0254
G1 X135.678 Y186.149 E1.01453
G1 X135.171 Y185.642 E0.0254
G1 X164.829 Y185.642 E1.05045
G1 X165.337 Y185.135 E0.0254
G1 X134.663 Y185.135 E1.08637
G1 X134.156 Y184.628 E0.0254
G1 X165.844 Y184.628 E1.12228
G1 X166.351 Y184.12 E0.0254
G1 X133.649 Y184.12 E1.1582
G1 X133.142 Y183.613 E0.0254
G1 X166.858 Y183.613 E1.19412
G1 X167.365 Y183.106 E0.0254
G1 X132.635 Y183.106 E1.23004
G1 X132.128 Y182.599 E0.0254
G1 X167.872 Y182.599 E1.26596
G1 X168.379 Y182.092 E0.0254
G1 X131.621 Y182.092 E1.30188
G1 X131.114 Y181.585 E0.0254
G1 X168.886 Y181.585 E1.3378
G1 X169.393 Y181.078 E0.0254
G1 X130.607 Y181.078 E1.37372
G1 X130.1 Y180.571 E0.0254
G1 X169.9 Y180.571 E1.40964
G1 X170.407 Y180.064 E0.0254
G1 X129.593 Y180.064 E1.44556
G1 X129.086 Y179.557 E0.0254
G1 X170.914 Y179.557 E1.48147
G1 X171.421 Y179.05 E0.0254
G1 X128.579 Y179.05 E1.51739
G1 X128.071 Y178.543 E0.0254
G1 X171.929 Y178.543 E1.55331
G1 X172.436 Y178.036 E0.0254
G1 X127.564 Y178.036 E1.58923
G1 X127.057 Y177.528 E0.0254
G1 X172.943 Y177.528 E1.62515
G1 X173.45 Y177.021 E0.0254
G1 X126.55 Y177.021 E1.66107
G1 X126.043 Y176.514 E0.0254
G1 X173.957 Y176.514 E1.69699
G1 X174.464 Y176.007 E0.0254
G1 X125.536 Y176.007 E1.73291
G1 X125.029 Y175.5 E0.0254
G1 X174.971 Y175.5 E1.76883
G1 X175.478 Y174.993 E0.0254
G1 X124.522 Y174.993 E1.80475
G1 X124.015 Y174.486 E0.0254
G1 X175.985 Y174.486 E1.84067
G1 X176.492 Y173.979 E0.0254
G1 X123.508 Y173.979 E1.87658
G1 X123.001 Y173.472 E0.0254
G1 X176.999 Y173.472 E1.9125
G1 X177.506 Y172.965 E0.0254
G1 X122.494 Y172.965 E1.94842
G1 X121.987 Y172.458 E0.0254
G1 X178.013 Y172.458 E1.98434
G1 X178.521 Y171.951 E0.0254
G1 X121.479 Y171.951 E2.02026
G1 X120.972 Y171.443 E0.0254
G1 X179.028 Y171.443 E2.05618
G1 X179.535 Y170.936 E0.0254
G1 X120.465 Y170.936 E2.0921
G1 X119.958 Y170.429 E0.0254
G1 X180.042 Y170.429 E2.12802
G1 X180.549 Y169.922 E0.0254
G1 X119.451 Y169.922 E2.16394
G1 X118.944 Y169.415 E0.0254
G1 X181.056 Y169.415 E2.19986
G1 X181.563 Y168.908 E0.0254
G1 X118.437 Y168.908 E2.23578
G1 X117.93 Y168.401 E0.0254
G1 X182.07 Y168.401 E2.27169
G1 X182.577 Y167.894 E0.0254
G1 X117.423 Y167.894 E2.30761
G1 X116.916 Y167.387 E0.0254
G1 X183.084 Y167.387 E2.34353
G1 X183.591 Y166.88 E0.0254
G1 X116.409 Y166.88 E2.37945
G1 X115.902 Y166.373 E0.0254
G1 X184.098 Y166.373 E2.41537
G1 X184.606 Y165.866 E0.0254
G1 X115.394 Y165.866 E2.45129
G1 X114.887 Y165.359 E0.0254
G1 X185.113 Y165.359 E2.48721
G1 X185.62 Y164.851 E0.0254
G1 X114.38 Y164.851 E2.52313
G1 X113.873 Y164.344 E0.0254
G1 X186.127 Y164.344 E2.55905
G1 X186.634 Y163.837 E0.0254
G1 X113.366 Y163.837 E2.59497
G1 X112.859 Y163.33 E0.0254
G1 X187.141 Y163.33 E2.63089
G1 X187.648 Y162.823 E0.0254
G1 X112.352 Y162.823 E2.6668
G1 X111.845 Y162.316 E0.0254
G1 X188.155 Y162.316 E2.70272
G1 X188.662 Y161.809 E0.0254
G1 X111.338 Y161.809 E2.73864
G1 X110.831 Y161.302 E0.0254
G1 X189.169 Y161.302 E2.77456
G1 X189.676 Y160.795 E0.0254
G1 X110.324 Y160.795 E2.81048
G1 X109.817 Y160.288 E0.0254
G1 X190.183 Y160.288 E2.8464
G1 X190.69 Y159.781 E0.0254
G1 X109.31 Y159.781 E2.88232
G1 X108.802 Y159.274 E0.0254
G1 X191.198 Y159.274 E2.91824
G1 X191.705 Y158.767 E0.0254
G1 X108.295 Y158.767 E2.95416
G1 X107.788 Y158.259 E0.0254
G1 X192.212 Y158.259 E2.99008
G1 X192.719 Y157.752 E0.0254
G1 X107.281 Y157.752 E3.02599
G1 X106.774 Y157.245 E0.0254
G1 X193.226 Y157.245 E3.06191
G1 X193.733 Y156.738 E0.0254
G1 X106.267 Y156.738 E3.09783
G1 X105.76 Y156.231 E0.0254
G1 X194.24 Y156.231 E3.13375
G1 X194.747 Y155.724 E0.0254
G1 X105.253 Y155.724 E3.16967
G1 X104.746 Y155.217 E0.0254
G1 X195.254 Y155.217 E3.20559
G1 X195.761 Y154.71 E0.0254
G1 X104.239 Y154.71 E3.24151
G1 X103.732 Y154.203 E0.0254
G1 X196.268 Y154.203 E3.27743
G1 X196.775 Y153.696 E0.0254
G1 X103.225 Y153.696 E3.31335
G1 X102.718 Y153.189 E0.0254
G1 X197.282 Y153.189 E3.34927
G1 X197.79 Y152.682 E0.0254
G1 X102.21 Y152.682 E3.38519
G1 X101.703 Y152.174 E0.0254
G1 X198.297 Y152.174 E3.4211
G1 X198.804 Y151.667 E0.0254
G1 X101.196 Y151.667 E3.45702
G1 X100.689 Y151.16 E0.0254
G1 X199.311 Y151.16 E3.49294
G1 X199.818 Y150.653 E0.0254
G1 X100.182 Y150.653 E3.52886
G1 X99.675 Y150.146 E0.0254
G1 X200.325 Y150.146 E3.56478
G1 X200.471 Y150 E0.00732
G1 X200.11 Y149.639 E0.01808
G1 X99.89 Y149.639 E3.54957
G1 X100.397 Y149.132 E0.0254
G1 X199.603 Y149.132 E3.51365
G1 X199.096 Y148.625 E0.0254
G1 X100.904 Y148.625 E3.47773
G1 X101.411 Y148.118 E0.0254
G1 X198.589 Y148.118 E3.44181
G1 X198.082 Y147.611 E0.0254
G1 X101.918 Y147.611 E3.40589
G1 X102.425 Y147.104 E0.0254
G1 X197.575 Y147.104 E3.36997
G1 X197.068 Y146.597 E0.0254
G1 X102.932 Y146.597 E3.33405
G1 X103.439 Y146.09 E0.0254
G1 X196.561 Y146.09 E3.29814
G1 X196.054 Y145.582 E0.0254
G1 X103.946 Y145.582 E3.26222
G1 X104.454 Y145.075 E0.0254
G1 X195.546 Y145.075 E3.2263
G1 X195.039 Y144.568 E0.0254
G1 X104.961 Y144.568 E3.19038
G1 X105.468 Y144.061 E0.0254
G1 X194.532 Y144.061 E3.15446
G1 X194.025 Y143.554 E0.0254
G1 X105.975 Y143.554 E3.11854
G1 X106.482 Y143.047 E0.0254
G1 X193.518 Y143.047 E3.08262
G1 X193.011 Y142.54 E0.0254
G1 X106.989 Y142.54 E3.0467
G1 X107.496 Y142.033 E0.0254
G1 X192.504 Y142.033 E3.01078
G1 X191.997 Y141.526 E0.0254
G1 X108.003 Y141.526 E2.97486
G1 X108.51 Y141.019 E0.0254
G1 X191.49 Y141.019 E2.93894
G1 X190.983 Y140.512 E0.0254
G1 X109.017 Y140.512 E2.90303
G1 X109.524 Y140.005 E0.0254
G1 X190.476 Y140.005 E2.86711
G1 X189.969 Y139.498 E0.0254
G1 X110.031 Y139.498 E2.83119
G1 X110.538 Y138.99 E0.0254
G1 X189.462 Y138.99 E2.79527
G1 X188.954 Y138.483 E0.0254
G1 X111.046 Y138.483 E2.75935
G1 X111.553 Y137.976 E0.0254
G1 X188.447 Y137.976 E2.72343
G1 X187.94 Y137.469 E0.0254
G1 X112.06 Y137.469 E2.68751
G1 X112.567 Y136.962 E0.0254
G1 X187.433 Y136.962 E2.65159
G1 X186.926 Y136.455 E0.0254
G1 X113.074 Y136.455 E2.61567
G1 X113.581 Y135.948 E0.0254
G1 X186.419 Y135.948 E2.57975
G1 X185.912 Y135.441 E0.0254
G1 X114.088 Y135.441 E2.54383
G1 X114.595 Y134.934 E0.0254
G1 X185.405 Y134.934 E2.50792
G1 X184.898 Y134.427 E0.0254
G1 X115.102 Y134.427 E2.472
G1 X115.609 Y133.92 E0.0254
G1 X184.391 Y133.92 E2.43608
G1 X183.884 Y133.413 E0.0254
G1 X116.116 Y133.413 E2.40016
G1 X116.623 Y132.905 E0.0254
G1 X183.377 Y132.905 E2.36424
G1 X182.87 Y132.398 E0.0254
G1 X117.13 Y132.398 E2.32832
G1 X117.638 Y131.891 E0.0254
G1 X182.362 Y131.891 E2.2924
G1 X181.855 Y131.384 E0.0254
G1 X118.145 Y131.384 E2.25648
G1 X118.652 Y130.877 E0.0254
G1 X181.348 Y130.877 E2.22056
G1 X180.841 Y130.37 E0.0254
G1 X119.159 Y130.37 E2.18464
G1 X119.666 Y129.863 E0.0254
G1 X180.334 Y129.863 E2.14872
G1 X179.827 Y129.356 E0.0254
G1 X120.173 Y129.356 E2.11281
G1 X120.68 Y128.849 E0.0254
G1 X179.32 Y128.849 E2.07689
G1 X178.813 Y128.342 E0.0254
G1 X121.187 Y128.342 E2.04097
G1 X121.694 Y127.835 E0.0254
G1 X178.306 Y127.835 E2.00505
G1 X177.799 Y127.328 E0.0254
G1 X122.201 Y127.328 E1.96913
G1 X122.708 Y126.821 E0.0254
G1 X177.292 Y126.821 E1.93321
G1 X176.785 Y126.313 E0.0254
G1 X123.215 Y126.313 E1.89729
G1 X123.723 Y125.806 E0.0254
G1 X176.277 Y125.806 E1.86137
G1 X175.77 Y125.299 E0.0254
G1 X124.23 Y125.299 E1.82545
G1 X124.737 Y124.792 E0.0254
G1 X175.263 Y124.792 E1.78953
G1 X174.756 Y124.285 E0.0254
G1 X125.244 Y124.285 E1.75361
G1 X125.751 Y123.778 E0.0254
G1 X174.249 Y123.778 E1.7177
G1 X173.742 Y123.271 E0.0254
G1 X126.258 Y123.271 E1.68178
G1 X126.765 Y122.764 E0.0254
G1 X173.235 Y122.764 E1.64586
G1 X172.728 Y122.257 E0.0254
G1 X127.272 Y122.257 E1.60994
G1 X127.779 Y121.75 E0.0254
G1 X172.221 Y121.75 E1.57402
G1 X171.714 Y121.243 E0.0254
G1 X128.286 Y121.243 E1.5381
G1 X128.793 Y120.736 E0.0254
G1 X171.207 Y120.736 E1.50218
G1 X170.7 Y120.229 E0.0254
G1 X129.3 Y120.228 E1.46626
G1 X129.807 Y119.721 E0.0254
G1 X170.193 Y119.721 E1.43034
G1 X169.685 Y119.214 E0.0254
G1 X130.315 Y119.214 E1.39442
G1 X130.822 Y118.707 E0.0254
G1 X169.178 Y118.707 E1.35851
G1 X168.671 Y118.2 E0.0254
G1 X131.329 Y118.2 E1.32259
G1 X131.836 Y117.693 E0.0254
G1 X168.164 Y117.693 E1.28667
G1 X167.657 Y117.186 E0.0254
G1 X132.343 Y117.186 E1.25075
G1 X132.85 Y116.679 E0.0254
G1 X167.15 Y116.679 E1.21483
G1 X166.643 Y116.172 E0.0254
G1 X133.357 Y116.172 E1.17891
G1 X133.864 Y115.665 E0.0254
G1 X166.136 Y115.665 E1.14299
G1 X165.629 Y115.158 E0.0254
G1 X134.371 Y115.158 E1.10707
G1 X134.878 Y114.651 E0.0254
G1 X165.122 Y114.651 E1.07115
G1 X164.615 Y114.144 E0.0254
G1 X135.385 Y114.144 E1.03523
G1 X135.892 Y113.636 E0.0254
G1 X164.108 Y113.636 E0.99931
G1 X163.601 Y113.129 E0.0254
G1 X136.399 Y113.129 E0.9634
G1 X136.907 Y112.622 E0.0254
G1 X163.093 Y112.622 E0.92748
G1 X162.586 Y112.115 E0.0254
G1 X137.414 Y112.115 E0.89156
G1 X137.921 Y111.608 E0.0254
G1 X162.079 Y111.608 E0.85564
G1 X161.572 Y111.101 E0.0254
G1 X138.428 Y111.101 E0.81972
G1 X138.935 Y110.594 E0.0254
G1 X161.065 Y110.594 E0.7838
G1 X160.558 Y110.087 E0.0254
G1 X139.442 Y110.087 E0.74788
G1 X139.949 Y109.58 E0.0254
G1 X160.051 Y109.58 E0.71196
G1 X159.544 Y109.073 E0.0254
G1 X140.456 Y109.073 E0.67604
G1 X140.963 Y108.566 E0.0254
G1 X159.037 Y108.566 E0.64012
G1 X158.53 Y108.059 E0.0254
G1 X141.47 Y108.059 E0.6042
G1 X141.977 Y107.552 E0.0254
G1 X158.023 Y107.552 E0.56829
G1 X157.516 Y107.044 E0.0254
G1 X142.484 Y107.044 E0.53237
G1 X142.992 Y106.537 E0.0254
G1 X157.008 Y106.537 E0.49645
G1 X156.501 Y106.03 E0.0254
G1 X143.499 Y106.03 E0.46053
G1 X144.006 Y105.523 E0.0254
G1 X155.994 Y105.523 E0.42461
G1 X155.487 Y105.016 E0.0254
G1 X144.513 Y105.016 E0.38869
G1 X145.02 Y104.509 E0.0254
G1 X154.98 Y104.509 E0.35277
G1 X154.473 Y104.002 E0.0254
G1 X145.527 Y104.002 E0.31685
G1 X146.034 Y103.495 E0.0254
G1 X153.966 Y103.495 E0.28093
G1 X153.459 Y102.988 E0.0254
G1 X146.541 Y102.988 E0.24501
G1 X147.048 Y102.481 E0.0254
G1 X152.952 Y102.481 E0.20909
G1 X152.445 Y101.974 E0.0254
G1 X147.555 Y101.974 E0.17318
G1 X148.062 Y101.467 E0.0254
G1 X151.938 Y101.467 E0.13726
G1 X151.431 Y100.959 E0.0254
G1 X148.569 Y100.959 E0.10134
G1 X149.076 Y100.452 E0.0254
G1 X150.924 Y100.452 E0.06542
G1 X150.416 Y99.945 E0.0254
G1 X149.275 Y99.945 E0.04042
;LAYER_CHANGE
;Z:0.44
;HEIGHT:0.24
;BEFORE_LAYER_CHANGE
TIMELAPSE_TAKE_FRAME
;0.44


; stop printing object Shape-Box id:0 copy 0
EXCLUDE_OBJECT_END NAME=Shape_Box_id_0_copy_0
M204 S10000
