; generated by SuperSlicer 2.5.59 on 2023-08-22 at 23:53:24 UTC


;
;

;
;
; 

; external perimeters extrusion width = 0.50mm
; perimeters extrusion width = 0.50mm
; infill extrusion width = 0.75mm
; solid infill extrusion width = 0.65mm
; top infill extrusion width = 0.60mm
; first layer extrusion width = 0.60mm

; external perimeters extrusion width = 0.50mm
; perimeters extrusion width = 0.50mm
; infill extrusion width = 0.75mm
; solid infill extrusion width = 0.65mm
; top infill extrusion width = 0.60mm
; first layer extrusion width = 0.60mm

; external perimeters extrusion width = 0.50mm
; perimeters extrusion width = 0.50mm
; infill extrusion width = 0.75mm
; solid infill extrusion width = 0.65mm
; top infill extrusion width = 0.60mm
; first layer extrusion width = 0.60mm

; external perimeters extrusion width = 0.50mm
; perimeters extrusion width = 0.50mm
; infill extrusion width = 0.75mm
; solid infill extrusion width = 0.65mm
; top infill extrusion width = 0.60mm
; first layer extrusion width = 0.60mm

; object:{"name":"Front-Rail-Guard-1-2 v9(Mirror)","id":"Front-Rail-Guard-1-2 v9(Mirror).stl id:0 copy 0","object_center":[144.060307,167.819089,0.000000],"boundingbox_center":[144.060307,167.819089,10.000000],"boundingbox_size":[40.587929,40.587932,19.999999]}
EXCLUDE_OBJECT_DEFINE NAME=Front_Rail_Guard_1_2_v9_Mirror_stl_id_0_copy_0 CENTER=144.060307,167.819089 POLYGON=[[123.766344,184.577520],[123.766352,182.880464],[127.530984,167.371056],[127.681152,166.991056],[127.891224,166.640576],[128.155560,166.329008],[142.570240,151.914336],[142.881824,151.650000],[143.232288,151.439920],[143.612288,151.289760],[159.121696,147.525120],[160.818736,147.525120],[163.523424,150.229792],[164.354272,151.060656],[161.936528,153.478416],[129.813328,185.601616],[127.301880,188.113056],[123.766344,184.577520]]
; object:{"name":"Front-Rail-Guard-1-2 v9(Mirror)","id":"Front-Rail-Guard-1-2 v9(Mirror).stl id:1 copy 0","object_center":[167.819092,167.819090,0.000000],"boundingbox_center":[167.819092,167.819090,10.000000],"boundingbox_size":[40.587929,40.587932,19.999999]}
EXCLUDE_OBJECT_DEFINE NAME=Front_Rail_Guard_1_2_v9_Mirror_stl_id_1_copy_0 CENTER=167.819092,167.819090 POLYGON=[[147.525120,182.880464],[151.289760,167.371056],[151.439920,166.991056],[151.650000,166.640576],[151.914336,166.329008],[166.329008,151.914336],[166.640592,151.650000],[166.991056,151.439920],[167.371056,151.289760],[182.880464,147.525120],[184.577520,147.525120],[188.113056,151.060656],[151.060656,188.113056],[147.525120,184.577520],[147.525120,182.880464]]
; object:{"name":"Front-Rail-Guard-1-2 v9(Mirror)","id":"Front-Rail-Guard-1-2 v9(Mirror).stl id:2 copy 0","object_center":[144.060307,144.060301,0.000000],"boundingbox_center":[144.060307,144.060301,10.000000],"boundingbox_size":[40.587929,40.587932,19.999999]}
EXCLUDE_OBJECT_DEFINE NAME=Front_Rail_Guard_1_2_v9_Mirror_stl_id_2_copy_0 CENTER=144.060307,144.060301 POLYGON=[[123.766344,160.818720],[123.766352,159.121680],[127.530984,143.612272],[127.681152,143.232272],[127.891224,142.881792],[128.155560,142.570224],[142.570240,128.155552],[142.881824,127.891208],[143.232288,127.681136],[143.612288,127.530968],[159.121696,123.766328],[160.818736,123.766328],[164.354272,127.301864],[161.936528,129.719624],[129.679720,161.976432],[127.301880,164.354256],[123.766344,160.818720]]
; object:{"name":"Front-Rail-Guard-1-2 v9(Mirror)","id":"Front-Rail-Guard-1-2 v9(Mirror).stl id:3 copy 0","object_center":[132.180913,132.180908,0.000000],"boundingbox_center":[132.180913,132.180908,10.000000],"boundingbox_size":[40.587929,40.587932,19.999999]}
EXCLUDE_OBJECT_DEFINE NAME=Front_Rail_Guard_1_2_v9_Mirror_stl_id_3_copy_0 CENTER=132.180913,132.180908 POLYGON=[[111.886944,148.939344],[111.886952,147.242272],[115.651592,131.732896],[115.801760,131.352888],[116.011824,131.002408],[116.276168,130.690840],[130.690840,116.276168],[131.002424,116.011824],[131.352888,115.801760],[131.732896,115.651592],[147.242288,111.886944],[148.939344,111.886944],[152.474880,115.422488],[149.823520,118.073864],[117.840240,150.057136],[115.422488,152.474880],[111.886944,148.939344]]
; plater:{"center":[150.000002,149.999999,0.000000],"boundingbox_center":[150.000002,149.999999,10.000000],"boundingbox_size":[76.226108,76.226114,19.999999]}

;TYPE:Custom
PRINT_START EXTRUDER=265 BED=110 AREA_START=108.256,108.256 AREA_END=190.417,190.436
M107
G21 ; set units to millimeters
G90 ; use absolute coordinates
M83 ; use relative distances for extrusion
SET_PRESSURE_ADVANCE SMOOTH_TIME=0.02
SET_PRESSURE_ADVANCE ADVANCE=0.022
;_TOOLCHANGE 0
M104 S265 ; set temperature
M109 S265 ; set temperature and wait for it to be reached
M190 S110 ; set bed temperature and wait for it to be reached
M107
;LAYER_CHANGE
;Z:0.25
;HEIGHT:0.25
;BEFORE_LAYER_CHANGE
TIMELAPSE_TAKE_FRAME
;0.25


G1 Z0.25 F36000
;AFTER_LAYER_CHANGE
;0.25
G92 E0
G1 E-0.8 F3600
G1 Z0.35 F36000
M204 S5000
G1 X120.119 Y120.119
G1 Z0.25
G1 E0.8 F3600
;TYPE:Skirt
;WIDTH:0.6
G1 F1800
G1 X112.843 Y127.396 E0.52008
G1 X111.77 Y128.768 E0.08806
G1 X111.389 Y129.504 E0.04186
G1 X110.986 Y130.633 E0.06061
G1 X108.797 Y145.478 E0.75837
G1 X109.036 Y148.147 E0.13542
G1 X120.916 Y183.785 E1.89858
G1 X122.321 Y186.06 E0.13515
G1 X124.446 Y188.185 E0.15186
G1 X126.45 Y189.493 E0.12093
G1 X128.561 Y189.889 E0.10858
G1 X152.32 Y189.889 E1.20077
G1 X154.661 Y189.397 E0.12093
G1 X156.435 Y188.185 E0.10858
G1 X188.185 Y156.435 E2.26929
G1 X189.578 Y154.197 E0.13322
G1 X189.884 Y152.071 E0.10858
G1 X189.397 Y149.978 E0.10858
G1 X188.185 Y148.205 E0.10858
G1 X150.422 Y110.442 E2.69908
G1 X149.592 Y109.753 E0.05453
G1 X147.625 Y108.889 E0.10858
G1 X145.478 Y108.797 E0.10858
G1 X131.457 Y110.814 E0.71593
G1 X130.633 Y110.986 E0.04252
G1 X129.504 Y111.389 E0.06061
G1 X128.768 Y111.77 E0.04186
G1 X127.396 Y112.843 E0.08806
G1 X120.172 Y120.066 E0.51629
G1 X120.559 Y120.452 F36000
G1 F1800
G1 X113.229 Y127.782 E0.52387
G1 X112.238 Y129.049 E0.0813
G1 X111.882 Y129.74 E0.03928
G1 X111.517 Y130.763 E0.05492
G1 X109.338 Y145.556 E0.75569
G1 X109.554 Y147.974 E0.12271
G1 X121.434 Y183.612 E1.89858
G1 X122.708 Y185.674 E0.12246
G1 X124.832 Y187.798 E0.15186
G1 X126.556 Y188.947 E0.10466
G1 X128.561 Y189.343 E0.10331
G1 X152.32 Y189.343 E1.20077
G1 X154.35 Y188.936 E0.10466
G1 X156.049 Y187.798 E0.10331
G1 X187.798 Y156.049 E2.26929
G1 X188.957 Y154.3 E0.10601
G1 X189.343 Y152.293 E0.10331
G1 X188.936 Y150.289 E0.10331
G1 X187.798 Y148.591 E0.10331
G1 X150.035 Y110.828 E2.69908
G1 X147.597 Y109.444 E0.14169
G1 X145.556 Y109.338 E0.10331
G1 X131.535 Y111.354 E0.71593
G1 X130.763 Y111.517 E0.03984
G1 X129.74 Y111.882 E0.05492
G1 X129.049 Y112.238 E0.03927
G1 X127.782 Y113.229 E0.0813
G1 X120.612 Y120.399 E0.51249
G1 E-0.08 F3600
;WIPE_START
G1 F28800
M204 S10000
G1 X124.684 Y116.326 E-0.684
;WIPE_END
G1 E-0.036 F3600
G1 Z0.35 F36000
; printing object Front-Rail-Guard-1-2 v9(Mirror).stl id:0 copy 0
EXCLUDE_OBJECT_START NAME=Front_Rail_Guard_1_2_v9_Mirror_stl_id_0_copy_0
; acceleration to travel
G1 X130.555 Y160.005
; decel to extrusion
M204 S5000
G1 X131.615 Y167.886
; end travel
G1 Z0.25
G1 E0.8 F3600
;TYPE:Internal perimeter
G1 F1800
G1 X136.422 Y172.694 E0.34362
G1 X134.732 Y174.384 E0.12079
G1 X131.213 Y168.288 E0.35574
G1 X131.561 Y167.939 E0.02493
G1 X131.615 Y167.114 F36000
G1 F1800
G1 X137.195 Y172.694 E0.39884
G1 X134.615 Y175.274 E0.18439
G1 X130.53 Y168.198 E0.41291
G1 X131.561 Y167.167 E0.07373
G1 E-0.08 F3600
;WIPE_START
G1 F28800
M204 S10000
G1 X130.53 Y168.198 E-0.17324
G1 X132.68 Y171.923 E-0.51076
;WIPE_END
G1 E-0.036 F3600
G1 Z0.35 F36000
; acceleration to travel
G1 X142.378 Y157.903
; decel to extrusion
M204 S5000
G1 X144.128 Y155.373
; end travel
G1 Z0.25
G1 E0.8 F3600
G1 F1800
G1 X144.529 Y154.971 E0.02872
G1 X150.625 Y158.491 E0.35574
G1 X148.935 Y160.181 E0.12079
G1 X144.181 Y155.426 E0.33983
G1 X143.417 Y155.436 F36000
G1 F1800
G1 X143.355 Y155.373 E0.00448
G1 X144.439 Y154.289 E0.07752
G1 X151.515 Y158.374 E0.41291
G1 X148.935 Y160.954 E0.18439
G1 X143.471 Y155.489 E0.39057
G1 X143.417 Y156.209 F36000
G1 F1800
G1 X132.45 Y167.176 E0.78391
G1 X137.967 Y172.694 E0.39436
G1 X134.498 Y176.163 E0.24799
G1 X129.847 Y168.108 E0.47008
G1 X144.35 Y153.606 E1.03655
G1 X152.405 Y158.257 E0.47008
G1 X148.935 Y161.726 E0.24799
G1 X143.471 Y156.262 E0.39057
G1 X143.417 Y156.981 F36000
G1 F1800
G1 X133.222 Y167.176 E0.72868
G1 X138.74 Y172.694 E0.39436
G1 X128.561 Y182.873 E0.72753
G1 X127.578 Y181.89 E0.07026
G1 X133.661 Y175.807 E0.43477
G1 X129.378 Y168.389 E0.43288
G1 X129.32 Y168.258 E0.00727
G1 X129.295 Y168.13 E0.00661
G1 X129.297 Y168.032 E0.00492
G1 X129.319 Y167.941 E0.00475
G1 X129.364 Y167.848 E0.00519
G1 X129.471 Y167.712 E0.00879
G1 X143.953 Y153.23 E1.03506
G1 X144.09 Y153.123 E0.00879
G1 X144.182 Y153.078 E0.00519
G1 X144.274 Y153.056 E0.00475
G1 X144.371 Y153.053 E0.00492
G1 X144.499 Y153.079 E0.00661
G1 X144.63 Y153.137 E0.00727
G1 X152.048 Y157.42 E0.43288
G1 X158.131 Y151.337 E0.43477
G1 X159.114 Y152.32 E0.07026
G1 X148.935 Y162.499 E0.72753
G1 X143.471 Y157.034 E0.39057
G1 X143.417 Y157.754 F36000
;TYPE:External perimeter
G1 F1800
G1 X133.995 Y167.176 E0.67346
G1 X139.513 Y172.694 E0.39436
G1 X128.561 Y183.645 E0.78276
G1 X126.805 Y181.89 E0.12548
G1 X132.978 Y175.717 E0.4412
G1 X128.891 Y168.638 E0.41315
G1 X128.796 Y168.424 E0.0118
G1 X128.747 Y168.176 E0.01277
G1 X128.752 Y167.96 E0.01097
G1 X128.802 Y167.756 E0.01058
G1 X128.897 Y167.558 E0.01111
G1 X129.062 Y167.348 E0.01348
G1 X143.589 Y152.821 E1.03835
G1 X143.799 Y152.656 E0.01349
G1 X143.997 Y152.561 E0.01111
G1 X144.201 Y152.511 E0.01058
G1 X144.418 Y152.506 E0.01097
G1 X144.665 Y152.555 E0.01277
G1 X144.879 Y152.65 E0.0118
G1 X151.958 Y156.737 E0.41315
G1 X158.131 Y150.564 E0.4412
G1 X158.575 Y151.008 E0.03175
G1 X159.887 Y152.32 E0.09374
G1 X148.935 Y163.271 E0.78276
G1 X143.471 Y157.807 E0.39057
;WIPE_START
M204 S10000
G1 X143.064 Y157.4 F36000
;WIPE_END
G1 E-0.08 F3600
;WIPE_START
G1 F28800
G1 X139.067 Y161.548 E-0.684
;WIPE_END
G1 E-0.036 F3600
G1 Z0.35 F36000
; acceleration to travel
G1 X142.575 Y156.494
; decel to extrusion
M204 S5000
G1 X143.208 Y155.583
; end travel
G1 Z0.25
G1 E0.8 F3600
;TYPE:Gap fill
;WIDTH:0.731773
G1 F1800
G1 X131.824 Y166.967 E1.00996
G1 X131.575 Y168.282 F36000
;WIDTH:0.193603
G1 F1800
G1 X131.735 Y168.497 E0.00347
;WIDTH:0.249746
G1 X131.855 Y168.654 E0.00358
;WIDTH:0.305888
G1 X131.975 Y168.81 E0.0046
;WIDTH:0.362031
G1 X132.095 Y168.967 E0.00562
;WIDTH:0.418173
G1 X132.215 Y169.123 E0.00665
;WIDTH:0.474316
G1 X132.335 Y169.279 E0.00767
;WIDTH:0.530458
G1 X132.455 Y169.436 E0.0087
;WIDTH:0.586601
G1 X132.575 Y169.592 E0.00972
;WIDTH:0.642743
G1 X132.695 Y169.749 E0.01074
;WIDTH:0.698886
G1 X132.815 Y169.905 E0.01177
;WIDTH:0.755028
G1 X132.935 Y170.061 E0.01279
;WIDTH:0.81117
G1 X133.17 Y170.368 E0.02709
;WIDTH:0.917434
G1 X133.285 Y170.518 E0.01513
G1 X134.566 Y170.954 F36000
;TYPE:Solid infill
;WIDTH:0.6
G1 F3000
G1 X133.148 Y170.954 E0.07168
G1 X133.127 Y170.97 E0.00134
G1 X133.433 Y171.5 E0.03094
G1 X134.781 Y171.5 E0.0681
G1 X135.327 Y172.047 E0.03905
G1 X133.749 Y172.047 E0.07977
G1 X134.064 Y172.593 E0.03188
G1 X135.873 Y172.593 E0.09144
G1 X135.974 Y172.694 E0.0072
G1 X135.528 Y173.139 E0.03185
G1 X134.379 Y173.139 E0.05807
G1 X134.695 Y173.686 E0.03188
G1 X135.314 Y173.686 E0.0313
G1 E-0.08 F3600
;WIPE_START
G1 F28800
M204 S10000
G1 X134.695 Y173.686 E-0.07355
G1 X134.379 Y173.139 E-0.07492
G1 X135.528 Y173.139 E-0.13644
G1 X135.974 Y172.694 E-0.07483
G1 X135.873 Y172.593 E-0.01692
G1 X134.064 Y172.593 E-0.21484
G1 X133.749 Y172.047 E-0.07492
G1 X133.897 Y172.047 E-0.01758
;WIPE_END
G1 E-0.036 F3600
G1 Z0.35 F36000
; acceleration to travel
G1 X134.179 Y175.568
; decel to extrusion
M204 S5000
G1 X134.23 Y176.203
; end travel
G1 Z0.25
G1 E0.8 F3600
;TYPE:Gap fill
;WIDTH:0.83565
G1 F1800
G1 X134.071 Y176.371 E0.01673
;WIDTH:0.940634
G1 X133.912 Y176.539 E0.01898
G1 X128.248 Y182.203 E0.65728
G1 E-0.08 F3600
;WIPE_START
G1 F28800
M204 S10000
G1 X132.32 Y178.13 E-0.684
;WIPE_END
G1 E-0.036 F3600
G1 Z0.35 F36000
; acceleration to travel
G1 X144.552 Y160.267
; decel to extrusion
M204 S5000
G1 X146.76 Y157.044
; end travel
G1 Z0.25
G1 E0.8 F3600
;WIDTH:0.917436
G1 F1800
G1 X146.609 Y156.929 E0.01513
;WIDTH:0.811168
G1 X146.303 Y156.693 E0.02708
;WIDTH:0.755026
G1 X146.146 Y156.573 E0.01279
;WIDTH:0.698884
G1 X145.99 Y156.453 E0.01177
;WIDTH:0.642742
G1 X145.833 Y156.333 E0.01074
;WIDTH:0.586599
G1 X145.677 Y156.213 E0.00972
;WIDTH:0.530457
G1 X145.521 Y156.093 E0.0087
;WIDTH:0.474315
G1 X145.364 Y155.973 E0.00767
;WIDTH:0.418173
G1 X145.208 Y155.853 E0.00665
;WIDTH:0.36203
G1 X145.051 Y155.733 E0.00562
;WIDTH:0.305888
G1 X144.895 Y155.613 E0.0046
;WIDTH:0.249746
G1 X144.739 Y155.493 E0.00358
;WIDTH:0.193603
G1 X144.523 Y155.334 E0.00347
G1 E-0.08 F3600
;WIPE_START
G1 F28800
M204 S10000
G1 X144.739 Y155.493 E-0.03187
G1 X144.895 Y155.613 E-0.02341
G1 X145.051 Y155.733 E-0.02341
G1 X145.208 Y155.853 E-0.02341
G1 X145.364 Y155.973 E-0.02341
G1 X145.521 Y156.093 E-0.02341
G1 X145.677 Y156.213 E-0.02341
G1 X145.833 Y156.333 E-0.02341
G1 X145.99 Y156.453 E-0.02341
G1 X146.146 Y156.573 E-0.02341
G1 X146.303 Y156.693 E-0.02341
G1 X146.609 Y156.929 E-0.0459
G1 X146.76 Y157.044 E-0.02249
;WIPE_END
G1 E-0.38564 F3600
G1 Z0.35 F36000
M204 S5000
G1 X148.508 Y157.363
G1 Z0.25
G1 E0.8 F3600
;TYPE:Solid infill
;WIDTH:0.6
G1 F3000
G1 X146.845 Y157.363 E0.08406
G1 X146.724 Y157.521 E0.01007
G1 X147.112 Y157.91 E0.02775
G1 X148.985 Y157.91 E0.09465
G1 X149.931 Y158.456 E0.05522
G1 X147.658 Y158.456 E0.11486
G1 X148.205 Y159.002 E0.03905
G1 X149.665 Y159.002 E0.07383
G1 X149.119 Y159.549 E0.03905
G1 X148.419 Y159.549 E0.0354
G1 E-0.08 F3600
;WIPE_START
G1 F28800
M204 S10000
G1 X149.119 Y159.549 E-0.08317
G1 X149.665 Y159.002 E-0.09175
G1 X148.205 Y159.002 E-0.17347
G1 X147.658 Y158.456 E-0.09175
G1 X149.712 Y158.456 E-0.24386
;WIPE_END
G1 E-0.036 F3600
G1 Z0.35 F36000
M204 S5000
G1 X152.444 Y157.989
G1 Z0.25
G1 E0.8 F3600
;TYPE:Gap fill
;WIDTH:0.835651
G1 F1800
G1 X152.612 Y157.83 E0.01673
;WIDTH:0.940632
G1 X152.78 Y157.671 E0.01898
G1 X158.445 Y152.006 E0.65728
G1 E-0.08 F3600
;WIPE_START
G1 F28800
M204 S10000
G1 X154.372 Y156.079 E-0.684
;WIPE_END
G1 E-0.036 F3600
G1 Z0.35 F36000
; stop printing object Front-Rail-Guard-1-2 v9(Mirror).stl id:0 copy 0
EXCLUDE_OBJECT_END NAME=Front_Rail_Guard_1_2_v9_Mirror_stl_id_0_copy_0
; printing object Front-Rail-Guard-1-2 v9(Mirror).stl id:1 copy 0
EXCLUDE_OBJECT_START NAME=Front_Rail_Guard_1_2_v9_Mirror_stl_id_1_copy_0
; acceleration to travel
G1 X155.22 Y166.081
; decel to extrusion
M204 S5000
G1 X155.373 Y167.886
; end travel
G1 Z0.25
G1 E0.8 F3600
;TYPE:Internal perimeter
;WIDTH:0.6
G1 F1800
G1 X160.181 Y172.694 E0.34362
G1 X158.491 Y174.384 E0.12079
G1 X154.971 Y168.288 E0.35574
G1 X155.32 Y167.939 E0.02493
G1 X155.373 Y167.114 F36000
G1 F1800
G1 X160.954 Y172.694 E0.39884
G1 X158.374 Y175.274 E0.18439
G1 X154.289 Y168.198 E0.41291
G1 X155.32 Y167.167 E0.07373
G1 E-0.08 F3600
;WIPE_START
G1 F28800
M204 S10000
G1 X154.289 Y168.198 E-0.17324
G1 X156.439 Y171.923 E-0.51076
;WIPE_END
G1 E-0.036 F3600
G1 Z0.35 F36000
; acceleration to travel
G1 X166.136 Y157.903
; decel to extrusion
M204 S5000
G1 X167.886 Y155.373
; end travel
G1 Z0.25
G1 E0.8 F3600
G1 F1800
G1 X168.288 Y154.971 E0.02872
G1 X174.384 Y158.491 E0.35574
G1 X172.694 Y160.181 E0.12079
G1 X167.939 Y155.426 E0.33983
G1 X167.176 Y155.436 F36000
G1 F1800
G1 X167.114 Y155.373 E0.00448
G1 X168.198 Y154.289 E0.07752
G1 X175.274 Y158.374 E0.41291
G1 X172.694 Y160.954 E0.18439
G1 X167.229 Y155.489 E0.39057
G1 X167.176 Y156.209 F36000
G1 F1800
G1 X156.209 Y167.176 E0.78391
G1 X161.726 Y172.694 E0.39436
G1 X158.257 Y176.163 E0.24799
G1 X153.606 Y168.108 E0.47008
G1 X168.108 Y153.606 E1.03655
G1 X176.163 Y158.257 E0.47008
G1 X172.694 Y161.726 E0.24799
G1 X167.229 Y156.262 E0.39057
G1 X167.176 Y156.981 F36000
G1 F1800
G1 X156.981 Y167.176 E0.72868
G1 X162.499 Y172.694 E0.39436
G1 X152.32 Y182.873 E0.72753
