; generated by SuperSlicer 2.5.59 on 2023-06-06 at 23:33:22 UTC


;
;

;
;
; TODO: check the size of the extruder and the y-bar clearance. Optimize & test supports.

; external perimeters extrusion width = 0.51mm
; perimeters extrusion width = 0.58mm
; infill extrusion width = 0.55mm
; solid infill extrusion width = 0.58mm
; top infill extrusion width = 0.50mm
; support material extrusion width = 0.55mm
; first layer extrusion width = 0.70mm

; object:{"name":"3DBenchy","id":"3DBenchy.stl id:0 copy 0","object_center":[150.000000,150.000000,0.000000],"boundingbox_center":[150.000000,150.000000,24.000000],"boundingbox_size":[60.000999,31.004000,48.000000]}
; plater:{"center":[150.000000,150.000000,0.000000],"boundingbox_center":[150.000000,150.000000,24.000000],"boundingbox_size":[60.000999,31.004000,48.000000]}

;TYPE:Custom
PRINT_START EXTRUDER=270 BED=118 AREA_START=118.397,136.272 AREA_END=168.727,163.728
M107
G21 ; set units to millimeters
G90 ; use absolute coordinates
M83 ; use relative distances for extrusion
;_TOOLCHANGE 0
M104 S270 ; set temperature
M109 S270 ; set temperature and wait for it to be reached
M190 S118 ; set bed temperature and wait for it to be reached
M107
;LAYER_CHANGE
;Z:0.2
;HEIGHT:0.2
;BEFORE_LAYER_CHANGE
;0.2


G1 Z0.2 F66000
;AFTER_LAYER_CHANGE
;0.2
G92 E0
G1 E-1.2 F3900
M204 S10000
G1 X121.711 Y139.743 F66000
G1 E1.2 F3900
;TYPE:Skirt
;WIDTH:0.65
G1 F9000
G1 X120.814 Y140.584 E0.06206
G1 X119.877 Y141.949 E0.0836
G1 X119.418 Y143.07 E0.06111
G1 X119.109 Y144.869 E0.09215
G1 X119.004 Y151.925 E0.35622
G1 X119.131 Y155.448 E0.17797
G1 X119.491 Y157.152 E0.08791
G1 X119.854 Y158.007 E0.04689
G1 X120.55 Y159.092 E0.06507
G1 X121.316 Y159.926 E0.05718
G1 X122.652 Y160.869 E0.08252
G1 X123.634 Y161.299 E0.05415
G1 X124.912 Y161.608 E0.06635
G1 X149.91 Y163.121 E1.2642
G1 X152.12 Y163.014 E0.11166
G1 X153.622 Y162.799 E0.0766
G1 X154.921 Y162.517 E0.0671
G1 X157.113 Y161.829 E0.11598
G1 X158.601 Y161.194 E0.08167
G1 X160.12 Y160.39 E0.08674
G1 X163.031 Y158.414 E0.17762
G1 X164.2 Y157.363 E0.07932
G1 X165.815 Y155.539 E0.123
G1 X167.322 Y153.109 E0.14431
G1 X167.754 Y152.157 E0.05281
G1 X168.098 Y150.688 E0.07616
G1 X168.088 Y149.219 E0.07413
G1 X167.783 Y147.915 E0.0676
G1 X167.275 Y146.809 E0.06147
G1 X165.843 Y144.663 E0.13023
G1 X164.169 Y142.748 E0.12837
G1 X162.439 Y141.201 E0.11715
G1 X160.21 Y139.664 E0.13667
G1 X157.854 Y138.47 E0.13336
G1 X155.325 Y137.589 E0.13519
G1 X152.755 Y137.061 E0.13241
G1 X150.254 Y136.88 E0.12659
G1 X125.47 Y138.334 E1.25323
G1 X123.608 Y138.715 E0.09591
G1 X122.471 Y139.231 E0.06306
G1 X121.773 Y139.701 E0.04246
G1 X122.11 Y140.203 F66000
G1 F9000
G1 X121.261 Y140.995 E0.05857
G1 X120.421 Y142.219 E0.07493
G1 X119.995 Y143.259 E0.05674
G1 X119.716 Y144.89 E0.08352
G1 X119.611 Y151.925 E0.35518
G1 X119.736 Y155.407 E0.17588
G1 X120.068 Y156.963 E0.0803
G1 X120.826 Y158.444 E0.08401
G1 X121.581 Y159.343 E0.05925
G1 X122.42 Y160.021 E0.05444
G1 X123.648 Y160.658 E0.06985
G1 X124.987 Y161.005 E0.06982
G1 X149.9 Y162.514 E1.2599
G1 X151.157 Y162.484 E0.06349
G1 X153.215 Y162.255 E0.10448
G1 X156.043 Y161.562 E0.147
G1 X158.08 Y160.767 E0.11037
G1 X159.256 Y160.181 E0.06633
G1 X162.341 Y158.163 E0.1861
G1 X163.763 Y156.942 E0.09461
G1 X165.343 Y155.157 E0.12031
G1 X166.798 Y152.803 E0.13968
G1 X167.179 Y151.964 E0.04655
G1 X167.494 Y150.635 E0.06895
G1 X167.487 Y149.308 E0.06697
G1 X167.214 Y148.126 E0.06122
G1 X166.756 Y147.124 E0.05565
G1 X165.371 Y145.044 E0.1261
G1 X163.749 Y143.186 E0.12452
G1 X162.049 Y141.666 E0.1151
G1 X159.89 Y140.179 E0.13234
G1 X157.603 Y139.022 E0.12938
G1 X155.152 Y138.171 E0.13096
G1 X152.66 Y137.661 E0.12841
G1 X150.232 Y137.487 E0.12286
G1 X125.507 Y138.939 E1.25028
G1 X123.824 Y139.282 E0.08668
G1 X122.782 Y139.753 E0.05769
G1 X122.172 Y140.162 E0.03708
G1 X122.575 Y140.657 F66000
G1 F9000
G1 X121.867 Y141.233 E0.04606
G1 X120.965 Y142.488 E0.078
G1 X120.572 Y143.448 E0.05238
G1 X120.323 Y144.91 E0.0749
G1 X120.218 Y151.925 E0.35414
G1 X120.342 Y155.366 E0.17379
G1 X120.644 Y156.774 E0.0727
G1 X121.314 Y158.084 E0.07427
G1 X121.997 Y158.9 E0.0537
G1 X122.767 Y159.524 E0.05004
G1 X123.855 Y160.088 E0.06183
G1 X125.061 Y160.403 E0.06297
G1 X149.673 Y161.905 E1.2447
G1 X152.255 Y161.778 E0.13048
G1 X154.336 Y161.41 E0.10668
G1 X155.595 Y161.067 E0.06587
G1 X158.057 Y160.109 E0.13336
G1 X160.567 Y158.673 E0.14597
G1 X162.322 Y157.428 E0.10859
G1 X163.821 Y156.007 E0.10429
G1 X165.183 Y154.329 E0.10912
G1 X166.273 Y152.497 E0.10758
G1 X166.7 Y151.482 E0.05561
G1 X166.913 Y150.311 E0.06009
G1 X166.847 Y149.126 E0.05987
G1 X166.645 Y148.337 E0.04111
G1 X166.236 Y147.438 E0.04983
G1 X164.899 Y145.426 E0.12197
G1 X163.328 Y143.624 E0.12067
G1 X161.659 Y142.131 E0.11305
G1 X159.569 Y140.695 E0.12801
G1 X157.351 Y139.575 E0.1254
G1 X154.979 Y138.753 E0.12673
G1 X152.565 Y138.261 E0.1244
G1 X150.211 Y138.094 E0.11913
G1 X125.543 Y139.545 E1.24732
G1 X124.04 Y139.85 E0.07744
G1 X122.917 Y140.38 E0.06269
G1 X122.633 Y140.61 E0.01844
G1 X123.012 Y141.076 F66000
G1 F9000
G1 X122.314 Y141.643 E0.0454
G1 X121.51 Y142.757 E0.06934
G1 X121.149 Y143.637 E0.04801
G1 X120.929 Y144.931 E0.06627
G1 X120.826 Y151.925 E0.3531
G1 X120.948 Y155.325 E0.17171
G1 X121.221 Y156.585 E0.0651
G1 X121.803 Y157.723 E0.06452
G1 X122.412 Y158.457 E0.04816
G1 X123.115 Y159.026 E0.04564
G1 X124.061 Y159.517 E0.05381
G1 X125.136 Y159.8 E0.05611
G1 X149.697 Y161.298 E1.2421
G1 X152.17 Y161.177 E0.12497
G1 X154.213 Y160.816 E0.10473
G1 X155.432 Y160.483 E0.06379
G1 X157.785 Y159.566 E0.12749
G1 X160.218 Y158.176 E0.14143
G1 X161.967 Y156.936 E0.10826
G1 X163.385 Y155.585 E0.09882
G1 X164.663 Y154.016 E0.10217
G1 X165.749 Y152.191 E0.10722
G1 X166.125 Y151.288 E0.04935
G1 X166.308 Y150.257 E0.05288
G1 X166.246 Y149.215 E0.05271
G1 X166.075 Y148.548 E0.03473
G1 X165.717 Y147.753 E0.04401
G1 X164.427 Y145.808 E0.11785
G1 X162.908 Y144.062 E0.11681
G1 X161.269 Y142.596 E0.111
G1 X159.248 Y141.21 E0.12368
G1 X157.1 Y140.128 E0.12142
G1 X154.807 Y139.335 E0.1225
G1 X152.469 Y138.86 E0.12039
G1 X150.189 Y138.7 E0.1154
G1 X125.58 Y140.151 E1.24437
G1 X124.256 Y140.417 E0.0682
G1 X123.228 Y140.901 E0.05732
G1 X123.07 Y141.029 E0.01027
G1 E-1.2 F3900
; printing object 3DBenchy.stl id:0 copy 0
; acceleration to travel
M204 S25000
G1 X135.115 Y145.063 F66000
; decel to extrusion
M204 S10000
G1 X140.101 Y146.733
; end travel
G1 E1.2 F3900
;TYPE:Internal perimeter
;WIDTH:0.7
G1 F15000
G1 X139.828 Y146.439 E0.02195
G1 X139.552 Y146.225 E0.01907
G1 X139.165 Y146.017 E0.02397
G1 X138.841 Y145.902 E0.01882
G1 X138.412 Y145.81 E0.02399
G1 X138.035 Y145.769 E0.02068
G1 X137.519 Y145.769 E0.0282
G1 X137.096 Y145.818 E0.02327
G1 X136.625 Y145.94 E0.02657
G1 X136.183 Y146.149 E0.02676
G1 X135.767 Y146.45 E0.028
G1 X135.432 Y146.153 E0.02448
G1 X135.001 Y145.982 E0.02533
G1 X134.334 Y145.945 E0.03652
G1 X130.744 Y145.938 E0.19609
G1 X130.228 Y146.04 E0.02877
G1 X129.703 Y146.477 E0.03729
G1 X129.054 Y146.07 E0.04187
G1 X128.579 Y145.883 E0.02786
G1 X128.059 Y145.788 E0.02892
G1 X127.612 Y145.765 E0.02446
G1 X127.257 Y145.778 E0.01938
G1 X126.856 Y145.831 E0.0221
G1 X126.439 Y145.935 E0.02347
G1 X125.857 Y146.183 E0.03459
G1 X125.224 Y146.595 E0.04126
G1 X125.237 Y145.124 E0.08036
G1 X125.295 Y144.826 E0.0166
G1 X125.441 Y144.618 E0.01386
G1 X125.563 Y144.532 E0.0082
G1 X125.691 Y144.483 E0.00745
G1 X125.891 Y144.451 E0.01109
G1 X149.214 Y143.034 E1.27664
G1 X150.067 Y143.009 E0.04662
G1 X150.388 Y143.021 E0.01753
G1 X151.065 Y143.045 E0.03699
G1 X151.821 Y143.122 E0.04154
G1 X152.584 Y143.243 E0.04224
G1 X153.612 Y143.477 E0.05756
G1 X154.352 Y143.696 E0.0422
G1 X155.349 Y144.067 E0.0581
G1 X156.141 Y144.427 E0.04753
G1 X156.998 Y144.887 E0.05316
G1 X157.667 Y145.304 E0.04308
G1 X158.527 Y145.922 E0.05786
G1 X159.274 Y146.549 E0.05326
G1 X160.137 Y147.378 E0.0654
G1 X158.3 Y147.38 E0.10038
G1 X157.414 Y147.442 E0.04853
G1 X156.746 Y147.808 E0.0416
G1 X156.336 Y147.52 E0.0274
G1 X155.674 Y147.37 E0.03705
G1 X155.093 Y147.649 E0.03524
G1 X154.774 Y147.939 E0.02356
G1 X154.574 Y148.211 E0.01844
G1 X154.286 Y147.822 E0.02643
G1 X153.818 Y147.533 E0.03005
G1 X153.417 Y147.437 E0.02251
G1 X152.807 Y147.384 E0.03347
G1 X152.128 Y147.822 E0.04416
G1 X151.765 Y147.501 E0.02648
G1 X151.031 Y147.425 E0.0403
G1 X150.362 Y147.68 E0.03912
G1 X150.234 Y147.838 E0.01112
G1 X149.779 Y147.547 E0.0295
G1 X149.422 Y147.427 E0.02059
G1 X149.011 Y147.374 E0.02267
G1 X148.373 Y147.543 E0.03605
G1 X147.833 Y147.98 E0.03796
G1 X147.554 Y148.616 E0.03797
G1 X147.586 Y149.231 E0.03363
G1 X147.728 Y149.652 E0.02429
G1 X147.861 Y149.921 E0.01641
G1 X148.125 Y150.384 E0.02908
G1 X147.862 Y150.667 E0.02109
G1 X147.501 Y150.495 E0.02182
G1 X147.061 Y150.36 E0.02515
G1 X146.688 Y150.405 E0.02049
G1 X146.704 Y149.418 E0.05391
G1 X146.595 Y148.686 E0.04042
G1 X146.492 Y148.318 E0.02087
G1 X146.306 Y147.845 E0.02779
G1 X145.982 Y147.292 E0.03505
G1 X145.604 Y146.851 E0.03169
G1 X145.119 Y146.464 E0.03393
G1 X144.572 Y146.197 E0.03326
G1 X143.961 Y146.037 E0.0345
G1 X143.405 Y145.965 E0.03062
G1 X141.691 Y145.926 E0.09369
G1 X141.219 Y145.975 E0.02595
G1 X140.655 Y146.193 E0.033
G1 X140.155 Y146.681 E0.03819
G1 E-1.2 F3900
; acceleration to travel
M204 S25000
G1 X145.846 Y151.747 F66000
; decel to extrusion
M204 S10000
G1 X148.123 Y153.774
; end travel
G1 E1.2 F3900
G1 F15000
G1 X148.528 Y153.997 E0.02525
G1 X149.178 Y154.192 E0.0371
G1 X150.154 Y153.736 E0.05885
G1 X150.47 Y153.996 E0.02235
G1 X150.937 Y154.178 E0.02737
G1 X151.322 Y154.192 E0.0211
G1 X151.172 Y154.933 E0.04132
G1 X151.192 Y155.28 E0.01899
G1 X151.272 Y155.607 E0.0184
G1 X151.476 Y156.037 E0.02602
G1 X152.227 Y156.815 E0.05908
G1 X151.592 Y156.905 E0.03507
G1 X150.741 Y156.974 E0.04662
G1 X149.835 Y156.99 E0.04953
G1 X149.203 Y156.965 E0.03454
G1 X125.897 Y155.549 E1.27571
G1 X125.662 Y155.508 E0.01308
G1 X125.532 Y155.451 E0.00773
G1 X125.413 Y155.356 E0.00833
G1 X125.34 Y155.256 E0.00676
G1 X125.249 Y154.999 E0.0149
G1 X125.224 Y153.363 E0.0894
G1 X126.046 Y153.841 E0.05196
G1 X126.388 Y153.976 E0.02009
G1 X126.753 Y154.077 E0.02071
G1 X127.11 Y154.137 E0.01976
G1 X127.635 Y154.165 E0.02874
G1 X128.138 Y154.132 E0.02752
G1 X128.602 Y154.042 E0.02581
G1 X129.031 Y153.889 E0.02492
G1 X129.332 Y153.731 E0.01856
G1 X129.691 Y153.474 E0.02412
G1 X130.025 Y153.127 E0.0263
G1 X130.337 Y152.616 E0.03272
G1 X130.524 Y151.967 E0.03693
G1 X130.294 Y151.227 E0.0423
G1 X129.824 Y150.737 E0.03709
G1 X129.253 Y150.479 E0.03425
G1 X128.753 Y150.421 E0.02751
G1 X128.301 Y150.497 E0.02504
G1 X127.974 Y150.645 E0.0196
G1 X127.707 Y150.845 E0.01822
G1 X127.456 Y151.14 E0.0212
G1 X127.268 Y150.733 E0.02451
G1 X127.22 Y150.56 E0.00978
G1 X127.185 Y150.316 E0.01348
G1 X127.17 Y149.928 E0.02123
G1 X127.189 Y149.579 E0.01908
G1 X127.226 Y149.347 E0.01286
G1 X127.356 Y148.902 E0.0253
G1 X128.199 Y149.368 E0.05259
G1 X128.648 Y149.467 E0.02514
G1 X129.115 Y149.474 E0.02548
G1 X129.734 Y149.237 E0.03623
G1 X130.038 Y148.81 E0.02866
G1 X130.57 Y149.133 E0.03399
G1 X131.175 Y149.097 E0.03313
G1 X131.192 Y151.904 E0.15334
G1 X131.147 Y152.651 E0.04089
G1 X131.251 Y153.103 E0.02534
G1 X131.494 Y153.515 E0.02616
G1 X132.005 Y153.888 E0.03457
G1 X132.655 Y154.034 E0.03636
G1 X133.27 Y153.951 E0.03392
G1 X133.741 Y153.694 E0.02932
G1 X134.086 Y153.304 E0.02847
G1 X134.272 Y152.874 E0.02558
G1 X134.35 Y152.443 E0.02396
G1 X134.339 Y149.087 E0.18335
G1 X134.582 Y149.084 E0.01324
G1 X135.181 Y148.968 E0.03335
G1 X135.557 Y148.704 E0.0251
G1 X136.014 Y149.064 E0.03176
G1 X135.849 Y149.38 E0.0195
G1 X135.803 Y149.95 E0.03127
G1 X136.028 Y150.704 E0.04297
G1 X135.513 Y151.027 E0.03325
G1 X135.153 Y151.625 E0.03813
G1 X135.084 Y152.271 E0.03552
G1 X135.195 Y152.787 E0.0288
G1 X135.463 Y153.28 E0.0307
G1 X135.82 Y153.628 E0.02724
G1 X136.201 Y153.859 E0.02432
G1 X136.625 Y154.02 E0.02479
G1 X137.052 Y154.116 E0.02389
G1 X137.39 Y154.155 E0.01861
G1 X137.896 Y154.163 E0.02766
G1 X138.397 Y154.114 E0.02747
G1 X138.984 Y153.954 E0.03324
G1 X139.545 Y153.656 E0.03471
G1 X140.163 Y153.123 E0.0446
G1 X140.414 Y153.538 E0.02648
G1 X140.791 Y153.846 E0.02658
G1 X141.181 Y153.994 E0.02281
G1 X141.592 Y154.028 E0.02252
G1 X142.07 Y153.984 E0.02622
G1 X142.869 Y153.991 E0.04368
G1 X143.474 Y153.959 E0.03309
G1 X144.165 Y153.838 E0.03832
G1 X144.806 Y153.571 E0.03792
G1 X145.075 Y153.344 E0.01925
G1 X145.319 Y153.792 E0.02789
G1 X145.714 Y154.099 E0.02732
G1 X146.056 Y154.292 E0.02149
G1 X146.456 Y154.392 E0.02248
G1 X146.889 Y154.416 E0.02371
G1 X147.63 Y154.224 E0.04182
G1 X148.067 Y153.825 E0.03236
G1 E-1.2 F3900
; acceleration to travel
M204 S25000
G1 X155.444 Y154.165 F66000
; decel to extrusion
M204 S10000
G1 X158.295 Y154.297
; end travel
G1 E1.2 F3900
G1 F9000
G1 X157.084 Y155.062 E0.07827
G1 X156.562 Y155.357 E0.03277
G1 X155.88 Y155.699 E0.04165
G1 X155.183 Y155.997 E0.04145
G1 X154.931 Y155.71 E0.02084
G1 X155.167 Y155.313 E0.02524
G1 X155.468 Y154.649 E0.03982
G1 X155.863 Y153.633 E0.05957
G1 X156.026 Y153.177 E0.02643
G1 X156.798 Y153.983 E0.06096
G1 X157.274 Y154.169 E0.02793
G1 X158.221 Y154.288 E0.05213
G1 E-1.2 F3900
G1 X160.511 Y151.12 F66000
G1 E1.2 F3900
G1 F9000
G1 X160.736 Y150.845 E0.0194
G1 X161.297 Y150.034 E0.05387
G1 X161.619 Y149.308 E0.04339
G1 X162.038 Y149.999 E0.0441
G1 X161.732 Y150.522 E0.03309
G1 X161.161 Y151.414 E0.05787
G1 X160.58 Y151.151 E0.03485
G1 E-1.2 F3900
; acceleration to travel
M204 S25000
G1 X153.232 Y149.638 F66000
; decel to extrusion
M204 S10000
G1 X150.194 Y149.013
; end travel
G1 E1.2 F3900
;TYPE:External perimeter
G1 F14827.902
G1 X149.831 Y148.522 E0.03337
G1 X149.707 Y148.281 E0.01477
G1 X149.493 Y148.144 E0.0139
G1 X149.274 Y148.07 E0.01265
G1 X149.055 Y148.042 E0.01206
G1 X148.677 Y148.142 E0.02133
G1 X148.371 Y148.39 E0.02156
G1 X148.218 Y148.738 E0.02072
G1 X148.238 Y149.106 E0.02018
G1 X148.337 Y149.4 E0.01695
G1 X148.442 Y149.613 E0.01296
G1 X148.913 Y150.441 E0.05204
G1 X149.132 Y150.77 E0.0216
G1 X148.827 Y151.252 E0.03113
G1 X148.709 Y151.596 E0.01988
G1 X148.369 Y152.191 E0.03744
G1 X148.295 Y152.378 E0.01095
G1 X148.248 Y152.613 E0.01312
G1 X148.254 Y152.798 E0.01009
G1 X148.334 Y153.028 E0.01331
G1 X148.514 Y153.24 E0.01519
G1 X148.783 Y153.388 E0.01676
G1 X149.127 Y153.491 E0.0196
G1 X149.506 Y153.314 E0.02286
G1 X149.844 Y152.829 E0.03227
G1 X150.137 Y152.463 E0.0256
G1 X150.283 Y152.639 E0.01249
G1 X150.429 Y152.902 E0.01641
G1 X150.574 Y153.231 E0.01965
G1 X150.806 Y153.422 E0.01642
G1 X151.072 Y153.525 E0.01556
G1 X151.38 Y153.536 E0.01688
G1 X151.681 Y153.444 E0.01717
G1 X151.965 Y153.22 E0.01977
G1 X152.11 Y152.935 E0.01746
G1 X152.149 Y152.628 E0.01693
G1 X152.101 Y152.311 E0.01748
G1 X151.947 Y151.967 E0.0206
G1 X151.268 Y150.837 E0.07203
G1 X151.236 Y150.708 E0.00727
G1 X151.307 Y150.492 E0.01245
G1 X151.509 Y150.117 E0.02327
G1 X151.912 Y149.271 E0.05118
G1 X151.998 Y148.933 E0.01907
G1 X151.919 Y148.598 E0.01879
G1 X151.748 Y148.363 E0.01588
G1 X151.487 Y148.133 E0.01902
G1 X151.119 Y148.094 E0.02024
G1 X150.762 Y148.23 E0.02088
G1 X150.399 Y148.68 E0.03156
G1 X150.241 Y148.954 E0.01728
;WIPE_START
M204 S25000
G1 X150.094 Y148.523 F66000
;WIPE_END
G1 E-1.2 F3900
M204 S10000
G1 X147.307 Y153.629 F66000
G1 E1.2 F3900
G1 F9000
G1 X147.72 Y153.252 E0.03053
G1 X147.865 Y153.066 E0.01288
G1 X148.006 Y152.767 E0.01805
G1 X148.058 Y152.537 E0.0129
G1 X148.069 Y152.3 E0.01298
G1 X148.01 Y151.974 E0.0181
G1 X147.919 Y151.759 E0.01277
G1 X147.691 Y151.393 E0.02353
G1 X147.487 Y151.216 E0.01473
G1 X147.262 Y151.109 E0.01363
G1 X147.001 Y151.029 E0.01491
G1 X146.661 Y151.07 E0.01875
G1 X146.456 Y151.102 E0.01133
G1 X146.23 Y151.178 E0.013
G1 X145.948 Y151.354 E0.01815
G1 X145.78 Y151.518 E0.01285
G1 X145.642 Y151.711 E0.01298
G1 X145.514 Y152.016 E0.01806
G1 X145.472 Y152.249 E0.01292
G1 X145.472 Y152.48 E0.01266
G1 X145.513 Y152.706 E0.01256
G1 X145.59 Y152.916 E0.01222
G1 X145.83 Y153.358 E0.02745
G1 X146.079 Y153.55 E0.01717
G1 X146.302 Y153.676 E0.01399
G1 X146.554 Y153.739 E0.01424
G1 X146.824 Y153.754 E0.01472
