; generated by A3dp-Slicer 2.5 on 2022-11-14 at 05:40:57 UTC


;
;

;
;
; 

; external perimeters extrusion width = 0.52mm
; perimeters extrusion width = 0.56mm
; infill extrusion width = 0.70mm
; solid infill extrusion width = 0.70mm
; top infill extrusion width = 0.47mm
; first layer extrusion width = 0.60mm

; object:{"name":"KlickyProbe_AB_mount_v2","id":"KlickyProbe_AB_mount_v2.stl id:0 copy 0","object_center":[150.000000,150.000000,0.000000],"boundingbox_center":[150.000000,150.000000,14.850008],"boundingbox_size":[27.034306,19.224609,29.700016]}
; plater:{"center":[150.000000,150.000000,0.000000],"boundingbox_center":[150.000000,150.000000,14.850008],"boundingbox_size":[27.034306,19.224609,29.700016]}

;TYPE:Custom
PRINT_START EXTRUDER=250 BED=110
M107
G21 ; set units to millimeters
G90 ; use absolute coordinates
M83 ; use relative distances for extrusion
SET_PRESSURE_ADVANCE SMOOTH_TIME=0.03
SET_PRESSURE_ADVANCE ADVANCE=0.06
;_TOOLCHANGE 0
M104 S250 ; set temperature
M109 S250 ; set temperature and wait for it to be reached
M190 S110 ; set bed temperature and wait for it to be reached
M107
;LAYER_CHANGE
;Z:0.3
;HEIGHT:0.3
;BEFORE_LAYER_CHANGE
;0.3


G1 Z0.3 F24000
;AFTER_LAYER_CHANGE
;0.3
G92 E0
G1 E-0.6 F2400
M204 S10000
G1 X134.19 Y137.476 F24000
G1 E0.6 F2400
;TYPE:Skirt
;WIDTH:0.6
G1 F4667.4924
G1 X134.962 Y136.94 E0.05525
G1 X135.852 Y136.519 E0.05791
G1 X136.655 Y136.301 E0.0489
G1 X137.641 Y136.186 E0.05837
G1 X162.469 Y136.189 E1.45962
G1 X164.304 Y136.573 E0.11018
G1 X165.398 Y137.163 E0.07309
G1 X166.302 Y137.967 E0.07111
G1 X166.918 Y138.777 E0.05982
G1 X167.383 Y139.734 E0.06255
G1 X167.705 Y141.342 E0.09642
G1 X167.708 Y158.623 E1.01597
G1 X167.508 Y159.858 E0.0735
G1 X167.045 Y161.007 E0.07286
G1 X166.313 Y162.034 E0.07411
G1 X165.469 Y162.776 E0.06607
G1 X164.532 Y163.327 E0.06391
G1 X163.552 Y163.659 E0.06087
G1 X162.322 Y163.815 E0.07287
G1 X137.685 Y163.815 E1.44838
G1 X136.506 Y163.672 E0.06981
G1 X135.429 Y163.305 E0.06689
G1 X134.451 Y162.73 E0.06672
G1 X133.586 Y161.927 E0.06937
G1 X132.651 Y160.355 E0.10754
G1 X132.39 Y159.432 E0.05639
G1 X132.283 Y158.467 E0.0571
G1 X132.3 Y141.168 E1.01695
G1 X132.806 Y139.281 E0.11484
G1 X133.414 Y138.292 E0.06829
G1 X134.138 Y137.531 E0.06175
G1 X134.526 Y137.9 F24000
G1 F4667.4924
G1 X134.559 Y137.866 E0.00279
G1 X135.211 Y137.415 E0.04657
G1 X136.06 Y137.013 E0.05522
G1 X136.737 Y136.83 E0.04126
G1 X137.657 Y136.721 E0.05444
G1 X162.442 Y136.725 E1.45709
G1 X164.086 Y137.064 E0.09871
G1 X165.066 Y137.584 E0.06521
G1 X165.926 Y138.349 E0.06766
G1 X166.474 Y139.077 E0.05359
G1 X166.885 Y139.934 E0.05587
G1 X167.175 Y141.419 E0.08892
G1 X167.173 Y158.602 E1.01018
G1 X167 Y159.685 E0.06449
G1 X166.56 Y160.778 E0.06923
G1 X165.936 Y161.652 E0.06314
G1 X165.135 Y162.357 E0.06277
G1 X164.332 Y162.83 E0.05472
G1 X163.456 Y163.132 E0.05449
G1 X162.305 Y163.279 E0.06825
G1 X137.701 Y163.279 E1.44641
G1 X136.6 Y163.144 E0.06526
G1 X135.63 Y162.808 E0.06032
G1 X134.75 Y162.284 E0.06022
G1 X133.98 Y161.562 E0.06205
G1 X133.157 Y160.176 E0.0948
G1 X132.911 Y159.308 E0.05301
G1 X132.817 Y158.424 E0.05227
G1 X132.835 Y141.204 E1.01237
G1 X133.284 Y139.527 E0.10203
G1 X133.822 Y138.64 E0.061
G1 X134.475 Y137.954 E0.05565
G1 X134.86 Y138.325 F24000
G1 F4667.4924
G1 X134.926 Y138.257 E0.00561
G1 X135.461 Y137.889 E0.03814
G1 X136.225 Y137.523 E0.04978
G1 X136.821 Y137.36 E0.03636
G1 X137.673 Y137.257 E0.05044
G1 X162.415 Y137.261 E1.45456
G1 X163.869 Y137.556 E0.08724
G1 X164.786 Y138.042 E0.061
G1 X165.547 Y138.729 E0.06031
G1 X166.029 Y139.376 E0.04739
G1 X166.386 Y140.132 E0.04919
G1 X166.644 Y141.494 E0.08146
G1 X166.64 Y158.541 E1.00218
G1 X166.49 Y159.516 E0.05801
G1 X166.103 Y160.496 E0.06191
G1 X165.559 Y161.271 E0.0557
G1 X164.8 Y161.938 E0.05936
G1 X164.087 Y162.353 E0.04855
G1 X163.31 Y162.615 E0.04818
G1 X162.288 Y162.744 E0.06056
G1 X137.717 Y162.744 E1.44449
G1 X136.745 Y162.628 E0.05754
G1 X135.88 Y162.333 E0.05375
G1 X135.049 Y161.839 E0.05681
G1 X134.376 Y161.199 E0.05462
G1 X133.662 Y159.997 E0.0822
G1 X133.433 Y159.185 E0.04959
G1 X133.351 Y158.383 E0.04736
G1 X133.371 Y141.239 E1.0079
G1 X133.761 Y139.772 E0.08922
G1 X134.265 Y138.944 E0.05701
G1 X134.808 Y138.379 E0.04606
G1 X135.19 Y138.753 F24000
G1 F4667.4924
G1 X135.291 Y138.65 E0.00845
G1 X135.712 Y138.362 E0.03
G1 X136.392 Y138.033 E0.0444
G1 X136.906 Y137.889 E0.03141
G1 X137.689 Y137.792 E0.04637
G1 X162.389 Y137.796 E1.45205
G1 X163.656 Y138.048 E0.07597
G1 X164.453 Y138.462 E0.05276
G1 X165.168 Y139.109 E0.05669
G1 X165.581 Y139.671 E0.04104
G1 X165.886 Y140.327 E0.04252
G1 X166.113 Y141.566 E0.07405
G1 X166.107 Y158.483 E0.99448
G1 X165.98 Y159.351 E0.0516
G1 X165.646 Y160.215 E0.05442
G1 X165.139 Y160.936 E0.05185
G1 X164.469 Y161.516 E0.05208
G1 X163.844 Y161.875 E0.04241
G1 X163.167 Y162.099 E0.04188
G1 X162.272 Y162.208 E0.05304
G1 X137.733 Y162.208 E1.44263
G1 X136.888 Y162.111 E0.04996
G1 X136.126 Y161.857 E0.04722
G1 X135.396 Y161.43 E0.04975
G1 X134.772 Y160.837 E0.05062
G1 X134.168 Y159.816 E0.06972
G1 X133.963 Y159.106 E0.04342
G1 X133.887 Y158.37 E0.0435
G1 X133.906 Y141.274 E1.00505
G1 X134.239 Y140.018 E0.07641
G1 X134.707 Y139.248 E0.05295
G1 X135.138 Y138.806 E0.03629
G1 X135.521 Y139.175 F24000
G1 F4667.4924
G1 X135.617 Y139.075 E0.00816
G1 X135.967 Y138.834 E0.02497
G1 X136.562 Y138.541 E0.03902
G1 X136.994 Y138.418 E0.02638
G1 X137.706 Y138.328 E0.0422
G1 X162.363 Y138.332 E1.44956
G1 X163.443 Y138.542 E0.0647
G1 X164.174 Y138.921 E0.04841
G1 X164.786 Y139.484 E0.04887
G1 X165.131 Y139.963 E0.03474
G1 X165.385 Y140.519 E0.03589
G1 X165.577 Y141.59 E0.06398
G1 X165.574 Y158.424 E0.98966
G1 X165.455 Y159.243 E0.04864
G1 X165.16 Y159.987 E0.04705
G1 X164.723 Y160.598 E0.04417
G1 X164.141 Y161.092 E0.04488
G1 X163.65 Y161.375 E0.03333
G1 X163.025 Y161.582 E0.03869
G1 X162.256 Y161.673 E0.04551
G1 X137.747 Y161.673 E1.44083
G1 X137.028 Y161.593 E0.04257
G1 X136.372 Y161.38 E0.04053
G1 X135.694 Y160.984 E0.04616
G1 X135.17 Y160.477 E0.04287
G1 X134.673 Y159.635 E0.05745
G1 X134.485 Y158.981 E0.04
G1 X134.423 Y158.357 E0.03687
G1 X134.442 Y141.309 E1.00224
G1 X134.718 Y140.26 E0.06378
G1 X135.114 Y139.598 E0.04534
G1 X135.469 Y139.229 E0.03007
G1 X135.854 Y139.596 F24000
G1 F4667.4924
G1 X135.946 Y139.499 E0.00786
G1 X136.224 Y139.304 E0.01992
G1 X136.736 Y139.048 E0.03367
G1 X137.083 Y138.946 E0.02126
G1 X137.723 Y138.864 E0.03793
G1 X162.338 Y138.867 E1.44709
G1 X163.231 Y139.035 E0.05343
G1 X163.894 Y139.379 E0.04391
G1 X164.399 Y139.856 E0.04079
G1 X164.679 Y140.251 E0.02852
G1 X164.882 Y140.707 E0.02932
G1 X165.041 Y141.613 E0.05411
G1 X165.041 Y158.369 E0.98506
G1 X164.944 Y159.079 E0.04214
G1 X164.702 Y159.707 E0.03952
G1 X164.35 Y160.212 E0.03622
G1 X163.814 Y160.668 E0.04136
G1 X163.41 Y160.895 E0.02723
G1 X162.886 Y161.064 E0.03237
G1 X162.241 Y161.137 E0.03818
G1 X137.761 Y161.137 E1.43911
G1 X137.163 Y161.074 E0.03539
G1 X136.612 Y160.901 E0.03391
G1 X136.042 Y160.575 E0.0386
G1 X135.568 Y160.117 E0.03877
G1 X135.178 Y159.452 E0.04533
G1 X135.015 Y158.902 E0.03371
G1 X134.958 Y158.344 E0.03298
G1 X134.978 Y141.344 E0.99942
G1 X135.199 Y140.499 E0.05137
G1 X135.523 Y139.944 E0.03775
G1 X135.802 Y139.65 E0.02384
G1 X136.191 Y140.013 F24000
G1 F4667.4924
G1 X136.279 Y139.919 E0.00756
G1 X136.485 Y139.773 E0.01484
G1 X136.915 Y139.554 E0.02837
G1 X137.175 Y139.474 E0.01601
G1 X137.741 Y139.399 E0.03353
G1 X162.269 Y139.399 E1.44198
G1 X163.027 Y139.531 E0.04523
G1 X163.555 Y139.796 E0.03473
G1 X164.012 Y140.227 E0.03693
G1 X164.201 Y140.494 E0.01921
G1 X164.379 Y140.894 E0.02579
G1 X164.506 Y141.636 E0.04423
G1 X164.506 Y158.352 E0.9827
G1 X164.431 Y158.921 E0.03376
G1 X164.241 Y159.434 E0.03214
G1 X163.975 Y159.828 E0.02793
G1 X163.486 Y160.243 E0.03771
G1 X163.22 Y160.394 E0.01795
G1 X162.748 Y160.545 E0.02915
G1 X162.226 Y160.601 E0.03085
G1 X137.775 Y160.601 E1.43749
G1 X137.292 Y160.554 E0.02849
G1 X136.852 Y160.421 E0.02706
G1 X136.339 Y160.128 E0.03473
G1 X135.971 Y159.762 E0.03052
G1 X135.681 Y159.266 E0.03375
G1 X135.545 Y158.821 E0.02736
G1 X135.494 Y158.331 E0.02899
G1 X135.513 Y141.379 E0.99658
G1 X135.682 Y140.733 E0.03922
G1 X135.936 Y140.287 E0.03019
G1 X136.14 Y140.068 E0.01759
G1 X136.533 Y140.427 F24000
G1 F4667.4924
G1 X136.617 Y140.336 E0.00731
G1 X136.75 Y140.239 E0.00966
G1 X137.1 Y140.057 E0.0232
G1 X137.271 Y140.002 E0.01057
G1 X137.759 Y139.935 E0.02896
G1 X138.791 Y139.934 E0.06066
G1 X162.247 Y139.935 E1.37896
G1 X162.823 Y140.029 E0.03432
G1 X163.278 Y140.256 E0.02987
G1 X163.62 Y140.592 E0.0282
G1 X163.722 Y140.736 E0.0104
G1 X163.876 Y141.081 E0.02218
G1 X163.97 Y141.658 E0.03436
G1 X163.97 Y158.334 E0.98036
G1 X163.904 Y158.82 E0.02883
G1 X163.774 Y159.169 E0.02193
G1 X163.597 Y159.445 E0.01927
G1 X163.158 Y159.819 E0.0339
G1 X163.03 Y159.892 E0.00868
G1 X162.611 Y160.027 E0.02584
G1 X162.213 Y160.066 E0.02352
G1 X137.787 Y160.066 E1.436
G1 X137.414 Y160.031 E0.02199
G1 X137.089 Y159.939 E0.01988
G1 X136.637 Y159.682 E0.03057
G1 X136.378 Y159.413 E0.02194
G1 X136.184 Y159.08 E0.02265
G1 X136.065 Y158.69 E0.02395
G1 X136.03 Y158.318 E0.02199
G1 X136.049 Y141.413 E0.99381
G1 X136.167 Y140.962 E0.02742
G1 X136.353 Y140.625 E0.02264
G1 X136.483 Y140.483 E0.01131
G1 X136.855 Y140.855 F24000
G1 F4667.4924
G1 X136.981 Y140.729 E0.0105
G1 X137.015 Y140.704 E0.00242
G1 X137.327 Y140.543 E0.02067
G1 X137.37 Y140.529 E0.00265
G1 X137.788 Y140.47 E0.02483
G1 X138.791 Y140.47 E0.05897
G1 X162.236 Y140.47 E1.37829
G1 X162.677 Y140.544 E0.02629
G1 X162.713 Y140.556 E0.00224
G1 X162.912 Y140.653 E0.01305
G1 X162.949 Y140.679 E0.00261
G1 X163.225 Y140.956 E0.023
G1 X163.251 Y140.992 E0.00261
G1 X163.349 Y141.191 E0.01306
G1 X163.361 Y141.228 E0.00225
G1 X163.435 Y141.669 E0.02632
G1 X163.435 Y158.326 E0.97923
G1 X163.4 Y158.63 E0.018
G1 X163.393 Y158.658 E0.0017
G1 X163.311 Y158.896 E0.01477
G1 X163.298 Y158.923 E0.00181
G1 X163.184 Y159.105 E0.01259
G1 X163.153 Y159.138 E0.00265
G1 X162.844 Y159.384 E0.02325
G1 X162.8 Y159.408 E0.0029
G1 X162.494 Y159.504 E0.01888
G1 X162.465 Y159.51 E0.00176
G1 X162.208 Y159.53 E0.01515
G1 X137.792 Y159.53 E1.43537
G1 X137.55 Y159.512 E0.01431
G1 X137.523 Y159.507 E0.00159
G1 X137.253 Y159.429 E0.01652
G1 X137.222 Y159.416 E0.00198
G1 X137.005 Y159.289 E0.01476
G1 X136.978 Y159.268 E0.00201
G1 X136.828 Y159.117 E0.01254
G1 X136.808 Y159.093 E0.00183
G1 X136.694 Y158.908 E0.01279
G1 X136.68 Y158.876 E0.00204
G1 X136.589 Y158.577 E0.01835
G1 X136.584 Y158.549 E0.0017
G1 X136.565 Y158.303 E0.01451
G1 X136.582 Y141.47 E0.98959
G1 X136.587 Y141.433 E0.0022
G1 X136.666 Y141.158 E0.01682
G1 X136.679 Y141.127 E0.00197
G1 X136.806 Y140.911 E0.01469
G1 E-0.06 F2400
;WIPE_START
G1 F19200
M204 S3000
G1 X136.679 Y141.127 E-0.02968
G1 X136.666 Y141.158 E-0.00399
G1 X136.587 Y141.433 E-0.03398
G1 X136.582 Y141.47 E-0.00444
G1 X136.578 Y145.183 E-0.44091
;WIPE_END
G1 E-0.027 F2400
; printing object KlickyProbe_AB_mount_v2.stl id:0 copy 0
G1 X137.638 Y158.949 F24000
G1 E0.6 F2400
;TYPE:External perimeter
G1 F4500
G1 X137.462 Y158.898 E0.01073
G1 X137.341 Y158.827 E0.00828
G1 X137.265 Y158.751 E0.0063
G1 X137.207 Y158.657 E0.0065
G1 X137.146 Y158.458 E0.01227
G1 X137.133 Y158.286 E0.01013
G1 X137.133 Y141.714 E0.97425
G1 X137.146 Y141.542 E0.01011
G1 X137.197 Y141.367 E0.01073
G1 X137.268 Y141.245 E0.00828
G1 X137.344 Y141.17 E0.0063
G1 X137.519 Y141.078 E0.01165
G1 X137.809 Y141.038 E0.0172
G1 X138.791 Y141.038 E0.05772
G1 X162.211 Y141.038 E1.37684
G1 X162.376 Y141.053 E0.00974
G1 X162.614 Y141.139 E0.01488
G1 X162.765 Y141.291 E0.01259
G1 X162.817 Y141.397 E0.00696
G1 X162.852 Y141.529 E0.00799
G1 X162.867 Y141.694 E0.00975
G1 X162.867 Y158.3 E0.97629
G1 X162.841 Y158.517 E0.01283
G1 X162.791 Y158.663 E0.00907
G1 X162.733 Y158.754 E0.00635
G1 X162.569 Y158.885 E0.01231
G1 X162.37 Y158.948 E0.01229
G1 X162.19 Y158.962 E0.01061
G1 X137.809 Y158.962 E1.43333
G1 X137.712 Y158.955 E0.00571
;WIPE_START
M204 S10000
G1 X137.484 Y158.473 F24000
;WIPE_END
G1 E-0.06 F2400
;WIPE_START
G1 F19200
M204 S3000
G1 X137.393 Y158.411 E-0.01306
G1 X137.383 Y158.276 E-0.01608
G1 X137.383 Y154.202 E-0.48386
;WIPE_END
G1 E-0.027 F2400
G1 X143.797 Y151.816 F24000
G1 E0.6 F2400
G1 F4500
G1 X143.797 Y148.515 E0.19407
G1 X144.206 Y148.181 E0.03099
G1 X144.466 Y147.906 E0.02224
G1 X144.696 Y147.606 E0.02224
G1 X144.894 Y147.284 E0.02224
G1 X145.061 Y146.938 E0.02255
G1 X145.123 Y146.751 E0.01159
G1 X145.273 Y146.751 E0.00841
G1 X145.573 Y146.751 E0.01722
G1 X146.289 Y146.751 E0.04208
G1 X146.394 Y146.876 E0.00957
G1 X146.632 Y147.063 E0.01782
G1 X146.899 Y147.212 E0.01794
G1 X147.347 Y147.349 E0.02752
G1 X147.651 Y147.374 E0.01798
G1 X147.946 Y147.352 E0.01736
G1 X148.233 Y147.282 E0.01736
G1 X148.505 Y147.167 E0.01736
G1 X148.765 Y147.005 E0.018
G1 X149.099 Y146.678 E0.02752
G1 X149.272 Y146.418 E0.01834
G1 X149.416 Y146.072 E0.02204
G1 X149.469 Y145.868 E0.01238
G1 X149.5 Y145.577 E0.01722
G1 X149.483 Y145.282 E0.01736
G1 X149.42 Y144.994 E0.01736
G1 X149.308 Y144.709 E0.01798
G1 X149.047 Y144.32 E0.02752
G1 X148.828 Y144.108 E0.01794
G1 X148.586 Y143.938 E0.01736
G1 X148.32 Y143.81 E0.01736
G1 X148.037 Y143.726 E0.01736
G1 X147.744 Y143.689 E0.01736
G1 X147.438 Y143.699 E0.018
G1 X146.984 Y143.814 E0.02752
G1 X146.711 Y143.948 E0.01792
G1 X146.464 Y144.124 E0.0178
G1 X146.344 Y144.251 E0.01028
G1 X145.116 Y144.251 E0.07218
G1 X145.067 Y144.109 E0.00841
G1 X145.044 Y144.041 E0.00382
G1 X144.867 Y143.687 E0.02325
G1 X144.715 Y143.442 E0.01702
G1 X144.413 Y143.053 E0.02892
G1 X144.213 Y142.844 E0.01701
G1 X143.915 Y142.585 E0.0232
G1 X143.504 Y142.312 E0.02903
G1 X143.25 Y142.174 E0.01696
G1 X142.888 Y142.023 E0.02305
G1 X142.512 Y141.911 E0.0231
G1 X142.125 Y141.84 E0.02311
G1 X141.735 Y141.81 E0.02299
G1 X141.449 Y141.816 E0.01682
G1 X141.063 Y141.857 E0.02283
G1 X140.679 Y141.939 E0.0231
G1 X140.305 Y142.062 E0.0231
G1 X139.947 Y142.223 E0.0231
G1 X139.608 Y142.422 E0.0231
G1 X139.292 Y142.655 E0.0231
G1 X139.003 Y142.921 E0.02311
G1 X138.743 Y143.216 E0.0231
G1 X138.516 Y143.537 E0.02311
G1 X138.325 Y143.881 E0.0231
G1 X138.171 Y144.242 E0.0231
G1 X138.057 Y144.618 E0.0231
G1 X137.983 Y145.004 E0.0231
G1 X137.95 Y145.395 E0.0231
G1 X137.959 Y145.793 E0.0234
G1 X138.067 Y146.446 E0.03887
G1 X138.189 Y146.825 E0.02344
G1 X138.348 Y147.185 E0.0231
G1 X138.544 Y147.525 E0.02311
G1 X138.775 Y147.843 E0.0231
G1 X139.039 Y148.134 E0.0231
G1 X139.333 Y148.396 E0.02315
G1 X139.497 Y148.513 E0.01186
G1 X139.497 Y151.816 E0.19413
G1 X139.647 Y151.816 E0.00791
G1 X139.947 Y151.816 E0.01673
G1 X143.722 Y151.816 E0.22193
;WIPE_START
M204 S10000
G1 X144.297 Y151.816 F24000
;WIPE_END
G1 E-0.06 F2400
;WIPE_START
G1 F19200
M204 S3000
G1 X144.047 Y148.633 E-0.37906
G1 X144.377 Y148.365 E-0.05044
G1 X144.656 Y148.069 E-0.04839
G1 X144.836 Y147.834 E-0.03511
;WIPE_END
G1 E-0.027 F2400
G1 X160.59 Y151.787 F24000
G1 E0.6 F2400
G1 F4500
G1 X160.59 Y148.467 E0.19518
G1 X160.839 Y148.27 E0.01871
G1 X161.051 Y148.063 E0.01739
G1 X161.306 Y147.76 E0.02329
G1 X161.53 Y147.425 E0.02367
G1 X161.751 Y146.98 E0.02926
G1 X161.858 Y146.706 E0.01728
G1 X161.964 Y146.322 E0.02338
G1 X162.027 Y145.929 E0.0234
G1 X162.048 Y145.533 E0.02334
G1 X162.033 Y145.239 E0.0173
G1 X161.963 Y144.745 E0.02931
G1 X161.856 Y144.36 E0.02351
G1 X161.75 Y144.085 E0.01734
G1 X161.525 Y143.641 E0.0292
G1 X161.364 Y143.394 E0.01738
G1 X161.118 Y143.085 E0.02321
G1 X160.839 Y142.801 E0.0234
G1 X160.528 Y142.546 E0.02364
G1 X160.105 Y142.282 E0.02932
G1 X159.841 Y142.151 E0.01731
G1 X159.47 Y142.01 E0.02333
G1 X159.085 Y141.91 E0.02341
G1 X158.691 Y141.852 E0.02341
G1 X158.294 Y141.836 E0.02337
G1 X158 Y141.855 E0.01729
G1 X157.508 Y141.932 E0.02927
G1 X157.124 Y142.044 E0.02356
G1 X156.85 Y142.154 E0.01733
G1 X156.408 Y142.385 E0.02935
G1 X156.08 Y142.613 E0.02345
G1 X155.854 Y142.803 E0.01737
G1 X155.511 Y143.162 E0.0292
G1 X155.33 Y143.396 E0.01736
G1 X155.118 Y143.73 E0.02325
G1 X154.941 Y144.092 E0.02372
G1 X154.87 Y144.304 E0.01315
G1 X154.72 Y144.304 E0.00841
