; generated by SuperSlicer 2.5.59 on 2022-12-04 at 23:07:46 UTC


;
;

;
;
; 

; external perimeters extrusion width = 0.50mm
; perimeters extrusion width = 0.50mm
; infill extrusion width = 0.60mm
; solid infill extrusion width = 0.60mm
; top infill extrusion width = 0.50mm

; object:{"name":"Latch_DD_x1","id":"Latch_DD_x1.stl id:0 copy 0","object_center":[150.000000,150.000000,0.000000],"boundingbox_center":[150.000000,150.000000,5.000000],"boundingbox_size":[31.158946,39.837612,10.000000]}
; plater:{"center":[150.000000,150.000000,0.000000],"boundingbox_center":[150.000000,150.000000,5.000000],"boundingbox_size":[31.158946,39.837612,10.000000]}

;TYPE:Custom
M117


; Pre-Processed for Cancel-Object support by preprocess_cancellation v0.2.0
; 1 known objects
EXCLUDE_OBJECT_DEFINE NAME=Latch_DD_x1_stl_id_0_copy_0 CENTER=150.428,150.606 POLYGON=[[140.307,130.131],[139.589,130.204],[138.855,130.392],[138.226,130.662],[137.609,131.041],[136.489,132.168],[136.019,132.74],[135.429,133.67],[134.98,134.677],[134.762,135.387],[134.57,136.475],[134.538,137.576],[134.607,138.31],[134.911,139.744],[135.226,140.799],[135.609,141.829],[136.06,142.832],[136.575,143.803],[137.154,144.738],[137.793,145.633],[157.812,169.393],[158.024,169.575],[158.286,169.725],[158.446,169.786],[158.78,169.846],[159.009,169.852],[159.295,169.803],[159.574,169.697],[159.92,169.459],[160.131,169.22],[160.283,168.958],[165.335,158.77],[165.434,158.458],[165.474,158.079],[165.404,157.586],[165.284,157.279],[151.889,131.597],[151.705,131.344],[151.346,131.06],[151.064,130.941],[150.763,130.884],[140.912,130.154],[140.307,130.131]]
PRINT_START EXTRUDER=240 BED=105
M107
G21 ; set units to millimeters
G90 ; use absolute coordinates
M83 ; use relative distances for extrusion
SET_PRESSURE_ADVANCE SMOOTH_TIME=0.03
SET_PRESSURE_ADVANCE ADVANCE=0.045
;_TOOLCHANGE 0
M104 S240 ; set temperature
M109 S240 ; set temperature and wait for it to be reached
M190 S105 ; set bed temperature and wait for it to be reached
M107
;LAYER_CHANGE
;Z:0.2
;HEIGHT:0.2
;BEFORE_LAYER_CHANGE
;0.2


G1 Z0.2 F24000
;AFTER_LAYER_CHANGE
;0.2
G92 E0
G1 E-0.6 F2400
M204 S5000
G1 X132.222 Y128.602 F24000
G1 E0.6 F2400
;TYPE:Skirt
;WIDTH:0.48
G1 F1800
G1 X131.282 Y129.813 E0.05236
G1 X130.46 Y131.177 E0.05443
G1 X129.855 Y132.51 E0.05
G1 X129.35 Y134.136 E0.05816
G1 X129.04 Y135.905 E0.06136
G1 X128.975 Y137.331 E0.04877
G1 X129.081 Y138.93 E0.05472
G1 X129.326 Y140.286 E0.04711
G1 X129.819 Y142.139 E0.06549
G1 X130.499 Y144.02 E0.06834
G1 X131.729 Y146.523 E0.09527
G1 X132.532 Y147.824 E0.05222
G1 X133.712 Y149.438 E0.06832
G1 X153.898 Y173.304 E1.06785
G1 X154.951 Y174.184 E0.04686
G1 X155.918 Y174.736 E0.03806
G1 X157.488 Y175.258 E0.05651
G1 X158.598 Y175.395 E0.03821
G1 X159.981 Y175.317 E0.04733
G1 X161.572 Y174.871 E0.05645
G1 X162.51 Y174.403 E0.03579
G1 X163.325 Y173.828 E0.0341
G1 X164.282 Y172.88 E0.04602
G1 X164.94 Y171.948 E0.03897
G1 X170.301 Y161.265 E0.40832
G1 X170.746 Y160.072 E0.0435
G1 X170.93 Y159.247 E0.0289
G1 X171.011 Y158.328 E0.03152
G1 X170.935 Y157.036 E0.04422
G1 X170.753 Y156.181 E0.02986
G1 X170.501 Y155.436 E0.02687
G1 X156.805 Y129.125 E1.01335
G1 X156.458 Y128.536 E0.02335
G1 X155.788 Y127.658 E0.03772
G1 X155.11 Y127.004 E0.03219
G1 X153.922 Y126.205 E0.0489
G1 X152.878 Y125.747 E0.03896
G1 X151.737 Y125.469 E0.04012
G1 X140.844 Y124.64 E0.37321
G1 X139.217 Y124.699 E0.05562
G1 X137.691 Y124.998 E0.05312
G1 X136.141 Y125.564 E0.05639
G1 X134.968 Y126.195 E0.04547
G1 X133.77 Y127.064 E0.05058
G1 X132.264 Y128.56 E0.0725
G1 X132.571 Y128.869 F24000
G1 F1800
G1 X132.556 Y128.883 E0.00072
G1 X131.636 Y130.07 E0.0513
G1 X130.844 Y131.386 E0.05249
G1 X130.265 Y132.662 E0.04786
G1 X129.771 Y134.253 E0.05693
G1 X129.476 Y135.943 E0.05861
G1 X129.412 Y137.339 E0.04771
G1 X129.515 Y138.88 E0.05276
G1 X129.756 Y140.203 E0.04597
G1 X130.232 Y141.998 E0.06343
G1 X130.905 Y143.858 E0.06757
G1 X132.103 Y146.297 E0.09282
G1 X132.889 Y147.572 E0.05119
G1 X134.056 Y149.168 E0.06755
G1 X154.216 Y173.004 E1.06646
G1 X155.204 Y173.827 E0.04395
G1 X156.097 Y174.337 E0.03512
G1 X157.584 Y174.831 E0.05356
G1 X158.609 Y174.958 E0.03526
G1 X159.906 Y174.887 E0.04438
G1 X161.414 Y174.464 E0.0535
G1 X162.289 Y174.026 E0.03342
G1 X163.055 Y173.485 E0.03206
G1 X163.952 Y172.593 E0.04322
G1 X164.559 Y171.733 E0.03596
G1 X169.91 Y161.07 E0.40757
G1 X170.328 Y159.946 E0.04097
G1 X170.498 Y159.184 E0.02666
G1 X170.574 Y158.324 E0.02949
G1 X170.502 Y157.095 E0.04206
G1 X170.098 Y155.604 E0.05277
G1 X156.417 Y129.327 E1.01207
G1 X155.461 Y127.947 E0.05735
G1 X154.824 Y127.335 E0.03021
G1 X153.707 Y126.585 E0.04593
G1 X152.743 Y126.163 E0.03595
G1 X151.677 Y125.902 E0.03752
G1 X140.815 Y125.076 E0.37214
G1 X139.262 Y125.134 E0.0531
G1 X137.814 Y125.418 E0.0504
G1 X136.334 Y125.956 E0.05381
G1 X135.211 Y126.558 E0.04354
G1 X134.047 Y127.402 E0.0491
G1 X132.614 Y128.826 E0.06903
G1 E-0.06 F2400
;WIPE_START
G1 F19200
G1 X132.556 Y128.883 E-0.00963
G1 X131.636 Y130.07 E-0.17832
G1 X130.844 Y131.386 E-0.18244
G1 X130.348 Y132.48 E-0.14261
;WIPE_END
G1 E-0.027 F2400
; printing object Latch_DD_x1.stl id:0 copy 0
EXCLUDE_OBJECT_START NAME=Latch_DD_x1_stl_id_0_copy_0
G1 X143.375 Y140.446 F24000
G1 E0.6 F2400
;TYPE:Internal perimeter
;WIDTH:0.5
G1 F1800
G1 X143.418 Y140.446 E0.00155
G1 X143.919 Y140.346 E0.01826
G1 X144.441 Y140.136 E0.02008
G1 X144.914 Y139.823 E0.02027
G1 X145.315 Y139.422 E0.02027
G1 X145.628 Y138.948 E0.02027
G1 X145.838 Y138.427 E0.02008
G1 X145.938 Y137.926 E0.01826
G1 X145.941 Y137.363 E0.0201
G1 X145.831 Y136.807 E0.02027
G1 X145.613 Y136.283 E0.02027
G1 X145.296 Y135.818 E0.02009
G1 X144.935 Y135.456 E0.01826
G1 X144.47 Y135.14 E0.02009
G1 X143.946 Y134.922 E0.02027
G1 X143.393 Y134.812 E0.02013
G1 X142.882 Y134.811 E0.01826
G1 X142.331 Y134.912 E0.02005
G1 X141.804 Y135.125 E0.02027
G1 X141.331 Y135.438 E0.02027
G1 X140.93 Y135.839 E0.02027
G1 X140.617 Y136.312 E0.02027
G1 X140.407 Y136.834 E0.02008
G1 X140.307 Y137.335 E0.01826
G1 X140.304 Y137.898 E0.0201
G1 X140.414 Y138.454 E0.02027
G1 X140.632 Y138.978 E0.02027
G1 X140.948 Y139.443 E0.02009
G1 X141.31 Y139.804 E0.01826
G1 X141.775 Y140.12 E0.02009
G1 X142.299 Y140.339 E0.02027
G1 X142.855 Y140.449 E0.02027
G1 X143.315 Y140.446 E0.01641
G1 X143.372 Y139.989 F24000
;TYPE:External perimeter
G1 F1800
G1 X143.788 Y139.906 E0.01517
G1 X144.227 Y139.729 E0.01689
G1 X144.623 Y139.467 E0.01698
G1 X144.959 Y139.131 E0.01698
G1 X145.221 Y138.735 E0.01698
G1 X145.398 Y138.296 E0.0169
G1 X145.481 Y137.88 E0.01517
G1 X145.484 Y137.407 E0.01691
G1 X145.392 Y136.94 E0.01698
G1 X145.209 Y136.502 E0.01698
G1 X144.943 Y136.11 E0.0169
G1 X144.642 Y135.81 E0.01517
G1 X144.251 Y135.544 E0.0169
G1 X143.813 Y135.361 E0.01698
G1 X143.348 Y135.269 E0.01692
G1 X142.923 Y135.268 E0.01517
G1 X142.459 Y135.354 E0.01688
G1 X142.018 Y135.531 E0.01698
G1 X141.622 Y135.794 E0.01698
G1 X141.286 Y136.13 E0.01698
G1 X141.023 Y136.526 E0.01698
G1 X140.847 Y136.965 E0.0169
G1 X140.764 Y137.381 E0.01517
G1 X140.761 Y137.854 E0.01691
G1 X140.853 Y138.321 E0.01698
G1 X141.036 Y138.759 E0.01698
G1 X141.302 Y139.15 E0.0169
G1 X141.602 Y139.451 E0.01517
G1 X141.994 Y139.717 E0.0169
G1 X142.432 Y139.9 E0.01698
G1 X142.899 Y139.992 E0.01698
G1 X143.312 Y139.989 E0.01476
;WIPE_START
M204 S10000
G1 X143.616 Y140.306 F24000
;WIPE_END
M204 S5000
G1 X142.769 Y141.364
;TYPE:Internal perimeter
G1 F1800
G1 X143.51 Y141.359 E0.0265
G1 X144.181 Y141.226 E0.02443
G1 X144.868 Y140.949 E0.02645
G1 X145.495 Y140.535 E0.02686
G1 X146.027 Y140.003 E0.02686
G1 X146.441 Y139.376 E0.02686
G1 X146.718 Y138.689 E0.02645
G1 X146.851 Y138.018 E0.02443
G1 X146.856 Y137.277 E0.0265
G1 X146.702 Y136.498 E0.02837
G1 X147.237 Y136.571 E0.01929
G1 X147.685 Y136.564 E0.01599
G1 X148.239 Y136.428 E0.02039
G1 X145.573 Y141.906 E0.21766
G1 X145.31 Y142.572 E0.02556
G1 X145.145 Y143.303 E0.02678
G1 X145.097 Y143.759 E0.01637
G1 X145.105 Y144.474 E0.02558
G1 X145.163 Y144.929 E0.01637
G1 X145.344 Y145.656 E0.02678
G1 X145.647 Y146.378 E0.02797
G1 X146.059 Y147.044 E0.02797
G1 X146.524 Y147.588 E0.02558
G1 X152.698 Y153.762 E0.31191
G1 X153.409 Y154.414 E0.03446
G1 X153.836 Y154.757 E0.01958
G1 X154.657 Y155.332 E0.03581
G1 X155.525 Y155.833 E0.03581
G1 X156.017 Y156.075 E0.01958
G1 X156.935 Y156.456 E0.0355
G1 X157.966 Y156.781 E0.03864
G1 X158.523 Y156.875 E0.02016
G1 X159.014 Y156.886 E0.01755
G1 X159.637 Y156.801 E0.02245
G1 X160.272 Y156.585 E0.02399
G1 X160.673 Y156.376 E0.01615
G1 X161.211 Y155.978 E0.02389
G1 X161.4 Y155.772 E0.01
G1 X163.737 Y158.112 E0.11813
G1 X163.144 Y158.704 E0.02994
G1 X162.62 Y159.126 E0.02401
G1 X162.131 Y159.441 E0.02079
G1 X161.669 Y159.68 E0.01861
G1 X160.894 Y160.023 E0.03027
G1 X160.322 Y160.397 E0.02443
G1 X159.92 Y160.761 E0.01938
G1 X159.633 Y161.084 E0.01542
G1 X159.187 Y161.779 E0.0295
G1 X158.886 Y162.585 E0.03074
G1 X158.775 Y163.301 E0.0259
G1 X158.759 Y163.873 E0.02044
G1 X158.5 Y163.918 E0.00936
G1 X158.289 Y163.371 E0.02095
G1 X157.811 Y162.436 E0.0375
G1 X157.24 Y161.555 E0.0375
G1 X156.609 Y160.77 E0.036
G1 X155.874 Y160.025 E0.03738
G1 X155.264 Y159.509 E0.02856
G1 X154.503 Y158.97 E0.03331
G1 X153.021 Y158.104 E0.06132
G1 X152.212 Y157.559 E0.03487
G1 X151.849 Y157.288 E0.01618
G1 X151.096 Y156.669 E0.03482
G1 X150.375 Y155.992 E0.03532
G1 X140.469 Y146.087 E0.50048
G1 X140.01 Y145.604 E0.0238
G1 X139.415 Y144.918 E0.03245
G1 X139.115 Y144.535 E0.01739
G1 X138.515 Y143.682 E0.03724
G1 X137.983 Y142.803 E0.0367
G1 X137.513 Y141.89 E0.03669
G1 X137.056 Y140.816 E0.04172
G1 X136.724 Y139.844 E0.03669
G1 X136.46 Y138.85 E0.03671
G1 X136.306 Y138.05 E0.02912
G1 X136.252 Y137.385 E0.02384
G1 X136.261 Y136.86 E0.01875
G1 X136.283 Y136.605 E0.00915
G1 X136.382 Y136.007 E0.02166
G1 X136.572 Y135.327 E0.02523
G1 X136.659 Y135.091 E0.00898
G1 X136.878 Y134.608 E0.01893
G1 X137.207 Y134.038 E0.02351
G1 X137.518 Y133.61 E0.0189
G1 X137.745 Y133.34 E0.01262
G1 X138.445 Y132.641 E0.03536
G1 X138.567 Y132.541 E0.00562
G1 X138.913 Y132.31 E0.01485
G1 X139.261 Y132.139 E0.01388
G1 X139.682 Y132 E0.01582
G1 X140.214 Y131.913 E0.01926
G1 X140.439 Y131.906 E0.00806
G1 X140.814 Y131.931 E0.01342
G1 X140.958 Y131.954 E0.00521
G1 X141.384 Y132.064 E0.01572
G1 X141.602 Y132.144 E0.00829
G1 X141.747 Y132.211 E0.00569
G1 X142.112 Y132.423 E0.01509
G1 X142.39 Y132.636 E0.01251
G1 X142.589 Y132.817 E0.00961
G1 X143.671 Y133.899 E0.05468
G1 X142.8 Y133.896 E0.0311
G1 X142.074 Y134.03 E0.02639
G1 X141.377 Y134.311 E0.02686
G1 X140.75 Y134.726 E0.02686
G1 X140.218 Y135.258 E0.02686
G1 X139.803 Y135.885 E0.02686
G1 X139.526 Y136.572 E0.02645
G1 X139.394 Y137.242 E0.02443
G1 X139.389 Y137.984 E0.0265
G1 X139.535 Y138.722 E0.02686
G1 X139.824 Y139.415 E0.02686
G1 X140.241 Y140.028 E0.02647
G1 X140.725 Y140.512 E0.02443
G1 X141.337 Y140.928 E0.02647
G1 X142.031 Y141.218 E0.02686
G1 X142.71 Y141.352 E0.02472
G1 E-0.06 F2400
;WIPE_START
G1 F19200
G1 X143.51 Y141.359 E-0.09506
G1 X144.181 Y141.226 E-0.08122
G1 X144.868 Y140.949 E-0.08792
G1 X145.495 Y140.535 E-0.08928
G1 X146.027 Y140.003 E-0.08928
G1 X146.353 Y139.51 E-0.07023
;WIPE_END
G1 E-0.027 F2400
G1 X158.983 Y168.555 F24000
G1 E0.6 F2400
G1 F1800
G1 X158.853 Y168.59 E0.00479
G1 X158.773 Y168.533 E0.00351
G1 X158.748 Y168.507 E0.00132
G1 X158.726 Y168.473 E0.00144
G1 X158.712 Y168.435 E0.00145
G1 X158.703 Y168.382 E0.00189
G1 X158.71 Y167.122 E0.04504
G1 X158.617 Y166.127 E0.03571
G1 X158.493 Y165.451 E0.02455
G1 X158.232 Y164.491 E0.03552
G1 X157.871 Y163.558 E0.03575
G1 X157.415 Y162.665 E0.03582
G1 X156.869 Y161.824 E0.03583
G1 X156.267 Y161.074 E0.03433
G1 X155.563 Y160.361 E0.03581
G1 X154.984 Y159.871 E0.02712
G1 X154.255 Y159.355 E0.0319
G1 X152.778 Y158.491 E0.06112
G1 X151.947 Y157.932 E0.03578
G1 X151.566 Y157.648 E0.01697
G1 X150.794 Y157.012 E0.03574
G1 X150.057 Y156.321 E0.03611
G1 X140.142 Y146.406 E0.50094
G1 X139.671 Y145.912 E0.02438
G1 X139.062 Y145.209 E0.03323
G1 X138.748 Y144.807 E0.01821
G1 X138.132 Y143.932 E0.03822
G1 X137.584 Y143.026 E0.03783
G1 X137.099 Y142.084 E0.03785
G1 X136.629 Y140.979 E0.04291
G1 X136.287 Y139.976 E0.03786
G1 X136.015 Y138.953 E0.03784
G1 X135.852 Y138.112 E0.03058
G1 X135.795 Y137.4 E0.02554
G1 X135.804 Y136.836 E0.02012
G1 X135.83 Y136.548 E0.01035
G1 X135.935 Y135.908 E0.02317
G1 X136.137 Y135.186 E0.02679
G1 X136.236 Y134.917 E0.01022
G1 X136.471 Y134.399 E0.02031
G1 X136.664 Y134.044 E0.01445
G1 X136.823 Y133.789 E0.01073
G1 X137.158 Y133.329 E0.02034
G1 X137.408 Y133.031 E0.0139
G1 X138.138 Y132.301 E0.03687
G1 X138.295 Y132.173 E0.00724
G1 X138.684 Y131.914 E0.01672
G1 X139.088 Y131.715 E0.01607
G1 X139.573 Y131.555 E0.01823
G1 X139.969 Y131.477 E0.01442
G1 X140.17 Y131.457 E0.00722
G1 X140.448 Y131.449 E0.00993
G1 X140.865 Y131.476 E0.01492
G1 X141.051 Y131.505 E0.00674
G1 X141.521 Y131.627 E0.01736
G1 X141.777 Y131.722 E0.00974
G1 X141.957 Y131.805 E0.00709
G1 X142.366 Y132.043 E0.0169
G1 X142.684 Y132.284 E0.01426
G1 X142.905 Y132.487 E0.01071
G1 X145.049 Y134.631 E0.10833
G1 X144.863 Y134.855 E0.0104
G1 X144.689 Y134.736 E0.00755
G1 X144.08 Y134.482 E0.02357
G1 X143.439 Y134.356 E0.02335
G1 X142.841 Y134.353 E0.02135
G1 X142.202 Y134.471 E0.02322
G1 X141.591 Y134.718 E0.02356
G1 X141.04 Y135.082 E0.02357
G1 X140.574 Y135.548 E0.02357
G1 X140.21 Y136.099 E0.02357
G1 X139.966 Y136.703 E0.02327
G1 X139.85 Y137.289 E0.02135
G1 X139.846 Y137.941 E0.0233
G1 X139.974 Y138.588 E0.02357
G1 X140.228 Y139.197 E0.02357
G1 X140.595 Y139.736 E0.02328
G1 X141.017 Y140.158 E0.02134
G1 X141.556 Y140.524 E0.02328
G1 X142.165 Y140.779 E0.02357
G1 X142.812 Y140.906 E0.02357
G1 X143.464 Y140.902 E0.0233
G1 X144.05 Y140.786 E0.02135
G1 X144.654 Y140.543 E0.02327
G1 X145.204 Y140.179 E0.02357
G1 X145.671 Y139.712 E0.02357
G1 X146.035 Y139.162 E0.02357
G1 X146.278 Y138.558 E0.02327
G1 X146.394 Y137.972 E0.02135
G1 X146.398 Y137.32 E0.0233
G1 X146.271 Y136.673 E0.02357
G1 X146.016 Y136.064 E0.02357
G1 X145.823 Y135.78 E0.01227
G1 X146.018 Y135.593 E0.00964
G1 X146.412 Y135.883 E0.0175
G1 X146.917 Y136.066 E0.01919
G1 X147.265 Y136.114 E0.01253
G1 X147.626 Y136.108 E0.0129
G1 X148.179 Y135.972 E0.02035
G1 X148.684 Y135.676 E0.02092
G1 X148.946 Y135.399 E0.0136
G1 X149.172 Y135.555 E0.00982
G1 X145.992 Y142.091 E0.25965
G1 X145.748 Y142.707 E0.02366
G1 X145.597 Y143.377 E0.02456
G1 X145.555 Y143.78 E0.01447
G1 X145.562 Y144.443 E0.02368
G1 X145.613 Y144.845 E0.01447
G1 X145.779 Y145.512 E0.02456
G1 X146.055 Y146.168 E0.02544
G1 X146.429 Y146.774 E0.02544
G1 X146.86 Y147.278 E0.02368
G1 X153.014 Y153.432 E0.31092
G1 X153.707 Y154.067 E0.03357
G1 X154.111 Y154.391 E0.01852
G1 X154.903 Y154.946 E0.03456
G1 X155.741 Y155.43 E0.03456
G1 X156.206 Y155.659 E0.01852
G1 X157.091 Y156.026 E0.03425
G1 X158.074 Y156.335 E0.03681
G1 X158.566 Y156.419 E0.01783
G1 X158.988 Y156.428 E0.01507
G1 X159.531 Y156.354 E0.0196
G1 X160.092 Y156.164 E0.02114
G1 X160.43 Y155.987 E0.01363
G1 X160.904 Y155.637 E0.02107
G1 X161.387 Y155.112 E0.02547
G1 X164.021 Y157.75 E0.13316
G1 X164.15 Y157.925 E0.00778
G1 X164.172 Y157.978 E0.00206
G1 X164.193 Y158.084 E0.00387
G1 X164.193 Y158.142 E0.00207
G1 X164.155 Y158.29 E0.00542
G1 X164.082 Y158.413 E0.00513
G1 X163.449 Y159.045 E0.03194
G1 X162.888 Y159.497 E0.02574
G1 X162.361 Y159.837 E0.02243
G1 X161.866 Y160.093 E0.01989
G1 X161.113 Y160.426 E0.02943
G1 X160.602 Y160.76 E0.02181
G1 X160.245 Y161.083 E0.0172
G1 X159.999 Y161.361 E0.01327
G1 X159.598 Y161.985 E0.02648
G1 X159.331 Y162.701 E0.02732
G1 X159.231 Y163.343 E0.02321
G1 X159.087 Y168.408 E0.18103
G1 X159.06 Y168.501 E0.00343
G1 X159.032 Y168.52 E0.00122
G1 X159.489 Y168.66 F24000
G1 F1800
G1 X159.434 Y168.758 E0.00402
G1 X159.349 Y168.856 E0.00463
G1 X159.18 Y168.974 E0.00736
G1 X159.073 Y169.016 E0.00412
G1 X158.948 Y169.038 E0.00455
G1 X158.819 Y169.035 E0.00458
G1 X158.694 Y169.007 E0.00459
G1 X158.577 Y168.955 E0.00458
G1 X158.472 Y168.88 E0.00461
G1 X158.385 Y168.788 E0.00452
G1 X158.315 Y168.678 E0.00465
G1 X158.269 Y168.556 E0.00467
G1 X158.245 Y168.42 E0.00493
