; generated by SuperSlicer 2.5.59 on 2022-12-06 at 02:36:53 UTC


;
;

;
;
; 

; external perimeters extrusion width = 0.50mm
; perimeters extrusion width = 0.50mm
; infill extrusion width = 0.60mm
; solid infill extrusion width = 0.60mm
; top infill extrusion width = 0.50mm

; object:{"name":"Left_and_Right_Midclip_x2","id":"Left_and_Right_Midclip_x2.STL id:0 copy 0","object_center":[149.933877,149.933875,0.000000],"boundingbox_center":[149.933877,149.933875,2.750016],"boundingbox_size":[25.625580,25.625591,5.500032]}
; plater:{"center":[149.933877,149.933875,0.000000],"boundingbox_center":[149.933877,149.933875,2.750016],"boundingbox_size":[25.625580,25.625591,5.500032]}

;TYPE:Custom
M117


; Pre-Processed for Cancel-Object support by preprocess_cancellation v0.2.0
; 1 known objects
EXCLUDE_OBJECT_DEFINE NAME=Left_and_Right_Midclip_x2_STL_id_0_copy_0 CENTER=149.571,149.411 POLYGON=[[151.241,137.31],[150.932,137.334],[149.552,137.57],[137.57,149.552],[137.334,150.932],[137.31,151.241],[148.584,162.516],[148.836,162.559],[150.184,162.435],[150.297,162.405],[150.436,162.31],[162.353,150.393],[162.447,150.255],[162.571,148.907],[162.516,148.584],[151.241,137.31]]
PRINT_START EXTRUDER=240 BED=105
M107
G21 ; set units to millimeters
G90 ; use absolute coordinates
M83 ; use relative distances for extrusion
SET_PRESSURE_ADVANCE SMOOTH_TIME=0.03
SET_PRESSURE_ADVANCE ADVANCE=0.045
;_TOOLCHANGE 0
M104 S240 ; set temperature
M109 S240 ; set temperature and wait for it to be reached
M190 S105 ; set bed temperature and wait for it to be reached
M107
;LAYER_CHANGE
;Z:0.2
;HEIGHT:0.2
;BEFORE_LAYER_CHANGE
;0.2


G1 Z0.2 F24000
;AFTER_LAYER_CHANGE
;0.2
G92 E0
G1 E-0.6 F2400
M204 S5000
G1 X142.028 Y142.027 F24000
G1 E0.6 F2400
;TYPE:Skirt
;WIDTH:0.48
G1 F1800
G1 X134.956 Y149.099 E0.33804
G1 X133.632 Y151.188 E0.08358
G1 X133.302 Y153.28 E0.07158
G1 X133.765 Y155.346 E0.07158
G1 X134.956 Y157.098 E0.07158
G1 X143.958 Y166.1 E0.4303
G1 X146.047 Y167.424 E0.08358
G1 X148.138 Y167.753 E0.07158
G1 X150.205 Y167.29 E0.07158
G1 X151.956 Y166.1 E0.07158
G1 X166.1 Y151.956 E0.67605
G1 X167.424 Y149.867 E0.08358
G1 X167.753 Y147.776 E0.07158
G1 X167.29 Y145.709 E0.07158
G1 X166.1 Y143.958 E0.07158
G1 X157.097 Y134.956 E0.4303
G1 X155.009 Y133.632 E0.08358
G1 X152.917 Y133.302 E0.07158
G1 X150.851 Y133.765 E0.07158
G1 X149.099 Y134.956 E0.07158
G1 X142.07 Y141.985 E0.33598
G1 X142.379 Y142.294 F24000
G1 F1800
G1 X135.265 Y149.408 E0.34007
G1 X134.13 Y151.109 E0.0691
G1 X133.736 Y153.104 E0.06873
G1 X134.135 Y155.098 E0.06873
G1 X135.265 Y156.789 E0.06873
G1 X144.267 Y165.791 E0.4303
G1 X145.968 Y166.925 E0.0691
G1 X147.963 Y167.319 E0.06873
G1 X149.957 Y166.921 E0.06873
G1 X151.647 Y165.791 E0.06873
G1 X165.791 Y151.647 E0.67605
G1 X166.925 Y149.946 E0.0691
G1 X167.319 Y147.951 E0.06873
G1 X166.921 Y145.957 E0.06873
G1 X165.791 Y144.267 E0.06873
G1 X156.788 Y135.265 E0.4303
G1 X155.088 Y134.13 E0.0691
G1 X153.093 Y133.736 E0.06873
G1 X151.099 Y134.135 E0.06873
G1 X149.408 Y135.265 E0.06873
G1 X142.422 Y142.251 E0.33396
G1 E-0.06 F2400
;WIPE_START
G1 F19200
G1 X139.367 Y145.306 E-0.513
;WIPE_END
G1 E-0.027 F2400
; printing object Left_and_Right_Midclip_x2.STL id:0 copy 0
EXCLUDE_OBJECT_START NAME=Left_and_Right_Midclip_x2_STL_id_0_copy_0
G1 X145.88 Y155.636 F24000
G1 E0.6 F2400
;TYPE:Internal perimeter
;WIDTH:0.5
G1 F1800
G1 X145.92 Y155.636 E0.00141
G1 X146.406 Y155.55 E0.01744
G1 X146.87 Y155.381 E0.01744
G1 X147.297 Y155.135 E0.01744
G1 X147.675 Y154.818 E0.01744
G1 X147.992 Y154.44 E0.01744
G1 X148.239 Y154.012 E0.01744
G1 X148.408 Y153.549 E0.01744
G1 X148.493 Y153.063 E0.01744
G1 X148.493 Y152.57 E0.01744
G1 X148.408 Y152.084 E0.01744
G1 X148.239 Y151.62 E0.01744
G1 X148.142 Y151.452 E0.00686
G1 X147.992 Y151.193 E0.01058
G1 X147.675 Y150.815 E0.01744
G1 X147.297 Y150.498 E0.01744
G1 X146.87 Y150.251 E0.01744
G1 X146.406 Y150.082 E0.01744
G1 X145.92 Y149.997 E0.01744
G1 X145.427 Y149.997 E0.01744
G1 X144.941 Y150.082 E0.01744
G1 X144.478 Y150.251 E0.01744
G1 X144.05 Y150.498 E0.01744
G1 X143.672 Y150.815 E0.01744
G1 X143.355 Y151.193 E0.01744
G1 X143.109 Y151.62 E0.01744
G1 X142.94 Y152.084 E0.01744
G1 X142.854 Y152.57 E0.01744
G1 X142.854 Y153.063 E0.01744
G1 X142.94 Y153.549 E0.01744
G1 X143.109 Y154.012 E0.01744
G1 X143.355 Y154.44 E0.01744
G1 X143.672 Y154.818 E0.01744
G1 X144.05 Y155.135 E0.01744
G1 X144.478 Y155.381 E0.01744
G1 X144.941 Y155.55 E0.01744
G1 X145.427 Y155.636 E0.01744
G1 X145.82 Y155.636 E0.0139
G1 X145.88 Y155.179 F24000
;TYPE:External perimeter
G1 F1800
G1 X146.288 Y155.107 E0.01461
G1 X146.676 Y154.966 E0.01461
G1 X147.034 Y154.759 E0.01461
G1 X147.351 Y154.493 E0.01461
G1 X147.616 Y154.176 E0.01461
G1 X147.823 Y153.818 E0.01461
G1 X147.964 Y153.43 E0.01461
G1 X148.036 Y153.023 E0.01461
G1 X148.036 Y152.61 E0.01461
G1 X147.964 Y152.202 E0.01461
G1 X147.823 Y151.814 E0.01461
G1 X147.746 Y151.681 E0.00545
G1 X147.616 Y151.456 E0.00917
G1 X147.351 Y151.139 E0.01461
G1 X147.034 Y150.874 E0.01461
G1 X146.676 Y150.667 E0.01461
G1 X146.288 Y150.525 E0.01461
G1 X145.88 Y150.454 E0.01461
G1 X145.467 Y150.454 E0.01461
G1 X145.06 Y150.525 E0.01461
G1 X144.671 Y150.667 E0.01461
G1 X144.313 Y150.874 E0.01461
G1 X143.997 Y151.139 E0.01461
G1 X143.731 Y151.456 E0.01461
G1 X143.524 Y151.814 E0.01461
G1 X143.383 Y152.202 E0.01461
G1 X143.311 Y152.61 E0.01461
G1 X143.311 Y153.023 E0.01461
G1 X143.383 Y153.43 E0.01461
G1 X143.524 Y153.818 E0.01461
G1 X143.731 Y154.176 E0.01461
G1 X143.997 Y154.493 E0.01461
G1 X144.313 Y154.759 E0.01461
G1 X144.671 Y154.966 E0.01461
G1 X145.06 Y155.107 E0.01461
G1 X145.467 Y155.179 E0.01461
G1 X145.82 Y155.179 E0.01249
;WIPE_START
M204 S10000
G1 X146.119 Y155.5 F24000
;WIPE_END
G1 E-0.06 F2400
;WIPE_START
G1 F19200
M204 S5000
G1 X146.339 Y155.301 E-0.03522
G1 X146.761 Y155.148 E-0.05325
G1 X147.149 Y154.923 E-0.05325
G1 X147.493 Y154.635 E-0.05324
G1 X147.781 Y154.292 E-0.05325
G1 X148.005 Y153.903 E-0.05325
G1 X148.158 Y153.482 E-0.05325
G1 X148.236 Y153.04 E-0.05325
G1 X148.236 Y152.592 E-0.05325
G1 X148.16 Y152.162 E-0.05181
;WIPE_END
G1 E-0.027 F2400
G1 X152.61 Y148.493 F24000
G1 E0.6 F2400
;TYPE:Internal perimeter
G1 F1800
G1 X153.063 Y148.493 E0.01602
G1 X153.549 Y148.408 E0.01744
G1 X154.012 Y148.239 E0.01744
G1 X154.44 Y147.992 E0.01744
G1 X154.818 Y147.675 E0.01744
G1 X155.135 Y147.297 E0.01744
G1 X155.381 Y146.87 E0.01744
G1 X155.55 Y146.406 E0.01744
G1 X155.636 Y145.92 E0.01744
G1 X155.636 Y145.427 E0.01744
G1 X155.55 Y144.941 E0.01744
G1 X155.381 Y144.478 E0.01744
G1 X155.135 Y144.05 E0.01744
G1 X154.818 Y143.672 E0.01744
G1 X154.44 Y143.355 E0.01744
G1 X154.012 Y143.109 E0.01744
G1 X153.549 Y142.94 E0.01744
G1 X153.063 Y142.854 E0.01744
G1 X152.57 Y142.854 E0.01744
G1 X152.084 Y142.94 E0.01744
G1 X151.62 Y143.109 E0.01744
G1 X151.193 Y143.355 E0.01744
G1 X150.815 Y143.672 E0.01744
G1 X150.498 Y144.05 E0.01744
G1 X150.251 Y144.478 E0.01744
G1 X150.082 Y144.941 E0.01744
G1 X149.997 Y145.427 E0.01744
G1 X149.997 Y145.92 E0.01744
G1 X150.082 Y146.406 E0.01744
G1 X150.251 Y146.87 E0.01744
G1 X150.498 Y147.297 E0.01744
G1 X150.815 Y147.675 E0.01744
G1 X151.193 Y147.992 E0.01744
G1 X151.62 Y148.239 E0.01744
G1 X152.084 Y148.408 E0.01744
G1 X152.55 Y148.49 E0.01673
G1 X152.61 Y148.036 F24000
;TYPE:External perimeter
G1 F1800
G1 X153.023 Y148.036 E0.01461
G1 X153.43 Y147.964 E0.01461
G1 X153.818 Y147.823 E0.01461
G1 X154.176 Y147.616 E0.01461
G1 X154.493 Y147.351 E0.01461
G1 X154.759 Y147.034 E0.01461
G1 X154.966 Y146.676 E0.01461
G1 X155.107 Y146.288 E0.01461
G1 X155.179 Y145.88 E0.01461
G1 X155.179 Y145.467 E0.01461
G1 X155.107 Y145.06 E0.01461
G1 X154.966 Y144.671 E0.01461
G1 X154.759 Y144.313 E0.01461
G1 X154.493 Y143.997 E0.01461
G1 X154.176 Y143.731 E0.01461
G1 X153.818 Y143.524 E0.01461
G1 X153.43 Y143.383 E0.01461
G1 X153.023 Y143.311 E0.01461
G1 X152.61 Y143.311 E0.01461
G1 X152.202 Y143.383 E0.01461
G1 X151.814 Y143.524 E0.01461
G1 X151.456 Y143.731 E0.01461
G1 X151.139 Y143.997 E0.01461
G1 X150.874 Y144.313 E0.01461
G1 X150.667 Y144.671 E0.01461
G1 X150.525 Y145.06 E0.01461
G1 X150.454 Y145.467 E0.01461
G1 X150.454 Y145.88 E0.01461
G1 X150.525 Y146.288 E0.01461
G1 X150.667 Y146.676 E0.01461
G1 X150.874 Y147.034 E0.01461
G1 X151.139 Y147.351 E0.01461
G1 X151.456 Y147.616 E0.01461
G1 X151.814 Y147.823 E0.01461
G1 X152.202 Y147.964 E0.01461
G1 X152.55 Y148.026 E0.01249
;WIPE_START
M204 S10000
G1 X152.789 Y148.394 F24000
;WIPE_END
G1 E-0.06 F2400
;WIPE_START
G1 F19200
M204 S5000
G1 X153.04 Y148.236 E-0.03522
G1 X153.482 Y148.158 E-0.05325
G1 X153.903 Y148.005 E-0.05325
G1 X154.292 Y147.781 E-0.05325
G1 X154.635 Y147.493 E-0.05324
G1 X154.923 Y147.149 E-0.05324
G1 X155.148 Y146.761 E-0.05325
G1 X155.301 Y146.339 E-0.05325
G1 X155.379 Y145.898 E-0.05324
G1 X155.379 Y145.462 E-0.05181
;WIPE_END
G1 E-0.027 F2400
G1 X141.248 Y153.098 F24000
G1 E0.6 F2400
;TYPE:Internal perimeter
G1 F1800
G1 X141.94 Y152.406 E0.03461
G1 X141.94 Y153.143 E0.02604
G1 X142.011 Y153.545 E0.01444
G1 X141.803 Y153.654 E0.00829
G1 X141.29 Y153.141 E0.02563
G1 E-0.06 F2400
;WIPE_START
G1 F19200
G1 X141.94 Y152.406 E-0.11649
G1 X141.94 Y153.143 E-0.0875
G1 X142.011 Y153.545 E-0.04852
G1 X141.803 Y153.654 E-0.02786
G1 X141.29 Y153.141 E-0.08611
;WIPE_END
G1 E-0.17352 F2400
G1 X153.098 Y141.248 F24000
G1 E0.6 F2400
G1 F1800
G1 X153.654 Y141.803 E0.02775
G1 X153.545 Y142.011 E0.00829
G1 X153.143 Y141.94 E0.01444
G1 X152.406 Y141.94 E0.02604
G1 X153.056 Y141.29 E0.03249
G1 E-0.06 F2400
;WIPE_START
G1 F19200
G1 X153.654 Y141.803 E-0.09351
G1 X153.545 Y142.011 E-0.02786
G1 X153.143 Y141.94 E-0.04852
G1 X152.406 Y141.94 E-0.0875
G1 X153.056 Y141.29 E-0.10914
;WIPE_END
G1 E-0.17347 F2400
G1 X144.945 Y156.479 F24000
G1 E0.6 F2400
G1 F1800
G1 X145.347 Y156.55 E0.01444
G1 X146 Y156.55 E0.02309
G1 X146.644 Y156.437 E0.02309
G1 X147.258 Y156.213 E0.02309
G1 X147.824 Y155.886 E0.02309
G1 X148.324 Y155.466 E0.02309
G1 X148.744 Y154.966 E0.02309
G1 X149.071 Y154.4 E0.02309
G1 X149.294 Y153.786 E0.02309
G1 X149.407 Y153.143 E0.02309
G1 X149.407 Y152.49 E0.02309
G1 X149.294 Y151.846 E0.02309
G1 X149.071 Y151.232 E0.02309
G1 X148.744 Y150.666 E0.02309
G1 X148.324 Y150.166 E0.02309
G1 X147.824 Y149.746 E0.02309
G1 X147.258 Y149.419 E0.02309
G1 X146.644 Y149.196 E0.02309
G1 X146 Y149.082 E0.02309
G1 X145.264 Y149.082 E0.02604
G1 X149.082 Y145.264 E0.19089
G1 X149.082 Y146 E0.02604
G1 X149.196 Y146.644 E0.02309
G1 X149.419 Y147.258 E0.02309
G1 X149.746 Y147.824 E0.02309
G1 X150.166 Y148.324 E0.02309
G1 X150.666 Y148.744 E0.02309
G1 X151.232 Y149.071 E0.02309
G1 X151.846 Y149.294 E0.02309
G1 X152.49 Y149.407 E0.02309
G1 X153.143 Y149.407 E0.02309
G1 X153.786 Y149.294 E0.02309
G1 X154.4 Y149.071 E0.02309
G1 X154.966 Y148.744 E0.02309
G1 X155.466 Y148.324 E0.02309
G1 X155.886 Y147.823 E0.02309
G1 X156.213 Y147.258 E0.02309
G1 X156.437 Y146.644 E0.02309
G1 X156.55 Y146 E0.02309
G1 X156.55 Y145.347 E0.02309
G1 X156.479 Y144.945 E0.01444
G1 X156.687 Y144.836 E0.00829
G1 X159.808 Y147.957 E0.156
G1 X147.957 Y159.808 E0.59238
G1 X144.836 Y156.687 E0.156
G1 X144.917 Y156.532 E0.00617
G1 X145.006 Y156.026 F24000
G1 F1800
G1 X145.387 Y156.093 E0.01367
G1 X145.96 Y156.093 E0.02027
G1 X146.525 Y155.993 E0.02026
G1 X147.064 Y155.797 E0.02027
G1 X147.56 Y155.511 E0.02027
G1 X148 Y155.142 E0.02026
G1 X148.368 Y154.703 E0.02027
G1 X148.655 Y154.206 E0.02027
G1 X148.851 Y153.668 E0.02027
G1 X148.95 Y153.103 E0.02027
G1 X148.95 Y152.53 E0.02027
G1 X148.851 Y151.965 E0.02026
G1 X148.655 Y151.426 E0.02026
G1 X148.368 Y150.93 E0.02027
G1 X148 Y150.49 E0.02027
G1 X147.56 Y150.122 E0.02026
G1 X147.064 Y149.835 E0.02027
G1 X146.525 Y149.639 E0.02027
G1 X145.96 Y149.54 E0.02027
G1 X145.387 Y149.54 E0.02027
G1 X144.822 Y149.639 E0.02027
G1 X144.182 Y149.872 E0.02409
G1 X144.044 Y149.656 E0.00908
G1 X149.656 Y144.044 E0.2805
G1 X149.872 Y144.182 E0.00908
G1 X149.639 Y144.822 E0.02409
G1 X149.54 Y145.387 E0.02027
G1 X149.54 Y145.96 E0.02027
G1 X149.639 Y146.525 E0.02027
G1 X149.835 Y147.064 E0.02027
G1 X150.122 Y147.56 E0.02027
G1 X150.49 Y148 E0.02026
G1 X150.93 Y148.368 E0.02027
G1 X151.426 Y148.655 E0.02027
G1 X151.965 Y148.851 E0.02026
G1 X152.53 Y148.95 E0.02027
G1 X153.103 Y148.95 E0.02027
G1 X153.667 Y148.851 E0.02026
G1 X154.206 Y148.655 E0.02027
G1 X154.703 Y148.368 E0.02027
G1 X155.142 Y148 E0.02026
G1 X155.511 Y147.56 E0.02026
G1 X155.797 Y147.064 E0.02027
G1 X155.993 Y146.525 E0.02027
G1 X156.093 Y145.96 E0.02026
G1 X156.093 Y145.387 E0.02027
G1 X155.993 Y144.822 E0.02026
G1 X155.797 Y144.284 E0.02027
G1 X155.511 Y143.787 E0.02027
G1 X155.142 Y143.348 E0.02027
G1 X154.703 Y142.979 E0.02026
G1 X154.206 Y142.693 E0.02027
G1 X153.668 Y142.497 E0.02027
G1 X153.103 Y142.397 E0.02027
G1 X152.53 Y142.397 E0.02026
G1 X151.965 Y142.497 E0.02027
G1 X151.324 Y142.73 E0.02409
G1 X151.186 Y142.513 E0.00908
G1 X153.098 Y140.601 E0.09557
G1 X160.454 Y147.957 E0.36769
G1 X147.957 Y160.454 E0.62469
G1 X140.601 Y153.098 E0.36769
G1 X142.513 Y151.187 E0.09557
G1 X142.73 Y151.324 E0.00908
G1 X142.497 Y151.965 E0.02409
G1 X142.397 Y152.53 E0.02027
G1 X142.397 Y153.103 E0.02027
G1 X142.497 Y153.668 E0.02027
G1 X142.693 Y154.206 E0.02027
G1 X142.979 Y154.703 E0.02027
G1 X143.348 Y155.142 E0.02027
G1 X143.787 Y155.511 E0.02027
G1 X144.284 Y155.797 E0.02027
G1 X144.822 Y155.993 E0.02026
G1 X144.947 Y156.015 E0.00448
G1 E-0.06 F2400
;WIPE_START
G1 F19200
G1 X145.387 Y156.093 E-0.05304
G1 X145.96 Y156.093 E-0.06809
G1 X146.525 Y155.993 E-0.06808
G1 X147.064 Y155.797 E-0.06809
G1 X147.56 Y155.511 E-0.06809
G1 X148 Y155.142 E-0.06808
G1 X148.368 Y154.703 E-0.06808
G1 X148.585 Y154.328 E-0.05145
;WIPE_END
G1 E-0.027 F2400
G1 X147.957 Y161.101 F24000
G1 E0.6 F2400
G1 F1800
G1 X139.955 Y153.098 E0.40001
G1 X153.098 Y139.955 E0.657
G1 X161.101 Y147.957 E0.40001
G1 X148 Y161.058 E0.65488
G1 X147.957 Y161.747 F24000
;TYPE:External perimeter
G1 F1800
G1 X139.308 Y153.098 E0.43232
G1 X139.397 Y153.01 E0.00396
G1 X139.574 Y152.833 E0.00838
G1 X153.098 Y139.308 E0.67606
G1 X153.187 Y139.397 E0.00396
G1 X153.203 Y139.413 E0.00033
G1 X161.747 Y147.957 E0.42711
G1 X161.659 Y148.045 E0.00396
G1 X161.482 Y148.222 E0.00838
G1 X148 Y161.705 E0.67394
;WIPE_START
M204 S10000
G1 X147.854 Y161.361 F24000
;WIPE_END
G1 E-0.06 F2400
;WIPE_START
G1 F19200
M204 S5000
G1 X144.799 Y158.306 E-0.513
;WIPE_END
G1 E-0.027 F2400
G1 X144.701 Y156.491 F24000
G1 E0.6 F2400
;TYPE:Gap fill
;WIDTH:0.596407
G1 F1800
G1 X144.642 Y156.453 E0.00301
;WIDTH:0.550493
G1 X144.499 Y156.357 E0.00677
;WIDTH:0.50315
G1 X144.356 Y156.266 E0.006
;WIDTH:0.411852
G1 X144.214 Y156.175 E0.00481
;WIDTH:0.34235
G1 X144.122 Y156.115 E0.00256
G1 X143.999 Y156.021 E0.00356
;WIDTH:0.280711
G1 X143.877 Y155.928 E0.00283
;WIDTH:0.227156
G1 X143.755 Y155.834 E0.00219
;WIDTH:0.173541
G1 X143.625 Y155.733 E0.00167
G1 X143.486 Y155.606 E0.00189
;WIDTH:0.13892
G1 X143.348 Y155.48 E0.00139
G1 X143.313 Y155.447 E0.00036
G1 X143.043 Y155.177 F24000
G1 F1800
G1 X143.01 Y155.142 E0.00036
G1 X142.884 Y155.004 E0.00139
;WIDTH:0.17353
G1 X142.757 Y154.865 E0.00189
G1 X142.656 Y154.735 E0.00167
;WIDTH:0.227144
G1 X142.562 Y154.613 E0.00219
;WIDTH:0.280697
G1 X142.469 Y154.491 E0.00283
;WIDTH:0.342333
G1 X142.375 Y154.368 E0.00356
G1 X142.315 Y154.276 E0.00256
;WIDTH:0.41184
G1 X142.224 Y154.134 E0.00481
;WIDTH:0.503144
G1 X142.133 Y153.991 E0.00601
;WIDTH:0.55048
G1 X142.037 Y153.848 E0.00677
;WIDTH:0.59639
G1 X141.999 Y153.789 E0.00301
G1 E-0.06 F2400
;WIPE_START
G1 F19200
G1 X142.037 Y153.848 E-0.00836
;WIPE_END
G1 E-0.53164 F2400
G1 X142.762 Y151.096 F24000
G1 E0.6 F2400
;WIDTH:0.712564
G1 F1800
G1 X142.835 Y151.001 E0.00617
;WIDTH:0.639772
G1 X142.936 Y150.87 E0.00766
G1 X142.958 Y150.843 E0.00161
;WIDTH:0.679692
G1 X143.127 Y150.659 E0.0123
;WIDTH:0.636124
G1 X143.296 Y150.475 E0.01145
G1 X143.332 Y150.438 E0.00237
G1 X143.516 Y150.269 E0.01146
;WIDTH:0.679698
G1 X143.7 Y150.101 E0.0123
;WIDTH:0.64443
G1 X143.764 Y150.049 E0.00379
G1 X143.858 Y149.977 E0.00554
;WIDTH:0.712593
G1 X143.953 Y149.905 E0.00617
G1 E-0.06 F2400
;WIPE_START
