; File Parsed By Flow Comp Script
; Script Ver. V0.7.0
; Flow Model Ver. V0.2.0
; Logger Ver. V0.0.1
; Flow Comp Model Points:
; (0, 0)
; (0.2, 0.4444)
; (0.4, 0.6145)
; (0.6, 0.7059)
; (0.8, 0.7619)
; (1.5, 0.8571)
; (2, 0.8889)
; (3, 0.9231)
; (5, 0.952)
; (10, 1)

; generated by A3dp-Slicer 2.5 on 2023-09-12 at 04:02:38 UTC


;
;

;
;
; 

; external perimeters extrusion width = 0.50mm
; perimeters extrusion width = 0.50mm
; infill extrusion width = 0.50mm
; solid infill extrusion width = 0.50mm
; top infill extrusion width = 0.50mm
; first layer extrusion width = 0.50mm

; external perimeters extrusion width = 0.50mm
; perimeters extrusion width = 0.50mm
; infill extrusion width = 0.50mm
; solid infill extrusion width = 0.50mm
; top infill extrusion width = 0.50mm
; first layer extrusion width = 0.50mm

; object:{"name":"Left Mount Plate","id":"Left Mount Plate.stl id:0 copy 0","object_center":[103.245320,84.150138,0.000000],"boundingbox_center":[103.245320,84.150138,17.000000],"boundingbox_size":[29.698485,29.698485,34.000000]}
EXCLUDE_OBJECT_DEFINE NAME=Left_Mount_Plate_stl_id_0_copy_0 CENTER=103.245320,84.150138 POLYGON=[[88.396080,97.585168],[100.063336,85.917904],[109.609280,76.371960],[116.680352,69.300896],[118.094568,70.715112],[89.810296,98.999384],[88.396080,97.585168]]
; object:{"name":"Right Mount Plate","id":"Right Mount Plate.stl id:1 copy 0","object_center":[106.073749,86.978565,0.000000],"boundingbox_center":[106.073749,86.978565,17.000000],"boundingbox_size":[29.698485,29.698485,34.000000]}
EXCLUDE_OBJECT_DEFINE NAME=Right_Mount_Plate_stl_id_1_copy_0 CENTER=106.073749,86.978565 POLYGON=[[91.224504,100.413592],[98.295568,93.342520],[112.437704,79.200384],[119.508776,72.129320],[120.922992,73.543536],[92.638720,101.827808],[91.224504,100.413592]]
; plater:{"center":[104.659534,85.564352,0.000000],"boundingbox_center":[104.659534,85.564352,17.000000],"boundingbox_size":[32.526914,32.526912,34.000000]}

;TYPE:Custom
PRINT_START EXTRUDER=310 BED=125 AREA_START=82.0891,62.9939 AREA_END=127.23,108.135
M107
G21 ; set units to millimeters
G90 ; use absolute coordinates
M83 ; use relative distances for extrusion
;_BEFORE_TOOLCHANGE 0
;_TOOLCHANGE 0
M104 S310 ; set temperature
M109 S310 ; set temperature and wait for it to be reached
M190 S125 ; set bed temperature and wait for it to be reached
M107
;LAYER_CHANGE
;Z:0.2
;HEIGHT:0.2
;BEFORE_LAYER_CHANGE
TIMELAPSE_TAKE_FRAME
;0.2


G1 Z0.2 F48000
;AFTER_LAYER_CHANGE
;0.2
G92 E0
SET_PRESSURE_ADVANCE ADVANCE=0.01
G1 E-0.8 F3600
G1 Z0.3 F48000
M204 S5000
G1 X88.931 Y88.931
G1 Z0.2
G1 E0.8 F3600
;TYPE:Skirt
;WIDTH:0.6
G1 F1800
G1 X84.336 Y93.526 E0.27692
G1 X82.936 Y95.778 E0.11301
G1 X82.633 Y97.908 E0.09168
G1 X83.122 Y100.003 E0.09168
G1 X84.336 Y101.779 E0.09168
G1 X88.445 Y105.887 E0.2476
G1 X90.697 Y107.287 E0.11301
G1 X92.827 Y107.591 E0.09168
G1 X94.922 Y107.102 E0.09168
G1 X96.698 Y105.887 E0.09168
G1 X124.983 Y77.602 E1.70467
G1 X126.383 Y75.35 E0.11301
G1 X126.686 Y73.22 E0.09168
G1 X126.197 Y71.125 E0.09168
G1 X124.983 Y69.35 E0.09168
G1 X120.874 Y65.241 E0.2476
G1 X118.622 Y63.841 E0.11301
G1 X116.492 Y63.538 E0.09168
G1 X114.397 Y64.027 E0.09168
G1 X112.621 Y65.241 E0.09168
G1 X88.984 Y88.878 E1.42455
G1 X89.378 Y89.272 F48000
G1 F1800
G1 X84.73 Y93.92 E0.28012
G1 X83.569 Y95.673 E0.08961
G1 X83.184 Y97.682 E0.08716
G1 X83.592 Y99.686 E0.08716
G1 X84.73 Y101.385 E0.08716
G1 X88.839 Y105.493 E0.2476
G1 X90.592 Y106.654 E0.08961
G1 X92.601 Y107.039 E0.08716
G1 X94.605 Y106.632 E0.08716
G1 X96.304 Y105.493 E0.08716
G1 X124.589 Y77.209 E1.70467
G1 X125.75 Y75.455 E0.08961
G1 X126.135 Y73.447 E0.08716
G1 X125.727 Y71.442 E0.08716
G1 X124.589 Y69.744 E0.08716
G1 X120.48 Y65.635 E0.2476
G1 X118.727 Y64.474 E0.08961
G1 X116.719 Y64.089 E0.08716
G1 X114.714 Y64.497 E0.08716
G1 X113.015 Y65.635 E0.08716
G1 X89.431 Y89.219 E1.42135
G1 X90.102 Y89.89 F48000
;WIDTH:0.5
G1 F1800
G1 X114.042 Y65.933 E1.18423
G1 X115.689 Y65.128 E0.06408
G1 X116.081 Y65.064 E0.01391
G1 X117.556 Y65.083 E0.05156
G1 X117.945 Y65.175 E0.01399
G1 X119.465 Y65.941 E0.05952
G1 X121.527 Y68.033 E0.10269
G1 X121.777 Y68.481 E0.01793
G1 X122.316 Y68.791 E0.02176
G1 X124.56 Y71.159 E0.11408
G1 X125.097 Y72.427 E0.04812
G1 X125.204 Y73.815 E0.04869
G1 X125.07 Y74.562 E0.02651
G1 X124.397 Y76.035 E0.05665
G1 X95.287 Y105.186 E1.44049
G1 X93.904 Y105.922 E0.05475
G1 X92.272 Y106.11 E0.05745
G1 X91.488 Y105.976 E0.0278
G1 X90 Y105.292 E0.05728
G1 X87.794 Y103.097 E0.10883
G1 X87.541 Y102.646 E0.01807
G1 X86.984 Y102.322 E0.02252
G1 X84.608 Y99.726 E0.12306
G1 X84.183 Y98.523 E0.04461
G1 X84.119 Y97.192 E0.04658
G1 X84.219 Y96.693 E0.0178
G1 X84.963 Y95.033 E0.06363
G1 X90.049 Y89.943 E0.25159
G1 X90.364 Y90.257 F48000
G1 F1800
G1 X114.338 Y66.283 E1.18552
G1 X115.799 Y65.573 E0.05678
G1 X116.096 Y65.521 E0.01057
G1 X117.525 Y65.54 E0.04995
G1 X117.766 Y65.596 E0.00866
G1 X119.167 Y66.289 E0.05463
G1 X121.178 Y68.331 E0.10021
G1 X121.437 Y68.816 E0.01923
G1 X122.01 Y69.132 E0.02287
G1 X124.156 Y71.376 E0.10855
G1 X124.661 Y72.57 E0.04534
G1 X124.746 Y73.818 E0.04376
G1 X124.643 Y74.398 E0.02058
G1 X123.998 Y75.808 E0.05421
G1 X94.988 Y104.839 E1.43504
G1 X93.731 Y105.497 E0.04962
G1 X92.256 Y105.652 E0.05186
G1 X91.652 Y105.548 E0.02142
G1 X90.227 Y104.894 E0.05481
G1 X88.141 Y102.798 E0.10342
G1 X87.881 Y102.312 E0.01928
G1 X87.295 Y101.985 E0.02345
G1 X85.024 Y99.529 E0.11697
G1 X84.626 Y98.403 E0.04178
G1 X84.577 Y97.201 E0.04205
G1 X84.647 Y96.857 E0.01227
G1 X85.363 Y95.258 E0.06129
G1 X90.311 Y90.31 E0.24464
G1 X90.634 Y90.633 F48000
G1 F1800
G1 X114.634 Y66.633 E1.18679
G1 X115.913 Y66.016 E0.04966
G1 X116.113 Y65.978 E0.00711
G1 X117.494 Y65.997 E0.04829
G1 X117.59 Y66.019 E0.00343
G1 X118.868 Y66.638 E0.04967
G1 X120.828 Y68.627 E0.09762
G1 X121.096 Y69.152 E0.02062
G1 X121.706 Y69.476 E0.02415
G1 X123.753 Y71.596 E0.10304
G1 X124.207 Y72.64 E0.03983
G1 X124.288 Y73.822 E0.04141
G1 X124.215 Y74.234 E0.01465
G1 X123.599 Y75.581 E0.05177
G1 X94.69 Y104.49 E1.42955
G1 X93.561 Y105.07 E0.04438
G1 X92.243 Y105.194 E0.04628
G1 X91.816 Y105.12 E0.01517
G1 X90.456 Y104.496 E0.05231
G1 X88.491 Y102.502 E0.09788
G1 X88.223 Y101.976 E0.02065
G1 X87.603 Y101.645 E0.02455
G1 X85.439 Y99.333 E0.11076
G1 X85.068 Y98.284 E0.03889
G1 X85.034 Y97.214 E0.03743
G1 X85.075 Y97.019 E0.00697
G1 X85.717 Y95.551 E0.05603
G1 X90.581 Y90.687 E0.24052
G1 X90.904 Y91.01 F48000
G1 F1800
G1 X114.93 Y66.984 E1.18805
G1 X116.037 Y66.457 E0.04289
G1 X116.134 Y66.436 E0.00345
G1 X117.439 Y66.453 E0.04565
G1 X118.571 Y66.988 E0.04376
G1 X120.476 Y68.921 E0.0949
G1 X120.752 Y69.49 E0.02211
G1 X121.405 Y69.822 E0.02562
G1 X123.35 Y71.816 E0.09741
G1 X123.772 Y72.785 E0.03696
G1 X123.831 Y73.821 E0.03627
G1 X123.786 Y74.074 E0.00898
G1 X123.247 Y75.287 E0.04643
G1 X94.393 Y104.141 E1.42679
G1 X93.395 Y104.642 E0.03903
G1 X92.235 Y104.736 E0.04071
G1 X91.976 Y104.691 E0.00919
G1 X90.751 Y104.145 E0.04688
G1 X88.843 Y102.208 E0.09508
G1 X88.567 Y101.639 E0.02212
G1 X87.908 Y101.303 E0.02586
G1 X85.852 Y99.132 E0.10454
G1 X85.524 Y98.231 E0.03352
G1 X85.489 Y97.27 E0.03363
G1 X85.506 Y97.174 E0.00342
G1 X86.071 Y95.843 E0.05057
G1 X90.851 Y91.063 E0.23636
G1 X91.174 Y91.386 F48000
G1 F1800
G1 X115.224 Y67.336 E1.18926
G1 X116.184 Y66.893 E0.03696
G1 X117.294 Y66.89 E0.03881
G1 X118.275 Y67.338 E0.0377
G1 X120.122 Y69.213 E0.09204
G1 X120.404 Y69.83 E0.0237
G1 X121.107 Y70.17 E0.0273
G1 X122.951 Y72.042 E0.09185
G1 X123.318 Y72.853 E0.03116
G1 X123.373 Y73.82 E0.03386
G1 X123.355 Y73.918 E0.00346
G1 X122.893 Y74.995 E0.041
G1 X94.096 Y103.791 E1.42394
G1 X93.235 Y104.212 E0.03352
G1 X92.232 Y104.278 E0.03515
G1 X92.132 Y104.261 E0.00353
G1 X91.046 Y103.793 E0.04135
G1 X89.197 Y101.915 E0.09213
G1 X88.915 Y101.299 E0.0237
G1 X88.21 Y100.957 E0.02738
G1 X86.263 Y98.927 E0.09835
G1 X85.979 Y98.177 E0.02803
G1 X85.947 Y97.302 E0.03062
G1 X86.427 Y96.134 E0.04416
G1 X91.121 Y91.439 E0.23215
G1 X91.445 Y91.762 F48000
G1 F1800
G1 X115.518 Y67.689 E1.19041
G1 X116.326 Y67.33 E0.03093
G1 X117.154 Y67.327 E0.02895
G1 X117.98 Y67.69 E0.03152
G1 X119.767 Y69.504 E0.08903
G1 X120.054 Y70.171 E0.02541
G1 X120.81 Y70.52 E0.02914
G1 X122.595 Y72.332 E0.08892
G1 X122.882 Y72.996 E0.02528
G1 X122.914 Y73.789 E0.02776
G1 X122.537 Y74.704 E0.03458
G1 X93.801 Y103.44 E1.42098
G1 X93.081 Y103.779 E0.02784
G1 X92.26 Y103.819 E0.02873
G1 X91.339 Y103.439 E0.03482
G1 X89.552 Y101.625 E0.08903
G1 X89.265 Y100.958 E0.02541
G1 X88.509 Y100.608 E0.02914
G1 X86.674 Y98.721 E0.09203
G1 X86.421 Y98.052 E0.02503
G1 X86.405 Y97.339 E0.02491
G1 X86.782 Y96.425 E0.03458
G1 X91.391 Y91.815 E0.22795
G1 X91.715 Y92.138 F48000
G1 F1800
G1 X115.812 Y68.042 E1.19157
G1 X116.384 Y67.785 E0.02193
G1 X117.023 Y67.768 E0.02237
G1 X117.686 Y68.043 E0.02509
G1 X119.409 Y69.792 E0.08585
G1 X119.614 Y70.3 E0.01914
G1 X119.628 Y70.596 E0.01037
G1 X119.94 Y70.614 E0.01095
G1 X120.515 Y70.872 E0.02201
G1 X122.238 Y72.621 E0.08585
G1 X122.442 Y73.128 E0.01914
G1 X122.456 Y73.752 E0.0218
G1 X122.182 Y74.412 E0.02501
G1 X93.508 Y103.087 E1.41794
G1 X92.935 Y103.343 E0.02193
G1 X92.296 Y103.361 E0.02237
G1 X91.633 Y103.086 E0.02509
G1 X89.91 Y101.337 E0.08585
G1 X89.705 Y100.829 E0.01914
G1 X89.692 Y100.532 E0.01037
G1 X89.379 Y100.515 E0.01095
G1 X88.804 Y100.257 E0.02201
G1 X87.081 Y98.508 E0.08585
G1 X86.877 Y98 E0.01914
G1 X86.863 Y97.377 E0.0218
G1 X87.137 Y96.716 E0.02501
G1 X91.662 Y92.191 E0.22375
G1 X91.985 Y92.515 F48000
G1 F1800
G1 X116.103 Y68.397 E1.19262
G1 X116.517 Y68.225 E0.01568
G1 X116.978 Y68.225 E0.01613
G1 X117.393 Y68.397 E0.01568
G1 X119.049 Y70.078 E0.08251
G1 X119.17 Y70.417 E0.01261
G1 X119.17 Y70.878 E0.01613
G1 X119.047 Y71.177 E0.01132
G1 X119.346 Y71.053 E0.01132
G1 X119.807 Y71.053 E0.01613
G1 X120.221 Y71.225 E0.01568
G1 X121.877 Y72.906 E0.08251
G1 X121.999 Y73.245 E0.01261
G1 X121.999 Y73.707 E0.01613
G1 X121.827 Y74.121 E0.01568
G1 X93.216 Y102.732 E1.41479
G1 X92.802 Y102.904 E0.01568
G1 X92.341 Y102.904 E0.01613
G1 X91.926 Y102.732 E0.01568
G1 X90.27 Y101.051 E0.08251
G1 X90.149 Y100.712 E0.01261
G1 X90.149 Y100.251 E0.01613
G1 X90.272 Y99.951 E0.01132
G1 X89.973 Y100.075 E0.01132
G1 X89.512 Y100.075 E0.01613
G1 X89.098 Y99.904 E0.01568
G1 X87.442 Y98.223 E0.08251
G1 X87.32 Y97.883 E0.01261
G1 X87.32 Y97.422 E0.01613
G1 X87.492 Y97.008 E0.01568
G1 X91.932 Y92.568 E0.21955
G1 X92.255 Y92.891 F48000
G1 F1800
G1 X116.394 Y68.752 E1.19367
G1 X116.562 Y68.682 E0.00636
G1 X116.933 Y68.682 E0.01298
G1 X117.101 Y68.752 E0.00636
G1 X118.644 Y70.294 E0.07627
G1 X118.713 Y70.462 E0.00636
G1 X118.713 Y70.833 E0.01298
G1 X118.644 Y71.001 E0.00636
G1 X90.096 Y99.549 E1.41165
G1 X89.928 Y99.618 E0.00636
G1 X89.557 Y99.618 E0.01298
G1 X89.389 Y99.549 E0.00636
G1 X87.847 Y98.006 E0.07627
G1 X87.777 Y97.838 E0.00636
G1 X87.777 Y97.467 E0.01298
G1 X87.847 Y97.299 E0.00636
G1 X92.202 Y92.944 E0.21536
G1 X92.525 Y93.267 F48000
G1 F1800
G1 X116.653 Y69.139 E1.19311
G1 X116.843 Y69.139 E0.00662
G1 X117.123 Y69.42 E0.01387
G1 X118.256 Y70.553 E0.05604
G1 X118.256 Y70.742 E0.00662
G1 X89.837 Y99.161 E1.40529
G1 X89.648 Y99.161 E0.00662
G1 X88.234 Y97.747 E0.06991
G1 X88.234 Y97.558 E0.00662
G1 X92.472 Y93.32 E0.20956
G1 E-0.08 F3600
;WIPE_START
G1 F38400
M204 S10000
G1 X88.234 Y97.558 E-0.53377
G1 X88.234 Y97.747 E-0.01686
G1 X89.293 Y98.806 E-0.13337
;WIPE_END
G1 E-0.036 F3600
G1 Z0.3 F48000
; acceleration to travel
G1 X94.109 Y96.281
; decel to extrusion
M204 S5000
G1 X94.977 Y95.825
; end travel
G1 Z0.2
G1 E0.8 F3600
G1 F1800
G1 X119.223 Y71.58 E1.19891
G1 X119.391 Y71.51 E0.00636
G1 X119.762 Y71.51 E0.01298
G1 X119.93 Y71.58 E0.00636
G1 X121.472 Y73.122 E0.07627
G1 X121.542 Y73.29 E0.00636
G1 X121.542 Y73.662 E0.01298
G1 X121.472 Y73.83 E0.00636
G1 X92.925 Y102.377 E1.41165
G1 X92.757 Y102.447 E0.00636
G1 X92.386 Y102.447 E0.01298
G1 X92.218 Y102.377 E0.00636
G1 X90.675 Y100.835 E0.07627
G1 X90.606 Y100.667 E0.00636
G1 X90.606 Y100.296 E0.01298
G1 X90.675 Y100.128 E0.00636
G1 X94.924 Y95.878 E0.21011
G1 X95.248 Y96.202 F48000
G1 F1800
G1 X119.482 Y71.968 E1.19835
G1 X119.671 Y71.968 E0.00662
G1 X119.951 Y72.248 E0.01387
G1 X121.085 Y73.381 E0.05604
G1 X121.085 Y73.571 E0.00662
G1 X92.666 Y101.99 E1.40529
G1 X92.477 Y101.99 E0.00662
G1 X91.063 Y100.576 E0.06991
G1 X91.063 Y100.386 E0.00662
G1 X95.195 Y96.255 E0.20431
G1 E-0.08 F3600
;WIPE_START
G1 F38400
M204 S10000
G1 X91.063 Y100.386 E-0.52041
G1 X91.063 Y100.576 E-0.01686
G1 X92.228 Y101.741 E-0.14673
;WIPE_END
G1 E-0.036 F3600
G1 Z0.3 F48000
; printing object Left Mount Plate.stl id:0 copy 0
EXCLUDE_OBJECT_START NAME=Left_Mount_Plate_stl_id_0_copy_0
; acceleration to travel
G1 X113.788 Y75.396
; decel to extrusion
M204 S5000
G1 X117.674 Y70.648
; end travel
G1 Z0.2
G1 E0.8 F3600
;TYPE:External perimeter
G1 F1800
G1 X89.743 Y98.579 E1.38118
G1 X88.816 Y97.653 E0.04581
G1 X116.748 Y69.721 E1.38118
G1 X117.621 Y70.595 E0.04318
;WIPE_START
M204 S10000
G1 X117.191 Y70.777 F48000
;WIPE_END
M204 S5000
G1 X117.062 Y70.333
;TYPE:Gap fill
;WIDTH:0.93189
G1 F1800
G1 X89.428 Y97.967 E2.65762
G1 E-0.08 F3600
;WIPE_START
G1 F38400
M204 S10000
G1 X94.859 Y92.536 E-0.684
;WIPE_END
G1 E-0.036 F3600
G1 Z0.3 F48000
; stop printing object Left Mount Plate.stl id:0 copy 0
EXCLUDE_OBJECT_END NAME=Left_Mount_Plate_stl_id_0_copy_0
; printing object Right Mount Plate.stl id:1 copy 0
EXCLUDE_OBJECT_START NAME=Right_Mount_Plate_stl_id_1_copy_0
; acceleration to travel
G1 X116.586 Y76.387
; decel to extrusion
M204 S5000
G1 X120.503 Y73.476
; end travel
G1 Z0.2
G1 E0.8 F3600
;TYPE:External perimeter
;WIDTH:0.5
G1 F1800
G1 X92.571 Y101.407 E1.38118
G1 X91.645 Y100.481 E0.04581
G1 X119.576 Y72.55 E1.38118
G1 X120.45 Y73.423 E0.04318
;WIPE_START
M204 S10000
G1 X120.02 Y73.605 F48000
;WIPE_END
M204 S5000
G1 X119.891 Y73.162
;TYPE:Gap fill
;WIDTH:0.93189
G1 F1800
G1 X92.257 Y100.795 E2.65762
M106 S165.75
;LAYER_CHANGE
;Z:0.44
;HEIGHT:0.24
;BEFORE_LAYER_CHANGE
TIMELAPSE_TAKE_FRAME
;0.44


; stop printing object Right Mount Plate.stl id:1 copy 0
EXCLUDE_OBJECT_END NAME=Right_Mount_Plate_stl_id_1_copy_0
M204 S10000
G1 Z0.44 F48000
;AFTER_LAYER_CHANGE
;0.44
G92 E0
G1 E-0.8 F3600
G1 Z0.54 F48000
; printing object Left Mount Plate.stl id:0 copy 0
EXCLUDE_OBJECT_START NAME=Left_Mount_Plate_stl_id_0_copy_0
G1 X117.111 Y70.648
G1 Z0.44
G1 E0.8 F3600
;TYPE:Internal perimeter
;WIDTH:0.5
G1 F4500
G1 X89.743 Y98.015 E1.59348
G1 X89.38 Y97.653 E0.02112
G1 X116.748 Y70.285 E1.59348
G1 X117.058 Y70.595 E0.01804
G1 X117.745 Y70.648 F48000
;TYPE:External perimeter
G1 F4500
G1 X89.743 Y98.65 E1.63041
G1 X88.746 Y97.653 E0.05805
G1 X116.748 Y69.651 E1.63041
G1 X117.692 Y70.595 E0.05497
;WIPE_START
G1 X117.262 Y70.777 F48000
;WIPE_END
M204 S9000
G1 X116.783 Y70.612
;TYPE:Gap fill
;WIDTH:0.102154
G1 F4500
G1 X89.707 Y97.688 E0.17804
G1 E-0.08 F3600
;WIPE_START
G1 F38400
M204 S10000
G1 X95.138 Y92.258 E-0.684
;WIPE_END
G1 E-0.036 F3600
G1 Z0.54 F48000
; stop printing object Left Mount Plate.stl id:0 copy 0
EXCLUDE_OBJECT_END NAME=Left_Mount_Plate_stl_id_0_copy_0
; printing object Right Mount Plate.stl id:1 copy 0
EXCLUDE_OBJECT_START NAME=Right_Mount_Plate_stl_id_1_copy_0
G1 X119.939 Y73.476
G1 Z0.44
G1 E0.8 F3600
;TYPE:Internal perimeter
;WIDTH:0.5
G1 F4500
G1 X92.571 Y100.844 E1.59348
G1 X92.208 Y100.481 E0.02112
G1 X119.576 Y73.113 E1.59348
G1 X119.886 Y73.423 E0.01804
G1 X120.573 Y73.476 F48000
;TYPE:External perimeter
G1 F4500
G1 X92.571 Y101.478 E1.63041
G1 X91.574 Y100.481 E0.05805
G1 X119.576 Y72.479 E1.63041
G1 X120.52 Y73.423 E0.05497
;WIPE_START
G1 X120.09 Y73.605 F48000
;WIPE_END
M204 S9000
G1 X119.612 Y73.44
;TYPE:Gap fill
;WIDTH:0.102154
G1 F4500
G1 X92.536 Y100.517 E0.17804
M106 S244.8
;LAYER_CHANGE
;Z:0.68
;HEIGHT:0.24
;BEFORE_LAYER_CHANGE
TIMELAPSE_TAKE_FRAME
;0.68


; stop printing object Right Mount Plate.stl id:1 copy 0
EXCLUDE_OBJECT_END NAME=Right_Mount_Plate_stl_id_1_copy_0
M204 S10000
G1 Z0.68 F48000
;AFTER_LAYER_CHANGE
;0.68
G92 E0
G1 E-0.8 F3600
G1 Z0.78 F48000
; printing object Left Mount Plate.stl id:0 copy 0
