; generated by SuperSlicer 2.5.59 on 2023-06-15 at 05:01:08 UTC


;
;

;
;
; 

; external perimeters extrusion width = 0.50mm
; perimeters extrusion width = 0.50mm
; infill extrusion width = 0.75mm
; solid infill extrusion width = 0.65mm
; top infill extrusion width = 0.60mm
; support material extrusion width = 0.50mm
; first layer extrusion width = 0.60mm

; object:{"name":"Lid","id":"Lid.STL id:0 copy 0","object_center":[153.592096,153.592102,0.000000],"boundingbox_center":[153.592096,153.592102,11.491000],"boundingbox_size":[235.218646,235.218635,22.982000]}
EXCLUDE_OBJECT_DEFINE NAME=Lid_STL_id_0_copy_0 CENTER=153.592096,153.592102 POLYGON=[[35.982788,167.078976],[94.042616,109.019144],[194.019744,35.982788],[254.163216,96.126248],[271.201408,113.164472],[220.029520,167.928496],[218.233472,169.724544],[113.164472,271.201408],[96.126248,254.163216],[66.210572,224.247536],[35.982788,194.019744],[35.982788,167.078976]]
; plater:{"center":[153.592096,153.592102,0.000000],"boundingbox_center":[153.592096,153.592102,11.491000],"boundingbox_size":[235.218646,235.218635,22.982000]}

;TYPE:Custom
PRINT_START EXTRUDER=260 BED=110 AREA_START=26.2594,29.8196 AREA_END=277.382,277.389
M107
G21 ; set units to millimeters
G90 ; use absolute coordinates
M83 ; use relative distances for extrusion
;_TOOLCHANGE 0
M104 S260 ; set temperature
M109 S260 ; set temperature and wait for it to be reached
M190 S110 ; set bed temperature and wait for it to be reached
M107
;LAYER_CHANGE
;Z:0.3
;HEIGHT:0.3
;BEFORE_LAYER_CHANGE
TIMELAPSE_TAKE_FRAME
;0.3


G1 Z0.3 F48000
;AFTER_LAYER_CHANGE
;0.3
G92 E0
G1 E-2.7 F3600
M204 S5000
G1 Z0.4 F48000
G1 X89.939 Y101.476
G1 Z0.3
G1 E2.7 F3600
;TYPE:Skirt
;WIDTH:0.6
G1 F1800
G1 X28.44 Y162.975 E4.59013
G1 X26.906 Y165.701 E0.16508
G1 X26.79 Y167.844 E0.11323
G1 X30.371 Y194.784 E1.43434
G1 X30.81 Y196.352 E0.08591
G1 X32.021 Y198.123 E0.11323
G1 X109.061 Y275.164 E5.75005
G1 X111.188 Y276.517 E0.13307
G1 X113.306 Y276.862 E0.11323
G1 X115.404 Y276.414 E0.11323
G1 X117.196 Y275.234 E0.11323
G1 X222.265 Y173.757 E7.70914
G1 X224.128 Y171.891 E0.1392
G1 X275.3 Y117.127 E3.95564
G1 X276.55 Y115.045 E0.12813
G1 X276.858 Y112.922 E0.11323
G1 X276.374 Y110.832 E0.11323
G1 X275.164 Y109.061 E0.11323
G1 X198.123 Y32.021 E5.75005
G1 X196.844 Y31.054 E0.08461
G1 X194.809 Y30.375 E0.11323
G1 X192.666 Y30.481 E0.11323
G1 X190.709 Y31.358 E0.11323
G1 X90.732 Y100.813 E6.42473
G1 X89.997 Y101.428 E0.05056
G1 X90.339 Y101.837 F48000
G1 F1800
G1 X90.318 Y101.855 E0.00144
G1 X28.818 Y163.354 E4.59013
G1 X27.45 Y165.734 E0.14489
G1 X27.321 Y167.773 E0.10783
G1 X30.902 Y194.714 E1.43434
G1 X31.262 Y196.047 E0.07289
G1 X32.399 Y197.745 E0.10783
G1 X109.44 Y274.785 E5.75005
G1 X111.099 Y275.906 E0.10568
G1 X113.098 Y276.327 E0.10783
G1 X115.107 Y275.957 E0.10783
G1 X116.824 Y274.849 E0.10783
G1 X221.893 Y173.372 E7.70914
G1 X223.737 Y171.525 E0.13775
G1 X274.909 Y116.761 E3.95564
G1 X275.941 Y115.146 E0.10117
G1 X276.328 Y113.139 E0.10783
G1 X275.922 Y111.137 E0.10783
G1 X274.785 Y109.44 E0.10783
G1 X197.745 Y32.399 E5.75005
G1 X196.835 Y31.672 E0.06149
G1 X194.929 Y30.935 E0.10783
G1 X192.886 Y30.98 E0.10783
G1 X191.014 Y31.798 E0.10783
G1 X91.037 Y101.253 E6.42473
G1 X90.396 Y101.789 E0.04408
G1 E-2.7 F3600
G1 Z0.4 F48000
; printing object Lid.STL id:0 copy 0
EXCLUDE_OBJECT_START NAME=Lid_STL_id_0_copy_0
G1 X94.043 Y105.58
G1 Z0.3
G1 E2.7 F3600
;TYPE:Support material
G1 F1800
G1 X108.619 Y120.156 E1.08795
G1 X103.724 Y125.052 E0.36538
G1 X95.103 Y116.431 E0.6434
G1 X43.395 Y168.14 E3.85937
G1 X52.015 Y176.76 E0.6434
G1 X47.12 Y181.656 E0.36538
G1 X32.543 Y167.079 E1.08795
G1 X93.99 Y105.633 E4.58617
G1 X107.767 Y120.819 F48000
G1 F1800
G1 X107.767 Y119.819 E0.05277
G1 X107.172 Y119.224 E0.04442
G1 X107.172 Y121.088 E0.0984
G1 X106.577 Y121.684 E0.04442
G1 X106.577 Y118.629 E0.16122
G1 X105.982 Y118.034 E0.04442
G1 X105.982 Y122.279 E0.22404
G1 X105.386 Y122.874 E0.04442
G1 X105.386 Y117.438 E0.28686
G1 X104.791 Y116.843 E0.04442
G1 X104.791 Y123.469 E0.34967
G1 X104.196 Y124.064 E0.04442
G1 X104.196 Y116.248 E0.41249
G1 X103.601 Y115.653 E0.04442
G1 X103.601 Y124.414 E0.46236
G1 X103.006 Y123.819 E0.04442
G1 X103.006 Y115.058 E0.46236
G1 X102.411 Y114.463 E0.04442
G1 X102.411 Y123.223 E0.46236
G1 X101.816 Y122.628 E0.04442
G1 X101.816 Y113.868 E0.46236
G1 X101.22 Y113.273 E0.04442
G1 X101.22 Y122.033 E0.46236
G1 X100.625 Y121.438 E0.04442
G1 X100.625 Y112.677 E0.46236
G1 X100.03 Y112.082 E0.04442
G1 X100.03 Y120.843 E0.46236
G1 X99.435 Y120.248 E0.04442
G1 X99.435 Y111.487 E0.46236
G1 X98.84 Y110.892 E0.04442
G1 X98.84 Y119.653 E0.46236
G1 X98.245 Y119.058 E0.04442
G1 X98.245 Y110.297 E0.46236
G1 X97.65 Y109.702 E0.04442
G1 X97.65 Y118.462 E0.46236
G1 X97.055 Y117.867 E0.04442
G1 X97.055 Y109.107 E0.46236
G1 X96.459 Y108.511 E0.04442
G1 X96.459 Y117.272 E0.46236
G1 X95.864 Y116.677 E0.04442
G1 X95.864 Y107.916 E0.46236
G1 X95.269 Y107.321 E0.04442
G1 X95.269 Y116.082 E0.46236
G1 X95.103 Y115.916 E0.01238
G1 X94.674 Y116.345 E0.03204
G1 X94.674 Y106.726 E0.50767
G1 X94.079 Y106.131 E0.04442
G1 X94.079 Y116.94 E0.57048
G1 X93.484 Y117.536 E0.04442
G1 X93.484 Y106.654 E0.57431
G1 X92.889 Y107.249 E0.04442
G1 X92.889 Y118.131 E0.57431
G1 X92.294 Y118.726 E0.04442
G1 X92.294 Y107.844 E0.57431
G1 X91.698 Y108.439 E0.04442
G1 X91.698 Y119.321 E0.57431
G1 X91.103 Y119.916 E0.04442
G1 X91.103 Y109.034 E0.57431
G1 X90.508 Y109.629 E0.04442
G1 X90.508 Y120.511 E0.57431
G1 X89.913 Y121.106 E0.04442
G1 X89.913 Y110.224 E0.57431
G1 X89.318 Y110.819 E0.04442
G1 X89.318 Y121.701 E0.57431
G1 X88.723 Y122.297 E0.04442
G1 X88.723 Y111.415 E0.57431
G1 X88.128 Y112.01 E0.04442
G1 X88.128 Y122.892 E0.57431
G1 X87.532 Y123.487 E0.04442
G1 X87.532 Y112.605 E0.57431
G1 X86.937 Y113.2 E0.04442
G1 X86.937 Y124.082 E0.57431
G1 X86.342 Y124.677 E0.04442
G1 X86.342 Y113.795 E0.57431
G1 X85.747 Y114.39 E0.04442
G1 X85.747 Y125.272 E0.57431
G1 X85.152 Y125.867 E0.04442
G1 X85.152 Y114.985 E0.57431
G1 X84.557 Y115.58 E0.04442
G1 X84.557 Y126.463 E0.57431
G1 X83.962 Y127.058 E0.04442
G1 X83.962 Y116.176 E0.57431
G1 X83.367 Y116.771 E0.04442
G1 X83.367 Y127.653 E0.57431
G1 X82.771 Y128.248 E0.04442
G1 X82.771 Y117.366 E0.57431
G1 X82.176 Y117.961 E0.04442
G1 X82.176 Y128.843 E0.57431
G1 X81.581 Y129.438 E0.04442
G1 X81.581 Y118.556 E0.57431
G1 X80.986 Y119.151 E0.04442
G1 X80.986 Y130.033 E0.57431
G1 X80.391 Y130.628 E0.04442
G1 X80.391 Y119.746 E0.57431
G1 X79.796 Y120.342 E0.04442
G1 X79.796 Y131.224 E0.57431
G1 X79.201 Y131.819 E0.04442
G1 X79.201 Y120.937 E0.57431
G1 X78.605 Y121.532 E0.04442
G1 X78.605 Y132.414 E0.57431
G1 X78.01 Y133.009 E0.04442
G1 X78.01 Y122.127 E0.57431
G1 X77.415 Y122.722 E0.04442
G1 X77.415 Y133.604 E0.57431
G1 X76.82 Y134.199 E0.04442
G1 X76.82 Y123.317 E0.57431
G1 X76.225 Y123.912 E0.04442
G1 X76.225 Y134.794 E0.57431
G1 X75.63 Y135.39 E0.04442
G1 X75.63 Y124.507 E0.57431
G1 X75.035 Y125.103 E0.04442
G1 X75.035 Y135.985 E0.57431
G1 X74.44 Y136.58 E0.04442
G1 X74.44 Y125.698 E0.57431
G1 X73.844 Y126.293 E0.04442
G1 X73.844 Y137.175 E0.57431
G1 X73.249 Y137.77 E0.04442
G1 X73.249 Y126.888 E0.57431
G1 X72.654 Y127.483 E0.04442
G1 X72.654 Y138.365 E0.57431
G1 X72.059 Y138.96 E0.04442
G1 X72.059 Y128.078 E0.57431
G1 X71.464 Y128.673 E0.04442
G1 X71.464 Y139.555 E0.57431
G1 X70.869 Y140.151 E0.04442
G1 X70.869 Y129.269 E0.57431
G1 X70.274 Y129.864 E0.04442
G1 X70.274 Y140.746 E0.57431
G1 X69.678 Y141.341 E0.04442
G1 X69.678 Y130.459 E0.57431
G1 X69.083 Y131.054 E0.04442
G1 X69.083 Y141.936 E0.57431
G1 X68.488 Y142.531 E0.04442
G1 X68.488 Y131.649 E0.57431
G1 X67.893 Y132.244 E0.04442
G1 X67.893 Y143.126 E0.57431
G1 X67.298 Y143.721 E0.04442
G1 X67.298 Y132.839 E0.57431
G1 X66.703 Y133.434 E0.04442
G1 X66.703 Y144.316 E0.57431
G1 X66.108 Y144.912 E0.04442
G1 X66.108 Y134.03 E0.57431
G1 X65.513 Y134.625 E0.04442
G1 X65.513 Y145.507 E0.57431
G1 X64.917 Y146.102 E0.04442
G1 X64.917 Y135.22 E0.57431
G1 X64.322 Y135.815 E0.04442
G1 X64.322 Y146.697 E0.57431
G1 X63.727 Y147.292 E0.04442
G1 X63.727 Y136.41 E0.57431
G1 X63.132 Y137.005 E0.04442
G1 X63.132 Y147.887 E0.57431
G1 X62.537 Y148.482 E0.04442
G1 X62.537 Y137.6 E0.57431
G1 X61.942 Y138.196 E0.04442
G1 X61.942 Y149.078 E0.57431
G1 X61.347 Y149.673 E0.04442
G1 X61.347 Y138.791 E0.57431
G1 X60.752 Y139.386 E0.04442
G1 X60.752 Y150.268 E0.57431
G1 X60.156 Y150.863 E0.04442
G1 X60.156 Y139.981 E0.57431
G1 X59.561 Y140.576 E0.04442
G1 X59.561 Y151.458 E0.57431
G1 X58.966 Y152.053 E0.04442
G1 X58.966 Y141.171 E0.57431
G1 X58.371 Y141.766 E0.04442
G1 X58.371 Y152.648 E0.57431
G1 X57.776 Y153.243 E0.04442
G1 X57.776 Y142.361 E0.57431
G1 X57.181 Y142.957 E0.04442
G1 X57.181 Y153.839 E0.57431
G1 X56.586 Y154.434 E0.04442
G1 X56.586 Y143.552 E0.57431
G1 X55.99 Y144.147 E0.04442
G1 X55.99 Y155.029 E0.57431
G1 X55.395 Y155.624 E0.04442
G1 X55.395 Y144.742 E0.57431
G1 X54.8 Y145.337 E0.04442
G1 X54.8 Y156.219 E0.57431
G1 X54.205 Y156.814 E0.04442
G1 X54.205 Y145.932 E0.57431
G1 X53.61 Y146.527 E0.04442
G1 X53.61 Y157.409 E0.57431
G1 X53.015 Y158.005 E0.04442
G1 X53.015 Y147.122 E0.57431
G1 X52.42 Y147.718 E0.04442
G1 X52.42 Y158.6 E0.57431
G1 X51.825 Y159.195 E0.04442
G1 X51.825 Y148.313 E0.57431
G1 X51.229 Y148.908 E0.04442
G1 X51.229 Y159.79 E0.57431
G1 X50.634 Y160.385 E0.04442
G1 X50.634 Y149.503 E0.57431
G1 X50.039 Y150.098 E0.04442
G1 X50.039 Y160.98 E0.57431
G1 X49.444 Y161.575 E0.04442
G1 X49.444 Y150.693 E0.57431
G1 X48.849 Y151.288 E0.04442
G1 X48.849 Y162.17 E0.57431
G1 X48.254 Y162.766 E0.04442
G1 X48.254 Y151.884 E0.57431
G1 X47.659 Y152.479 E0.04442
G1 X47.659 Y163.361 E0.57431
G1 X47.063 Y163.956 E0.04442
G1 X47.063 Y153.074 E0.57431
G1 X46.468 Y153.669 E0.04442
G1 X46.468 Y164.551 E0.57431
G1 X45.873 Y165.146 E0.04442
G1 X45.873 Y154.264 E0.57431
G1 X45.278 Y154.859 E0.04442
G1 X45.278 Y165.741 E0.57431
G1 X44.683 Y166.336 E0.04442
G1 X44.683 Y155.454 E0.57431
G1 X44.088 Y156.049 E0.04442
G1 X44.088 Y166.931 E0.57431
G1 X43.493 Y167.527 E0.04442
G1 X43.493 Y156.645 E0.57431
G1 X42.898 Y157.24 E0.04442
G1 X42.898 Y176.918 E1.03856
G1 X43.493 Y177.513 E0.04442
G1 X43.493 Y168.753 E0.46235
G1 X44.088 Y169.348 E0.04442
G1 X44.088 Y178.108 E0.46235
G1 X44.683 Y178.704 E0.04442
G1 X44.683 Y169.943 E0.46235
G1 X45.278 Y170.538 E0.04442
G1 X45.278 Y179.299 E0.46235
G1 X45.873 Y179.894 E0.04442
G1 X45.873 Y171.133 E0.46235
G1 X46.468 Y171.728 E0.04442
G1 X46.468 Y180.489 E0.46235
G1 X47.063 Y181.084 E0.04442
G1 X47.063 Y172.324 E0.46235
G1 X47.659 Y172.919 E0.04442
G1 X47.659 Y180.602 E0.40547
G1 X48.254 Y180.006 E0.04442
G1 X48.254 Y173.514 E0.34265
G1 X48.849 Y174.109 E0.04442
G1 X48.849 Y179.411 E0.27984
G1 X49.444 Y178.816 E0.04442
G1 X49.444 Y174.704 E0.21702
G1 X50.039 Y175.299 E0.04442
G1 X50.039 Y178.221 E0.1542
G1 X50.634 Y177.626 E0.04442
G1 X50.634 Y175.894 E0.09138
G1 X51.229 Y176.49 E0.04442
G1 X51.229 Y177.357 E0.04576
G1 X42.302 Y176.649 F48000
G1 F1800
G1 X42.302 Y157.835 E0.99293
G1 X41.707 Y158.43 E0.04442
G1 X41.707 Y175.728 E0.91292
G1 X41.112 Y175.133 E0.04442
G1 X41.112 Y159.025 E0.8501
G1 X40.517 Y159.62 E0.04442
G1 X40.517 Y174.538 E0.78729
G1 X39.922 Y173.943 E0.04442
G1 X39.922 Y160.215 E0.72447
G1 X39.327 Y160.811 E0.04442
G1 X39.327 Y173.347 E0.66165
G1 X38.732 Y172.752 E0.04442
G1 X38.732 Y161.406 E0.59883
G1 X38.136 Y162.001 E0.04442
G1 X38.136 Y172.157 E0.53602
G1 X37.541 Y171.562 E0.04442
G1 X37.541 Y162.596 E0.4732
G1 X36.946 Y163.191 E0.04442
G1 X36.946 Y170.967 E0.41038
G1 X36.351 Y170.372 E0.04442
G1 X36.351 Y163.786 E0.34756
G1 X35.756 Y164.381 E0.04442
G1 X35.756 Y169.777 E0.28475
G1 X35.161 Y169.182 E0.04442
G1 X35.161 Y164.976 E0.22193
G1 X34.566 Y165.572 E0.04442
G1 X34.566 Y168.586 E0.15911
G1 X33.971 Y167.991 E0.04442
G1 X33.971 Y166.167 E0.09629
G1 X33.375 Y166.762 E0.04442
G1 X33.375 Y167.722 E0.05066
G1 E-2.7 F3600
G1 Z0.4 F48000
G1 X79.972 Y224.74
G1 Z0.3
G1 E2.7 F3600
;TYPE:Internal perimeter
G1 F1800
G1 X79.948 Y224.626 E0.00616
G1 X79.728 Y224.062 E0.03194
G1 X79.418 Y223.542 E0.03194
G1 X79.08 Y223.144 E0.02755
G1 X78.695 Y222.758 E0.02875
G1 X75.371 Y219.434 E0.24811
G1 X74.973 Y219.097 E0.02755
G1 X74.453 Y218.787 E0.03194
G1 X73.889 Y218.567 E0.03194
G1 X73.296 Y218.443 E0.03194
G1 X72.692 Y218.418 E0.03195
G1 X72.091 Y218.493 E0.03194
G1 X71.511 Y218.665 E0.03194
G1 X70.967 Y218.931 E0.03194
G1 X70.475 Y219.283 E0.03194
G1 X70.047 Y219.711 E0.03194
G1 X69.695 Y220.203 E0.03194
G1 X69.429 Y220.747 E0.03194
G1 X69.256 Y221.327 E0.03194
G1 X69.182 Y221.928 E0.03194
G1 X69.207 Y222.533 E0.03195
G1 X69.331 Y223.125 E0.03194
G1 X69.551 Y223.689 E0.03194
G1 X69.861 Y224.209 E0.03194
G1 X70.198 Y224.607 E0.02755
G1 X73.907 Y228.317 E0.27686
G1 X74.306 Y228.654 E0.02755
G1 X74.826 Y228.964 E0.03194
G1 X75.39 Y229.184 E0.03194
G1 X75.982 Y229.308 E0.03194
G1 X76.587 Y229.333 E0.03195
G1 X77.187 Y229.258 E0.03194
G1 X77.767 Y229.086 E0.03195
G1 X78.311 Y228.82 E0.03194
G1 X78.804 Y228.468 E0.03194
G1 X79.232 Y228.04 E0.03194
G1 X79.583 Y227.547 E0.03194
G1 X79.849 Y227.004 E0.03195
G1 X80.022 Y226.424 E0.03194
G1 X80.097 Y225.823 E0.03194
G1 X80.072 Y225.218 E0.03195
G1 X79.987 Y224.813 E0.02183
G1 X79.404 Y224.707 F48000
G1 F1800
G1 X79.245 Y224.298 E0.02317
G1 X78.98 Y223.854 E0.02726
G1 X78.686 Y223.507 E0.02404
G1 X78.316 Y223.137 E0.02758
G1 X75.008 Y219.829 E0.24694
G1 X74.66 Y219.534 E0.02404
G1 X74.217 Y219.27 E0.02726
G1 X73.735 Y219.082 E0.02726
G1 X73.23 Y218.976 E0.02726
G1 X72.714 Y218.955 E0.02726
G1 X72.201 Y219.019 E0.02726
G1 X71.706 Y219.166 E0.02726
G1 X71.242 Y219.393 E0.02726
G1 X70.822 Y219.693 E0.02726
G1 X70.457 Y220.058 E0.02726
G1 X70.157 Y220.479 E0.02726
G1 X69.93 Y220.943 E0.02726
G1 X69.782 Y221.438 E0.02726
G1 X69.719 Y221.95 E0.02726
G1 X69.74 Y222.466 E0.02726
G1 X69.846 Y222.972 E0.02726
G1 X70.034 Y223.453 E0.02726
G1 X70.298 Y223.897 E0.02726
G1 X70.592 Y224.244 E0.02404
G1 X74.27 Y227.922 E0.27452
G1 X74.618 Y228.217 E0.02404
G1 X75.062 Y228.481 E0.02726
G1 X75.543 Y228.669 E0.02726
G1 X76.048 Y228.775 E0.02726
G1 X76.564 Y228.796 E0.02726
G1 X77.077 Y228.732 E0.02726
G1 X77.572 Y228.585 E0.02726
G1 X78.036 Y228.358 E0.02726
G1 X78.456 Y228.058 E0.02726
G1 X78.822 Y227.693 E0.02726
G1 X79.122 Y227.272 E0.02726
G1 X79.349 Y226.808 E0.02726
G1 X79.496 Y226.313 E0.02726
G1 X79.56 Y225.801 E0.02726
G1 X79.538 Y225.285 E0.02726
G1 X79.432 Y224.777 E0.02739
G1 X78.925 Y224.97 F48000
G1 F1800
G1 X78.917 Y224.933 E0.00202
G1 X78.762 Y224.534 E0.02257
G1 X78.543 Y224.167 E0.02257
G1 X78.292 Y223.87 E0.02053
G1 X77.938 Y223.516 E0.02641
G1 X74.645 Y220.223 E0.24577
G1 X74.348 Y219.972 E0.02053
G1 X73.981 Y219.753 E0.02257
G1 X73.582 Y219.597 E0.02257
G1 X73.163 Y219.509 E0.02257
G1 X72.736 Y219.492 E0.02257
G1 X72.312 Y219.545 E0.02257
G1 X71.902 Y219.667 E0.02257
G1 X71.517 Y219.855 E0.02257
G1 X71.169 Y220.103 E0.02257
G1 X70.867 Y220.406 E0.02257
G1 X70.618 Y220.754 E0.02257
G1 X70.43 Y221.138 E0.02257
G1 X70.308 Y221.548 E0.02257
G1 X70.256 Y221.972 E0.02257
G1 X70.273 Y222.4 E0.02257
G1 X70.361 Y222.818 E0.02257
G1 X70.516 Y223.217 E0.02257
G1 X70.735 Y223.584 E0.02257
G1 X70.987 Y223.881 E0.02053
G1 X74.634 Y227.528 E0.27219
G1 X74.93 Y227.779 E0.02053
G1 X75.298 Y227.998 E0.02257
G1 X75.696 Y228.154 E0.02257
G1 X76.115 Y228.241 E0.02257
G1 X76.542 Y228.259 E0.02257
G1 X76.967 Y228.206 E0.02257
G1 X77.377 Y228.084 E0.02258
G1 X77.761 Y227.896 E0.02257
G1 X78.109 Y227.648 E0.02257
G1 X78.411 Y227.345 E0.02257
G1 X78.66 Y226.997 E0.02257
G1 X78.848 Y226.613 E0.02258
G1 X78.97 Y226.203 E0.02257
G1 X79.023 Y225.779 E0.02257
G1 X79.005 Y225.351 E0.02257
G1 X78.941 Y225.043 E0.01659
G1 X78.404 Y225.093 F48000
;TYPE:External perimeter
G1 F1800
G1 X78.279 Y224.77 E0.01824
G1 X78.106 Y224.479 E0.01789
G1 X77.897 Y224.233 E0.01701
G1 X77.559 Y223.895 E0.02525
G1 X74.282 Y220.617 E0.2446
G1 X74.036 Y220.409 E0.01701
G1 X73.745 Y220.236 E0.01789
G1 X73.429 Y220.112 E0.01789
G1 X73.097 Y220.043 E0.01789
G1 X72.758 Y220.029 E0.01789
G1 X72.422 Y220.071 E0.01789
G1 X72.097 Y220.167 E0.01789
