; generated by SuperSlicer 2.5.59 on 2022-10-28 at 02:17:47 UTC


;
;

;
;
; 

; external perimeters extrusion width = 0.52mm
; perimeters extrusion width = 0.56mm
; infill extrusion width = 0.70mm
; solid infill extrusion width = 0.70mm
; top infill extrusion width = 0.50mm
; first layer extrusion width = 0.60mm

; object:{"name":"LowPolyDinos-Tyrannosaurus Rex","id":"LowPolyDinos-Tyrannosaurus Rex.stl id:0 copy 0","object_center":[150.000000,150.000000,0.000000],"boundingbox_center":[150.000000,150.000000,36.482002],"boundingbox_size":[67.429704,63.352529,72.964005]}
; plater:{"center":[150.000000,150.000000,0.000000],"boundingbox_center":[150.000000,150.000000,36.482002],"boundingbox_size":[67.429704,63.352529,72.964005]}

;TYPE:Custom
PRINT_START EXTRUDER=260 BED=110
M107
G21 ; set units to millimeters
G90 ; use absolute coordinates
M83 ; use relative distances for extrusion
SET_PRESSURE_ADVANCE SMOOTH_TIME=0.02
SET_PRESSURE_ADVANCE ADVANCE=0.065
;_TOOLCHANGE 0
M104 S260 ; set temperature
M109 S260 ; set temperature and wait for it to be reached
M190 S110 ; set bed temperature and wait for it to be reached
M107
;LAYER_CHANGE
;Z:0.3
;HEIGHT:0.3
;BEFORE_LAYER_CHANGE
;0.3


G1 Z0.3 F24000
;AFTER_LAYER_CHANGE
;0.3
G92 E0
G1 E-0.6 F2400
; printing object LowPolyDinos-Tyrannosaurus Rex.stl id:0 copy 0
M204 S3000
G1 X138.922 Y176.259 F24000
G1 E0.6 F2400
;TYPE:Internal perimeter
;WIDTH:0.6
G1 F9000
G1 X138.549 Y175.95 E0.03109
G1 X131.97 Y168.191 E0.65244
G1 X130.492 Y166.122 E0.16306
G1 X132.019 Y163.078 E0.21846
G1 X133.673 Y163.845 E0.11689
G1 X135.607 Y165.439 E0.16078
G1 X142.602 Y171.309 E0.5856
G1 X141.144 Y171.568 E0.09499
G1 X142.19 Y174.326 E0.18914
G1 X141.814 Y174.235 E0.02476
G1 X141.279 Y174.819 E0.05079
G1 X138.986 Y176.22 E0.17232
G1 X139.519 Y176.522 F24000
G1 F9000
G1 X139.469 Y177.408 E0.0569
G1 X138.171 Y176.332 E0.10813
G1 X131.547 Y168.52 E0.65689
G1 X129.868 Y166.171 E0.1852
G1 X131.107 Y163.729 E0.17558
G1 X131.774 Y162.373 E0.09692
G1 X133.96 Y163.388 E0.1546
G1 X135.95 Y165.028 E0.16534
G1 X143.004 Y170.947 E0.59057
G1 X143.974 Y171.609 E0.0753
G1 X141.874 Y171.983 E0.13679
G1 X143.05 Y175.084 E0.21277
G1 X141.996 Y174.83 E0.06958
G1 X141.623 Y175.237 E0.03539
G1 X139.583 Y176.483 E0.15331
G1 E-0.06 F2400
;WIPE_START
G1 F19200
G1 X139.469 Y177.408 E-0.11067
G1 X138.171 Y176.332 E-0.20022
G1 X137.07 Y175.034 E-0.20211
;WIPE_END
G1 E-0.027 F2400
G1 X139.428 Y178.142 F24000
G1 E0.6 F2400
G1 F4013.9505
G1 X139.047 Y177.849 E0.03084
G1 X139.12 Y177.549 E0.01981
G1 X139.459 Y177.599 E0.02194
G1 X139.432 Y178.067 E0.03008
G1 X139.906 Y179.186 F24000
G1 F9000
G1 X138.444 Y178.06 E0.11833
G1 X138.608 Y177.39 E0.04426
G1 X137.793 Y176.715 E0.06784
G1 X131.124 Y168.85 E0.66133
G1 X129.243 Y166.218 E0.20745
G1 X130.628 Y163.49 E0.19619
G1 X131.524 Y161.667 E0.13029
G1 X134.248 Y162.931 E0.19259
G1 X136.292 Y164.616 E0.16989
G1 X143.328 Y170.52 E0.58902
G1 X144.369 Y171.23 E0.08085
G1 X145.371 Y170.691 E0.07298
G1 X146.436 Y171.715 E0.09474
G1 X142.604 Y172.397 E0.24968
G1 X143.911 Y175.843 E0.23639
G1 X142.177 Y175.425 E0.11441
G1 X141.966 Y175.654 E0.01998
G1 X140.038 Y176.833 E0.14494
G1 X139.91 Y179.111 E0.14636
G1 X140.384 Y180.231 F24000
G1 F9000
G1 X137.841 Y178.272 E0.20582
G1 X138.008 Y177.588 E0.04512
G1 X137.415 Y177.097 E0.04938
G1 X130.701 Y169.179 E0.66577
G1 X128.619 Y166.265 E0.2297
G1 X130.149 Y163.251 E0.21681
G1 X131.275 Y160.96 E0.16367
G1 X134.536 Y162.474 E0.23058
G1 X136.635 Y164.204 E0.17444
G1 X143.652 Y170.092 E0.58746
G1 X144.402 Y170.604 E0.05826
G1 X145.461 Y170.035 E0.07711
G1 X147.567 Y172.058 E0.18726
G1 X143.334 Y172.811 E0.27574
G1 X144.772 Y176.602 E0.26002
G1 X142.358 Y176.019 E0.15923
G1 X142.158 Y176.237 E0.01897
G1 X142.073 Y176.217 E0.00561
G1 X140.557 Y177.143 E0.11397
G1 X140.388 Y180.156 E0.19348
G1 X140.768 Y181.203 F24000
;TYPE:External perimeter
G1 F4500
G1 X137.238 Y178.484 E0.28573
G1 X137.274 Y178.338 E0.00927
G1 X137.345 Y178.047 E0.01889
G1 X137.408 Y177.787 E0.01712
G1 X137.293 Y177.691 E0.0093
G1 X137.062 Y177.5 E0.01892
G1 X137.037 Y177.479 E0.00206
G1 X130.278 Y169.509 E0.67021
G1 X127.994 Y166.312 E0.25195
G1 X128.062 Y166.179 E0.00933
G1 X128.198 Y165.911 E0.01895
G1 X129.669 Y163.011 E0.20856
G1 X131.025 Y160.254 E0.19705
G1 X131.161 Y160.317 E0.00867
G1 X131.433 Y160.444 E0.01829
G1 X131.551 Y160.498 E0.00834
G1 X134.823 Y162.017 E0.23136
G1 X136.977 Y163.792 E0.17899
G1 X143.976 Y169.665 E0.58591
G1 X144.435 Y169.978 E0.03568
G1 X144.567 Y169.907 E0.00933
G1 X144.831 Y169.765 E0.01895
G1 X145.551 Y169.379 E0.05238
G1 X145.659 Y169.482 E0.00915
G1 X145.875 Y169.69 E0.01877
G1 X148.583 Y172.292 E0.24083
G1 X148.539 Y172.429 E0.00092
G1 X148.392 Y172.455 E0.00933
G1 X148.096 Y172.507 E0.01895
G1 X144.064 Y173.225 E0.2627
G1 X144.117 Y173.365 E0.00809
G1 X144.223 Y173.646 E0.01771
G1 X145.277 Y176.422 E0.19046
G1 X145.483 Y176.888 E0.03265
G1 X145.704 Y177.295 E0.02973
G1 X145.745 Y177.474 E0.01173
G1 X145.623 Y177.387 E0.00288
G1 X145.562 Y177.343 E-0.00193
G1 X142.54 Y176.614 E0.19938
G1 X142.438 Y176.725 E0.00935
G1 X142.339 Y176.833 E0.00915
G1 X142.193 Y176.797 E0.00935
G1 X142.163 Y176.79 E0.00174
G1 X141.076 Y177.454 E0.08167
G1 X140.868 Y181.157 E0.23783
G1 X140.836 Y181.171 E0.00023
;WIPE_START
M204 S10000
G1 X140.654 Y180.716 F24000
;WIPE_END
G1 E-0.05807 F2400
;WIPE_START
G1 F19200
G1 X137.52 Y178.385 E-0.46383
G1 X137.618 Y177.983 E-0.04917
;WIPE_END
G1 E-0.027 F2400
G1 X131.671 Y163.952 F24000
G1 E0.6 F2400
;TYPE:Solid infill
G1 F7200
G1 X133.164 Y163.952 E0.09578
G1 X133.505 Y164.11 E0.02408
G1 X133.956 Y164.487 E0.03775
G1 X131.66 Y164.487 E0.1473
G1 X131.391 Y165.023 E0.03843
G1 X134.597 Y165.023 E0.20563
G1 X135.238 Y165.559 E0.05356
G1 X131.122 Y165.559 E0.26397
G1 X130.853 Y166.094 E0.03843
G1 X135.879 Y166.094 E0.32229
G1 X136.52 Y166.63 E0.05356
G1 X131.236 Y166.63 E0.33884
G1 X131.619 Y167.165 E0.04222
G1 X137.16 Y167.165 E0.35538
G1 X137.801 Y167.701 E0.05356
G1 X132.002 Y167.701 E0.37193
G1 X132.215 Y168 E0.02354
G1 X132.416 Y168.237 E0.01993
G1 X138.442 Y168.237 E0.38645
G1 X139.083 Y168.772 E0.05356
G1 X132.87 Y168.772 E0.39842
G1 X133.324 Y169.308 E0.04504
G1 X139.723 Y169.308 E0.41039
G1 X140.364 Y169.843 E0.05356
G1 X133.779 Y169.843 E0.42236
G1 X134.233 Y170.379 E0.04504
G1 X141.005 Y170.379 E0.43433
G1 X141.646 Y170.915 E0.05356
G1 X134.687 Y170.915 E0.4463
G1 X135.141 Y171.45 E0.04504
G1 X140.767 Y171.45 E0.36078
G1 X140.97 Y171.986 E0.03674
G1 X135.595 Y171.986 E0.34468
G1 X136.049 Y172.522 E0.04504
G1 X141.173 Y172.522 E0.32859
G1 X141.376 Y173.057 E0.03674
G1 X136.504 Y173.057 E0.3125
G1 X136.958 Y173.593 E0.04504
G1 X141.579 Y173.593 E0.2964
G1 X141.697 Y173.904 E0.02131
G1 X141.491 Y174.128 E0.01958
G1 X137.412 Y174.128 E0.2616
G1 X137.866 Y174.664 E0.04504
G1 X140.937 Y174.664 E0.19694
G1 X140.061 Y175.2 E0.06586
G1 X138.32 Y175.2 E0.11161
G1 X138.777 Y175.735 E0.04514
G1 X139.626 Y175.735 E0.05445
G1 E-0.06 F2400
;WIPE_START
G1 F19200
M204 S3000
G1 X138.777 Y175.735 E-0.10083
G1 X138.32 Y175.2 E-0.08358
G1 X140.061 Y175.2 E-0.20666
G1 X140.937 Y174.664 E-0.12193
;WIPE_END
G1 E-0.027 F2400
G1 X150.25 Y154.066 F24000
G1 E0.6 F2400
;TYPE:Internal perimeter
G1 F9000
G1 X148.855 Y153.86 E0.09039
G1 X148.528 Y153.801 E0.02136
G1 X148.621 Y153.311 E0.03197
G1 X148.987 Y150.434 E0.18598
G1 X151.019 Y149.496 E0.14355
G1 X160.852 Y145.618 E0.67787
G1 X162.586 Y148.158 E0.19725
G1 X163.372 Y148.312 E0.05136
G1 X161.053 Y150.579 E0.20804
G1 X162.566 Y151.66 E0.11926
G1 X152.427 Y153.928 E0.66628
G1 X150.325 Y154.061 E0.13513
G1 X150.227 Y154.604 F24000
G1 F9000
G1 X148.768 Y154.389 E0.09459
G1 X147.9 Y154.231 E0.0566
G1 X148.092 Y153.227 E0.06554
G1 X148.493 Y150.072 E0.20393
G1 X150.809 Y149.003 E0.16355
G1 X161.978 Y144.598 E0.77004
G1 X161.544 Y145.682 E0.07487
G1 X162.905 Y147.674 E0.15476
G1 X164.476 Y147.982 E0.10265
G1 X161.884 Y150.515 E0.2324
G1 X163.853 Y151.921 E0.15513
G1 X152.503 Y154.46 E0.74587
G1 X150.302 Y154.599 E0.14145
G1 X150.205 Y155.142 F24000
G1 F9000
G1 X148.681 Y154.918 E0.09879
G1 X147.272 Y154.661 E0.09183
G1 X147.563 Y153.143 E0.09912
G1 X148 Y149.711 E0.22188
G1 X150.598 Y148.511 E0.18356
G1 X161.494 Y144.213 E0.75117
G1 X161.515 Y143.53 E0.04382
G1 X163.13 Y143.164 E0.10616
G1 X162.148 Y145.616 E0.16938
G1 X163.223 Y147.191 E0.12235
G1 X165.579 Y147.653 E0.15395
G1 X162.716 Y150.451 E0.25676
G1 X166.004 Y152.799 E0.2591
G1 X164.348 Y153.418 E0.11339
G1 X163.642 Y152.517 E0.0734
G1 X152.579 Y154.992 E0.72702
G1 X150.28 Y155.138 E0.14776
G1 X150.182 Y155.68 F24000
G1 F9000
G1 X148.594 Y155.446 E0.10299
G1 X146.645 Y155.091 E0.12707
G1 X147.034 Y153.058 E0.1327
G1 X147.506 Y149.349 E0.23983
G1 X150.387 Y148.018 E0.20356
G1 X160.97 Y143.844 E0.72956
G1 X160.993 Y143.1 E0.04778
G1 X164.006 Y142.416 E0.19816
G1 X162.751 Y145.55 E0.21651
G1 X163.542 Y146.708 E0.08994
G1 X166.682 Y147.323 E0.20524
G1 X163.548 Y150.387 E0.28112
G1 X167.134 Y152.949 E0.28265
G1 X164.168 Y154.057 E0.20311
G1 X163.429 Y153.114 E0.07686
G1 X152.655 Y155.524 E0.70803
G1 X150.257 Y155.676 E0.15407
G1 X150.16 Y156.219 F24000
;TYPE:External perimeter
G1 F4500
G1 X148.507 Y155.975 E0.10719
G1 X146.017 Y155.521 E0.1623
G1 X146.045 Y155.373 E0.00859
G1 X146.102 Y155.079 E0.01821
G1 X146.505 Y152.974 E0.13741
G1 X147.012 Y148.987 E0.25778
G1 X150.176 Y147.525 E0.22357
G1 X160.445 Y143.475 E0.70795
G1 X160.45 Y143.325 E0.00927
G1 X160.46 Y143.025 E0.01889
G1 X160.471 Y142.669 E0.02288
G1 X160.617 Y142.636 E0.00908
G1 X160.91 Y142.569 E0.0187
G1 X164.376 Y141.783 E0.22794
G1 X164.473 Y141.897 E0.00933
G1 X164.668 Y142.125 E0.01895
G1 X164.69 Y142.15 E0.00214
G1 X164.634 Y142.289 E0.00933
G1 X164.522 Y142.568 E0.01895
G1 X163.354 Y145.483 E0.20142
G1 X163.86 Y146.224 E0.05753
G1 X167.276 Y146.893 E0.2232
G1 X167.318 Y147.037 E0.00933
G1 X167.403 Y147.325 E0.01895
G1 X167.413 Y147.358 E0.00219
G1 X167.306 Y147.463 E0.00933
G1 X167.091 Y147.672 E0.01895
G1 X164.38 Y150.323 E0.24319
G1 X164.502 Y150.41 E0.00809
G1 X164.746 Y150.585 E0.01771
G1 X167.829 Y152.786 E0.24296
G1 X167.809 Y152.935 E0.00933
G1 X167.769 Y153.232 E0.01895
G1 X167.762 Y153.286 E0.00346
G1 X167.621 Y153.338 E0.00935
G1 X167.34 Y153.444 E0.01897
G1 X163.988 Y154.696 E0.22953
G1 X163.895 Y154.578 E0.00915
G1 X163.71 Y154.342 E0.01877
G1 X163.216 Y153.71 E0.05146
G1 X163.069 Y153.743 E0.0093
G1 X162.776 Y153.809 E0.01892
G1 X152.731 Y156.056 E0.66018
G1 X150.235 Y156.214 E0.16039
;WIPE_START
M204 S10000
G1 X149.944 Y155.768 F24000
;WIPE_END
G1 E-0.06 F2400
;WIPE_START
G1 F19200
G1 X148.547 Y155.728 E-0.16591
G1 X146.31 Y155.32 E-0.27007
G1 X146.432 Y154.683 E-0.07702
;WIPE_END
G1 E-0.027 F2400
G1 X161.348 Y146.487 F24000
G1 E0.6 F2400
;TYPE:Solid infill
G1 F7200
G1 X159.495 Y146.487 E0.11882
G1 X158.137 Y147.022 E0.09363
G1 X161.435 Y147.022 E0.21149
G1 X161.801 Y147.558 E0.0416
G1 X156.779 Y147.558 E0.32204
G1 X155.421 Y148.094 E0.09363
G1 X162.166 Y148.094 E0.43259
G1 X162.532 Y148.629 E0.0416
G1 X154.063 Y148.629 E0.54314
G1 X152.705 Y149.165 E0.09363
G1 X162.055 Y149.165 E0.59965
G1 X161.507 Y149.701 E0.04914
G1 X151.347 Y149.701 E0.65161
G1 X151.142 Y149.782 E0.01416
G1 X150.157 Y150.236 E0.06954
G1 X160.959 Y150.236 E0.69277
G1 X160.57 Y150.617 E0.03491
G1 X160.787 Y150.772 E0.01712
G1 X149.255 Y150.772 E0.73962
G1 X149.182 Y151.307 E0.03467
G1 X161.537 Y151.307 E0.79241
G1 X161.819 Y151.509 E0.02224
G1 X160.326 Y151.843 E0.09814
G1 X149.109 Y151.843 E0.71942
G1 X149.035 Y152.379 E0.03467
G1 X157.932 Y152.379 E0.57055
G1 X155.537 Y152.914 E0.15735
G1 X148.962 Y152.914 E0.42169
G1 X148.889 Y153.45 E0.03467
G1 X154.198 Y153.45 E0.34048
G1 E-0.06 F2400
;WIPE_START
G1 F19200
M204 S3000
G1 X149.878 Y153.45 E-0.513
;WIPE_END
G1 E-0.027 F2400
G1 X128.526 Y148.553 F24000
G1 E0.6 F2400
;TYPE:Internal perimeter
G1 F9000
G1 X128.309 Y148.79 E0.02059
G1 X125.293 Y146.783 E0.23233
G1 X123.724 Y141.028 E0.38257
G1 X123.997 Y140.89 E0.01964
G1 X125.94 Y143.35 E0.20104
G1 X125.844 Y145.199 E0.11874
G1 X128.479 Y148.494 E0.27062
G1 E-0.06 F2400
;WIPE_START
G1 F19200
G1 X128.309 Y148.79 E-0.04046
G1 X125.293 Y146.783 E-0.43019
G1 X125.199 Y146.439 E-0.04235
;WIPE_END
G1 E-0.027 F2400
G1 X123.132 Y137.866 F24000
G1 E0.6 F2400
G1 F9000
G1 X122.859 Y137.854 E0.01755
G1 X122.511 Y136.578 E0.08483
G1 X121.512 Y135.335 E0.10225
G1 X125.458 Y129.283 E0.46335
G1 X126.889 Y126.688 E0.19007
G1 X127.205 Y126.832 E0.0223
G1 X123.158 Y137.795 E0.7495
G1 E-0.06 F2400
;WIPE_START
G1 F19200
G1 X122.859 Y137.854 E-0.03622
G1 X122.511 Y136.578 E-0.15707
G1 X121.512 Y135.335 E-0.18933
G1 X122.112 Y134.415 E-0.13038
;WIPE_END
G1 E-0.027 F2400
G1 X130.581 Y150.361 F24000
G1 E0.6 F2400
G1 F9000
G1 X130.464 Y150.537 E0.01353
G1 X129.589 Y150.285 E0.05835
G1 X124.829 Y147.118 E0.36668
G1 X122.023 Y136.826 E0.68412
G1 X120.851 Y135.368 E0.12
G1 X124.999 Y129.007 E0.48699
G1 X127.204 Y125.007 E0.29296
G1 X128.815 Y123.126 E0.15881
G1 X129.086 Y123.285 E0.02012
G1 X123.253 Y139.084 E1.08006
G1 X126.485 Y143.176 E0.33446
G1 X126.389 Y145.023 E0.11862
G1 X130.609 Y150.299 E0.43325
G1 E-0.06 F2400
;WIPE_START
G1 F19200
G1 X130.464 Y150.537 E-0.03301
G1 X129.589 Y150.285 E-0.10804
G1 X126.982 Y148.55 E-0.37195
;WIPE_END
G1 E-0.027 F2400
G1 X131.934 Y151.518 F24000
G1 E0.6 F2400
G1 F9000
G1 X129.362 Y150.776 E0.17169
G1 X124.365 Y147.452 E0.38487
G1 X121.536 Y137.075 E0.68985
G1 X120.191 Y135.4 E0.13775
G1 X124.539 Y128.731 E0.51063
G1 X126.762 Y124.7 E0.29521
G1 X130.22 Y120.663 E0.34088
G1 X130.469 Y120.763 E0.01722
G1 X130.449 Y121.139 E0.02413
G1 X123.86 Y138.987 E1.22019
G1 X127.031 Y143.003 E0.32814
G1 X126.935 Y144.848 E0.11849
G1 X132.086 Y151.289 E0.52898
G1 X131.976 Y151.455 E0.01278
G1 E-0.06 F2400
;WIPE_START
G1 F19200
G1 X129.362 Y150.776 E-0.32071
G1 X128.013 Y149.88 E-0.19229
;WIPE_END
G1 E-0.027 F2400
G1 X133.651 Y152.285 F24000
G1 E0.6 F2400
G1 F9000
G1 X133.502 Y152.527 E0.0182
G1 X129.134 Y151.268 E0.29151
G1 X123.901 Y147.787 E0.40306
G1 X121.049 Y137.323 E0.69557
G1 X119.53 Y135.433 E0.1555
G1 X124.08 Y128.455 E0.53426
G1 X126.319 Y124.393 E0.29747
G1 X129.919 Y120.191 E0.35484
G1 X130.671 Y119.469 E0.06687
G1 X131.063 Y119.676 E0.02842
G1 X130.98 Y121.248 E0.10099
G1 X124.466 Y138.891 E1.20613
G1 X127.576 Y142.829 E0.32182
G1 X127.48 Y144.673 E0.11837
G1 X132.989 Y151.561 E0.56566
G1 X133.601 Y152.23 E0.05815
G1 E-0.06 F2400
;WIPE_START
G1 F19200
G1 X133.502 Y152.527 E-0.03712
G1 X129.651 Y151.417 E-0.47588
;WIPE_END
G1 E-0.027 F2400
G1 X135.782 Y153.832 F24000
G1 E0.6 F2400
;TYPE:External perimeter
G1 F4500
G1 X135.097 Y153.638 E0.04568
G1 X134.658 Y153.458 E0.03042
G1 X133.735 Y153.151 E0.06242
G1 X128.906 Y151.76 E0.32227
G1 X123.437 Y148.122 E0.42125
G1 X120.561 Y137.572 E0.7013
G1 X118.869 Y135.466 E0.17325
G1 X118.951 Y135.34 E0.00917
G1 X119.115 Y135.089 E0.01879
G1 X123.62 Y128.179 E0.52904
G1 X125.877 Y124.086 E0.29972
G1 X129.529 Y119.823 E0.36004
G1 X130.579 Y118.816 E0.09332
G1 X130.712 Y118.885 E0.00917
G1 X130.977 Y119.025 E0.01879
G1 X131.616 Y119.362 E0.04633
G1 X131.608 Y119.512 E0.00928
G1 X131.593 Y119.811 E0.0189
G1 X131.51 Y121.358 E0.09933
G1 X125.073 Y138.795 E1.19207
G1 X128.122 Y142.656 E0.3155
G1 X128.026 Y144.497 E0.11825
G1 X133.396 Y151.212 E0.55147
G1 X134.679 Y152.617 E0.122
G1 X135.369 Y153.257 E0.06036
G1 X135.825 Y153.763 E0.04369
G1 X135.822 Y153.768 E0.00004
;WIPE_START
M204 S10000
G1 X135.469 Y153.442 F24000
;WIPE_END
G1 X134.935 Y153.254
;TYPE:Gap fill
;WIDTH:0.193078
G1 F9000
G1 X134.775 Y153.152 E0.00292
;WIDTH:0.228804
G1 X134.693 Y153.103 E0.00188
;WIDTH:0.300207
G1 X134.538 Y153.012 E0.00506
;WIDTH:0.39532
G1 X134.384 Y152.92 E0.00711
;WIDTH:0.425621
G1 X134.302 Y152.868 E0.00422
;WIDTH:0.503986
G1 X134.164 Y152.778 E0.00866
;WIDTH:0.607751
G1 F8871.6149
G1 X134.026 Y152.688 E0.01071
;WIDTH:0.65982
G1 F8095.8341
G1 X133.937 Y152.63 E0.00757
;WIDTH:0.740493
G1 F7129.8479
G1 X133.787 Y152.533 E0.01445
G1 E-0.06 F2400
;WIPE_START
G1 F19200
G1 X133.937 Y152.63 E-0.0212
;WIPE_END
G1 E-0.5188 F2400
G1 X130.112 Y150.137 F24000
