; generated by SuperSlicer 2.5.59 on 2022-10-27 at 07:31:47 UTC


;
;

;
;
; 

; external perimeters extrusion width = 0.52mm
; perimeters extrusion width = 0.56mm
; infill extrusion width = 0.70mm
; solid infill extrusion width = 0.70mm
; top infill extrusion width = 0.50mm
; first layer extrusion width = 0.60mm

; object:{"name":"LowPolyDinos-Archelon","id":"LowPolyDinos-Archelon.stl id:0 copy 0","object_center":[150.000000,150.000000,0.000000],"boundingbox_center":[150.000000,150.000000,11.135000],"boundingbox_size":[92.069555,90.820798,22.270000]}
; plater:{"center":[150.000000,150.000000,0.000000],"boundingbox_center":[150.000000,150.000000,11.135000],"boundingbox_size":[92.069555,90.820798,22.270000]}

;TYPE:Custom
PRINT_START EXTRUDER=260 BED=110
M107
G21 ; set units to millimeters
G90 ; use absolute coordinates
M83 ; use relative distances for extrusion
SET_PRESSURE_ADVANCE SMOOTH=0.04
SET_PRESSURE_ADVANCE ADVANCE=0.065
;_TOOLCHANGE 0
M104 S260 ; set temperature
M109 S260 ; set temperature and wait for it to be reached
M190 S110 ; set bed temperature and wait for it to be reached
M107
;LAYER_CHANGE
;Z:0.24
;HEIGHT:0.24
;BEFORE_LAYER_CHANGE
;0.24


G1 Z0.24 F24000
;AFTER_LAYER_CHANGE
;0.24
G92 E0
G1 E-0.6 F2400
; printing object LowPolyDinos-Archelon.stl id:0 copy 0
M204 S3000
G1 X133.462 Y191.843 F24000
G1 E0.6 F2400
;TYPE:Internal perimeter
;WIDTH:0.6
G1 F9000
G1 X131.849 Y191.069 E0.09398
G1 X126.544 Y184.719 E0.43475
G1 X125.981 Y184.005 E0.04777
G1 X126.833 Y182.057 E0.11169
G1 X130.912 Y172.895 E0.52694
G1 X127.826 Y170.337 E0.21058
G1 X120.42 Y175.462 E0.47321
G1 X120.194 Y175.236 E0.01683
G1 X126.063 Y166.75 E0.54208
G1 X125.067 Y162.022 E0.25385
G1 X113.564 Y162.482 E0.60485
G1 X111.433 Y162.552 E0.11202
G1 X110.977 Y161.765 E0.04782
G1 X107.038 Y154.488 E0.43474
G1 X106.917 Y152.702 E0.09402
G1 X113.055 Y150.843 E0.33698
G1 X120.472 Y154.837 E0.44263
G1 X123.124 Y152.853 E0.17401
G1 X122.631 Y150.519 E0.12537
G1 X125.601 Y138.592 E0.64577
G1 X129.764 Y130.899 E0.45955
G1 X134.45 Y126.692 E0.33087
G1 X132.429 Y122.985 E0.22181
G1 X128.472 Y124.152 E0.21677
G1 X115.247 Y118.85 E0.74862
G1 X135.472 Y109.059 E1.18057
G1 X135.954 Y108.81 E0.02854
G1 X145.721 Y119.889 E0.77599
G1 X149.751 Y126.943 E0.42683
G1 X155.247 Y134.985 E0.51179
G1 X160.254 Y131.109 E0.33269
G1 X163 Y126.589 E0.27785
G1 X167.444 Y121.694 E0.34735
G1 X173.135 Y120.071 E0.31094
G1 X174.497 Y121.161 E0.09164
G1 X175.586 Y122.523 E0.09164
G1 X173.963 Y128.215 E0.31099
G1 X169.154 Y132.587 E0.34147
G1 X164.864 Y135.196 E0.26383
G1 X164.424 Y135.568 E0.03028
G1 X161.083 Y139.881 E0.28663
G1 X171.123 Y143.538 E0.5614
G1 X178.956 Y145.694 E0.42685
G1 X192.109 Y152.411 E0.77599
G1 X191.987 Y152.94 E0.02851
G1 X187.513 Y174.962 E1.18066
G1 X179.097 Y163.46 E0.74881
G1 X179.525 Y150.941 E0.6581
G1 X171.21 Y150.634 E0.43719
G1 X169.607 Y153.53 E0.1739
G1 X170.935 Y159.055 E0.29856
G1 X164.772 Y165.908 E0.48421
G1 X157.086 Y170.076 E0.45938
G1 X145.18 Y173.035 E0.64461
G1 X135.634 Y171.019 E0.51258
G1 X137.46 Y186.828 E0.83612
G1 X133.509 Y191.784 E0.33304
G1 X133.619 Y192.526 F24000
G1 F9000
G1 X131.505 Y191.512 E0.12318
G1 X126.118 Y185.065 E0.44142
G1 X125.347 Y184.086 E0.06545
G1 X126.331 Y181.836 E0.12906
G1 X130.241 Y173.052 E0.50519
G1 X127.796 Y171.024 E0.16688
G1 X118.256 Y177.627 E0.60958
G1 X118.03 Y177.4 E0.01683
G1 X125.477 Y166.632 E0.6879
G1 X124.626 Y162.589 E0.2171
G1 X113.584 Y163.03 E0.58059
G1 X111.123 Y163.112 E0.12939
G1 X110.498 Y162.032 E0.06549
G1 X106.499 Y154.644 E0.44141
G1 X106.34 Y152.304 E0.12322
G1 X106.94 Y152.133 E0.03279
G1 X113.114 Y150.251 E0.33913
G1 X120.424 Y154.188 E0.43621
G1 X122.515 Y152.624 E0.13721
G1 X122.069 Y150.508 E0.1136
G1 X125.086 Y138.392 E0.65604
G1 X129.327 Y130.555 E0.46819
G1 X133.761 Y126.574 E0.31308
G1 X132.16 Y123.637 E0.17575
G1 X128.444 Y124.732 E0.20351
G1 X113.89 Y118.897 E0.82384
G1 X135.226 Y108.569 E1.24541
G1 X136.083 Y108.126 E0.05065
G1 X146.169 Y119.568 E0.80141
G1 X150.216 Y126.652 E0.42862
G1 X155.372 Y134.195 E0.48005
G1 X159.838 Y130.737 E0.29678
G1 X162.558 Y126.259 E0.27528
G1 X167.143 Y121.21 E0.35833
G1 X173.257 Y119.466 E0.33403
G1 X174.887 Y120.771 E0.10971
G1 X176.192 Y122.401 E0.10971
G1 X174.448 Y128.515 E0.33406
G1 X169.484 Y133.028 E0.35245
G1 X165.185 Y135.643 E0.26435
G1 X164.822 Y135.95 E0.025
G1 X161.977 Y139.623 E0.24412
G1 X171.289 Y143.015 E0.52075
G1 X179.155 Y145.18 E0.42863
G1 X192.74 Y152.117 E0.80141
G1 X192.523 Y153.056 E0.05061
G1 X187.804 Y176.287 E1.2455
G1 X178.543 Y163.63 E0.82399
G1 X178.958 Y151.469 E0.63933
G1 X171.526 Y151.195 E0.39074
G1 X170.19 Y153.609 E0.14499
G1 X171.536 Y159.208 E0.30252
G1 X165.117 Y166.345 E0.50434
G1 X157.286 Y170.591 E0.46802
G1 X145.19 Y173.598 E0.6549
G1 X136.267 Y171.713 E0.47916
G1 X138.031 Y186.991 E0.80805
G1 X133.999 Y192.032 E0.33914
G1 X133.664 Y192.467 E0.02883
G1 X133.782 Y193.213 F24000
G1 F9000
G1 X131.16 Y191.955 E0.15278
G1 X125.692 Y185.41 E0.44808
G1 X124.712 Y184.168 E0.08313
G1 X125.829 Y181.615 E0.14642
G1 X129.571 Y173.209 E0.48344
G1 X127.767 Y171.712 E0.12318
G1 X116.092 Y179.792 E0.74595
G1 X115.865 Y179.565 E0.01683
G1 X124.892 Y166.514 E0.83372
G1 X124.184 Y163.155 E0.18035
G1 X113.604 Y163.578 E0.55634
G1 X110.812 Y163.671 E0.14676
G1 X110.02 Y162.3 E0.08317
G1 X105.96 Y154.8 E0.44808
G1 X105.762 Y151.898 E0.15281
G1 X106.784 Y151.607 E0.05586
G1 X113.173 Y149.66 E0.35088
G1 X120.376 Y153.539 E0.42983
G1 X121.906 Y152.394 E0.10042
G1 X121.506 Y150.498 E0.10183
G1 X124.57 Y138.192 E0.66632
G1 X128.89 Y130.21 E0.47683
G1 X133.072 Y126.455 E0.29528
G1 X131.89 Y124.288 E0.1297
G1 X128.417 Y125.312 E0.19024
G1 X112.931 Y119.103 E0.87658
G1 X113.594 Y118.431 E0.0496
G1 X134.981 Y108.078 E1.24839
G1 X136.211 Y107.442 E0.07276
G1 X146.618 Y119.248 E0.82684
G1 X150.682 Y126.36 E0.4304
G1 X155.496 Y133.405 E0.44831
G1 X159.422 Y130.366 E0.26087
G1 X162.117 Y125.93 E0.27271
G1 X166.842 Y120.725 E0.36932
G1 X173.378 Y118.861 E0.35712
G1 X175.277 Y120.38 E0.12777
G1 X176.797 Y122.279 E0.12777
G1 X174.932 Y128.816 E0.35714
G1 X169.814 Y133.47 E0.36343
G1 X165.507 Y136.089 E0.26486
G1 X165.22 Y136.331 E0.01972
G1 X162.87 Y139.365 E0.20161
G1 X171.456 Y142.492 E0.48011
G1 X179.355 Y144.666 E0.4304
G1 X193.37 Y151.823 E0.82684
G1 X193.059 Y153.172 E0.07272
G1 X188.329 Y176.457 E1.24839
G1 X187.841 Y177.267 E0.04967
G1 X177.988 Y163.801 E0.87665
G1 X178.391 Y151.997 E0.62056
G1 X171.843 Y151.755 E0.34429
G1 X170.773 Y153.688 E0.11607
G1 X172.137 Y159.36 E0.30647
G1 X165.461 Y166.782 E0.52446
G1 X157.487 Y171.107 E0.47665
G1 X145.2 Y174.161 E0.6652
G1 X136.899 Y172.407 E0.44574
G1 X138.603 Y187.155 E0.78002
G1 X134.431 Y192.371 E0.35089
G1 X133.828 Y193.153 E0.05191
G1 X133.945 Y193.899 F24000
G1 F9000
G1 X130.816 Y192.398 E0.18237
G1 X125.266 Y185.756 E0.45475
G1 X124.078 Y184.249 E0.10081
G1 X125.327 Y181.393 E0.16379
G1 X128.901 Y173.365 E0.46168
G1 X127.737 Y172.4 E0.07948
G1 X114.175 Y181.785 E0.86649
G1 X113.873 Y181.482 E0.0225
G1 X124.307 Y166.396 E0.96372
G1 X123.743 Y163.722 E0.1436
G1 X113.624 Y164.126 E0.53208
G1 X110.502 Y164.23 E0.16413
G1 X109.541 Y162.568 E0.10084
G1 X105.421 Y154.957 E0.45475
G1 X105.185 Y151.493 E0.18241
G1 X106.629 Y151.081 E0.07893
G1 X113.232 Y149.069 E0.36263
G1 X120.327 Y152.891 E0.42344
G1 X121.297 Y152.165 E0.06363
G1 X120.943 Y150.488 E0.09005
G1 X124.055 Y137.992 E0.67659
G1 X128.452 Y129.865 E0.48548
G1 X132.382 Y126.337 E0.27748
G1 X131.62 Y124.939 E0.08364
G1 X128.825 Y125.752 E0.15293
G1 X128.39 Y125.892 E0.02405
G1 X111.962 Y119.305 E0.9299
G1 X113.27 Y117.978 E0.0979
G1 X134.735 Y107.587 E1.25298
G1 X136.339 Y106.759 E0.09486
G1 X136.503 Y106.945 E0.01302
G1 X147.066 Y118.927 E0.83924
G1 X151.147 Y126.069 E0.43218
G1 X155.62 Y132.615 E0.41656
G1 X159.006 Y129.994 E0.22495
G1 X161.676 Y125.6 E0.27014
G1 X166.541 Y120.241 E0.3803
G1 X173.5 Y118.256 E0.3802
G1 X175.668 Y119.99 E0.14584
G1 X177.402 Y122.158 E0.14584
G1 X175.417 Y129.117 E0.38022
G1 X170.144 Y133.911 E0.37441
G1 X165.829 Y136.535 E0.26538
G1 X165.619 Y136.713 E0.01444
G1 X163.764 Y139.107 E0.15909
G1 X171.623 Y141.969 E0.43946
G1 X179.554 Y144.152 E0.43218
G1 X194.001 Y151.53 E0.85227
G1 X193.595 Y153.288 E0.09483
G1 X188.847 Y176.659 E1.25299
G1 X187.885 Y178.256 E0.09796
G1 X177.433 Y163.972 E0.92993
G1 X177.46 Y163.515 E0.02404
G1 X177.825 Y152.525 E0.57775
G1 X172.16 Y152.316 E0.29783
G1 X171.356 Y153.767 E0.08716
G1 X172.737 Y159.512 E0.31043
G1 X165.806 Y167.219 E0.54458
G1 X157.687 Y171.622 E0.48529
G1 X145.21 Y174.724 E0.67549
G1 X137.531 Y173.101 E0.41232
G1 X139.174 Y187.319 E0.75198
G1 X134.862 Y192.709 E0.36264
G1 X133.991 Y193.84 E0.07499
G1 X134.108 Y194.586 F24000
;TYPE:External perimeter
G1 F4500
G1 X130.471 Y192.841 E0.21197
G1 X124.84 Y186.102 E0.46141
G1 X123.444 Y184.331 E0.11849
G1 X123.504 Y184.193 E0.00766
G1 X123.624 Y183.918 E0.01554
G1 X124.825 Y181.172 E0.15751
G1 X128.231 Y173.522 E0.43993
G1 X128.115 Y173.426 E0.00746
G1 X127.884 Y173.235 E0.01534
G1 X127.707 Y173.088 E0.01213
G1 X127.583 Y173.173 E0.00746
G1 X127.337 Y173.344 E0.01534
G1 X114.111 Y182.496 E0.84504
G1 X114.005 Y182.39 E0.00735
G1 X113.793 Y182.178 E0.01523
G1 X113.161 Y181.547 E0.04694
G1 X113.247 Y181.423 E0.00735
G1 X113.417 Y181.176 E0.01523
G1 X123.721 Y166.279 E0.95171
G1 X123.302 Y164.289 E0.10685
G1 X123.152 Y164.294 E0.00733
G1 X122.852 Y164.306 E0.01521
G1 X113.644 Y164.674 E0.48418
G1 X110.192 Y164.789 E0.18149
G1 X110.117 Y164.659 E0.00766
G1 X109.966 Y164.399 E0.01554
G1 X109.062 Y162.836 E0.09487
G1 X104.882 Y155.113 E0.46142
G1 X104.607 Y151.087 E0.212
G1 X104.751 Y151.046 E0.00739
G1 X105.04 Y150.964 E0.01528
G1 X106.474 Y150.555 E0.07836
G1 X113.29 Y148.477 E0.37438
G1 X120.279 Y152.242 E0.41706
G1 X120.399 Y152.152 E0.00761
G1 X120.639 Y151.972 E0.01549
G1 X120.688 Y151.936 E0.00319
G1 X120.657 Y151.789 E0.00761
G1 X120.595 Y151.495 E0.01549
G1 X120.381 Y150.478 E0.05464
G1 X123.539 Y137.792 E0.68687
G1 X128.015 Y129.521 E0.49412
G1 X131.693 Y126.219 E0.25968
G1 X131.621 Y126.087 E0.00742
G1 X131.478 Y125.824 E0.0153
G1 X131.35 Y125.589 E0.01403
G1 X131.206 Y125.631 E0.00739
G1 X130.918 Y125.715 E0.01528
G1 X128.986 Y126.277 E0.10572
G1 X128.369 Y126.474 E0.03404
G1 X110.93 Y119.483 E0.98712
G1 X111.042 Y119.383 E0.00556
G1 X111.267 Y119.184 E0.01344
G1 X111.619 Y118.872 E0.02474
G1 X112.946 Y117.526 E0.09928
G1 X134.49 Y107.097 E1.25758
G1 X136.468 Y106.075 E0.11696
G1 X136.567 Y106.188 E0.00744
G1 X136.765 Y106.412 E0.01532
G1 X136.915 Y106.582 E0.01187
G1 X147.515 Y118.606 E0.84218
G1 X151.612 Y125.778 E0.43397
G1 X155.745 Y131.825 E0.38482
G1 X155.864 Y131.733 E0.00693
G1 X156.101 Y131.55 E0.01481
G1 X158.59 Y129.622 E0.16539
G1 X161.234 Y125.27 E0.26757
G1 X166.264 Y119.73 E0.39314
G1 X166.444 Y119.698 E0.00964
G1 X173.622 Y117.651 E0.39214
G1 X176.058 Y119.6 E0.16391
G1 X178.007 Y122.036 E0.16391
G1 X175.96 Y129.213 E0.39214
G1 X175.928 Y129.394 E0.00964
G1 X170.474 Y134.352 E0.38724
G1 X166.15 Y136.982 E0.2659
G1 X166.017 Y137.094 E0.00916
G1 X164.658 Y138.848 E0.11658
G1 X164.799 Y138.9 E0.00624
G1 X165.081 Y139.002 E0.01412
G1 X171.79 Y141.447 E0.37516
G1 X179.754 Y143.638 E0.43396
G1 X194.631 Y151.236 E0.8777
G1 X194.598 Y151.382 E0.00744
G1 X194.53 Y151.674 E0.01532
G1 X194.132 Y153.405 E0.0933
G1 X189.366 Y176.861 E1.25759
G1 X188.39 Y178.482 E0.0994
G1 X187.969 Y179.3 E0.04834
G1 X187.881 Y179.179 E0.00556
G1 X187.703 Y178.937 E0.01344
G1 X176.874 Y164.137 E0.96353
G1 X176.912 Y163.49 E0.03404
G1 X177.258 Y153.053 E0.54866
G1 X177.108 Y153.047 E0.00707
G1 X176.809 Y153.036 E0.01495
G1 X172.476 Y152.876 E0.22777
G1 X172.404 Y153.008 E0.00763
G1 X172.258 Y153.27 E0.01551
G1 X171.94 Y153.846 E0.03461
G1 X173.338 Y159.665 E0.31439
G1 X166.151 Y167.656 E0.56471
G1 X157.887 Y172.138 E0.49393
G1 X145.22 Y175.286 E0.68578
G1 X138.164 Y173.796 E0.3789
G1 X138.181 Y173.945 E0.00617
G1 X138.215 Y174.243 E0.01405
G1 X139.745 Y187.484 E0.70031
G1 X135.294 Y193.048 E0.37438
G1 X134.154 Y194.527 E0.09807
;WIPE_START
M204 S10000
G1 X133.856 Y194.155 F24000
;WIPE_END
G1 E-0.06 F2400
;WIPE_START
G1 F19200
G1 X130.628 Y192.639 E-0.42343
G1 X130.144 Y192.06 E-0.08957
;WIPE_END
G1 E-0.027 F2400
G1 X117.964 Y177.692 F24000
G1 E0.6 F2400
;TYPE:Gap fill
;WIDTH:0.858316
G1 F6118.4771
G1 X117.842 Y177.815 E0.01337
;WIDTH:0.766669
G1 F6902.5503
G1 X117.719 Y177.937 E0.01186
G1 X117.616 Y178.041 E0.01003
;WIDTH:0.686052
G1 F7779.4962
G1 X117.512 Y178.144 E0.0089
;WIDTH:0.628347
G1 F8557.7319
G1 X117.409 Y178.248 E0.00809
;WIDTH:0.570641
G1 F9000
G1 X117.306 Y178.351 E0.00728
;WIDTH:0.512936
G1 X117.202 Y178.455 E0.00647
;WIDTH:0.45523
G1 X117.099 Y178.558 E0.00566
;WIDTH:0.397525
G1 X116.995 Y178.662 E0.00485
;WIDTH:0.33982
G1 X116.892 Y178.765 E0.00404
;WIDTH:0.282114
G1 X116.788 Y178.869 E0.00323
;WIDTH:0.224409
G1 X116.685 Y178.972 E0.00242
;WIDTH:0.166703
G1 X116.581 Y179.076 E0.00162
G1 X116.54 Y179.117 E0.00064
G1 X115.8 Y179.857 F24000
;WIDTH:0.858316
G1 F6118.4771
G1 X115.678 Y179.979 E0.01337
;WIDTH:0.766669
G1 F6902.5503
G1 X115.555 Y180.102 E0.01186
G1 X115.452 Y180.205 E0.01003
;WIDTH:0.686052
G1 F7779.4962
G1 X115.348 Y180.309 E0.0089
;WIDTH:0.628347
G1 F8557.7319
G1 X115.245 Y180.412 E0.00809
;WIDTH:0.570641
G1 F9000
G1 X115.141 Y180.516 E0.00728
;WIDTH:0.512936
G1 X115.038 Y180.619 E0.00647
;WIDTH:0.45523
G1 X114.934 Y180.723 E0.00566
;WIDTH:0.397525
G1 X114.831 Y180.826 E0.00485
;WIDTH:0.33982
G1 X114.727 Y180.93 E0.00404
;WIDTH:0.282114
G1 X114.624 Y181.034 E0.00323
;WIDTH:0.224409
G1 X114.52 Y181.137 E0.00242
;WIDTH:0.166703
G1 X114.417 Y181.241 E0.00162
G1 X114.376 Y181.281 E0.00064
G1 E-0.06 F2400
;WIPE_START
G1 F19200
G1 X114.417 Y181.241 E-0.00684
G1 X114.52 Y181.137 E-0.01738
;WIPE_END
G1 E-0.51578 F2400
G1 X118.704 Y176.952 F24000
G1 E0.6 F2400
G1 F9000
G1 X118.745 Y176.911 E0.00064
G1 X118.849 Y176.808 E0.00162
;WIDTH:0.224409
G1 X118.952 Y176.704 E0.00242
;WIDTH:0.282114
G1 X119.056 Y176.6 E0.00323
;WIDTH:0.33982
G1 X119.159 Y176.497 E0.00404
;WIDTH:0.397525
G1 X119.263 Y176.393 E0.00485
;WIDTH:0.45523
G1 X119.366 Y176.29 E0.00566
;WIDTH:0.512936
G1 X119.47 Y176.186 E0.00647
;WIDTH:0.570641
G1 X119.573 Y176.083 E0.00728
;WIDTH:0.628347
G1 F8557.7319
G1 X119.677 Y175.979 E0.00809
;WIDTH:0.686052
G1 F7779.4962
G1 X119.78 Y175.876 E0.0089
;WIDTH:0.766669
G1 F6902.5503
G1 X119.884 Y175.772 E0.01003
G1 X120.006 Y175.65 E0.01186
;WIDTH:0.858316
G1 F6118.4771
G1 X120.128 Y175.528 E0.01337
G1 X120.869 Y174.787 F24000
;WIDTH:0.166703
G1 F9000
G1 X120.909 Y174.746 E0.00064
G1 X121.013 Y174.643 E0.00162
;WIDTH:0.224409
G1 X121.116 Y174.539 E0.00242
;WIDTH:0.282114
G1 X121.22 Y174.436 E0.00323
;WIDTH:0.33982
G1 X121.323 Y174.332 E0.00404
;WIDTH:0.397525
G1 X121.427 Y174.229 E0.00485
;WIDTH:0.45523
G1 X121.53 Y174.125 E0.00566
;WIDTH:0.512936
G1 X121.634 Y174.022 E0.00647
;WIDTH:0.570641
G1 X121.737 Y173.918 E0.00728
;WIDTH:0.628347
G1 F8557.7319
G1 X121.841 Y173.815 E0.00809
;WIDTH:0.686052
G1 F7779.4962
G1 X121.944 Y173.711 E0.0089
;WIDTH:0.766669
G1 F6902.5503
G1 X122.048 Y173.608 E0.01003
G1 X122.17 Y173.485 E0.01186
;WIDTH:0.858316
G1 F6118.4771
G1 X122.292 Y173.363 E0.01337
G1 E-0.06 F2400
;WIPE_START
G1 F19200
G1 X122.17 Y173.485 E-0.02055
;WIPE_END
G1 E-0.51945 F2400
G1 X113.89 Y151.386 F24000
G1 E0.6 F2400
;TYPE:Solid infill
;WIDTH:0.6
G1 F7200
G1 X112.359 Y151.386 E0.08043
G1 X110.549 Y151.934 E0.09938
G1 X114.411 Y151.934 E0.20291
G1 X115.429 Y152.483 E0.06077
G1 X108.739 Y152.483 E0.35152
G1 X107.251 Y152.933 E0.08167
G1 X107.258 Y153.031 E0.00515
G1 X116.448 Y153.031 E0.48283
G1 X117.466 Y153.58 E0.06077
G1 X107.295 Y153.58 E0.53437
G1 X107.333 Y154.128 E0.02888
G1 X118.982 Y154.128 E0.61205
G1 E-0.06 F2400
;WIPE_START
G1 F19200
G1 X114.662 Y154.128 E-0.513
;WIPE_END
G1 E-0.027 F2400
G1 X134.306 Y109.7 F24000
G1 E0.6 F2400
G1 F7200
G1 X136.315 Y109.7 E0.10553
G1 X136.798 Y110.249 E0.03842
G1 X133.716 Y110.249 E0.16197
G1 X132.584 Y110.797 E0.06606
G1 X137.282 Y110.797 E0.24681
G1 X137.765 Y111.346 E0.03842
G1 X131.453 Y111.346 E0.33165
