; generated by SuperSlicer 2.5.59 on 2023-06-21 at 00:52:20 UTC


;
;

;
;
; 

; external perimeters extrusion width = 0.50mm
; perimeters extrusion width = 0.50mm
; infill extrusion width = 0.75mm
; solid infill extrusion width = 0.65mm
; top infill extrusion width = 0.60mm
; first layer extrusion width = 0.60mm

; object:{"name":"support+desiccant_tray_upto_218mm_spools","id":"support+desiccant_tray_upto_218mm_spools.STL id:0 copy 0","object_center":[135.849033,155.274083,0.000000],"boundingbox_center":[135.849033,155.274083,61.093278],"boundingbox_size":[172.409059,172.400749,122.186556]}
EXCLUDE_OBJECT_DEFINE NAME=support_desiccant_tray_upto_218mm_spools_STL_id_0_copy_0 CENTER=135.849033,155.274083 POLYGON=[[49.644500,201.207728],[49.659240,200.722128],[49.689544,200.234800],[49.735656,199.745760],[49.797888,199.254944],[49.848076,198.929408],[49.933868,198.456352],[50.034408,197.986272],[50.149664,197.519376],[50.279648,197.055824],[50.424392,196.595680],[50.584036,196.138896],[50.758720,195.685616],[50.948648,195.235872],[51.154068,194.789696],[51.375292,194.347216],[51.529008,194.059264],[51.766648,193.640928],[52.017288,193.230320],[52.280852,192.827376],[52.557044,192.432816],[52.846056,192.046352],[99.886064,132.826704],[99.907184,132.800688],[99.923504,132.780672],[99.942016,132.758528],[99.962752,132.734256],[99.985720,132.707840],[100.006912,132.683592],[100.031888,132.655272],[100.059160,132.624760],[100.078120,132.603744],[100.107984,132.570896],[100.139752,132.536272],[100.173440,132.499848],[100.209016,132.461640],[100.246512,132.421632],[100.285936,132.379824],[100.304928,132.359728],[100.345840,132.316560],[100.388704,132.271576],[100.433536,132.224728],[100.480392,132.175976],[100.512112,132.143096],[100.560336,132.093264],[100.609984,132.042128],[100.661088,131.989704],[100.713624,131.935960],[100.767592,131.880920],[100.823040,131.824552],[100.879944,131.766864],[100.938344,131.707808],[100.998264,131.647400],[101.059712,131.585584],[101.101008,131.544144],[101.162472,131.482592],[101.224776,131.420336],[101.287912,131.357392],[101.351880,131.293744],[101.416688,131.229416],[101.482344,131.164400],[101.548840,131.098664],[101.616216,131.032208],[101.684464,130.965040],[101.753608,130.897128],[101.799848,130.851792],[101.867664,130.785432],[101.935592,130.719072],[102.003664,130.652696],[115.043504,117.954240],[115.111696,117.887896],[115.180032,117.821552],[115.248512,117.755216],[115.317136,117.688888],[115.385904,117.622568],[115.454816,117.556248],[115.523896,117.489944],[115.569792,117.445960],[115.636312,117.382336],[115.702264,117.319424],[115.767648,117.257184],[115.832456,117.195648],[115.896696,117.134808],[115.960360,117.074672],[116.023432,117.015240],[116.085904,116.956528],[116.147792,116.898560],[116.209048,116.841336],[116.249160,116.803968],[116.306936,116.750264],[116.363512,116.697880],[116.418856,116.646792],[116.472976,116.597016],[116.525864,116.548544],[116.577512,116.501400],[116.627920,116.455592],[116.677056,116.411144],[116.695520,116.394456],[116.743880,116.350920],[116.790912,116.308808],[116.820984,116.282000],[116.863960,116.243896],[116.905176,116.207584],[116.944640,116.173048],[116.982344,116.140320],[117.018280,116.109392],[117.052448,116.080280],[117.084816,116.052984],[117.108112,116.033536],[117.138960,116.007848],[117.167944,115.984072],[117.195024,115.962248],[117.211688,115.949032],[117.234576,115.931248],[117.259824,115.911632],[117.280808,115.895768],[117.299680,115.882008],[117.325984,115.862984],[179.577520,71.940824],[179.845136,71.753512],[180.116624,71.571976],[180.391984,71.396208],[180.671280,71.226208],[180.954432,71.062016],[181.241488,70.903672],[181.532416,70.751184],[181.827600,70.604456],[182.126592,70.463824],[182.428848,70.329480],[182.886032,70.140816],[183.347104,69.967760],[183.656704,69.860864],[183.968080,69.760744],[184.281280,69.667368],[184.596176,69.580736],[184.912864,69.500816],[185.391200,69.393584],[185.873440,69.301568],[186.197152,69.248704],[186.686128,69.182232],[187.179152,69.131344],[187.504240,69.106560],[187.990848,69.082400],[188.476224,69.073712],[188.799056,69.076440],[189.121344,69.085936],[189.443104,69.102184],[189.764320,69.125168],[190.084960,69.154896],[190.405024,69.191352],[190.724592,69.234560],[191.043568,69.284536],[191.361936,69.341320],[191.679696,69.404896],[191.997168,69.475448],[192.313856,69.552944],[192.628720,69.637080],[193.095984,69.775248],[193.556848,69.927624],[193.860592,70.036960],[194.161584,70.152512],[194.459872,70.274256],[194.755376,70.402160],[195.048144,70.536216],[195.482176,70.748912],[195.909920,70.975528],[196.191632,71.134352],[196.609008,71.384384],[197.020000,71.648696],[197.370000,71.888720],[197.711904,72.137264],[198.045808,72.394312],[198.371712,72.659784],[198.689632,72.933552],[198.999536,73.215536],[199.301424,73.505632],[217.622320,91.828112],[217.912048,92.129696],[218.193552,92.439200],[218.466832,92.756544],[218.731808,93.081832],[218.988528,93.415128],[219.236832,93.756488],[219.476624,94.105976],[219.741008,94.516952],[219.991120,94.934208],[220.150048,95.215880],[220.376800,95.643800],[220.589520,96.077608],[220.723728,96.370408],[220.851712,96.666016],[220.973504,96.964200],[221.089136,97.265168],[221.198576,97.568952],[221.351040,98.029824],[221.489344,98.497008],[221.573600,98.812040],[221.651120,99.128768],[221.721696,99.446040],[221.785408,99.763904],[221.842256,100.082368],[221.892288,100.401384],[221.935552,100.720936],[221.972064,101.041016],[222.001856,101.361688],[222.024912,101.682920],[222.041200,102.004720],[222.050768,102.327024],[222.053552,102.649904],[222.044960,103.135328],[222.020880,103.622008],[221.996128,103.947160],[221.945280,104.440392],[221.878880,104.929472],[221.826064,105.253248],[221.734016,105.735928],[221.626832,106.214248],[221.546944,106.531048],[221.460272,106.846264],[221.366912,107.159472],[221.266784,107.470976],[221.159904,107.780728],[220.986752,108.242048],[220.798144,108.699312],[220.663696,109.001840],[220.522960,109.300976],[220.376304,109.596072],[220.223728,109.887216],[220.065280,110.174448],[219.901008,110.457736],[219.730928,110.737096],[219.555168,111.012480],[219.373600,111.284056],[219.186224,111.551800],[175.265664,173.806688],[175.246640,173.832992],[175.232960,173.851808],[175.217136,173.872768],[175.197504,173.898048],[175.179696,173.920960],[175.159728,173.946096],[175.137584,173.973424],[175.113232,174.002992],[175.093584,174.026512],[175.067232,174.058048],[175.048928,174.079760],[175.020016,174.113680],[174.989264,174.149440],[174.956640,174.187040],[174.922144,174.226464],[174.885808,174.267728],[174.847584,174.310848],[174.807440,174.355872],[174.765376,174.402752],[174.721376,174.451584],[174.704800,174.469888],[174.659264,174.520160],[174.628800,174.553680],[174.581936,174.605008],[174.533680,174.657696],[174.484016,174.711712],[174.432928,174.767056],[174.380432,174.823728],[174.326528,174.881760],[174.271168,174.941152],[174.214352,175.001920],[174.156048,175.064080],[174.096240,175.127680],[174.056704,175.169632],[173.996880,175.232944],[173.936272,175.296960],[173.874816,175.361680],[173.812560,175.427088],[173.749472,175.493232],[173.685552,175.560064],[173.620800,175.627616],[173.555200,175.695888],[173.488736,175.764912],[173.421408,175.834672],[173.377040,175.880560],[173.311040,175.948704],[173.244896,176.016848],[173.178608,176.084960],[160.478720,189.123904],[160.412272,189.192064],[160.345696,189.260208],[160.278992,189.328352],[160.212160,189.396496],[160.145168,189.464640],[160.078064,189.532784],[160.010800,189.600928],[159.966576,189.645664],[159.901808,189.711024],[159.837632,189.775696],[159.774016,189.839648],[159.710944,189.902896],[159.648448,189.965424],[159.586512,190.027248],[159.525184,190.088352],[159.464400,190.148720],[159.404224,190.208336],[159.344672,190.267184],[159.305664,190.305632],[159.249504,190.360864],[159.194544,190.414768],[159.140768,190.467328],[159.088192,190.518560],[159.036800,190.568448],[158.986656,190.616992],[158.937696,190.664176],[158.890000,190.709968],[158.843552,190.754336],[158.798400,190.797280],[158.769280,190.824848],[158.749200,190.843808],[158.707504,190.883136],[158.667504,190.920624],[158.629232,190.956272],[158.592656,190.990080],[158.557808,191.022064],[158.524688,191.052176],[158.493328,191.080416],[158.463744,191.106752],[158.435968,191.131152],[158.411616,191.152416],[158.385408,191.175088],[158.369296,191.188832],[158.347136,191.207360],[158.327040,191.223760],[158.301056,191.244864],[99.400992,238.009104],[99.021928,238.309200],[98.632400,238.598048],[98.232288,238.875584],[97.821432,239.141616],[97.543944,239.311024],[97.126208,239.551232],[96.701664,239.777888],[96.270184,239.991200],[95.832032,240.190912],[95.386896,240.377184],[94.934704,240.549904],[94.475480,240.708864],[94.009144,240.853872],[93.535568,240.984704],[93.054600,241.101104],[92.734688,241.169520],[92.261416,241.257760],[91.786072,241.331056],[91.308720,241.389408],[90.829192,241.432832],[90.347624,241.461216],[89.863960,241.474464],[89.378160,241.472448],[88.890232,241.454896],[88.400160,241.421600],[87.907880,241.372256],[87.580312,241.330512],[87.105152,241.257104],[86.632544,241.168880],[86.162768,241.065856],[85.695904,240.948032],[85.232072,240.815344],[84.771232,240.667680],[84.313472,240.504880],[83.858832,240.326752],[83.407368,240.133024],[82.959184,239.923424],[82.667320,239.777312],[82.242784,239.550624],[81.825632,239.310752],[81.415832,239.057744],[81.014080,238.791904],[80.620064,238.513024],[80.233808,238.220976],[79.855496,237.915664],[79.485232,237.596928],[79.123136,237.264544],[78.769392,236.918208],[54.132844,212.279792],[53.796936,211.932672],[53.472724,211.575856],[53.159852,211.209008],[52.858284,210.832096],[52.568192,210.445104],[52.289596,210.047984],[52.022620,209.640560],[51.767424,209.222720],[51.605988,208.941920],[51.376772,208.517920],[51.161256,208.087456],[50.959320,207.650416],[50.771112,207.207056],[50.596552,206.757056],[50.435736,206.300368],[50.288856,205.837040],[50.156096,205.366944],[50.037720,204.889984],[49.933968,204.406032],[49.874200,204.085712],[49.798384,203.610224],[49.737556,203.133072],[49.691712,202.654320],[49.660860,202.173776],[49.645088,201.691584],[49.644500,201.207728]]
; plater:{"center":[135.849033,155.274083,0.000000],"boundingbox_center":[135.849033,155.274083,61.093278],"boundingbox_size":[172.409059,172.400749,122.186556]}

;TYPE:Custom
PRINT_START EXTRUDER=255 BED=110 AREA_START=46.5127,65.9964 AREA_END=225.133,244.607
M107
G21 ; set units to millimeters
G90 ; use absolute coordinates
M83 ; use relative distances for extrusion
SET_PRESSURE_ADVANCE SMOOTH_TIME=0.02
SET_PRESSURE_ADVANCE ADVANCE=0.02
;_TOOLCHANGE 0
M109 S255 ; set temperature and wait for it to be reached
M190 S110 ; set bed temperature and wait for it to be reached
M107
;LAYER_CHANGE
;Z:0.2
;HEIGHT:0.2
;BEFORE_LAYER_CHANGE
TIMELAPSE_TAKE_FRAME
;0.2


G1 Z0.2 F48000
;AFTER_LAYER_CHANGE
;0.2
G92 E0
G1 E-0.8 F3600
M204 S5000
G1 Z0.3 F48000
G1 X119.129 Y125.884
G1 Z0.2
G1 E0.8 F3600
;TYPE:Skirt
;WIDTH:0.6
G1 F1800
G1 X52.601 Y188.842 E3.86096
G1 X51.011 Y190.559 E0.09862
G1 X49.725 Y192.365 E0.09347
G1 X48.588 Y194.514 E0.10247
G1 X47.762 Y196.782 E0.10178
G1 X47.227 Y199.321 E0.10935
G1 X47.07 Y201.566 E0.09486
G1 X47.243 Y204.146 E0.109
G1 X47.698 Y206.346 E0.09469
G1 X48.568 Y208.796 E0.10962
G1 X49.785 Y211.087 E0.10935
G1 X50.857 Y212.606 E0.07837
G1 X52.199 Y214.121 E0.08531
G1 X76.936 Y238.865 E1.47484
G1 X78.55 Y240.295 E0.09088
G1 X80.067 Y241.359 E0.07809
G1 X81.347 Y242.088 E0.06212
G1 X82.717 Y242.722 E0.06361
G1 X85.367 Y243.575 E0.11735
G1 X88.124 Y244.002 E0.1176
G1 X90.917 Y243.989 E0.11773
G1 X92.382 Y243.804 E0.06224
G1 X93.846 Y243.492 E0.0631
G1 X96.491 Y242.582 E0.11792
G1 X97.98 Y241.848 E0.07001
G1 X99.253 Y241.072 E0.06282
G1 X101.438 Y239.347 E0.11736
G1 X219.738 Y114.432 E7.252
G1 X220.899 Y113.076 E0.07525
G1 X221.851 Y111.714 E0.07006
G1 X223.076 Y109.413 E0.10988
G1 X223.951 Y106.95 E0.11017
G1 X224.47 Y104.222 E0.11705
G1 X224.563 Y101.608 E0.11025
G1 X224.245 Y98.888 E0.11547
G1 X223.66 Y96.679 E0.09632
G1 X222.575 Y94.127 E0.11689
G1 X221.213 Y91.924 E0.10917
G1 X219.447 Y89.846 E0.11492
G1 X201.348 Y71.748 E1.07892
G1 X199.748 Y70.326 E0.09021
G1 X198.392 Y69.361 E0.07015
G1 X197.219 Y68.67 E0.05743
G1 X195.868 Y68.014 E0.06329
G1 X194.534 Y67.497 E0.06028
G1 X191.843 Y66.811 E0.11706
G1 X189.044 Y66.554 E0.11848
G1 X187.555 Y66.599 E0.06284
G1 X185.914 Y66.797 E0.06966
G1 X184.26 Y67.157 E0.07133
G1 X182.644 Y67.675 E0.07155
G1 X181.127 Y68.326 E0.06958
G1 X179.561 Y69.188 E0.07535
G1 X178.431 Y69.947 E0.05739
G1 X177.14 Y70.986 E0.06985
G1 X119.183 Y125.833 E3.36352
G1 X119.566 Y126.237 F48000
G1 F1800
G1 X52.984 Y189.247 E3.86412
G1 X51.447 Y190.905 E0.09528
G1 X50.201 Y192.654 E0.09052
G1 X49.095 Y194.745 E0.09973
G1 X48.298 Y196.931 E0.09807
G1 X47.78 Y199.389 E0.10589
G1 X47.627 Y201.563 E0.09187
G1 X47.795 Y204.074 E0.10605
G1 X48.233 Y206.193 E0.09121
G1 X49.08 Y208.577 E0.10665
G1 X50.26 Y210.795 E0.1059
G1 X51.291 Y212.257 E0.0754
G1 X52.598 Y213.733 E0.08311
G1 X77.33 Y238.471 E1.47452
G1 X78.898 Y239.86 E0.08829
G1 X80.357 Y240.884 E0.07514
G1 X81.608 Y241.596 E0.06065
G1 X82.934 Y242.209 E0.06161
G1 X85.501 Y243.034 E0.11364
G1 X88.159 Y243.446 E0.1134
G1 X90.864 Y243.435 E0.11402
G1 X92.294 Y243.254 E0.06077
G1 X93.712 Y242.951 E0.06111
G1 X96.274 Y242.069 E0.11419
G1 X97.716 Y241.357 E0.0678
G1 X98.948 Y240.606 E0.06084
G1 X101.064 Y238.935 E0.11365
G1 X219.333 Y114.049 E7.25022
G1 X220.454 Y112.74 E0.07263
G1 X221.377 Y111.421 E0.06786
G1 X222.564 Y109.194 E0.10641
G1 X223.415 Y106.797 E0.1072
G1 X223.917 Y104.155 E0.11335
G1 X224.006 Y101.624 E0.10677
G1 X223.697 Y98.988 E0.11189
G1 X223.134 Y96.861 E0.09273
G1 X222.16 Y94.537 E0.10622
G1 X220.765 Y92.256 E0.1127
G1 X219.053 Y90.24 E0.11147
G1 X200.955 Y72.141 E1.07892
G1 X199.4 Y70.761 E0.08765
G1 X198.086 Y69.827 E0.06793
G1 X196.963 Y69.165 E0.05497
G1 X194.349 Y68.023 E0.12023
G1 X191.743 Y67.359 E0.11337
G1 X189.044 Y67.111 E0.11425
G1 X187.589 Y67.155 E0.06135
G1 X186 Y67.347 E0.06746
G1 X184.41 Y67.693 E0.06857
G1 X182.845 Y68.195 E0.0693
G1 X181.376 Y68.825 E0.06739
G1 X179.846 Y69.667 E0.07363
G1 X178.764 Y70.394 E0.05492
G1 X177.514 Y71.4 E0.06765
G1 X119.621 Y126.186 E3.35982
G1 E-0.08 F3600
;WIPE_START
G1 F38400
G1 X125.199 Y120.907 E-0.684
;WIPE_END
G1 E-0.036 F3600
G1 Z0.3 F48000
; printing object support+desiccant_tray_upto_218mm_spools.STL id:0 copy 0
EXCLUDE_OBJECT_START NAME=support_desiccant_tray_upto_218mm_spools_STL_id_0_copy_0
G1 X94.789 Y235.965
G1 Z0.2
G1 E0.8 F3600
;TYPE:Internal perimeter
G1 F1800
G1 X94.49 Y236.126 E0.01428
G1 X94.183 Y236.279 E0.0145
G1 X93.87 Y236.423 E0.0145
G1 X93.553 Y236.558 E0.01453
G1 X93.23 Y236.682 E0.01458
G1 X92.903 Y236.797 E0.01463
G1 X92.57 Y236.902 E0.0147
G1 X92.232 Y236.997 E0.0148
G1 X91.893 Y237.08 E0.0147
G1 X91.318 Y237.197 E0.02476
G1 X90.983 Y237.249 E0.01427
G1 X90.642 Y237.293 E0.01448
G1 X90.3 Y237.325 E0.01451
G1 X89.956 Y237.347 E0.01453
G1 X89.613 Y237.357 E0.01445
G1 X89.263 Y237.357 E0.01475
G1 X88.915 Y237.346 E0.0147
G1 X88.564 Y237.324 E0.01479
G1 X88.221 Y237.291 E0.01455
G1 X87.634 Y237.209 E0.02499
G1 X87.301 Y237.148 E0.01426
G1 X86.965 Y237.076 E0.01448
G1 X86.632 Y236.994 E0.01445
G1 X86.299 Y236.9 E0.01458
G1 X85.97 Y236.796 E0.01457
G1 X85.642 Y236.681 E0.01463
G1 X85.318 Y236.555 E0.01464
G1 X84.999 Y236.42 E0.01464
G1 X84.46 Y236.163 E0.02516
G1 X84.16 Y236.005 E0.01427
G1 X83.862 Y235.835 E0.0145
G1 X83.57 Y235.656 E0.0144
G1 X83.28 Y235.466 E0.01461
G1 X82.998 Y235.268 E0.01454
G1 X82.721 Y235.061 E0.01459
G1 X82.452 Y234.845 E0.01454
G1 X82.185 Y234.617 E0.01481
G1 X81.925 Y234.381 E0.0148
G1 X81.665 Y234.128 E0.01527
G1 X56.991 Y209.45 E1.47098
G1 X56.754 Y209.206 E0.01438
G1 X56.52 Y208.95 E0.01458
G1 X56.295 Y208.689 E0.01454
G1 X56.079 Y208.42 E0.01456
G1 X55.871 Y208.144 E0.01458
G1 X55.671 Y207.86 E0.01461
