; generated by SuperSlicer 2.5.59 on 2023-06-14 at 23:56:59 UTC


;
;

;
;
; 

; external perimeters extrusion width = 0.50mm
; perimeters extrusion width = 0.50mm
; infill extrusion width = 0.75mm
; solid infill extrusion width = 0.65mm
; top infill extrusion width = 0.60mm
; support material extrusion width = 0.50mm
; first layer extrusion width = 0.60mm

; object:{"name":"MainBox","id":"MainBox.STL id:0 copy 0","object_center":[149.993819,150.000428,0.000000],"boundingbox_center":[149.993819,150.000428,21.015999],"boundingbox_size":[223.005495,229.830485,42.031998]}
EXCLUDE_OBJECT_DEFINE NAME=MainBox_STL_id_0_copy_0 CENTER=149.993819,150.000428 POLYGON=[[38.491072,191.326080],[109.731368,93.145016],[167.791200,35.085184],[207.615040,47.968232],[261.496576,101.849760],[254.851168,122.145152],[195.128944,238.435936],[193.332880,240.231984],[112.080656,264.915648],[108.740416,261.575440],[49.766608,202.601632],[43.744852,196.579872],[38.897660,191.732672],[38.491072,191.326080]]
; plater:{"center":[149.993819,150.000428,0.000000],"boundingbox_center":[149.993819,150.000428,21.015999],"boundingbox_size":[223.005495,229.830485,42.031998]}

;TYPE:Custom
PRINT_START EXTRUDER=260 BED=110 AREA_START=32.3108,28.9049 AREA_END=267.677,271.102
M107
G21 ; set units to millimeters
G90 ; use absolute coordinates
M83 ; use relative distances for extrusion
;_TOOLCHANGE 0
M104 S260 ; set temperature
M109 S260 ; set temperature and wait for it to be reached
M190 S110 ; set bed temperature and wait for it to be reached
M107
;LAYER_CHANGE
;Z:0.3
;HEIGHT:0.3
;BEFORE_LAYER_CHANGE
TIMELAPSE_TAKE_FRAME
;0.3


G1 Z0.3 F48000
;AFTER_LAYER_CHANGE
;0.3
G92 E0
G1 E-2.7 F3600
M204 S5000
G1 Z0.4 F48000
G1 X105.176 Y89.737
G1 Z0.3
G1 E2.7 F3600
;TYPE:Skirt
;WIDTH:0.6
G1 F1800
G1 X33.935 Y187.918 E6.40198
G1 X33.142 Y189.445 E0.09083
G1 X32.834 Y191.568 E0.11323
G1 X33.318 Y193.658 E0.11323
G1 X34.529 Y195.43 E0.11323
G1 X107.977 Y268.878 E5.48195
G1 X109.563 Y270.003 E0.10264
G1 X111.635 Y270.561 E0.11323
G1 X113.768 Y270.327 E0.11323
G1 X195.02 Y245.643 E4.4817
G1 X197.437 Y244.194 E0.14872
G1 X199.091 Y242.54 E0.1235
G1 X200.15 Y241.087 E0.09486
G1 X259.872 Y124.796 E6.89943
G1 X260.225 Y123.951 E0.04834
G1 X266.87 Y103.656 E1.12707
G1 X267.154 Y101.607 E0.10912
G1 X266.669 Y99.517 E0.11323
G1 X265.459 Y97.746 E0.11323
G1 X211.719 Y44.006 E4.011
G1 X209.401 Y42.588 E0.14338
G1 X169.577 Y29.705 E2.20899
G1 X167.549 Y29.428 E0.10805
G1 X165.459 Y29.912 E0.11323
G1 X163.688 Y31.123 E0.11323
G1 X105.769 Y89.041 E4.32285
G1 X105.224 Y89.68 E0.04429
G1 X105.63 Y90.026 F48000
G1 F1800
G1 X105.609 Y90.051 E0.00173
G1 X34.369 Y188.232 E6.40198
G1 X33.751 Y189.345 E0.06716
G1 X33.365 Y191.351 E0.10783
G1 X33.77 Y193.354 E0.10783
G1 X34.908 Y195.051 E0.10783
G1 X108.356 Y268.499 E5.48195
G1 X109.621 Y269.433 E0.08301
G1 X111.579 Y270.018 E0.10783
G1 X113.612 Y269.815 E0.10783
G1 X194.864 Y245.131 E4.4817
G1 X197.058 Y243.815 E0.135
G1 X198.712 Y242.161 E0.1235
G1 X199.673 Y240.842 E0.0861
G1 X259.396 Y124.552 E6.89943
G1 X259.716 Y123.784 E0.04388
G1 X266.361 Y103.489 E1.12707
G1 X266.623 Y101.825 E0.08891
G1 X266.217 Y99.822 E0.10783
G1 X265.08 Y98.125 E0.10783
G1 X211.34 Y44.385 E4.011
G1 X209.236 Y43.098 E0.13015
G1 X169.413 Y30.215 E2.20899
G1 X167.766 Y29.959 E0.08794
G1 X165.764 Y30.365 E0.10783
G1 X164.066 Y31.502 E0.10783
G1 X106.148 Y89.42 E4.32285
G1 X105.679 Y89.969 E0.03811
G1 E-2.7 F3600
G1 Z0.4 F48000
; printing object MainBox.STL id:0 copy 0
EXCLUDE_OBJECT_START NAME=MainBox_STL_id_0_copy_0
G1 X136.322 Y122.825
G1 Z0.3
G1 E2.7 F3600
;TYPE:Internal perimeter
G1 F1800
G1 X135.578 Y122.669 E0.0401
G1 X134.528 Y122.625 E0.05545
G1 X134.122 Y122.676 E0.02164
G1 X133.486 Y122.755 E0.03381
G1 X132.479 Y123.055 E0.05545
G1 X131.535 Y123.517 E0.05545
G1 X130.68 Y124.127 E0.05545
G1 X129.937 Y124.87 E0.05545
G1 X129.327 Y125.725 E0.05545
G1 X128.865 Y126.669 E0.05545
G1 X128.565 Y127.676 E0.05545
G1 X128.435 Y128.718 E0.05545
G1 X128.479 Y129.768 E0.05545
G1 X128.694 Y130.796 E0.05545
G1 X129.076 Y131.775 E0.05545
G1 X129.614 Y132.678 E0.05545
G1 X130.225 Y133.399 E0.04988
G1 X166.295 Y169.468 E2.69213
G1 X167.016 Y170.079 E0.04988
G1 X167.918 Y170.617 E0.05545
G1 X168.897 Y170.999 E0.05545
G1 X169.925 Y171.215 E0.05545
G1 X170.975 Y171.258 E0.05545
G1 X172.018 Y171.128 E0.05545
G1 X173.025 Y170.828 E0.05545
G1 X173.968 Y170.367 E0.05545
G1 X174.824 Y169.756 E0.05545
G1 X175.566 Y169.013 E0.05545
G1 X176.177 Y168.158 E0.05545
G1 X176.638 Y167.215 E0.05545
G1 X176.938 Y166.208 E0.05545
G1 X177.068 Y165.165 E0.05545
G1 X177.025 Y164.115 E0.05545
G1 X176.809 Y163.087 E0.05545
G1 X176.427 Y162.108 E0.05545
G1 X175.889 Y161.206 E0.05545
G1 X175.278 Y160.485 E0.04988
G1 X139.209 Y124.415 E2.69213
G1 X138.488 Y123.804 E0.04988
G1 X137.585 Y123.266 E0.05545
G1 X136.606 Y122.884 E0.05545
G1 X136.395 Y122.84 E0.01139
G1 X135.859 Y123.275 F48000
G1 F1800
G1 X135.512 Y123.202 E0.01873
G1 X134.551 Y123.162 E0.05076
G1 X134.188 Y123.208 E0.01929
G1 X133.596 Y123.281 E0.03147
G1 X132.674 Y123.556 E0.05076
G1 X131.81 Y123.978 E0.05076
G1 X131.027 Y124.537 E0.05076
G1 X130.347 Y125.217 E0.05076
G1 X129.788 Y126 E0.05076
G1 X129.366 Y126.864 E0.05076
G1 X129.091 Y127.786 E0.05076
G1 X128.972 Y128.741 E0.05076
G1 X129.012 Y129.702 E0.05076
G1 X129.21 Y130.643 E0.05076
G1 X129.559 Y131.539 E0.05076
G1 X130.052 Y132.365 E0.05076
G1 X130.619 Y133.036 E0.04637
G1 X166.658 Y169.074 E2.68979
G1 X167.328 Y169.642 E0.04637
G1 X168.155 Y170.134 E0.05076
G1 X169.051 Y170.484 E0.05076
G1 X169.992 Y170.681 E0.05076
G1 X170.953 Y170.721 E0.05076
G1 X171.907 Y170.602 E0.05076
G1 X172.829 Y170.328 E0.05076
G1 X173.693 Y169.905 E0.05076
G1 X174.476 Y169.346 E0.05076
G1 X175.156 Y168.666 E0.05076
G1 X175.715 Y167.883 E0.05076
G1 X176.138 Y167.019 E0.05076
G1 X176.412 Y166.097 E0.05076
G1 X176.531 Y165.143 E0.05076
G1 X176.491 Y164.182 E0.05076
G1 X176.294 Y163.24 E0.05076
G1 X175.944 Y162.344 E0.05076
G1 X175.452 Y161.518 E0.05076
G1 X174.884 Y160.848 E0.04637
G1 X138.846 Y124.809 E2.68979
G1 X138.175 Y124.242 E0.04637
G1 X137.349 Y123.749 E0.05076
G1 X136.453 Y123.4 E0.05076
G1 X135.932 Y123.29 E0.02807
G1 X135.232 Y123.727 F48000
G1 F1800
G1 X134.573 Y123.699 E0.03481
G1 X134.254 Y123.739 E0.01695
G1 X133.706 Y123.807 E0.02913
G1 X132.87 Y124.057 E0.04608
G1 X132.085 Y124.44 E0.04608
G1 X131.375 Y124.947 E0.04608
G1 X130.757 Y125.565 E0.04608
G1 X130.25 Y126.275 E0.04608
G1 X129.867 Y127.06 E0.04608
G1 X129.617 Y127.896 E0.04608
G1 X129.509 Y128.763 E0.04608
G1 X129.546 Y129.635 E0.04608
G1 X129.725 Y130.49 E0.04608
G1 X130.042 Y131.303 E0.04608
G1 X130.489 Y132.053 E0.04608
G1 X131.014 Y132.673 E0.04286
G1 X167.021 Y168.68 E2.68746
G1 X167.641 Y169.204 E0.04286
G1 X168.391 Y169.651 E0.04608
G1 X169.204 Y169.969 E0.04608
G1 X170.058 Y170.148 E0.04608
G1 X170.931 Y170.184 E0.04608
G1 X171.797 Y170.076 E0.04608
G1 X172.634 Y169.827 E0.04608
G1 X173.418 Y169.443 E0.04608
G1 X174.129 Y168.936 E0.04608
G1 X174.746 Y168.319 E0.04608
G1 X175.253 Y167.608 E0.04608
G1 X175.637 Y166.824 E0.04608
G1 X175.886 Y165.987 E0.04608
G1 X175.994 Y165.121 E0.04608
G1 X175.958 Y164.248 E0.04608
G1 X175.779 Y163.394 E0.04608
G1 X175.461 Y162.58 E0.04608
G1 X175.014 Y161.83 E0.04608
G1 X174.49 Y161.211 E0.04286
G1 X138.483 Y125.204 E2.68746
G1 X137.863 Y124.679 E0.04286
G1 X137.113 Y124.232 E0.04608
G1 X136.3 Y123.915 E0.04608
G1 X135.445 Y123.736 E0.04608
G1 X135.307 Y123.73 E0.00731
G1 X134.834 Y124.246 F48000
G1 F1800
G1 X134.595 Y124.236 E0.01263
G1 X134.32 Y124.271 E0.01461
G1 X133.817 Y124.333 E0.02679
G1 X133.065 Y124.557 E0.04139
G1 X132.36 Y124.902 E0.04139
G1 X131.722 Y125.357 E0.04139
G1 X131.167 Y125.912 E0.04139
G1 X130.712 Y126.55 E0.04139
G1 X130.367 Y127.255 E0.04139
G1 X130.143 Y128.007 E0.04139
G1 X130.046 Y128.785 E0.04139
G1 X130.079 Y129.569 E0.04139
G1 X130.24 Y130.336 E0.04139
G1 X130.525 Y131.067 E0.04139
G1 X130.926 Y131.741 E0.04139
G1 X131.408 Y132.309 E0.03934
G1 X167.384 Y168.285 E2.68512
G1 X167.953 Y168.767 E0.03934
G1 X168.627 Y169.169 E0.04139
G1 X169.357 Y169.454 E0.04139
G1 X170.125 Y169.615 E0.04139
G1 X170.909 Y169.647 E0.04139
G1 X171.687 Y169.55 E0.04139
G1 X172.438 Y169.326 E0.04139
G1 X173.143 Y168.982 E0.04139
G1 X173.781 Y168.526 E0.04139
G1 X174.336 Y167.971 E0.04139
G1 X174.792 Y167.333 E0.04139
G1 X175.136 Y166.628 E0.04139
G1 X175.36 Y165.877 E0.04139
G1 X175.457 Y165.098 E0.04139
G1 X175.425 Y164.315 E0.04139
G1 X175.264 Y163.547 E0.04139
G1 X174.979 Y162.817 E0.04139
G1 X174.577 Y162.143 E0.04139
G1 X174.095 Y161.574 E0.03934
G1 X138.12 Y125.598 E2.68512
G1 X137.551 Y125.116 E0.03934
G1 X136.877 Y124.715 E0.04139
G1 X136.146 Y124.43 E0.04139
G1 X135.379 Y124.269 E0.04139
G1 X134.909 Y124.249 E0.02481
G1 X134.382 Y124.803 F48000
;TYPE:External perimeter
G1 F1800
G1 X133.927 Y124.859 E0.02417
G1 X133.26 Y125.058 E0.03671
G1 X132.636 Y125.363 E0.03671
G1 X132.069 Y125.768 E0.03671
G1 X131.578 Y126.259 E0.03671
G1 X131.173 Y126.825 E0.03671
G1 X130.868 Y127.45 E0.03671
G1 X130.669 Y128.117 E0.03671
G1 X130.583 Y128.807 E0.03671
G1 X130.612 Y129.502 E0.03671
G1 X130.755 Y130.183 E0.03671
G1 X131.008 Y130.831 E0.03671
G1 X131.364 Y131.428 E0.03671
G1 X131.803 Y131.946 E0.03583
G1 X167.747 Y167.891 E2.68278
G1 X168.265 Y168.33 E0.03583
G1 X168.863 Y168.686 E0.03671
G1 X169.511 Y168.939 E0.03671
G1 X170.191 Y169.081 E0.03671
G1 X170.886 Y169.11 E0.03671
G1 X171.576 Y169.024 E0.03671
G1 X172.243 Y168.825 E0.03671
G1 X172.868 Y168.52 E0.03671
G1 X173.434 Y168.116 E0.03671
G1 X173.926 Y167.624 E0.03671
G1 X174.33 Y167.058 E0.03671
G1 X174.636 Y166.433 E0.03671
G1 X174.834 Y165.766 E0.03671
G1 X174.92 Y165.076 E0.03671
G1 X174.891 Y164.381 E0.03671
G1 X174.749 Y163.701 E0.03671
G1 X174.496 Y163.053 E0.03671
G1 X174.14 Y162.455 E0.03671
G1 X173.701 Y161.937 E0.03583
G1 X137.756 Y125.993 E2.68278
G1 X137.238 Y125.554 E0.03583
G1 X136.641 Y125.198 E0.03671
G1 X135.993 Y124.945 E0.03671
G1 X135.312 Y124.802 E0.03671
G1 X134.617 Y124.773 E0.03671
G1 X134.456 Y124.794 E0.00858
;WIPE_START
M204 S10000
G1 X134.08 Y124.404 F48000
;WIPE_END
G1 E-2.7 F3600
M204 S5000
G1 Z0.4 F48000
G1 X145.365 Y109.87
G1 Z0.3
G1 E2.7 F3600
;TYPE:Internal perimeter
G1 F1800
G1 X145.005 Y110.046 E0.02112
G1 X144.15 Y110.657 E0.05545
G1 X143.408 Y111.4 E0.05545
G1 X142.797 Y112.255 E0.05545
G1 X142.336 Y113.198 E0.05545
G1 X142.036 Y114.205 E0.05545
G1 X141.906 Y115.248 E0.05545
G1 X141.949 Y116.298 E0.05545
G1 X142.165 Y117.326 E0.05545
G1 X142.547 Y118.305 E0.05545
G1 X143.085 Y119.207 E0.05545
G1 X143.695 Y119.928 E0.04988
G1 X179.765 Y155.998 E2.69213
G1 X180.486 Y156.609 E0.04988
G1 X181.389 Y157.147 E0.05545
G1 X182.368 Y157.529 E0.05545
G1 X183.396 Y157.744 E0.05545
G1 X184.445 Y157.788 E0.05544
G1 X185.488 Y157.658 E0.05545
G1 X186.495 Y157.358 E0.05545
G1 X187.439 Y156.896 E0.05545
G1 X188.294 Y156.286 E0.05545
G1 X189.037 Y155.543 E0.05545
G1 X189.647 Y154.688 E0.05545
G1 X190.109 Y153.744 E0.05545
G1 X190.408 Y152.737 E0.05544
G1 X190.538 Y151.695 E0.05545
G1 X190.495 Y150.645 E0.05545
G1 X190.279 Y149.617 E0.05545
G1 X189.897 Y148.638 E0.05545
G1 X189.36 Y147.735 E0.05545
G1 X188.749 Y147.014 E0.04988
G1 X152.679 Y110.945 E2.69214
G1 X151.958 Y110.334 E0.04988
G1 X151.055 Y109.796 E0.05545
G1 X150.077 Y109.414 E0.05545
G1 X149.048 Y109.198 E0.05545
G1 X147.999 Y109.155 E0.05545
G1 X147.477 Y109.22 E0.02773
G1 X146.956 Y109.285 E0.02772
G1 X145.949 Y109.585 E0.05545
G1 X145.432 Y109.838 E0.03037
G1 X145.924 Y110.193 F48000
G1 F1800
G1 X145.281 Y110.508 E0.03779
G1 X144.498 Y111.067 E0.05076
G1 X143.818 Y111.747 E0.05076
G1 X143.259 Y112.53 E0.05076
G1 X142.836 Y113.394 E0.05076
G1 X142.562 Y114.316 E0.05076
G1 X142.443 Y115.27 E0.05076
G1 X142.483 Y116.231 E0.05076
G1 X142.68 Y117.173 E0.05076
G1 X143.03 Y118.069 E0.05076
G1 X143.522 Y118.895 E0.05076
G1 X144.09 Y119.565 E0.04637
G1 X180.128 Y155.604 E2.68979
G1 X180.799 Y156.171 E0.04637
G1 X181.625 Y156.664 E0.05076
G1 X182.521 Y157.013 E0.05076
G1 X183.462 Y157.211 E0.05076
G1 X184.423 Y157.251 E0.05076
G1 X185.378 Y157.132 E0.05076
G1 X186.3 Y156.857 E0.05076
G1 X187.164 Y156.435 E0.05076
G1 X187.947 Y155.876 E0.05076
G1 X188.627 Y155.196 E0.05076
G1 X189.186 Y154.413 E0.05076
G1 X189.608 Y153.549 E0.05076
G1 X189.882 Y152.627 E0.05076
G1 X190.001 Y151.672 E0.05076
G1 X189.962 Y150.711 E0.05076
G1 X189.764 Y149.77 E0.05076
G1 X189.415 Y148.874 E0.05076
G1 X188.922 Y148.048 E0.05076
G1 X188.354 Y147.377 E0.04637
G1 X152.316 Y111.339 E2.6898
G1 X151.646 Y110.771 E0.04636
G1 X150.819 Y110.279 E0.05076
G1 X149.923 Y109.929 E0.05076
G1 X148.982 Y109.732 E0.05076
G1 X148.021 Y109.692 E0.05076
G1 X147.544 Y109.752 E0.02538
G1 X147.066 Y109.811 E0.02538
G1 X146.145 Y110.085 E0.05076
G1 X145.991 Y110.16 E0.00901
G1 X146.654 Y110.493 F48000
G1 F1800
G1 X146.34 Y110.586 E0.01727
G1 X145.556 Y110.97 E0.04608
G1 X144.845 Y111.477 E0.04608
G1 X144.228 Y112.094 E0.04608
G1 X143.72 Y112.805 E0.04608
G1 X143.337 Y113.589 E0.04608
G1 X143.088 Y114.426 E0.04608
G1 X142.98 Y115.292 E0.04608
G1 X143.016 Y116.165 E0.04608
G1 X143.195 Y117.019 E0.04608
G1 X143.512 Y117.833 E0.04608
G1 X143.959 Y118.583 E0.04608
G1 X144.484 Y119.202 E0.04286
G1 X180.491 Y155.209 E2.68746
G1 X181.111 Y155.734 E0.04286
G1 X181.861 Y156.181 E0.04608
G1 X182.674 Y156.498 E0.04608
G1 X183.529 Y156.678 E0.04608
G1 X184.401 Y156.714 E0.04608
G1 X185.267 Y156.606 E0.04608
G1 X186.104 Y156.356 E0.04608
G1 X186.889 Y155.973 E0.04608
G1 X187.599 Y155.466 E0.04608
G1 X188.217 Y154.848 E0.04608
G1 X188.724 Y154.138 E0.04608
G1 X189.107 Y153.353 E0.04608
G1 X189.356 Y152.517 E0.04608
G1 X189.464 Y151.65 E0.04608
G1 X189.428 Y150.778 E0.04608
G1 X189.249 Y149.923 E0.04608
G1 X188.932 Y149.11 E0.04608
G1 X188.485 Y148.36 E0.04608
G1 X187.96 Y147.74 E0.04286
G1 X151.953 Y111.733 E2.68746
G1 X151.333 Y111.209 E0.04285
G1 X150.583 Y110.762 E0.04608
G1 X149.77 Y110.444 E0.04608
G1 X148.916 Y110.265 E0.04608
G1 X148.043 Y110.229 E0.04608
G1 X147.61 Y110.283 E0.02304
G1 X147.177 Y110.337 E0.02304
G1 X146.726 Y110.471 E0.02485
G1 X147.167 Y110.899 F48000
G1 F1800
G1 X146.535 Y111.087 E0.03477
G1 X145.831 Y111.431 E0.04139
G1 X145.192 Y111.887 E0.04139
G1 X144.638 Y112.442 E0.04139
G1 X144.182 Y113.08 E0.04139
G1 X143.838 Y113.785 E0.04139
G1 X143.614 Y114.536 E0.04139
G1 X143.517 Y115.315 E0.04139
G1 X143.549 Y116.098 E0.04139
G1 X143.71 Y116.866 E0.04139
G1 X143.995 Y117.596 E0.04139
G1 X144.397 Y118.27 E0.04139
G1 X144.879 Y118.839 E0.03934
G1 X180.854 Y154.815 E2.68512
G1 X181.423 Y155.297 E0.03934
G1 X182.097 Y155.698 E0.04139
G1 X182.828 Y155.983 E0.04139
G1 X183.595 Y156.144 E0.04139
G1 X184.379 Y156.177 E0.04139
G1 X185.157 Y156.08 E0.04139
G1 X185.909 Y155.856 E0.04139
G1 X186.613 Y155.511 E0.04139
G1 X187.252 Y155.056 E0.04139
G1 X187.806 Y154.501 E0.04139
G1 X188.262 Y153.863 E0.04139
G1 X188.607 Y153.158 E0.04139
G1 X188.83 Y152.406 E0.04139
G1 X188.927 Y151.628 E0.04139
G1 X188.895 Y150.844 E0.04139
G1 X188.734 Y150.077 E0.04139
G1 X188.449 Y149.346 E0.04139
G1 X188.047 Y148.672 E0.04139
G1 X187.566 Y148.104 E0.03934
G1 X151.59 Y112.128 E2.68512
G1 X151.021 Y111.646 E0.03934
G1 X150.347 Y111.245 E0.04139
G1 X149.617 Y110.959 E0.04139
G1 X148.849 Y110.798 E0.04139
G1 X148.065 Y110.766 E0.04139
G1 X147.676 Y110.815 E0.0207
G1 X147.287 Y110.863 E0.0207
G1 X147.239 Y110.877 E0.00267
G1 X147.922 Y111.324 F48000
;TYPE:External perimeter
G1 F1800
G1 X147.742 Y111.346 E0.00957
G1 X147.397 Y111.389 E0.01835
G1 X146.731 Y111.588 E0.03671
G1 X146.106 Y111.893 E0.03671
G1 X145.54 Y112.297 E0.03671
G1 X145.048 Y112.789 E0.03671
G1 X144.644 Y113.355 E0.03671
G1 X144.338 Y113.98 E0.03671
G1 X144.14 Y114.647 E0.03671
G1 X144.054 Y115.337 E0.03671
G1 X144.083 Y116.032 E0.03671
G1 X144.225 Y116.712 E0.03671
G1 X144.478 Y117.36 E0.03671
G1 X144.834 Y117.958 E0.03671
G1 X145.273 Y118.476 E0.03583
G1 X181.217 Y154.42 E2.68278
G1 X181.736 Y154.859 E0.03583
G1 X182.333 Y155.215 E0.03671
G1 X182.981 Y155.468 E0.03671
G1 X183.662 Y155.611 E0.03671
G1 X184.357 Y155.64 E0.03671
