; generated by SuperSlicer 2.5.59 on 2023-08-19 at 01:44:49 UTC


;
;

;
;
; 

; external perimeters extrusion width = 0.50mm
; perimeters extrusion width = 0.50mm
; infill extrusion width = 0.75mm
; solid infill extrusion width = 0.65mm
; top infill extrusion width = 0.60mm
; first layer extrusion width = 0.60mm

; object:{"name":"Minimal_support_upto_218mm_spools","id":"Minimal_support_upto_218mm_spools.STL id:0 copy 0","object_center":[142.754477,157.246368,0.000000],"boundingbox_center":[142.754477,157.246368,61.091009],"boundingbox_size":[150.868653,150.868739,122.182018]}
EXCLUDE_OBJECT_DEFINE NAME=Minimal_support_upto_218mm_spools_STL_id_0_copy_0 CENTER=142.754477,157.246368 POLYGON=[[67.320152,196.661504],[67.321368,196.626624],[67.323800,196.591792],[67.327456,196.557072],[67.332304,196.522528],[67.338368,196.488144],[67.345624,196.454016],[67.354064,196.420128],[67.363696,196.386560],[67.374480,196.353376],[67.386432,196.320576],[67.399488,196.288208],[67.413696,196.256320],[67.428992,196.224960],[67.445384,196.194144],[67.462832,196.163904],[67.481320,196.134304],[112.338728,129.272384],[112.358304,129.244464],[112.368336,129.230408],[112.388776,129.203320],[112.400888,129.187304],[112.415184,129.169176],[112.436296,129.143160],[112.452624,129.123136],[112.471128,129.100984],[112.491856,129.076720],[112.514824,129.050296],[112.536024,129.026032],[112.561000,128.997712],[112.588264,128.967192],[112.607216,128.946168],[112.637088,128.913328],[112.668856,128.878696],[112.702528,128.842272],[112.738104,128.804048],[112.775600,128.764040],[112.815016,128.722232],[112.834016,128.702120],[112.874920,128.658968],[112.917768,128.613968],[112.962608,128.567112],[113.009464,128.518368],[113.041168,128.485472],[113.089392,128.435640],[113.139040,128.384504],[113.190144,128.332064],[113.242672,128.278320],[113.296648,128.223264],[113.352080,128.166904],[113.408984,128.109208],[113.467376,128.050152],[113.527288,127.989744],[113.588736,127.927936],[113.630032,127.886480],[113.691496,127.824904],[113.753800,127.762648],[113.816928,127.699704],[113.880888,127.636064],[113.945696,127.571728],[114.011344,127.506696],[114.077848,127.440968],[114.145208,127.374512],[114.213464,127.307328],[114.282600,127.239416],[114.328840,127.194080],[114.396648,127.127712],[114.464576,127.061352],[114.532640,126.994984],[127.571912,114.295928],[127.640104,114.229584],[127.708432,114.163240],[127.776920,114.096904],[127.845536,114.030576],[127.914304,113.964248],[127.983216,113.897928],[128.052280,113.831616],[128.098176,113.787640],[128.164704,113.724024],[128.230656,113.661088],[128.296040,113.598856],[128.360840,113.537312],[128.425080,113.476480],[128.488736,113.416336],[128.551800,113.356904],[128.614288,113.298192],[128.676160,113.240232],[128.737408,113.183000],[128.777528,113.145632],[128.835312,113.091936],[128.891880,113.039536],[128.947224,112.988448],[129.001344,112.938672],[129.054232,112.890208],[129.105880,112.843064],[129.156280,112.797256],[129.205416,112.752808],[129.223880,112.736112],[129.272248,112.692584],[129.319272,112.650472],[129.349352,112.623672],[129.392320,112.585560],[129.433536,112.549248],[129.472992,112.514728],[129.510712,112.481992],[129.546648,112.451064],[129.580808,112.421952],[129.613176,112.394672],[129.636472,112.375216],[129.667328,112.349536],[129.696320,112.325752],[129.723392,112.303936],[129.740048,112.290728],[129.762936,112.272936],[129.788192,112.253320],[129.809176,112.237456],[129.828048,112.223696],[129.854352,112.204680],[129.871248,112.192912],[129.898344,112.174680],[129.913208,112.164968],[129.941040,112.147584],[129.953824,112.139960],[129.982328,112.123456],[130.011368,112.107912],[130.022080,112.102416],[130.051712,112.087816],[130.081800,112.074200],[130.112336,112.061600],[130.120896,112.058304],[130.151888,112.046696],[216.511504,81.863256],[216.544528,81.852888],[216.577872,81.843656],[216.611504,81.835592],[216.645424,81.828704],[216.679536,81.822992],[216.713840,81.818448],[216.748256,81.815104],[216.782784,81.812960],[216.817376,81.812008],[216.851968,81.812240],[216.886544,81.813664],[216.921024,81.816304],[216.955408,81.820136],[216.989648,81.825144],[217.023680,81.831336],[217.057488,81.838696],[217.091040,81.847224],[217.124240,81.856912],[217.157088,81.867736],[217.189552,81.879696],[217.221584,81.892760],[217.253136,81.906944],[217.284192,81.922200],[217.314704,81.938512],[217.344624,81.955888],[217.373936,81.974280],[217.402592,81.993672],[217.430544,82.014056],[217.457760,82.035376],[217.484256,82.057640],[217.509968,82.080792],[217.534848,82.104832],[217.895968,82.465968],[217.920016,82.490848],[217.943184,82.516552],[217.965424,82.543040],[217.986752,82.570280],[218.007136,82.598240],[218.026528,82.626888],[218.044928,82.656192],[218.062288,82.686104],[218.078608,82.716624],[218.093872,82.747672],[218.108048,82.779224],[218.121120,82.811256],[218.133072,82.843720],[218.143888,82.876576],[218.153600,82.909784],[218.162112,82.943312],[218.169472,82.977128],[218.175664,83.011160],[218.180672,83.045392],[218.184512,83.079784],[218.187136,83.114264],[218.188576,83.148840],[218.188816,83.183440],[218.187856,83.218016],[218.185696,83.252544],[218.182352,83.286976],[218.177824,83.321280],[218.172112,83.355392],[218.165216,83.389288],[218.157152,83.422944],[218.147920,83.456288],[218.137536,83.489296],[187.953344,169.851360],[187.941744,169.882320],[187.929104,169.912896],[187.925184,169.922064],[187.911568,169.952112],[187.896976,169.981728],[187.893088,169.989120],[187.877536,170.018160],[187.861040,170.046656],[187.853536,170.059328],[187.836144,170.087152],[187.826528,170.101904],[187.808304,170.128992],[187.796624,170.145792],[187.777600,170.172112],[187.763920,170.190896],[187.748080,170.211872],[187.710656,170.260064],[187.690688,170.285184],[187.668544,170.312512],[187.644176,170.342080],[187.624544,170.365600],[187.598176,170.397136],[187.579872,170.418832],[187.550960,170.452768],[187.520208,170.488528],[187.487600,170.526128],[187.453104,170.565552],[187.416752,170.606816],[187.378528,170.649936],[187.338400,170.694944],[187.296320,170.741840],[187.252320,170.790672],[187.235744,170.808976],[187.190240,170.859216],[187.159760,170.892752],[187.112912,170.944096],[187.064640,170.996768],[187.014976,171.050784],[186.963904,171.106128],[186.911408,171.162816],[186.857488,171.220832],[186.802128,171.280224],[186.745312,171.341008],[186.687008,171.403168],[186.627216,171.466768],[186.587680,171.508720],[186.527856,171.572016],[186.467232,171.636048],[186.405808,171.700768],[186.343536,171.766176],[186.280464,171.832304],[186.216544,171.899136],[186.151792,171.966704],[186.086192,172.034976],[186.019744,172.104000],[185.952416,172.173760],[185.908048,172.219648],[185.842048,172.287792],[185.775888,172.355936],[185.709616,172.424080],[173.010320,185.463584],[172.943872,185.531744],[172.877312,185.599888],[172.810608,185.668032],[172.743760,185.736176],[172.676784,185.804336],[172.609664,185.872496],[172.542416,185.940624],[172.498176,185.985360],[172.433440,186.050736],[172.369264,186.115408],[172.305632,186.179360],[172.242576,186.242608],[172.180080,186.305152],[172.118144,186.366976],[172.056816,186.428064],[171.996048,186.488448],[171.935888,186.548064],[171.876320,186.606928],[171.837312,186.645392],[171.781152,186.700624],[171.726192,186.754512],[171.672432,186.807104],[171.619856,186.858320],[171.568480,186.908224],[171.518320,186.956752],[171.469392,187.003936],[171.421680,187.049744],[171.375232,187.094112],[171.330080,187.137072],[171.300976,187.164640],[171.280896,187.183632],[171.239200,187.222928],[171.199216,187.260416],[171.160928,187.296080],[171.124352,187.329888],[171.089520,187.361872],[171.056400,187.392000],[171.025056,187.420240],[170.995472,187.446592],[170.967680,187.471008],[170.943360,187.492272],[170.917152,187.514944],[170.901008,187.528688],[170.878880,187.547216],[170.858784,187.563616],[170.832784,187.584720],[170.814544,187.599136],[170.798384,187.611392],[170.771296,187.631824],[170.757088,187.642000],[170.729168,187.661568],[103.870240,232.516944],[103.866416,232.519424],[103.841368,232.535152],[103.836824,232.537904],[103.811904,232.552400],[103.806592,232.555360],[103.781864,232.568640],[103.775776,232.571744],[103.751256,232.583840],[103.744400,232.587056],[103.720200,232.597968],[103.712512,232.601264],[103.688656,232.611024],[103.680152,232.614320],[103.656656,232.623024],[103.647344,232.626272],[103.624328,232.633888],[103.614160,232.637056],[103.591568,232.643664],[103.580600,232.646672],[103.558552,232.652320],[103.546728,232.655120],[103.525280,232.659824],[103.512592,232.662384],[103.491688,232.666208],[103.478208,232.668432],[103.457944,232.671440],[103.443648,232.673296],[103.424088,232.675504],[103.408936,232.676944],[103.390072,232.678400],[103.374112,232.679376],[103.355968,232.680160],[103.339232,232.680608],[103.321832,232.680736],[103.321776,232.680736],[103.304328,232.680592],[103.287632,232.680160],[103.269448,232.679360],[103.253592,232.678416],[103.234624,232.676944],[103.219528,232.675504],[103.199912,232.673296],[103.185616,232.671424],[103.165352,232.668432],[103.151864,232.666192],[103.130968,232.662384],[103.118320,232.659824],[103.096832,232.655120],[103.085024,232.652320],[103.062968,232.646672],[103.051976,232.643680],[103.029408,232.637040],[103.019256,232.633904],[102.996216,232.626256],[102.986904,232.623008],[102.963408,232.614336],[102.954928,232.611024],[102.931048,232.601264],[102.923376,232.597968],[102.899160,232.587056],[102.892288,232.583824],[102.880008,232.577872],[102.867800,232.571760],[102.861728,232.568640],[102.849304,232.562080],[102.836976,232.555376],[102.831664,232.552416],[102.819152,232.545264],[102.806744,232.537920],[102.802192,232.535152],[102.789616,232.527376],[102.777144,232.519424],[102.773328,232.516944],[102.760712,232.508512],[102.748208,232.499904],[102.745096,232.497712],[102.732464,232.488656],[82.600856,218.009984],[82.573040,217.989664],[82.545944,217.968432],[82.519592,217.946256],[82.494016,217.923200],[82.469264,217.899296],[82.101448,217.531472],[82.077528,217.506720],[82.054472,217.481136],[82.032304,217.454784],[82.011056,217.427696],[81.990760,217.399872],[67.500840,197.252528],[67.481328,197.223584],[67.462840,197.193984],[67.445384,197.163760],[67.429000,197.132928],[67.413696,197.101568],[67.399488,197.069680],[67.386416,197.037328],[67.374480,197.004512],[67.363704,196.971312],[67.354080,196.937776],[67.345632,196.903904],[67.338360,196.869744],[67.332320,196.835376],[67.327456,196.800816],[67.323808,196.766112],[67.321376,196.731280],[67.320152,196.696400],[67.320152,196.661504]]
; plater:{"center":[142.754477,157.246368,0.000000],"boundingbox_center":[142.754477,157.246368,61.091009],"boundingbox_size":[150.868653,150.868739,122.182018]}

;TYPE:Custom
PRINT_START EXTRUDER=260 BED=110 AREA_START=60.2745,74.7643 AREA_END=225.241,239.72
M107
G21 ; set units to millimeters
G90 ; use absolute coordinates
M83 ; use relative distances for extrusion
SET_PRESSURE_ADVANCE SMOOTH_TIME=0.02
SET_PRESSURE_ADVANCE ADVANCE=0.022
;_TOOLCHANGE 0
M104 S260 ; set temperature
M109 S260 ; set temperature and wait for it to be reached
M190 S110 ; set bed temperature and wait for it to be reached
M107
;LAYER_CHANGE
;Z:0.2
;HEIGHT:0.2
;BEFORE_LAYER_CHANGE
TIMELAPSE_TAKE_FRAME
;0.2


G1 Z0.2 F36000
;AFTER_LAYER_CHANGE
;0.2
G92 E0
G1 E-0.8 F3600
G1 Z0.3 F36000
M204 S5000
G1 X123.173 Y130.066
G1 Z0.2
G1 E0.8 F3600
;TYPE:Skirt
;WIDTH:0.6
G1 F1800
G1 X115.797 Y137.051 E0.41877
G1 X62.716 Y192.391 E3.1613
G1 X61.82 Y193.551 E0.06041
G1 X61.386 Y194.384 E0.03874
G1 X61.046 Y195.368 E0.04294
G1 X60.856 Y196.428 E0.04436
G1 X60.837 Y197.493 E0.04394
G1 X60.961 Y198.426 E0.03877
G1 X61.26 Y199.458 E0.04429
G1 X61.69 Y200.379 E0.04192
G1 X76.722 Y221.358 E1.06397
G1 X77.786 Y222.549 E0.06584
G1 X78.618 Y223.261 E0.04517
G1 X99.565 Y238.28 E1.06259
G1 X100.391 Y238.683 E0.03788
G1 X101.363 Y238.992 E0.04204
G1 X102.524 Y239.164 E0.04839
G1 X103.575 Y239.144 E0.04335
G1 X104.556 Y238.974 E0.04104
G1 X105.666 Y238.593 E0.04839
G1 X106.59 Y238.091 E0.04337
G1 X107.609 Y237.285 E0.05354
G1 X163.15 Y184.002 E3.17305
G1 X184.291 Y161.668 E1.26782
G1 X185.113 Y160.611 E0.0552
G1 X223.94 Y85.509 E3.48546
G1 X224.453 Y84.178 E0.05879
G1 X224.684 Y82.432 E0.07263
G1 X224.621 Y81.501 E0.03846
G1 X224.43 Y80.589 E0.03842
G1 X223.746 Y78.993 E0.07156
G1 X222.736 Y77.681 E0.06829
G1 X221.853 Y76.848 E0.05004
G1 X221.114 Y76.319 E0.03744
G1 X220.29 Y75.887 E0.03839
G1 X219.412 Y75.571 E0.03845
G1 X218.242 Y75.351 E0.0491
G1 X217.21 Y75.326 E0.04254
G1 X216.285 Y75.441 E0.03845
G1 X215.383 Y75.683 E0.03848
G1 X214.463 Y76.076 E0.04123
G1 X140.016 Y114.531 E3.45445
G1 X139.153 Y115.045 E0.04142
G1 X138.338 Y115.704 E0.04319
G1 X123.227 Y130.014 E0.85799
G1 X123.61 Y130.419 F36000
G1 F1800
G1 X116.199 Y137.436 E0.42076
G1 X63.118 Y192.777 E3.1613
G1 X62.298 Y193.838 E0.05529
G1 X61.899 Y194.602 E0.03554
G1 X61.586 Y195.503 E0.03933
G1 X61.411 Y196.476 E0.04075
G1 X61.394 Y197.464 E0.04074
G1 X61.508 Y198.319 E0.03557
G1 X61.783 Y199.267 E0.04069
G1 X62.172 Y200.101 E0.03792
G1 X77.174 Y221.033 E1.06168
G1 X78.181 Y222.156 E0.06222
G1 X78.944 Y222.809 E0.04137
G1 X99.838 Y237.795 E1.06004
G1 X100.595 Y238.164 E0.03475
G1 X101.485 Y238.449 E0.03851
G1 X102.562 Y238.609 E0.04486
G1 X103.527 Y238.588 E0.03982
G1 X104.415 Y238.436 E0.03712
G1 X105.444 Y238.082 E0.04486
G1 X106.293 Y237.62 E0.03985
G1 X107.223 Y236.883 E0.04893
G1 X162.746 Y183.619 E3.17194
G1 X183.887 Y161.285 E1.26782
G1 X184.646 Y160.307 E0.05104
G1 X223.445 Y85.253 E3.48318
G1 X223.916 Y84.03 E0.05404
G1 X224.127 Y82.426 E0.06668
G1 X223.892 Y80.736 E0.07036
G1 X223.269 Y79.281 E0.06522
G1 X222.341 Y78.074 E0.06277
G1 X221.619 Y77.379 E0.04135
G1 X220.826 Y76.796 E0.04054
G1 X219.265 Y76.109 E0.07031
G1 X218.18 Y75.904 E0.04552
G1 X217.235 Y75.883 E0.03897
G1 X216.386 Y75.989 E0.03527
G1 X215.559 Y76.211 E0.0353
G1 X214.719 Y76.57 E0.03767
G1 X139.467 Y115.505 E3.49301
G1 X138.721 Y116.109 E0.03953
G1 X123.664 Y130.367 E0.85489
G1 E-0.08 F3600
;WIPE_START
G1 F28800
M204 S10000
G1 X127.847 Y126.407 E-0.684
;WIPE_END
G1 E-0.036 F3600
G1 Z0.3 F36000
; printing object Minimal_support_upto_218mm_spools.STL id:0 copy 0
EXCLUDE_OBJECT_START NAME=Minimal_support_upto_218mm_spools_STL_id_0_copy_0
; acceleration to travel
G1 X155.948 Y158.979
; decel to extrusion
M204 S5000
G1 X161.019 Y164.857
; end travel
G1 Z0.2
G1 E0.8 F3600
;TYPE:Internal perimeter
G1 F1800
G1 X137.207 Y141.045 E1.38828
G1 X137.014 Y140.871 E0.01073
G1 X136.759 Y140.684 E0.01302
G1 X136.485 Y140.525 E0.01308
G1 X136.196 Y140.394 E0.01308
G1 X135.895 Y140.293 E0.01308
G1 X135.585 Y140.224 E0.01307
G1 X135.27 Y140.187 E0.01307
G1 X134.917 Y140.182 E0.01455
G1 X134.617 Y140.22 E0.01248
G1 X134.428 Y140.243 E0.00786
G1 X133.922 Y140.397 E0.02181
G1 X133.449 Y140.635 E0.02181
G1 X133.067 Y140.918 E0.0196
G1 X128.861 Y144.9 E0.23878
G1 X128.593 Y145.2 E0.01658
G1 X128.384 Y145.517 E0.01565
G1 X103.411 Y192.491 E2.19322
G1 X103.25 Y192.909 E0.01845
G1 X103.169 Y193.259 E0.01481
G1 X103.126 Y193.615 E0.0148
G1 X103.134 Y194.081 E0.0192
G1 X103.19 Y194.435 E0.01481
G1 X103.283 Y194.782 E0.01481
G1 X103.465 Y195.211 E0.0192
G1 X103.65 Y195.519 E0.0148
G1 X103.866 Y195.805 E0.0148
G1 X104.221 Y196.161 E0.0207
G1 X104.632 Y196.449 E0.0207
G1 X104.968 Y196.62 E0.01555
G1 X105.339 Y196.755 E0.01625
G1 X105.689 Y196.835 E0.0148
G1 X106.099 Y196.879 E0.017
G1 X106.529 Y196.864 E0.01775
G1 X106.935 Y196.792 E0.017
G1 X107.279 Y196.687 E0.0148
G1 X107.589 Y196.549 E0.01401
G1 X154.817 Y171.44 E2.20507
G1 X160.999 Y164.911 E0.37069
G1 X160.247 Y164.873 F36000
G1 F1800
G1 X136.824 Y141.449 E1.36564
G1 X136.662 Y141.304 E0.00896
G1 X136.453 Y141.151 E0.01067
G1 X136.229 Y141.02 E0.01071
G1 X135.992 Y140.913 E0.01071
G1 X135.746 Y140.831 E0.01072
G1 X135.492 Y140.774 E0.01071
G1 X135.234 Y140.744 E0.01071
G1 X134.948 Y140.74 E0.01179
G1 X134.686 Y140.772 E0.0109
