; generated by A3dp-Slicer 2.5 on 2022-11-22 at 00:10:43 UTC


;
;

;
;
; 

; external perimeters extrusion width = 0.50mm
; perimeters extrusion width = 0.50mm
; infill extrusion width = 0.60mm
; solid infill extrusion width = 0.60mm
; top infill extrusion width = 0.50mm

; object:{"name":"Nylock_Tool_No_initial (1)","id":"Nylock_Tool_No_initial (1).stl id:0 copy 0","object_center":[150.000000,150.000000,0.000000],"boundingbox_center":[150.000000,150.000000,3.000000],"boundingbox_size":[63.684866,63.684866,6.000000]}
; plater:{"center":[150.000000,150.000000,0.000000],"boundingbox_center":[150.000000,150.000000,3.000000],"boundingbox_size":[63.684866,63.684866,6.000000]}

;TYPE:Custom
PRINT_START EXTRUDER=260 BED=110
M107
G21 ; set units to millimeters
G90 ; use absolute coordinates
M83 ; use relative distances for extrusion
SET_PRESSURE_ADVANCE SMOOTH_TIME=0.03
SET_PRESSURE_ADVANCE ADVANCE=0.06
;_TOOLCHANGE 0
M104 S260 ; set temperature
M109 S260 ; set temperature and wait for it to be reached
M190 S110 ; set bed temperature and wait for it to be reached
M107
;LAYER_CHANGE
;Z:0.2
;HEIGHT:0.2
;BEFORE_LAYER_CHANGE
;0.2


G1 Z0.2 F24000
;AFTER_LAYER_CHANGE
;0.2
G92 E0
G1 E-0.6 F2400
M204 S5000
G1 X115.503 Y115.895 F24000
G1 E0.6 F2400
;TYPE:Skirt
;WIDTH:0.48
G1 F3600
G1 X114.541 Y117.067 E0.05291
G1 X113.721 Y118.437 E0.05569
G1 X113.148 Y119.821 E0.05227
G1 X112.759 Y121.371 E0.05576
G1 X112.609 Y122.873 E0.05267
G1 X112.688 Y124.47 E0.05579
G1 X112.981 Y125.949 E0.05259
G1 X113.516 Y127.445 E0.05543
G1 X114.235 Y128.791 E0.05324
G1 X115.181 Y130.065 E0.05538
G1 X115.797 Y130.722 E0.03143
G1 X172.896 Y184.993 E2.74844
G1 X173.647 Y185.637 E0.0345
G1 X175.056 Y186.512 E0.05789
G1 X176.099 Y186.944 E0.03937
G1 X177.728 Y187.323 E0.05837
G1 X179.115 Y187.391 E0.04843
G1 X180.238 Y187.281 E0.0394
G1 X181.855 Y186.848 E0.05839
G1 X183.128 Y186.245 E0.04913
G1 X184.487 Y185.27 E0.05839
G1 X185.637 Y184.039 E0.05875
G1 X186.512 Y182.63 E0.05789
G1 X187.105 Y181.054 E0.05876
G1 X187.378 Y179.399 E0.05851
G1 X187.323 Y177.728 E0.05832
G1 X186.944 Y176.099 E0.05837
G1 X186.245 Y174.558 E0.05901
G1 X185.27 Y173.198 E0.05839
G1 X130.722 Y115.797 E2.76274
G1 X129.249 Y114.541 E0.06753
G1 X128.378 Y113.987 E0.03602
G1 X127.445 Y113.516 E0.03649
G1 X125.949 Y112.981 E0.05543
G1 X124.946 Y112.759 E0.03585
G1 X123.924 Y112.634 E0.03592
G1 X122.393 Y112.634 E0.05341
G1 X120.835 Y112.865 E0.05496
G1 X119.368 Y113.31 E0.05348
G1 X117.938 Y113.987 E0.0552
G1 X116.681 Y114.828 E0.05275
G1 X115.548 Y115.855 E0.05336
G1 X115.84 Y116.177 F24000
G1 F3600
G1 X114.892 Y117.327 E0.05201
G1 X114.117 Y118.623 E0.05269
G1 X113.559 Y119.969 E0.05082
G1 X113.191 Y121.435 E0.05275
G1 X113.046 Y122.895 E0.05119
G1 X113.12 Y124.406 E0.05278
G1 X113.405 Y125.843 E0.05112
G1 X113.911 Y127.258 E0.05244
G1 X114.61 Y128.566 E0.05171
G1 X115.504 Y129.772 E0.0524
G1 X116.098 Y130.406 E0.0303
G1 X173.906 Y185.285 E2.781
G1 X175.243 Y186.117 E0.05495
G1 X176.246 Y186.532 E0.03786
G1 X177.792 Y186.891 E0.0554
G1 X179.094 Y186.955 E0.04545
G1 X180.174 Y186.849 E0.03789
G1 X181.708 Y186.437 E0.05541
G1 X182.902 Y185.871 E0.0461
G1 X184.193 Y184.946 E0.05541
G1 X185.285 Y183.78 E0.05574
G1 X186.117 Y182.443 E0.05495
G1 X186.681 Y180.948 E0.05575
G1 X186.941 Y179.378 E0.05552
G1 X186.891 Y177.792 E0.05535
G1 X186.532 Y176.246 E0.0554
G1 X185.871 Y174.784 E0.05598
G1 X184.946 Y173.492 E0.05541
G1 X130.406 Y116.098 E2.7624
G1 X128.989 Y114.892 E0.0649
G1 X128.153 Y114.362 E0.03453
G1 X127.258 Y113.911 E0.03497
G1 X125.843 Y113.405 E0.05244
G1 X123.902 Y113.07 E0.06874
G1 X122.415 Y113.07 E0.05187
G1 X120.94 Y113.289 E0.052
G1 X119.516 Y113.722 E0.05194
G1 X118.163 Y114.362 E0.05223
G1 X116.941 Y115.179 E0.05126
G1 X115.885 Y116.137 E0.04977
G1 X116.533 Y116.715 F24000
;WIDTH:0.5
G1 F3600
G1 X117.345 Y115.973 E0.04012
G1 X118.005 Y115.486 E0.02995
G1 X118.698 Y115.063 E0.02961
G1 X119.62 Y114.621 E0.03731
G1 X120.584 Y114.281 E0.03731
G1 X121.344 Y114.096 E0.02853
G1 X122.126 Y113.974 E0.02889
G1 X123.297 Y113.916 E0.04275
G1 X124.195 Y113.974 E0.03283
G1 X125.061 Y114.114 E0.03201
G1 X125.918 Y114.337 E0.03232
G1 X126.741 Y114.639 E0.03198
G1 X127.533 Y115.017 E0.03202
G1 X128.29 Y115.472 E0.03221
G1 X128.999 Y115.996 E0.03219
G1 X129.657 Y116.587 E0.03227
G1 X130.307 Y117.301 E0.03525
G1 X130.811 Y117.975 E0.03069
G1 X131.28 Y118.747 E0.03296
G1 X131.677 Y119.576 E0.03354
G1 X131.998 Y120.459 E0.03428
G1 X132.224 Y121.363 E0.03398
G1 X132.36 Y122.292 E0.03427
G1 X132.382 Y122.847 E0.02025
G1 X181.802 Y172.267 E2.55005
G1 X182.447 Y172.559 E0.02581
G1 X183.297 Y173.133 E0.03744
G1 X184.19 Y173.962 E0.04444
G1 X185.017 Y175.057 E0.05009
G1 X185.639 Y176.337 E0.05191
G1 X185.996 Y177.712 E0.05185
G1 X186.079 Y179.126 E0.05166
G1 X185.886 Y180.531 E0.05174
G1 X185.42 Y181.877 E0.05199
G1 X184.704 Y183.097 E0.05159
G1 X183.781 Y184.142 E0.05086
G1 X182.774 Y184.925 E0.04655
G1 X181.654 Y185.517 E0.04623
G1 X180.616 Y185.862 E0.03991
G1 X179.238 Y186.074 E0.05085
G1 X177.9 Y186.024 E0.04889
G1 X176.57 Y185.72 E0.04976
G1 X175.36 Y185.194 E0.04813
G1 X174.237 Y184.433 E0.04949
G1 X173.187 Y183.368 E0.05459
G1 X172.586 Y182.493 E0.03873
G1 X172.273 Y181.808 E0.02748
G1 X122.846 Y132.381 E2.55037
G1 X122.267 Y132.357 E0.02116
G1 X121.41 Y132.233 E0.0316
G1 X120.491 Y132.007 E0.03452
G1 X119.581 Y131.679 E0.0353
G1 X118.842 Y131.331 E0.02981
G1 X118.119 Y130.906 E0.03059
G1 X117.377 Y130.369 E0.03339
G1 X116.683 Y129.753 E0.03388
G1 X116.089 Y129.113 E0.03186
G1 X115.439 Y128.241 E0.0397
G1 X115.017 Y127.533 E0.03007
G1 X114.664 Y126.8 E0.02966
G1 X114.295 Y125.78 E0.03959
G1 X114.098 Y124.98 E0.03005
G1 X113.973 Y124.182 E0.02949
G1 X113.916 Y123.093 E0.03978
G1 X113.959 Y122.27 E0.03005
G1 X114.072 Y121.469 E0.02951
G1 X114.333 Y120.411 E0.03976
G1 X114.613 Y119.64 E0.02993
G1 X114.952 Y118.906 E0.02948
G1 X115.51 Y117.97 E0.03978
G1 X116.001 Y117.311 E0.02997
G1 X116.493 Y116.76 E0.02697
G1 X116.834 Y117.064 F24000
G1 F3600
G1 X116.875 Y117.018 E0.00223
G1 X117.626 Y116.334 E0.03708
G1 X118.252 Y115.871 E0.02842
G1 X118.926 Y115.459 E0.02882
G1 X119.784 Y115.048 E0.03471
G1 X120.704 Y114.722 E0.0356
G1 X121.443 Y114.542 E0.02775
G1 X122.185 Y114.427 E0.02739
G1 X123.28 Y114.373 E0.04003
G1 X124.133 Y114.427 E0.03117
G1 X124.957 Y114.559 E0.03043
G1 X125.771 Y114.77 E0.03071
G1 X126.554 Y115.057 E0.03041
G1 X127.307 Y115.415 E0.03043
G1 X128.027 Y115.846 E0.03061
G1 X128.719 Y116.357 E0.03138
G1 X129.343 Y116.919 E0.03064
G1 X129.961 Y117.6 E0.03359
G1 X130.437 Y118.24 E0.02908
G1 X130.883 Y118.975 E0.03137
G1 X131.26 Y119.763 E0.03188
G1 X131.564 Y120.604 E0.03261
G1 X131.778 Y121.462 E0.03228
G1 X131.906 Y122.346 E0.03257
G1 X131.932 Y123.043 E0.02546
G1 X181.539 Y172.65 E2.55968
G1 X182.208 Y172.949 E0.02672
G1 X183.027 Y173.502 E0.03607
G1 X183.838 Y174.254 E0.04035
G1 X184.616 Y175.278 E0.04694
G1 X185.202 Y176.475 E0.04863
G1 X185.542 Y177.763 E0.04858
G1 X185.624 Y179.087 E0.0484
G1 X185.446 Y180.404 E0.04848
G1 X185.013 Y181.667 E0.04871
G1 X184.346 Y182.812 E0.04836
G1 X183.483 Y183.795 E0.04772
G1 X182.542 Y184.531 E0.04359
G1 X181.491 Y185.09 E0.04344
G1 X180.526 Y185.414 E0.03713
G1 X179.233 Y185.616 E0.04777
G1 X177.979 Y185.573 E0.04576
G1 X176.733 Y185.292 E0.04662
G1 X175.562 Y184.783 E0.04656
G1 X174.513 Y184.068 E0.04633
G1 X173.552 Y183.093 E0.04996
G1 X172.974 Y182.251 E0.03725
G1 X172.655 Y181.543 E0.02832
G1 X123.043 Y131.931 E2.55995
G1 X122.32 Y131.903 E0.02637
G1 X121.486 Y131.782 E0.03075
G1 X120.612 Y131.567 E0.03286
G1 X119.746 Y131.253 E0.03358
G1 X119.046 Y130.922 E0.02826
G1 X118.378 Y130.529 E0.02831
G1 X117.672 Y130.02 E0.03173
G1 X116.995 Y129.418 E0.03304
G1 X116.433 Y128.811 E0.0302
G1 X115.825 Y127.996 E0.0371
G1 X115.424 Y127.325 E0.02852
G1 X115.081 Y126.612 E0.02886
G1 X114.736 Y125.658 E0.03702
G1 X114.548 Y124.9 E0.02851
G1 X114.426 Y124.122 E0.0287
G1 X114.373 Y123.104 E0.0372
G1 X114.413 Y122.324 E0.02852
G1 X114.523 Y121.544 E0.02871
G1 X114.767 Y120.555 E0.03718
G1 X115.032 Y119.823 E0.02841
G1 X115.361 Y119.109 E0.02868
G1 X115.884 Y118.233 E0.0372
G1 X116.349 Y117.608 E0.02843
G1 X116.794 Y117.109 E0.02441
G1 X117.134 Y117.413 F24000
G1 F3600
G1 X117.207 Y117.332 E0.00399
G1 X117.907 Y116.695 E0.03452
G1 X118.516 Y116.244 E0.02762
G1 X119.154 Y115.856 E0.02728
G1 X119.97 Y115.465 E0.03301
G1 X120.823 Y115.164 E0.03302
G1 X121.523 Y114.993 E0.02626
G1 X122.243 Y114.881 E0.0266
G1 X123.265 Y114.83 E0.03732
G1 X124.072 Y114.881 E0.0295
G1 X124.873 Y115.009 E0.02963
G1 X125.646 Y115.21 E0.02911
G1 X126.387 Y115.482 E0.02881
G1 X127.101 Y115.822 E0.02887
G1 X127.782 Y116.232 E0.029
G1 X128.438 Y116.717 E0.02977
G1 X129.028 Y117.25 E0.02901
G1 X129.615 Y117.899 E0.03192
G1 X130.064 Y118.503 E0.02747
G1 X130.486 Y119.202 E0.02977
G1 X130.843 Y119.95 E0.03023
G1 X131.13 Y120.747 E0.03094
G1 X131.331 Y121.561 E0.03057
G1 X131.452 Y122.399 E0.03088
G1 X131.481 Y123.239 E0.03068
G1 X181.276 Y173.034 E2.56937
G1 X181.969 Y173.339 E0.02761
G1 X182.757 Y173.871 E0.03469
G1 X183.487 Y174.547 E0.03631
G1 X184.216 Y175.501 E0.0438
G1 X184.767 Y176.615 E0.04535
G1 X185.087 Y177.815 E0.04531
G1 X185.167 Y179.05 E0.04515
G1 X185.006 Y180.278 E0.04521
G1 X184.606 Y181.457 E0.04543
G1 X183.987 Y182.528 E0.04512
G1 X183.183 Y183.449 E0.04459
G1 X182.308 Y184.137 E0.04062
G1 X181.326 Y184.663 E0.04065
G1 X180.435 Y184.965 E0.03434
G1 X179.226 Y185.159 E0.04466
G1 X178.017 Y185.117 E0.04416
G1 X176.856 Y184.851 E0.04346
G1 X175.766 Y184.373 E0.04342
G1 X174.79 Y183.703 E0.04319
G1 X173.918 Y182.817 E0.04537
G1 X173.363 Y182.009 E0.03576
G1 X173.038 Y181.28 E0.02913
G1 X123.239 Y131.481 E2.56958
G1 X122.373 Y131.449 E0.0316
G1 X121.584 Y131.336 E0.02909
G1 X120.756 Y131.133 E0.03113
G1 X119.932 Y130.835 E0.03195
G1 X119.251 Y130.513 E0.02748
G1 X118.619 Y130.14 E0.02678
G1 X117.949 Y129.656 E0.03014
G1 X117.308 Y129.085 E0.03136
G1 X116.777 Y128.51 E0.02855
G1 X116.212 Y127.751 E0.03451
G1 X115.822 Y127.1 E0.02771
G1 X115.498 Y126.425 E0.0273
G1 X115.177 Y125.536 E0.03447
G1 X114.994 Y124.799 E0.02771
G1 X114.879 Y124.064 E0.02716
G1 X114.83 Y123.116 E0.03463
G1 X114.869 Y122.358 E0.02771
G1 X114.973 Y121.62 E0.02717
G1 X115.201 Y120.699 E0.03462
G1 X115.458 Y119.987 E0.02761
G1 X115.771 Y119.312 E0.02715
G1 X116.257 Y118.497 E0.03464
G1 X116.709 Y117.889 E0.02763
G1 X117.094 Y117.458 E0.02109
G1 X117.435 Y117.763 F24000
G1 F3600
G1 X117.54 Y117.645 E0.00576
G1 X118.188 Y117.055 E0.03199
G1 X118.762 Y116.629 E0.02606
G1 X119.382 Y116.252 E0.02647
G1 X120.156 Y115.883 E0.03129
G1 X120.943 Y115.605 E0.03046
G1 X121.622 Y115.439 E0.02548
G1 X122.301 Y115.334 E0.02508
G1 X123.249 Y115.287 E0.03465
G1 X124.011 Y115.334 E0.02783
G1 X124.769 Y115.454 E0.02802
G1 X125.499 Y115.643 E0.0275
G1 X126.2 Y115.899 E0.02724
G1 X126.875 Y116.22 E0.02726
G1 X127.537 Y116.618 E0.02818
G1 X128.156 Y117.078 E0.02815
G1 X128.713 Y117.581 E0.02738
G1 X129.268 Y118.197 E0.03026
G1 X129.69 Y118.767 E0.02587
G1 X130.079 Y119.409 E0.02738
G1 X130.417 Y120.116 E0.02858
G1 X130.689 Y120.869 E0.02924
G1 X130.88 Y121.638 E0.0289
G1 X130.996 Y122.432 E0.02928
G1 X131.03 Y123.129 E0.02545
G1 X131.013 Y123.417 E0.01055
G1 X181.014 Y173.419 E2.58003
G1 X181.731 Y173.729 E0.02848
G1 X182.486 Y174.24 E0.03328
G1 X183.136 Y174.841 E0.03231
G1 X183.817 Y175.724 E0.04068
G1 X184.331 Y176.757 E0.04207
G1 X184.633 Y177.869 E0.04204
G1 X184.711 Y179.014 E0.04189
G1 X184.566 Y180.154 E0.04194
G1 X184.199 Y181.25 E0.04214
G1 X183.627 Y182.245 E0.04188
G1 X182.883 Y183.104 E0.04146
G1 X182.074 Y183.744 E0.03765
G1 X181.16 Y184.237 E0.03787
G1 X180.342 Y184.517 E0.03156
G1 X179.218 Y184.701 E0.04154
G1 X178.096 Y184.666 E0.04098
G1 X177.018 Y184.423 E0.04032
G1 X176.006 Y183.984 E0.04025
G1 X175.066 Y183.339 E0.04158
G1 X174.283 Y182.542 E0.04077
G1 X173.752 Y181.768 E0.03425
G1 X173.422 Y181.018 E0.02992
G1 X123.417 Y131.013 E2.58019
G1 X123.126 Y131.03 E0.01064
G1 X122.407 Y130.993 E0.02626
G1 X121.661 Y130.885 E0.02752
G1 X120.877 Y130.692 E0.02947
G1 X120.117 Y130.417 E0.02946
G1 X119.474 Y130.114 E0.02594
G1 X118.86 Y129.752 E0.02601
G1 X118.227 Y129.293 E0.02853
G1 X117.621 Y128.751 E0.02968
G1 X117.121 Y128.209 E0.0269
G1 X116.598 Y127.507 E0.03196
G1 X116.229 Y126.892 E0.02614
G1 X115.915 Y126.238 E0.02649
G1 X115.617 Y125.414 E0.03194
G1 X115.444 Y124.719 E0.02615
G1 X115.333 Y124.005 E0.02636
G1 X115.287 Y123.127 E0.03207
G1 X115.323 Y122.411 E0.02615
G1 X115.424 Y121.696 E0.02637
G1 X115.635 Y120.843 E0.03207
G1 X115.877 Y120.17 E0.02607
G1 X116.181 Y119.515 E0.02635
G1 X116.631 Y118.76 E0.03209
G1 X117.057 Y118.186 E0.02607
G1 X117.395 Y117.808 E0.01852
G1 X117.735 Y118.113 F24000
G1 F3600
G1 X117.873 Y117.959 E0.00753
G1 X118.47 Y117.415 E0.02947
G1 X119.026 Y117.003 E0.02526
G1 X119.609 Y116.649 E0.02489
G1 X120.32 Y116.31 E0.02874
G1 X121.063 Y116.046 E0.02878
G1 X121.701 Y115.889 E0.02397
G1 X122.359 Y115.788 E0.02428
G1 X123.235 Y115.744 E0.03199
G1 X123.951 Y115.787 E0.02617
G1 X124.666 Y115.9 E0.02643
G1 X125.353 Y116.076 E0.02586
G1 X126.033 Y116.325 E0.02644
G1 X126.668 Y116.628 E0.02567
G1 X127.292 Y117.003 E0.02655
G1 X127.874 Y117.438 E0.02652
G1 X128.397 Y117.912 E0.02575
G1 X128.921 Y118.495 E0.02859
G1 X129.316 Y119.03 E0.02427
G1 X129.671 Y119.617 E0.02503
G1 X129.991 Y120.282 E0.02694
G1 X130.249 Y120.992 E0.02753
G1 X130.43 Y121.715 E0.02722
G1 X130.54 Y122.465 E0.02766
G1 X130.573 Y123.138 E0.02458
G1 X130.544 Y123.594 E0.01668
G1 X180.754 Y173.804 E2.59078
G1 X181.494 Y174.121 E0.02937
G1 X182.19 Y174.588 E0.03061
G1 X182.787 Y175.137 E0.02958
G1 X183.419 Y175.95 E0.03756
G1 X183.897 Y176.9 E0.0388
G1 X184.178 Y177.924 E0.03877
G1 X184.255 Y178.98 E0.03863
G1 X184.125 Y180.032 E0.03867
G1 X183.79 Y181.043 E0.03886
G1 X183.266 Y181.964 E0.03864
G1 X182.581 Y182.76 E0.03832
G1 X181.838 Y183.352 E0.03468
G1 X180.993 Y183.811 E0.0351
G1 X180.248 Y184.07 E0.02878
G1 X179.209 Y184.244 E0.03843
G1 X178.175 Y184.215 E0.03775
G1 X177.14 Y183.982 E0.0387
G1 X176.21 Y183.574 E0.03705
G1 X175.344 Y182.975 E0.03841
G1 X174.649 Y182.267 E0.03622
G1 X174.141 Y181.528 E0.03272
G1 X173.806 Y180.756 E0.0307
G1 X123.594 Y130.544 E2.59089
G1 X123.136 Y130.573 E0.01675
G1 X122.441 Y130.537 E0.02539
G1 X121.738 Y130.434 E0.02593
G1 X121.02 Y130.258 E0.02697
G1 X120.302 Y129.999 E0.02784
G1 X119.679 Y129.705 E0.02515
G1 X119.102 Y129.364 E0.02444
G1 X118.505 Y128.93 E0.02693
G1 X117.934 Y128.418 E0.02799
G1 X117.466 Y127.908 E0.02526
G1 X116.984 Y127.262 E0.02943
G1 X116.627 Y126.666 E0.02532
G1 X116.332 Y126.051 E0.0249
G1 X116.058 Y125.292 E0.02942
G1 X115.89 Y124.618 E0.02534
G1 X115.786 Y123.947 E0.02479
G1 X115.744 Y123.138 E0.02954
G1 X115.779 Y122.445 E0.02534
G1 X115.875 Y121.772 E0.0248
G1 X116.07 Y120.986 E0.02953
G1 X116.304 Y120.335 E0.02527
G1 X116.59 Y119.718 E0.0248
G1 X117.005 Y119.023 E0.02955
G1 X117.418 Y118.467 E0.02526
G1 X117.695 Y118.157 E0.01517
G1 X118.035 Y118.462 F24000
G1 F3600
G1 X118.205 Y118.273 E0.00929
G1 X118.752 Y117.775 E0.02696
G1 X119.272 Y117.388 E0.02367
G1 X119.836 Y117.046 E0.02407
G1 X120.506 Y116.728 E0.02703
G1 X121.184 Y116.487 E0.02625
G1 X121.8 Y116.335 E0.02318
G1 X122.417 Y116.241 E0.02274
G1 X123.22 Y116.201 E0.02937
G1 X123.891 Y116.24 E0.02451
G1 X124.563 Y116.345 E0.02481
G1 X125.228 Y116.516 E0.02504
G1 X125.865 Y116.75 E0.02479
G1 X126.461 Y117.035 E0.02409
G1 X127.045 Y117.389 E0.02492
G1 X127.592 Y117.797 E0.02489
G1 X128.081 Y118.242 E0.02412
G1 X128.574 Y118.792 E0.02693
G1 X128.942 Y119.292 E0.02268
G1 X129.264 Y119.825 E0.02272
G1 X129.566 Y120.45 E0.02531
G1 X129.808 Y121.115 E0.02583
G1 X129.979 Y121.793 E0.02554
G1 X130.084 Y122.499 E0.02602
G1 X130.115 Y123.147 E0.02369
G1 X130.074 Y123.771 E0.0228
G1 X180.494 Y174.191 E2.6016
G1 X181.258 Y174.513 E0.03027
G1 X181.895 Y174.938 E0.02793
G1 X182.439 Y175.434 E0.02686
G1 X183.021 Y176.177 E0.03444
G1 X183.462 Y177.044 E0.03551
G1 X183.724 Y177.981 E0.0355
G1 X183.798 Y178.948 E0.03537
G1 X183.683 Y179.912 E0.03541
G1 X183.381 Y180.839 E0.03557
