
; ### Ellis' Pressure Advance / Linear Advance Calibration Tool ###
;
; Original Marlin linear advance calibration tool by Sineos [https://github.com/Sineos]
; Heavily modified/rewritten by Andrew Ellis [https://github.com/AndrewEllis93]
;
; -------------------------------------------
; Generated: Tue Jun 06 2023 16:30:40 GMT-0700 (Pacific Daylight Time)
; -------------------------------------------
;
; Advanced Mode: false
;
; Printer:
;  - Firmware: klipper
;  - Bed Shape: Rect
;  - Bed Size X: 300 mm
;  - Bed Size Y: 300 mm
;  - Origin Bed Center: false
;  - Travel Speed: 120 mm/s
;  - Nozzle Diameter: 0.5 mm
;  - Filament Diameter: 1.75 mm
;  - Extrusion Multiplier: 0.86
;
; Retraction / Z Hop:
;  - Retraction Distance: 0.5 mm
;  - Retract Speed: 35 mm/s
;  - Unretract Speed: 35 mm/s
;  - Z Hop Enable: true
;  - Z Hop Height: 0.1mm
;
; First Layer Settings:
;  - First Layer Height: 0.25 mm
;  - First Layer Printing Speed: 30 mm/s
;  - First Layer Fan Speed: 0%
;  - Anchor Option: anchor_layer
;
; Print Settings:
;  - Layer Height: 0.2 mm
;  - Print Speed: 180 mm/s
;  - Acceleration: Disabled
;  - Fan Speed: 100%
;
; Pressure Advance Stepping:
;  - PA Start Value: 0
;  - PA End Value: 0.08
;  - PA Increment: 0.005
;
; Start / End G-code:
;  - Hotend Temp: 245C
;  - Bed Temp: 110C
;  - Don't Add G28: false
;  - Don't Add Heating G-Codes: false
;
; Calculated Values:
;  - Print Size X: 89.81 mm
;  - Print Size Y: 54.13 mm
;  - Number of Patterns to Print: 17
;  - PA Values: 0, 0.005, 0.01, 0.015, 0.02, 0.025, 0.03, 0.035, 0.04, 0.045, 0.05, 0.055, 0.06, 0.065, 0.07, 0.075, 0.08
;
; Prepare printing
;
G28 ; Home all axes
M190 S110 ; Set & wait for bed temp
M109 S245 ; Set & wait for hotend temp
PRINT_START EXTRUDER=245 BED=110
G21 ; Millimeter units
G90 ; Absolute XYZ
M83 ; Relative E
G92 E0 ; Reset extruder distance
;
;  Begin printing
;
M106 S0 ; Set fan speed
G1 E-0.5 F2100 ; Retract
G0 Z5 F7200 ; Z raise
G0 X105.0942 Y122.9368 F7200 ; Move to start position
G0 Z0.25 F7200 ; Move to start layer height
G1 E0.5 F2100 ; Un-retract
SET_PRESSURE_ADVANCE ADVANCE=0 ; Set pressure advance to start value
M117 PA 0
G1 X105.0942 Y165.3632 E2.45119 F1800 ; Draw perimeter (up)
G1 X194.9058 Y165.3632 E5.18886 F1800 ; Draw perimeter (right)
G1 X194.9058 Y122.9368 E2.45119 F1800 ; Draw perimeter (down)
G1 X105.0942 Y122.9368 E5.18886 F1800 ; Draw perimeter (left)
G0 X105.7406 Y123.5831 F7200 ; Step inwards to print next perimeter
G1 X105.7406 Y164.7169 E2.3765 F1800 ; Draw perimeter (up)
G1 X194.2594 Y164.7169 E5.11417 F1800 ; Draw perimeter (right)
G1 X194.2594 Y123.5831 E2.3765 F1800 ; Draw perimeter (down)
G1 X105.7406 Y123.5831 E5.11417 F1800 ; Draw perimeter (left)
G0 X106.3869 Y124.2295 F7200 ; Step inwards to print next perimeter
G1 X106.3869 Y164.0705 E2.30181 F1800 ; Draw perimeter (up)
G1 X193.6131 Y164.0705 E5.03949 F1800 ; Draw perimeter (right)
G1 X193.6131 Y124.2295 E2.30181 F1800 ; Draw perimeter (down)
G1 X106.3869 Y124.2295 E5.03949 F1800 ; Draw perimeter (left)
G0 X107.0333 Y124.8758 F7200 ; Step inwards to print next perimeter
G1 X107.0333 Y163.4242 E2.22713 F1800 ; Draw perimeter (up)
G1 X192.9667 Y163.4242 E4.9648 F1800 ; Draw perimeter (right)
G1 X192.9667 Y124.8758 E2.22713 F1800 ; Draw perimeter (down)
G1 X107.0333 Y124.8758 E4.9648 F1800 ; Draw perimeter (left)
G0 X107.5 Y125.3425 F7200 ; Move to fill start
G0 X108.414 Y125.3425 F7200 ; Move
G1 X107.5 Y126.2566 E0.07469 F1800 ; Fill
G0 X107.5 Y127.1707 F7200 ; Move
G1 X109.3281 Y125.3425 E0.14937 F1800 ; Fill
G0 X110.2422 Y125.3425 F7200 ; Move
G1 X107.5 Y128.0847 E0.22406 F1800 ; Fill
G0 X107.5 Y128.9988 F7200 ; Move
G1 X111.1563 Y125.3425 E0.29874 F1800 ; Fill
G0 X112.0703 Y125.3425 F7200 ; Move
G1 X107.5 Y129.9129 E0.37343 F1800 ; Fill
G0 X107.5 Y130.827 F7200 ; Move
G1 X112.9844 Y125.3425 E0.44811 F1800 ; Fill
G0 X113.8985 Y125.3425 F7200 ; Move
G1 X107.5 Y131.741 E0.5228 F1800 ; Fill
G0 X107.5 Y132.6551 F7200 ; Move
G1 X114.8126 Y125.3425 E0.59749 F1800 ; Fill
G0 X115.7267 Y125.3425 F7200 ; Move
G1 X107.5 Y133.5692 E0.67217 F1800 ; Fill
G0 X107.5 Y134.4833 F7200 ; Move
G1 X116.6407 Y125.3425 E0.74686 F1800 ; Fill
G0 X117.5548 Y125.3425 F7200 ; Move
G1 X107.5 Y135.3974 E0.82154 F1800 ; Fill
G0 X107.5 Y136.3114 F7200 ; Move
G1 X118.4689 Y125.3425 E0.89623 F1800 ; Fill
G0 X119.383 Y125.3425 F7200 ; Move
G1 X107.5 Y137.2255 E0.97091 F1800 ; Fill
G0 X107.5 Y138.1396 F7200 ; Move
G1 X120.297 Y125.3425 E1.0456 F1800 ; Fill
G0 X121.2111 Y125.3425 F7200 ; Move
G1 X107.5 Y139.0537 E1.12029 F1800 ; Fill
G0 X107.5 Y139.9677 F7200 ; Move
G1 X122.1252 Y125.3425 E1.19497 F1800 ; Fill
G0 X123.0393 Y125.3425 F7200 ; Move
G1 X107.5 Y140.8818 E1.26966 F1800 ; Fill
G0 X107.5 Y141.7959 F7200 ; Move
G1 X123.9533 Y125.3425 E1.34434 F1800 ; Fill
G0 X124.8674 Y125.3425 F7200 ; Move
G1 X107.5 Y142.71 E1.41903 F1800 ; Fill
G0 X107.5 Y143.624 F7200 ; Move
G1 X125.7815 Y125.3425 E1.49371 F1800 ; Fill
G0 X126.6956 Y125.3425 F7200 ; Move
G1 X107.5 Y144.5381 E1.5684 F1800 ; Fill
G0 X107.5 Y145.4522 F7200 ; Move
G1 X127.6096 Y125.3425 E1.64309 F1800 ; Fill
G0 X128.5237 Y125.3425 F7200 ; Move
G1 X107.5 Y146.3663 E1.71777 F1800 ; Fill
G0 X107.5 Y147.2803 F7200 ; Move
G1 X129.4378 Y125.3425 E1.79246 F1800 ; Fill
G0 X130.3519 Y125.3425 F7200 ; Move
G1 X107.5 Y148.1944 E1.86714 F1800 ; Fill
G0 X107.5 Y149.1085 F7200 ; Move
G1 X131.2659 Y125.3425 E1.94183 F1800 ; Fill
G0 X132.18 Y125.3425 F7200 ; Move
G1 X107.5 Y150.0226 E2.01651 F1800 ; Fill
G0 X107.5 Y150.9367 F7200 ; Move
G1 X133.0941 Y125.3425 E2.0912 F1800 ; Fill
G0 X134.0082 Y125.3425 F7200 ; Move
G1 X107.5 Y151.8507 E2.16588 F1800 ; Fill
G0 X107.5 Y152.7648 F7200 ; Move
G1 X134.9223 Y125.3425 E2.24057 F1800 ; Fill
G0 X135.8363 Y125.3425 F7200 ; Move
G1 X107.5 Y153.6789 E2.31526 F1800 ; Fill
G0 X107.5 Y154.593 F7200 ; Move
G1 X136.7504 Y125.3425 E2.38994 F1800 ; Fill
G0 X137.6645 Y125.3425 F7200 ; Move
G1 X107.5 Y155.507 E2.46463 F1800 ; Fill
G0 X107.5 Y156.4211 F7200 ; Move
G1 X138.5786 Y125.3425 E2.53931 F1800 ; Fill
G0 X139.4926 Y125.3425 F7200 ; Move
G1 X107.5 Y157.3352 E2.614 F1800 ; Fill
G0 X107.5 Y158.2493 F7200 ; Move
G1 X140.4067 Y125.3425 E2.68868 F1800 ; Fill
G0 X141.3208 Y125.3425 F7200 ; Move
G1 X107.5 Y159.1633 E2.76337 F1800 ; Fill
G0 X107.5 Y160.0774 F7200 ; Move
G1 X142.2349 Y125.3425 E2.83806 F1800 ; Fill
G0 X143.1489 Y125.3425 F7200 ; Move
G1 X107.5 Y160.9915 E2.91274 F1800 ; Fill
G0 X107.5 Y161.9056 F7200 ; Move
G1 X144.063 Y125.3425 E2.98743 F1800 ; Fill
G0 X144.9771 Y125.3425 F7200 ; Move
G1 X107.5 Y162.8196 E3.06211 F1800 ; Fill
G0 X108.2762 Y162.9575 F7200 ; Move
G1 X145.8912 Y125.3425 E3.07338 F1800 ; Fill
G0 X146.8052 Y125.3425 F7200 ; Move
G1 X109.1903 Y162.9575 E3.07338 F1800 ; Fill
G0 X110.1043 Y162.9575 F7200 ; Move
G1 X147.7193 Y125.3425 E3.07338 F1800 ; Fill
G0 X148.6334 Y125.3425 F7200 ; Move
G1 X111.0184 Y162.9575 E3.07338 F1800 ; Fill
G0 X111.9325 Y162.9575 F7200 ; Move
G1 X149.5475 Y125.3425 E3.07338 F1800 ; Fill
G0 X150.4615 Y125.3425 F7200 ; Move
G1 X112.8466 Y162.9575 E3.07338 F1800 ; Fill
G0 X113.7606 Y162.9575 F7200 ; Move
G1 X151.3756 Y125.3425 E3.07338 F1800 ; Fill
G0 X152.2897 Y125.3425 F7200 ; Move
G1 X114.6747 Y162.9575 E3.07338 F1800 ; Fill
G0 X115.5888 Y162.9575 F7200 ; Move
G1 X153.2038 Y125.3425 E3.07338 F1800 ; Fill
G0 X154.1179 Y125.3425 F7200 ; Move
G1 X116.5029 Y162.9575 E3.07338 F1800 ; Fill
G0 X117.417 Y162.9575 F7200 ; Move
G1 X155.0319 Y125.3425 E3.07338 F1800 ; Fill
G0 X155.946 Y125.3425 F7200 ; Move
G1 X118.331 Y162.9575 E3.07338 F1800 ; Fill
G0 X119.2451 Y162.9575 F7200 ; Move
G1 X156.8601 Y125.3425 E3.07338 F1800 ; Fill
G0 X157.7742 Y125.3425 F7200 ; Move
G1 X120.1592 Y162.9575 E3.07338 F1800 ; Fill
G0 X121.0733 Y162.9575 F7200 ; Move
G1 X158.6882 Y125.3425 E3.07338 F1800 ; Fill
G0 X159.6023 Y125.3425 F7200 ; Move
G1 X121.9873 Y162.9575 E3.07338 F1800 ; Fill
G0 X122.9014 Y162.9575 F7200 ; Move
G1 X160.5164 Y125.3425 E3.07338 F1800 ; Fill
G0 X161.4305 Y125.3425 F7200 ; Move
G1 X123.8155 Y162.9575 E3.07338 F1800 ; Fill
G0 X124.7296 Y162.9575 F7200 ; Move
G1 X162.3445 Y125.3425 E3.07338 F1800 ; Fill
G0 X163.2586 Y125.3425 F7200 ; Move
G1 X125.6436 Y162.9575 E3.07338 F1800 ; Fill
G0 X126.5577 Y162.9575 F7200 ; Move
G1 X164.1727 Y125.3425 E3.07338 F1800 ; Fill
G0 X165.0868 Y125.3425 F7200 ; Move
G1 X127.4718 Y162.9575 E3.07338 F1800 ; Fill
G0 X128.3859 Y162.9575 F7200 ; Move
G1 X166.0008 Y125.3425 E3.07338 F1800 ; Fill
G0 X166.9149 Y125.3425 F7200 ; Move
G1 X129.2999 Y162.9575 E3.07338 F1800 ; Fill
G0 X130.214 Y162.9575 F7200 ; Move
G1 X167.829 Y125.3425 E3.07338 F1800 ; Fill
G0 X168.7431 Y125.3425 F7200 ; Move
G1 X131.1281 Y162.9575 E3.07338 F1800 ; Fill
G0 X132.0422 Y162.9575 F7200 ; Move
G1 X169.6572 Y125.3425 E3.07338 F1800 ; Fill
G0 X170.5712 Y125.3425 F7200 ; Move
G1 X132.9563 Y162.9575 E3.07338 F1800 ; Fill
G0 X133.8703 Y162.9575 F7200 ; Move
G1 X171.4853 Y125.3425 E3.07338 F1800 ; Fill
G0 X172.3994 Y125.3425 F7200 ; Move
G1 X134.7844 Y162.9575 E3.07338 F1800 ; Fill
G0 X135.6985 Y162.9575 F7200 ; Move
G1 X173.3135 Y125.3425 E3.07338 F1800 ; Fill
G0 X174.2275 Y125.3425 F7200 ; Move
G1 X136.6126 Y162.9575 E3.07338 F1800 ; Fill
G0 X137.5266 Y162.9575 F7200 ; Move
G1 X175.1416 Y125.3425 E3.07338 F1800 ; Fill
G0 X176.0557 Y125.3425 F7200 ; Move
G1 X138.4407 Y162.9575 E3.07338 F1800 ; Fill
G0 X139.3548 Y162.9575 F7200 ; Move
G1 X176.9698 Y125.3425 E3.07338 F1800 ; Fill
G0 X177.8838 Y125.3425 F7200 ; Move
G1 X140.2689 Y162.9575 E3.07338 F1800 ; Fill
G0 X141.1829 Y162.9575 F7200 ; Move
G1 X178.7979 Y125.3425 E3.07338 F1800 ; Fill
G0 X179.712 Y125.3425 F7200 ; Move
G1 X142.097 Y162.9575 E3.07338 F1800 ; Fill
G0 X143.0111 Y162.9575 F7200 ; Move
G1 X180.6261 Y125.3425 E3.07338 F1800 ; Fill
G0 X181.5401 Y125.3425 F7200 ; Move
G1 X143.9252 Y162.9575 E3.07338 F1800 ; Fill
G0 X144.8392 Y162.9575 F7200 ; Move
G1 X182.4542 Y125.3425 E3.07338 F1800 ; Fill
G0 X183.3683 Y125.3425 F7200 ; Move
G1 X145.7533 Y162.9575 E3.07338 F1800 ; Fill
G0 X146.6674 Y162.9575 F7200 ; Move
G1 X184.2824 Y125.3425 E3.07338 F1800 ; Fill
G0 X185.1964 Y125.3425 F7200 ; Move
G1 X147.5815 Y162.9575 E3.07338 F1800 ; Fill
G0 X148.4955 Y162.9575 F7200 ; Move
G1 X186.1105 Y125.3425 E3.07338 F1800 ; Fill
G0 X187.0246 Y125.3425 F7200 ; Move
G1 X149.4096 Y162.9575 E3.07338 F1800 ; Fill
G0 X150.3237 Y162.9575 F7200 ; Move
G1 X187.9387 Y125.3425 E3.07338 F1800 ; Fill
G0 X188.8528 Y125.3425 F7200 ; Move
G1 X151.2378 Y162.9575 E3.07338 F1800 ; Fill
G0 X152.1519 Y162.9575 F7200 ; Move
G1 X189.7668 Y125.3425 E3.07338 F1800 ; Fill
G0 X190.6809 Y125.3425 F7200 ; Move
G1 X153.0659 Y162.9575 E3.07338 F1800 ; Fill
G0 X153.98 Y162.9575 F7200 ; Move
G1 X191.595 Y125.3425 E3.07338 F1800 ; Fill
G0 X192.5 Y125.3515 F7200 ; Move
G1 X154.8941 Y162.9575 E3.07264 F1800 ; Fill
G0 X155.8082 Y162.9575 F7200 ; Move
G1 X192.5 Y126.2656 E2.99795 F1800 ; Fill
G0 X192.5 Y127.1797 F7200 ; Move
G1 X156.7222 Y162.9575 E2.92327 F1800 ; Fill
G0 X157.6363 Y162.9575 F7200 ; Move
G1 X192.5 Y128.0938 E2.84858 F1800 ; Fill
G0 X192.5 Y129.0078 F7200 ; Move
G1 X158.5504 Y162.9575 E2.7739 F1800 ; Fill
G0 X159.4645 Y162.9575 F7200 ; Move
G1 X192.5 Y129.9219 E2.69921 F1800 ; Fill
G0 X192.5 Y130.836 F7200 ; Move
G1 X160.3785 Y162.9575 E2.62452 F1800 ; Fill
G0 X161.2926 Y162.9575 F7200 ; Move
G1 X192.5 Y131.7501 E2.54984 F1800 ; Fill
G0 X192.5 Y132.6641 F7200 ; Move
G1 X162.2067 Y162.9575 E2.47515 F1800 ; Fill
G0 X163.1208 Y162.9575 F7200 ; Move
G1 X192.5 Y133.5782 E2.40047 F1800 ; Fill
G0 X192.5 Y134.4923 F7200 ; Move
G1 X164.0348 Y162.9575 E2.32578 F1800 ; Fill
G0 X164.9489 Y162.9575 F7200 ; Move
G1 X192.5 Y135.4064 E2.2511 F1800 ; Fill
G0 X192.5 Y136.3205 F7200 ; Move
G1 X165.863 Y162.9575 E2.17641 F1800 ; Fill
G0 X166.7771 Y162.9575 F7200 ; Move
G1 X192.5 Y137.2345 E2.10173 F1800 ; Fill
G0 X192.5 Y138.1486 F7200 ; Move
G1 X167.6911 Y162.9575 E2.02704 F1800 ; Fill
G0 X168.6052 Y162.9575 F7200 ; Move
G1 X192.5 Y139.0627 E1.95235 F1800 ; Fill
G0 X192.5 Y139.9768 F7200 ; Move
G1 X169.5193 Y162.9575 E1.87767 F1800 ; Fill
G0 X170.4334 Y162.9575 F7200 ; Move
G1 X192.5 Y140.8908 E1.80298 F1800 ; Fill
G0 X192.5 Y141.8049 F7200 ; Move
G1 X171.3475 Y162.9575 E1.7283 F1800 ; Fill
G0 X172.2615 Y162.9575 F7200 ; Move
G1 X192.5 Y142.719 E1.65361 F1800 ; Fill
G0 X192.5 Y143.6331 F7200 ; Move
G1 X173.1756 Y162.9575 E1.57893 F1800 ; Fill
G0 X174.0897 Y162.9575 F7200 ; Move
G1 X192.5 Y144.5471 E1.50424 F1800 ; Fill
G0 X192.5 Y145.4612 F7200 ; Move
G1 X175.0038 Y162.9575 E1.42955 F1800 ; Fill
G0 X175.9178 Y162.9575 F7200 ; Move
G1 X192.5 Y146.3753 E1.35487 F1800 ; Fill
G0 X192.5 Y147.2894 F7200 ; Move
G1 X176.8319 Y162.9575 E1.28018 F1800 ; Fill
G0 X177.746 Y162.9575 F7200 ; Move
G1 X192.5 Y148.2034 E1.2055 F1800 ; Fill
G0 X192.5 Y149.1175 F7200 ; Move
G1 X178.6601 Y162.9575 E1.13081 F1800 ; Fill
G0 X179.5741 Y162.9575 F7200 ; Move
G1 X192.5 Y150.0316 E1.05613 F1800 ; Fill
G0 X192.5 Y150.9457 F7200 ; Move
G1 X180.4882 Y162.9575 E0.98144 F1800 ; Fill
G0 X181.4023 Y162.9575 F7200 ; Move
G1 X192.5 Y151.8597 E0.90675 F1800 ; Fill
G0 X192.5 Y152.7738 F7200 ; Move
G1 X182.3164 Y162.9575 E0.83207 F1800 ; Fill
G0 X183.2304 Y162.9575 F7200 ; Move
G1 X192.5 Y153.6879 E0.75738 F1800 ; Fill
G0 X192.5 Y154.602 F7200 ; Move
G1 X184.1445 Y162.9575 E0.6827 F1800 ; Fill
G0 X185.0586 Y162.9575 F7200 ; Move
G1 X192.5 Y155.5161 E0.60801 F1800 ; Fill
G0 X192.5 Y156.4301 F7200 ; Move
G1 X185.9727 Y162.9575 E0.53333 F1800 ; Fill
G0 X186.8868 Y162.9575 F7200 ; Move
G1 X192.5 Y157.3442 E0.45864 F1800 ; Fill
G0 X192.5 Y158.2583 F7200 ; Move
G1 X187.8008 Y162.9575 E0.38395 F1800 ; Fill
G0 X188.7149 Y162.9575 F7200 ; Move
G1 X192.5 Y159.1724 E0.30927 F1800 ; Fill
G0 X192.5 Y160.0864 F7200 ; Move
G1 X189.629 Y162.9575 E0.23458 F1800 ; Fill
G0 X190.5431 Y162.9575 F7200 ; Move
G1 X192.5 Y161.0005 E0.1599 F1800 ; Fill
G0 X192.5 Y161.9146 F7200 ; Move
G1 X191.4571 Y162.9575 E0.08521 F1800 ; Fill
G1 E-0.5 F2100 ; Retract
G1 Z0.35 F7200 ; Z hop
G0 X105.0942 Y166.0096 F7200 ; Move to box start
G1 Z0.25 F7200 ; Z hop return
G1 E0.5 F2100 ; Un-retract
G1 X105.0942 Y177.6559 E0.67287 F1800 ; Draw perimeter (up)
G1 X176.2653 Y177.6559 E4.11191 F1800 ; Draw perimeter (right)
G1 X176.2653 Y166.0096 E0.67287 F1800 ; Draw perimeter (down)
G1 X105.0942 Y166.0096 E4.11191 F1800 ; Draw perimeter (left)
G0 X105.7406 Y166.6559 F7200 ; Step inwards to print next perimeter
G1 X105.7406 Y177.0096 E0.59818 F1800 ; Draw perimeter (up)
G1 X175.619 Y177.0096 E4.03722 F1800 ; Draw perimeter (right)
G1 X175.619 Y166.6559 E0.59818 F1800 ; Draw perimeter (down)
G1 X105.7406 Y166.6559 E4.03722 F1800 ; Draw perimeter (left)
G0 X106.3869 Y167.3023 F7200 ; Step inwards to print next perimeter
G1 X106.3869 Y176.3632 E0.5235 F1800 ; Draw perimeter (up)
G1 X174.9726 Y176.3632 E3.96254 F1800 ; Draw perimeter (right)
G1 X174.9726 Y167.3023 E0.5235 F1800 ; Draw perimeter (down)
G1 X106.3869 Y167.3023 E3.96254 F1800 ; Draw perimeter (left)
G0 X107.0333 Y167.9486 F7200 ; Step inwards to print next perimeter
G1 X107.0333 Y175.7169 E0.44881 F1800 ; Draw perimeter (up)
G1 X174.3263 Y175.7169 E3.88785 F1800 ; Draw perimeter (right)
G1 X174.3263 Y167.9486 E0.44881 F1800 ; Draw perimeter (down)
G1 X107.0333 Y167.9486 E3.88785 F1800 ; Draw perimeter (left)
G0 X107.5 Y168.4153 F7200 ; Move to fill start
G0 X108.414 Y168.4153 F7200 ; Move
G1 X107.5 Y169.3293 E0.07469 F1800 ; Fill
G0 X107.5 Y170.2434 F7200 ; Move
G1 X109.3281 Y168.4153 E0.14937 F1800 ; Fill
G0 X110.2422 Y168.4153 F7200 ; Move
G1 X107.5 Y171.1575 E0.22406 F1800 ; Fill
G0 X107.5 Y172.0716 F7200 ; Move
G1 X111.1563 Y168.4153 E0.29874 F1800 ; Fill
G0 X112.0703 Y168.4153 F7200 ; Move
G1 X107.5 Y172.9857 E0.37343 F1800 ; Fill
G0 X107.5 Y173.8997 F7200 ; Move
G1 X112.9844 Y168.4153 E0.44811 F1800 ; Fill
G0 X113.8985 Y168.4153 F7200 ; Move
G1 X107.5 Y174.8138 E0.5228 F1800 ; Fill
G0 X107.9777 Y175.2502 F7200 ; Move
G1 X114.8126 Y168.4153 E0.55846 F1800 ; Fill
G0 X115.7267 Y168.4153 F7200 ; Move
G1 X108.8917 Y175.2502 E0.55846 F1800 ; Fill
G0 X109.8058 Y175.2502 F7200 ; Move
G1 X116.6407 Y168.4153 E0.55846 F1800 ; Fill
G0 X117.5548 Y168.4153 F7200 ; Move
G1 X110.7199 Y175.2502 E0.55846 F1800 ; Fill
G0 X111.634 Y175.2502 F7200 ; Move
G1 X118.4689 Y168.4153 E0.55846 F1800 ; Fill
G0 X119.383 Y168.4153 F7200 ; Move
G1 X112.548 Y175.2502 E0.55846 F1800 ; Fill
G0 X113.4621 Y175.2502 F7200 ; Move
G1 X120.297 Y168.4153 E0.55846 F1800 ; Fill
G0 X121.2111 Y168.4153 F7200 ; Move
G1 X114.3762 Y175.2502 E0.55846 F1800 ; Fill
G0 X115.2903 Y175.2502 F7200 ; Move
G1 X122.1252 Y168.4153 E0.55846 F1800 ; Fill
G0 X123.0393 Y168.4153 F7200 ; Move
G1 X116.2043 Y175.2502 E0.55846 F1800 ; Fill
G0 X117.1184 Y175.2502 F7200 ; Move
G1 X123.9533 Y168.4153 E0.55846 F1800 ; Fill
G0 X124.8674 Y168.4153 F7200 ; Move
G1 X118.0325 Y175.2502 E0.55846 F1800 ; Fill
G0 X118.9466 Y175.2502 F7200 ; Move
G1 X125.7815 Y168.4153 E0.55846 F1800 ; Fill
G0 X126.6956 Y168.4153 F7200 ; Move
G1 X119.8606 Y175.2502 E0.55846 F1800 ; Fill
G0 X120.7747 Y175.2502 F7200 ; Move
G1 X127.6096 Y168.4153 E0.55846 F1800 ; Fill
G0 X128.5237 Y168.4153 F7200 ; Move
G1 X121.6888 Y175.2502 E0.55846 F1800 ; Fill
G0 X122.6029 Y175.2502 F7200 ; Move
G1 X129.4378 Y168.4153 E0.55846 F1800 ; Fill
G0 X130.3519 Y168.4153 F7200 ; Move
G1 X123.517 Y175.2502 E0.55846 F1800 ; Fill
G0 X124.431 Y175.2502 F7200 ; Move
G1 X131.2659 Y168.4153 E0.55846 F1800 ; Fill
G0 X132.18 Y168.4153 F7200 ; Move
G1 X125.3451 Y175.2502 E0.55846 F1800 ; Fill
G0 X126.2592 Y175.2502 F7200 ; Move
G1 X133.0941 Y168.4153 E0.55846 F1800 ; Fill
G0 X134.0082 Y168.4153 F7200 ; Move
G1 X127.1733 Y175.2502 E0.55846 F1800 ; Fill
G0 X128.0873 Y175.2502 F7200 ; Move
G1 X134.9223 Y168.4153 E0.55846 F1800 ; Fill
G0 X135.8363 Y168.4153 F7200 ; Move
G1 X129.0014 Y175.2502 E0.55846 F1800 ; Fill
G0 X129.9155 Y175.2502 F7200 ; Move
G1 X136.7504 Y168.4153 E0.55846 F1800 ; Fill
G0 X137.6645 Y168.4153 F7200 ; Move
G1 X130.8296 Y175.2502 E0.55846 F1800 ; Fill
G0 X131.7436 Y175.2502 F7200 ; Move
G1 X138.5786 Y168.4153 E0.55846 F1800 ; Fill
G0 X139.4926 Y168.4153 F7200 ; Move
G1 X132.6577 Y175.2502 E0.55846 F1800 ; Fill
G0 X133.5718 Y175.2502 F7200 ; Move
G1 X140.4067 Y168.4153 E0.55846 F1800 ; Fill
G0 X141.3208 Y168.4153 F7200 ; Move
G1 X134.4859 Y175.2502 E0.55846 F1800 ; Fill
G0 X135.3999 Y175.2502 F7200 ; Move
G1 X142.2349 Y168.4153 E0.55846 F1800 ; Fill
G0 X143.1489 Y168.4153 F7200 ; Move
G1 X136.314 Y175.2502 E0.55846 F1800 ; Fill
G0 X137.2281 Y175.2502 F7200 ; Move
G1 X144.063 Y168.4153 E0.55846 F1800 ; Fill
G0 X144.9771 Y168.4153 F7200 ; Move
G1 X138.1422 Y175.2502 E0.55846 F1800 ; Fill
G0 X139.0562 Y175.2502 F7200 ; Move
G1 X145.8912 Y168.4153 E0.55846 F1800 ; Fill
G0 X146.8052 Y168.4153 F7200 ; Move
G1 X139.9703 Y175.2502 E0.55846 F1800 ; Fill
G0 X140.8844 Y175.2502 F7200 ; Move
G1 X147.7193 Y168.4153 E0.55846 F1800 ; Fill
G0 X148.6334 Y168.4153 F7200 ; Move
G1 X141.7985 Y175.2502 E0.55846 F1800 ; Fill
G0 X142.7126 Y175.2502 F7200 ; Move
G1 X149.5475 Y168.4153 E0.55846 F1800 ; Fill
G0 X150.4615 Y168.4153 F7200 ; Move
G1 X143.6266 Y175.2502 E0.55846 F1800 ; Fill
G0 X144.5407 Y175.2502 F7200 ; Move
G1 X151.3756 Y168.4153 E0.55846 F1800 ; Fill
G0 X152.2897 Y168.4153 F7200 ; Move
G1 X145.4548 Y175.2502 E0.55846 F1800 ; Fill
G0 X146.3689 Y175.2502 F7200 ; Move
G1 X153.2038 Y168.4153 E0.55846 F1800 ; Fill
G0 X154.1179 Y168.4153 F7200 ; Move
G1 X147.2829 Y175.2502 E0.55846 F1800 ; Fill
G0 X148.197 Y175.2502 F7200 ; Move
G1 X155.0319 Y168.4153 E0.55846 F1800 ; Fill
G0 X155.946 Y168.4153 F7200 ; Move
G1 X149.1111 Y175.2502 E0.55846 F1800 ; Fill
G0 X150.0252 Y175.2502 F7200 ; Move
G1 X156.8601 Y168.4153 E0.55846 F1800 ; Fill
G0 X157.7742 Y168.4153 F7200 ; Move
G1 X150.9392 Y175.2502 E0.55846 F1800 ; Fill
G0 X151.8533 Y175.2502 F7200 ; Move
G1 X158.6882 Y168.4153 E0.55846 F1800 ; Fill
G0 X159.6023 Y168.4153 F7200 ; Move
G1 X152.7674 Y175.2502 E0.55846 F1800 ; Fill
G0 X153.6815 Y175.2502 F7200 ; Move
G1 X160.5164 Y168.4153 E0.55846 F1800 ; Fill
G0 X161.4305 Y168.4153 F7200 ; Move
G1 X154.5955 Y175.2502 E0.55846 F1800 ; Fill
G0 X155.5096 Y175.2502 F7200 ; Move
G1 X162.3445 Y168.4153 E0.55846 F1800 ; Fill
G0 X163.2586 Y168.4153 F7200 ; Move
G1 X156.4237 Y175.2502 E0.55846 F1800 ; Fill
G0 X157.3378 Y175.2502 F7200 ; Move
G1 X164.1727 Y168.4153 E0.55846 F1800 ; Fill
G0 X165.0868 Y168.4153 F7200 ; Move
G1 X158.2519 Y175.2502 E0.55846 F1800 ; Fill
G0 X159.1659 Y175.2502 F7200 ; Move
G1 X166.0008 Y168.4153 E0.55846 F1800 ; Fill
G0 X166.9149 Y168.4153 F7200 ; Move
G1 X160.08 Y175.2502 E0.55846 F1800 ; Fill
G0 X160.9941 Y175.2502 F7200 ; Move
G1 X167.829 Y168.4153 E0.55846 F1800 ; Fill
G0 X168.7431 Y168.4153 F7200 ; Move
G1 X161.9082 Y175.2502 E0.55846 F1800 ; Fill
G0 X162.8222 Y175.2502 F7200 ; Move
G1 X169.6572 Y168.4153 E0.55846 F1800 ; Fill
G0 X170.5712 Y168.4153 F7200 ; Move
G1 X163.7363 Y175.2502 E0.55846 F1800 ; Fill
G0 X164.6504 Y175.2502 F7200 ; Move
G1 X171.4853 Y168.4153 E0.55846 F1800 ; Fill
G0 X172.3994 Y168.4153 F7200 ; Move
G1 X165.5645 Y175.2502 E0.55846 F1800 ; Fill
G0 X166.4785 Y175.2502 F7200 ; Move
G1 X173.3135 Y168.4153 E0.55846 F1800 ; Fill
G0 X173.8596 Y168.7832 F7200 ; Move
G1 X167.3926 Y175.2502 E0.52839 F1800 ; Fill
G0 X168.3067 Y175.2502 F7200 ; Move
G1 X173.8596 Y169.6973 E0.45371 F1800 ; Fill
G0 X173.8596 Y170.6113 F7200 ; Move
G1 X169.2208 Y175.2502 E0.37902 F1800 ; Fill
G0 X170.1348 Y175.2502 F7200 ; Move
G1 X173.8596 Y171.5254 E0.30434 F1800 ; Fill
G0 X173.8596 Y172.4395 F7200 ; Move
G1 X171.0489 Y175.2502 E0.22965 F1800 ; Fill
G0 X171.963 Y175.2502 F7200 ; Move
G1 X173.8596 Y173.3536 E0.15497 F1800 ; Fill
G0 X173.8596 Y174.2676 F7200 ; Move
G1 X172.8771 Y175.2502 E0.08028 F1800 ; Fill
M106 S255 ; Set fan speed
G0 Z0.45 F7200 ; Move to layer height
SET_PRESSURE_ADVANCE ADVANCE=0 ; Set pressure advance to start value for numbering
M117 PA 0
G1 E-0.5 F2100 ; Retract
G1 Z0.55 F7200 ; Z hop
G0 X106.4442 Y166.9257 F7200 ; Move
G1 Z0.45 F7200 ; Z hop return
G1 E0.5 F2100 ; Un-retract
G1 X108.4442 Y166.9257 E0.07431 F1800 ; Glyph: 0
G1 X110.4442 Y166.9257 E0.07431 F1800 ; Glyph: 0
G1 X110.4442 Y168.9257 E0.07431 F1800 ; Glyph: 0
G1 X108.4442 Y168.9257 E0.07431 F1800 ; Glyph: 0
G1 X106.4442 Y168.9257 E0.07431 F1800 ; Glyph: 0
G1 X106.4442 Y166.9257 E0.07431 F1800 ; Glyph: 0
G1 E-0.5 F2100 ; Retract
G1 Z0.55 F7200 ; Z hop
G0 X114.5084 Y166.9257 F7200 ; Move
G1 Z0.45 F7200 ; Z hop return
G1 E0.5 F2100 ; Un-retract
G1 X116.5084 Y166.9257 E0.07431 F1800 ; Glyph: 0
G1 X118.5084 Y166.9257 E0.07431 F1800 ; Glyph: 0
G1 X118.5084 Y168.9257 E0.07431 F1800 ; Glyph: 0
G1 X116.5084 Y168.9257 E0.07431 F1800 ; Glyph: 0
G1 X114.5084 Y168.9257 E0.07431 F1800 ; Glyph: 0
G1 X114.5084 Y166.9257 E0.07431 F1800 ; Glyph: 0
G1 E-0.5 F2100 ; Retract
G1 Z0.55 F7200 ; Z hop
G0 X118.5084 Y169.9257 F7200 ; Move
G1 Z0.45 F7200 ; Z hop return
G1 E0.5 F2100 ; Un-retract
G1 X117.7584 Y169.9257 E0.02787 F1800 ; Glyph: .
G1 E-0.5 F2100 ; Retract
G1 Z0.55 F7200 ; Z hop
G0 X114.5084 Y170.9257 F7200 ; Move
G1 Z0.45 F7200 ; Z hop return
G1 E0.5 F2100 ; Un-retract
G1 X116.5084 Y170.9257 E0.07431 F1800 ; Glyph: 0
G1 X118.5084 Y170.9257 E0.07431 F1800 ; Glyph: 0
G1 X118.5084 Y172.9257 E0.07431 F1800 ; Glyph: 0
G1 X116.5084 Y172.9257 E0.07431 F1800 ; Glyph: 0
G1 X114.5084 Y172.9257 E0.07431 F1800 ; Glyph: 0
G1 X114.5084 Y170.9257 E0.07431 F1800 ; Glyph: 0
G1 E-0.5 F2100 ; Retract
G1 Z0.55 F7200 ; Z hop
G0 X114.5084 Y173.9257 F7200 ; Move
G1 Z0.45 F7200 ; Z hop return
G1 E0.5 F2100 ; Un-retract
G1 X116.5084 Y173.9257 E0.07431 F1800 ; Glyph: 1
G1 X118.5084 Y173.9257 E0.07431 F1800 ; Glyph: 1
G1 E-0.5 F2100 ; Retract
G1 Z0.55 F7200 ; Z hop
G0 X122.5726 Y166.9257 F7200 ; Move
G1 Z0.45 F7200 ; Z hop return
G1 E0.5 F2100 ; Un-retract
G1 X124.5726 Y166.9257 E0.07431 F1800 ; Glyph: 0
G1 X126.5726 Y166.9257 E0.07431 F1800 ; Glyph: 0
G1 X126.5726 Y168.9257 E0.07431 F1800 ; Glyph: 0
G1 X124.5726 Y168.9257 E0.07431 F1800 ; Glyph: 0
G1 X122.5726 Y168.9257 E0.07431 F1800 ; Glyph: 0
G1 X122.5726 Y166.9257 E0.07431 F1800 ; Glyph: 0
G1 E-0.5 F2100 ; Retract
G1 Z0.55 F7200 ; Z hop
G0 X126.5726 Y169.9257 F7200 ; Move
G1 Z0.45 F7200 ; Z hop return
G1 E0.5 F2100 ; Un-retract
G1 X125.8226 Y169.9257 E0.02787 F1800 ; Glyph: .
G1 E-0.5 F2100 ; Retract
G1 Z0.55 F7200 ; Z hop
G0 X122.5726 Y170.9257 F7200 ; Move
G1 Z0.45 F7200 ; Z hop return
G1 E0.5 F2100 ; Un-retract
G1 X124.5726 Y170.9257 E0.07431 F1800 ; Glyph: 0
G1 X126.5726 Y170.9257 E0.07431 F1800 ; Glyph: 0
G1 X126.5726 Y172.9257 E0.07431 F1800 ; Glyph: 0
G1 X124.5726 Y172.9257 E0.07431 F1800 ; Glyph: 0
G1 X122.5726 Y172.9257 E0.07431 F1800 ; Glyph: 0
G1 X122.5726 Y170.9257 E0.07431 F1800 ; Glyph: 0
G1 E-0.5 F2100 ; Retract
G1 Z0.55 F7200 ; Z hop
G0 X122.5726 Y173.9257 F7200 ; Move
G1 Z0.45 F7200 ; Z hop return
G1 E0.5 F2100 ; Un-retract
G1 X122.5726 Y175.9257 E0.07431 F1800 ; Glyph: 2
G1 X124.5726 Y175.9257 E0.07431 F1800 ; Glyph: 2
G1 X124.5726 Y173.9257 E0.07431 F1800 ; Glyph: 2
G1 X126.5726 Y173.9257 E0.07431 F1800 ; Glyph: 2
G1 X126.5726 Y175.9257 E0.07431 F1800 ; Glyph: 2
G1 E-0.5 F2100 ; Retract
G1 Z0.55 F7200 ; Z hop
G0 X130.6368 Y166.9257 F7200 ; Move
G1 Z0.45 F7200 ; Z hop return
G1 E0.5 F2100 ; Un-retract
G1 X132.6368 Y166.9257 E0.07431 F1800 ; Glyph: 0
G1 X134.6368 Y166.9257 E0.07431 F1800 ; Glyph: 0
G1 X134.6368 Y168.9257 E0.07431 F1800 ; Glyph: 0
G1 X132.6368 Y168.9257 E0.07431 F1800 ; Glyph: 0
G1 X130.6368 Y168.9257 E0.07431 F1800 ; Glyph: 0
G1 X130.6368 Y166.9257 E0.07431 F1800 ; Glyph: 0
G1 E-0.5 F2100 ; Retract
G1 Z0.55 F7200 ; Z hop
G0 X134.6368 Y169.9257 F7200 ; Move
G1 Z0.45 F7200 ; Z hop return
G1 E0.5 F2100 ; Un-retract
G1 X133.8868 Y169.9257 E0.02787 F1800 ; Glyph: .
G1 E-0.5 F2100 ; Retract
G1 Z0.55 F7200 ; Z hop
G0 X130.6368 Y170.9257 F7200 ; Move
G1 Z0.45 F7200 ; Z hop return
G1 E0.5 F2100 ; Un-retract
G1 X132.6368 Y170.9257 E0.07431 F1800 ; Glyph: 0
G1 X134.6368 Y170.9257 E0.07431 F1800 ; Glyph: 0
G1 X134.6368 Y172.9257 E0.07431 F1800 ; Glyph: 0
G1 X132.6368 Y172.9257 E0.07431 F1800 ; Glyph: 0
G1 X130.6368 Y172.9257 E0.07431 F1800 ; Glyph: 0
G1 X130.6368 Y170.9257 E0.07431 F1800 ; Glyph: 0
G1 E-0.5 F2100 ; Retract
G1 Z0.55 F7200 ; Z hop
G0 X130.6368 Y173.9257 F7200 ; Move
G1 Z0.45 F7200 ; Z hop return
G1 E0.5 F2100 ; Un-retract
G1 X130.6368 Y175.9257 E0.07431 F1800 ; Glyph: 3
G1 X132.6368 Y175.9257 E0.07431 F1800 ; Glyph: 3
G1 X132.6368 Y173.9257 E0.07431 F1800 ; Glyph: 3
G0 X132.6368 Y175.9257 F7200 ; Move
G1 X134.6368 Y175.9257 E0.07431 F1800 ; Glyph: 3
G1 X134.6368 Y173.9257 E0.07431 F1800 ; Glyph: 3
G1 E-0.5 F2100 ; Retract
G1 Z0.55 F7200 ; Z hop
G0 X138.701 Y166.9257 F7200 ; Move
G1 Z0.45 F7200 ; Z hop return
G1 E0.5 F2100 ; Un-retract
G1 X140.701 Y166.9257 E0.07431 F1800 ; Glyph: 0
G1 X142.701 Y166.9257 E0.07431 F1800 ; Glyph: 0
G1 X142.701 Y168.9257 E0.07431 F1800 ; Glyph: 0
G1 X140.701 Y168.9257 E0.07431 F1800 ; Glyph: 0
G1 X138.701 Y168.9257 E0.07431 F1800 ; Glyph: 0
G1 X138.701 Y166.9257 E0.07431 F1800 ; Glyph: 0
G1 E-0.5 F2100 ; Retract
G1 Z0.55 F7200 ; Z hop
G0 X142.701 Y169.9257 F7200 ; Move
G1 Z0.45 F7200 ; Z hop return
G1 E0.5 F2100 ; Un-retract
G1 X141.951 Y169.9257 E0.02787 F1800 ; Glyph: .
G1 E-0.5 F2100 ; Retract
G1 Z0.55 F7200 ; Z hop
G0 X138.701 Y170.9257 F7200 ; Move
G1 Z0.45 F7200 ; Z hop return
G1 E0.5 F2100 ; Un-retract
G1 X140.701 Y170.9257 E0.07431 F1800 ; Glyph: 0
G1 X142.701 Y170.9257 E0.07431 F1800 ; Glyph: 0
G1 X142.701 Y172.9257 E0.07431 F1800 ; Glyph: 0
G1 X140.701 Y172.9257 E0.07431 F1800 ; Glyph: 0
G1 X138.701 Y172.9257 E0.07431 F1800 ; Glyph: 0
G1 X138.701 Y170.9257 E0.07431 F1800 ; Glyph: 0
G1 E-0.5 F2100 ; Retract
G1 Z0.55 F7200 ; Z hop
G0 X138.701 Y175.9257 F7200 ; Move
G1 Z0.45 F7200 ; Z hop return
G1 E0.5 F2100 ; Un-retract
G1 X140.701 Y175.9257 E0.07431 F1800 ; Glyph: 4
G1 X142.701 Y175.9257 E0.07431 F1800 ; Glyph: 4
G0 X140.701 Y175.9257 F7200 ; Move
G1 X140.701 Y173.9257 E0.07431 F1800 ; Glyph: 4
G1 X138.701 Y173.9257 E0.07431 F1800 ; Glyph: 4
G1 E-0.5 F2100 ; Retract
G1 Z0.55 F7200 ; Z hop
G0 X146.7652 Y166.9257 F7200 ; Move
G1 Z0.45 F7200 ; Z hop return
G1 E0.5 F2100 ; Un-retract
G1 X148.7652 Y166.9257 E0.07431 F1800 ; Glyph: 0
G1 X150.7652 Y166.9257 E0.07431 F1800 ; Glyph: 0
G1 X150.7652 Y168.9257 E0.07431 F1800 ; Glyph: 0
G1 X148.7652 Y168.9257 E0.07431 F1800 ; Glyph: 0
G1 X146.7652 Y168.9257 E0.07431 F1800 ; Glyph: 0
G1 X146.7652 Y166.9257 E0.07431 F1800 ; Glyph: 0
G1 E-0.5 F2100 ; Retract
G1 Z0.55 F7200 ; Z hop
G0 X150.7652 Y169.9257 F7200 ; Move
G1 Z0.45 F7200 ; Z hop return
G1 E0.5 F2100 ; Un-retract
G1 X150.0152 Y169.9257 E0.02787 F1800 ; Glyph: .
G1 E-0.5 F2100 ; Retract
G1 Z0.55 F7200 ; Z hop
G0 X146.7652 Y170.9257 F7200 ; Move
G1 Z0.45 F7200 ; Z hop return
G1 E0.5 F2100 ; Un-retract
G1 X148.7652 Y170.9257 E0.07431 F1800 ; Glyph: 0
G1 X150.7652 Y170.9257 E0.07431 F1800 ; Glyph: 0
G1 X150.7652 Y172.9257 E0.07431 F1800 ; Glyph: 0
G1 X148.7652 Y172.9257 E0.07431 F1800 ; Glyph: 0
G1 X146.7652 Y172.9257 E0.07431 F1800 ; Glyph: 0
G1 X146.7652 Y170.9257 E0.07431 F1800 ; Glyph: 0
G1 E-0.5 F2100 ; Retract
G1 Z0.55 F7200 ; Z hop
G0 X146.7652 Y175.9257 F7200 ; Move
G1 Z0.45 F7200 ; Z hop return
G1 E0.5 F2100 ; Un-retract
G1 X146.7652 Y173.9257 E0.07431 F1800 ; Glyph: 5
G1 X148.7652 Y173.9257 E0.07431 F1800 ; Glyph: 5
G1 X148.7652 Y175.9257 E0.07431 F1800 ; Glyph: 5
G1 X150.7652 Y175.9257 E0.07431 F1800 ; Glyph: 5
G1 X150.7652 Y173.9257 E0.07431 F1800 ; Glyph: 5
G1 E-0.5 F2100 ; Retract
G1 Z0.55 F7200 ; Z hop
G0 X154.8294 Y166.9257 F7200 ; Move
G1 Z0.45 F7200 ; Z hop return
G1 E0.5 F2100 ; Un-retract
G1 X156.8294 Y166.9257 E0.07431 F1800 ; Glyph: 0
G1 X158.8294 Y166.9257 E0.07431 F1800 ; Glyph: 0
G1 X158.8294 Y168.9257 E0.07431 F1800 ; Glyph: 0
G1 X156.8294 Y168.9257 E0.07431 F1800 ; Glyph: 0
G1 X154.8294 Y168.9257 E0.07431 F1800 ; Glyph: 0
G1 X154.8294 Y166.9257 E0.07431 F1800 ; Glyph: 0
G1 E-0.5 F2100 ; Retract
G1 Z0.55 F7200 ; Z hop
G0 X158.8294 Y169.9257 F7200 ; Move
G1 Z0.45 F7200 ; Z hop return
G1 E0.5 F2100 ; Un-retract
G1 X158.0794 Y169.9257 E0.02787 F1800 ; Glyph: .
G1 E-0.5 F2100 ; Retract
G1 Z0.55 F7200 ; Z hop
G0 X154.8294 Y170.9257 F7200 ; Move
G1 Z0.45 F7200 ; Z hop return
G1 E0.5 F2100 ; Un-retract
G1 X156.8294 Y170.9257 E0.07431 F1800 ; Glyph: 0
G1 X158.8294 Y170.9257 E0.07431 F1800 ; Glyph: 0
G1 X158.8294 Y172.9257 E0.07431 F1800 ; Glyph: 0
G1 X156.8294 Y172.9257 E0.07431 F1800 ; Glyph: 0
G1 X154.8294 Y172.9257 E0.07431 F1800 ; Glyph: 0
G1 X154.8294 Y170.9257 E0.07431 F1800 ; Glyph: 0
G1 E-0.5 F2100 ; Retract
G1 Z0.55 F7200 ; Z hop
G0 X154.8294 Y175.9257 F7200 ; Move
G1 Z0.45 F7200 ; Z hop return
G1 E0.5 F2100 ; Un-retract
G1 X154.8294 Y173.9257 E0.07431 F1800 ; Glyph: 6
G1 X156.8294 Y173.9257 E0.07431 F1800 ; Glyph: 6
G1 X158.8294 Y173.9257 E0.07431 F1800 ; Glyph: 6
G1 X158.8294 Y175.9257 E0.07431 F1800 ; Glyph: 6
G1 X156.8294 Y175.9257 E0.07431 F1800 ; Glyph: 6
G1 X156.8294 Y173.9257 E0.07431 F1800 ; Glyph: 6
G1 E-0.5 F2100 ; Retract
G1 Z0.55 F7200 ; Z hop
G0 X162.8936 Y166.9257 F7200 ; Move
G1 Z0.45 F7200 ; Z hop return
G1 E0.5 F2100 ; Un-retract
G1 X164.8936 Y166.9257 E0.07431 F1800 ; Glyph: 0
G1 X166.8936 Y166.9257 E0.07431 F1800 ; Glyph: 0
G1 X166.8936 Y168.9257 E0.07431 F1800 ; Glyph: 0
G1 X164.8936 Y168.9257 E0.07431 F1800 ; Glyph: 0
G1 X162.8936 Y168.9257 E0.07431 F1800 ; Glyph: 0
G1 X162.8936 Y166.9257 E0.07431 F1800 ; Glyph: 0
G1 E-0.5 F2100 ; Retract
G1 Z0.55 F7200 ; Z hop
G0 X166.8936 Y169.9257 F7200 ; Move
G1 Z0.45 F7200 ; Z hop return
G1 E0.5 F2100 ; Un-retract
G1 X166.1436 Y169.9257 E0.02787 F1800 ; Glyph: .
G1 E-0.5 F2100 ; Retract
G1 Z0.55 F7200 ; Z hop
G0 X162.8936 Y170.9257 F7200 ; Move
G1 Z0.45 F7200 ; Z hop return
G1 E0.5 F2100 ; Un-retract
G1 X164.8936 Y170.9257 E0.07431 F1800 ; Glyph: 0
G1 X166.8936 Y170.9257 E0.07431 F1800 ; Glyph: 0
G1 X166.8936 Y172.9257 E0.07431 F1800 ; Glyph: 0
G1 X164.8936 Y172.9257 E0.07431 F1800 ; Glyph: 0
G1 X162.8936 Y172.9257 E0.07431 F1800 ; Glyph: 0
G1 X162.8936 Y170.9257 E0.07431 F1800 ; Glyph: 0
G1 E-0.5 F2100 ; Retract
G1 Z0.55 F7200 ; Z hop
G0 X162.8936 Y173.9257 F7200 ; Move
G1 Z0.45 F7200 ; Z hop return
G1 E0.5 F2100 ; Un-retract
G1 X162.8936 Y175.9257 E0.07431 F1800 ; Glyph: 7
G1 X164.8936 Y175.9257 E0.07431 F1800 ; Glyph: 7
G1 X166.8936 Y175.9257 E0.07431 F1800 ; Glyph: 7
G1 E-0.5 F2100 ; Retract
G1 Z0.55 F7200 ; Z hop
G0 X170.9577 Y166.9257 F7200 ; Move
G1 Z0.45 F7200 ; Z hop return
G1 E0.5 F2100 ; Un-retract
G1 X172.9577 Y166.9257 E0.07431 F1800 ; Glyph: 0
G1 X174.9577 Y166.9257 E0.07431 F1800 ; Glyph: 0
G1 X174.9577 Y168.9257 E0.07431 F1800 ; Glyph: 0
G1 X172.9577 Y168.9257 E0.07431 F1800 ; Glyph: 0
G1 X170.9577 Y168.9257 E0.07431 F1800 ; Glyph: 0
G1 X170.9577 Y166.9257 E0.07431 F1800 ; Glyph: 0
G1 E-0.5 F2100 ; Retract
G1 Z0.55 F7200 ; Z hop
G0 X174.9577 Y169.9257 F7200 ; Move
G1 Z0.45 F7200 ; Z hop return
G1 E0.5 F2100 ; Un-retract
G1 X174.2077 Y169.9257 E0.02787 F1800 ; Glyph: .
G1 E-0.5 F2100 ; Retract
G1 Z0.55 F7200 ; Z hop
G0 X170.9577 Y170.9257 F7200 ; Move
G1 Z0.45 F7200 ; Z hop return
G1 E0.5 F2100 ; Un-retract
G1 X172.9577 Y170.9257 E0.07431 F1800 ; Glyph: 0
G1 X174.9577 Y170.9257 E0.07431 F1800 ; Glyph: 0
G1 X174.9577 Y172.9257 E0.07431 F1800 ; Glyph: 0
G1 X172.9577 Y172.9257 E0.07431 F1800 ; Glyph: 0
G1 X170.9577 Y172.9257 E0.07431 F1800 ; Glyph: 0
G1 X170.9577 Y170.9257 E0.07431 F1800 ; Glyph: 0
G1 E-0.5 F2100 ; Retract
G1 Z0.55 F7200 ; Z hop
G0 X170.9577 Y173.9257 F7200 ; Move
G1 Z0.45 F7200 ; Z hop return
G1 E0.5 F2100 ; Un-retract
G1 X172.9577 Y173.9257 E0.07431 F1800 ; Glyph: 8
G1 X174.9577 Y173.9257 E0.07431 F1800 ; Glyph: 8
G1 X174.9577 Y175.9257 E0.07431 F1800 ; Glyph: 8
G1 X172.9577 Y175.9257 E0.07431 F1800 ; Glyph: 8
G1 X170.9577 Y175.9257 E0.07431 F1800 ; Glyph: 8
G1 X170.9577 Y173.9257 E0.07431 F1800 ; Glyph: 8
G0 X172.9577 Y173.9257 F7200 ; Move
G1 X172.9577 Y175.9257 E0.07431 F1800 ; Glyph: 8
G1 E-0.5 F2100 ; Retract
G1 Z0.55 F7200 ; Z hop
G0 X107.7095 Y122.9368 F7200 ; Move to pattern start

G1 Z0.45 F7200 ; Z hop return
G1 E0.5 F2100 ; Un-retract
SET_PRESSURE_ADVANCE ADVANCE=0 ; Set pressure advance
M117 PA 0
G1 X128.9227 Y144.15 E1.11464 F10800 ; Print pattern wall
G1 X107.7095 Y165.3632 E1.11464 F10800 ; Print pattern wall
G1 E-0.5 F2100 ; Retract
G1 Z0.55 F7200 ; Z hop
G0 X108.4442 Y122.9368 F7200 ; Move to start next pattern wall
G1 Z0.45 F7200 ; Z hop return
G1 E0.5 F2100 ; Un-retract
G1 X129.6575 Y144.15 E1.11464 F10800 ; Print pattern wall
G1 X108.4442 Y165.3632 E1.11464 F10800 ; Print pattern wall
G1 E-0.5 F2100 ; Retract
G1 Z0.55 F7200 ; Z hop
G0 X109.179 Y122.9368 F7200 ; Move to start next pattern wall
G1 Z0.45 F7200 ; Z hop return
G1 E0.5 F2100 ; Un-retract
G1 X130.3922 Y144.15 E1.11464 F10800 ; Print pattern wall
G1 X109.179 Y165.3632 E1.11464 F10800 ; Print pattern wall
G1 E-0.5 F2100 ; Retract
G1 Z0.55 F7200 ; Z hop
G0 X111.7415 Y122.9368 F7200 ; Move to next pattern
G1 Z0.45 F7200 ; Z hop return
G1 E0.5 F2100 ; Un-retract
SET_PRESSURE_ADVANCE ADVANCE=0.005 ; Set pressure advance
M117 PA 0.005
G1 X132.9547 Y144.15 E1.11464 F10800 ; Print pattern wall
G1 X111.7415 Y165.3632 E1.11464 F10800 ; Print pattern wall
G1 E-0.5 F2100 ; Retract
G1 Z0.55 F7200 ; Z hop
G0 X112.4763 Y122.9368 F7200 ; Move to start next pattern wall
G1 Z0.45 F7200 ; Z hop return
G1 E0.5 F2100 ; Un-retract
G1 X133.6895 Y144.15 E1.11464 F10800 ; Print pattern wall
G1 X112.4763 Y165.3632 E1.11464 F10800 ; Print pattern wall
G1 E-0.5 F2100 ; Retract
G1 Z0.55 F7200 ; Z hop
G0 X113.2111 Y122.9368 F7200 ; Move to start next pattern wall
G1 Z0.45 F7200 ; Z hop return
G1 E0.5 F2100 ; Un-retract
G1 X134.4243 Y144.15 E1.11464 F10800 ; Print pattern wall
G1 X113.2111 Y165.3632 E1.11464 F10800 ; Print pattern wall
G1 E-0.5 F2100 ; Retract
G1 Z0.55 F7200 ; Z hop
G0 X115.7736 Y122.9368 F7200 ; Move to next pattern
G1 Z0.45 F7200 ; Z hop return
G1 E0.5 F2100 ; Un-retract
SET_PRESSURE_ADVANCE ADVANCE=0.01 ; Set pressure advance
M117 PA 0.01
G1 X136.9868 Y144.15 E1.11464 F10800 ; Print pattern wall
G1 X115.7736 Y165.3632 E1.11464 F10800 ; Print pattern wall
G1 E-0.5 F2100 ; Retract
G1 Z0.55 F7200 ; Z hop
G0 X116.5084 Y122.9368 F7200 ; Move to start next pattern wall
G1 Z0.45 F7200 ; Z hop return
G1 E0.5 F2100 ; Un-retract
G1 X137.7216 Y144.15 E1.11464 F10800 ; Print pattern wall
G1 X116.5084 Y165.3632 E1.11464 F10800 ; Print pattern wall
G1 E-0.5 F2100 ; Retract
G1 Z0.55 F7200 ; Z hop
G0 X117.2432 Y122.9368 F7200 ; Move to start next pattern wall
G1 Z0.45 F7200 ; Z hop return
G1 E0.5 F2100 ; Un-retract
G1 X138.4564 Y144.15 E1.11464 F10800 ; Print pattern wall
G1 X117.2432 Y165.3632 E1.11464 F10800 ; Print pattern wall
G1 E-0.5 F2100 ; Retract
G1 Z0.55 F7200 ; Z hop
G0 X119.8057 Y122.9368 F7200 ; Move to next pattern
G1 Z0.45 F7200 ; Z hop return
G1 E0.5 F2100 ; Un-retract
SET_PRESSURE_ADVANCE ADVANCE=0.015 ; Set pressure advance
M117 PA 0.015
G1 X141.0189 Y144.15 E1.11464 F10800 ; Print pattern wall
G1 X119.8057 Y165.3632 E1.11464 F10800 ; Print pattern wall
G1 E-0.5 F2100 ; Retract
G1 Z0.55 F7200 ; Z hop
G0 X120.5405 Y122.9368 F7200 ; Move to start next pattern wall
G1 Z0.45 F7200 ; Z hop return
G1 E0.5 F2100 ; Un-retract
G1 X141.7537 Y144.15 E1.11464 F10800 ; Print pattern wall
G1 X120.5405 Y165.3632 E1.11464 F10800 ; Print pattern wall
G1 E-0.5 F2100 ; Retract
G1 Z0.55 F7200 ; Z hop
G0 X121.2753 Y122.9368 F7200 ; Move to start next pattern wall
G1 Z0.45 F7200 ; Z hop return
G1 E0.5 F2100 ; Un-retract
G1 X142.4885 Y144.15 E1.11464 F10800 ; Print pattern wall
G1 X121.2753 Y165.3632 E1.11464 F10800 ; Print pattern wall
G1 E-0.5 F2100 ; Retract
G1 Z0.55 F7200 ; Z hop
G0 X123.8378 Y122.9368 F7200 ; Move to next pattern
G1 Z0.45 F7200 ; Z hop return
G1 E0.5 F2100 ; Un-retract
SET_PRESSURE_ADVANCE ADVANCE=0.02 ; Set pressure advance
M117 PA 0.02
G1 X145.051 Y144.15 E1.11464 F10800 ; Print pattern wall
G1 X123.8378 Y165.3632 E1.11464 F10800 ; Print pattern wall
G1 E-0.5 F2100 ; Retract
G1 Z0.55 F7200 ; Z hop
G0 X124.5726 Y122.9368 F7200 ; Move to start next pattern wall
G1 Z0.45 F7200 ; Z hop return
G1 E0.5 F2100 ; Un-retract
G1 X145.7858 Y144.15 E1.11464 F10800 ; Print pattern wall
G1 X124.5726 Y165.3632 E1.11464 F10800 ; Print pattern wall
G1 E-0.5 F2100 ; Retract
G1 Z0.55 F7200 ; Z hop
G0 X125.3074 Y122.9368 F7200 ; Move to start next pattern wall
G1 Z0.45 F7200 ; Z hop return
G1 E0.5 F2100 ; Un-retract
G1 X146.5206 Y144.15 E1.11464 F10800 ; Print pattern wall
G1 X125.3074 Y165.3632 E1.11464 F10800 ; Print pattern wall
G1 E-0.5 F2100 ; Retract
G1 Z0.55 F7200 ; Z hop
G0 X127.8699 Y122.9368 F7200 ; Move to next pattern
G1 Z0.45 F7200 ; Z hop return
G1 E0.5 F2100 ; Un-retract
SET_PRESSURE_ADVANCE ADVANCE=0.025 ; Set pressure advance
M117 PA 0.025
G1 X149.0831 Y144.15 E1.11464 F10800 ; Print pattern wall
G1 X127.8699 Y165.3632 E1.11464 F10800 ; Print pattern wall
G1 E-0.5 F2100 ; Retract
G1 Z0.55 F7200 ; Z hop
G0 X128.6047 Y122.9368 F7200 ; Move to start next pattern wall
G1 Z0.45 F7200 ; Z hop return
G1 E0.5 F2100 ; Un-retract
G1 X149.8179 Y144.15 E1.11464 F10800 ; Print pattern wall
G1 X128.6047 Y165.3632 E1.11464 F10800 ; Print pattern wall
G1 E-0.5 F2100 ; Retract
G1 Z0.55 F7200 ; Z hop
G0 X129.3395 Y122.9368 F7200 ; Move to start next pattern wall
G1 Z0.45 F7200 ; Z hop return
G1 E0.5 F2100 ; Un-retract
G1 X150.5527 Y144.15 E1.11464 F10800 ; Print pattern wall
G1 X129.3395 Y165.3632 E1.11464 F10800 ; Print pattern wall
G1 E-0.5 F2100 ; Retract
G1 Z0.55 F7200 ; Z hop
G0 X131.902 Y122.9368 F7200 ; Move to next pattern
G1 Z0.45 F7200 ; Z hop return
G1 E0.5 F2100 ; Un-retract
SET_PRESSURE_ADVANCE ADVANCE=0.03 ; Set pressure advance
M117 PA 0.03
G1 X153.1152 Y144.15 E1.11464 F10800 ; Print pattern wall
G1 X131.902 Y165.3632 E1.11464 F10800 ; Print pattern wall
G1 E-0.5 F2100 ; Retract
G1 Z0.55 F7200 ; Z hop
G0 X132.6368 Y122.9368 F7200 ; Move to start next pattern wall
G1 Z0.45 F7200 ; Z hop return
G1 E0.5 F2100 ; Un-retract
G1 X153.85 Y144.15 E1.11464 F10800 ; Print pattern wall
G1 X132.6368 Y165.3632 E1.11464 F10800 ; Print pattern wall
G1 E-0.5 F2100 ; Retract
G1 Z0.55 F7200 ; Z hop
G0 X133.3716 Y122.9368 F7200 ; Move to start next pattern wall
G1 Z0.45 F7200 ; Z hop return
G1 E0.5 F2100 ; Un-retract
G1 X154.5848 Y144.15 E1.11464 F10800 ; Print pattern wall
G1 X133.3716 Y165.3632 E1.11464 F10800 ; Print pattern wall
G1 E-0.5 F2100 ; Retract
G1 Z0.55 F7200 ; Z hop
G0 X135.9341 Y122.9368 F7200 ; Move to next pattern
G1 Z0.45 F7200 ; Z hop return
G1 E0.5 F2100 ; Un-retract
SET_PRESSURE_ADVANCE ADVANCE=0.035 ; Set pressure advance
M117 PA 0.035
G1 X157.1473 Y144.15 E1.11464 F10800 ; Print pattern wall
G1 X135.9341 Y165.3632 E1.11464 F10800 ; Print pattern wall
G1 E-0.5 F2100 ; Retract
G1 Z0.55 F7200 ; Z hop
G0 X136.6689 Y122.9368 F7200 ; Move to start next pattern wall
G1 Z0.45 F7200 ; Z hop return
G1 E0.5 F2100 ; Un-retract
G1 X157.8821 Y144.15 E1.11464 F10800 ; Print pattern wall
G1 X136.6689 Y165.3632 E1.11464 F10800 ; Print pattern wall
G1 E-0.5 F2100 ; Retract
G1 Z0.55 F7200 ; Z hop
G0 X137.4037 Y122.9368 F7200 ; Move to start next pattern wall
G1 Z0.45 F7200 ; Z hop return
G1 E0.5 F2100 ; Un-retract
G1 X158.6169 Y144.15 E1.11464 F10800 ; Print pattern wall
G1 X137.4037 Y165.3632 E1.11464 F10800 ; Print pattern wall
G1 E-0.5 F2100 ; Retract
G1 Z0.55 F7200 ; Z hop
G0 X139.9662 Y122.9368 F7200 ; Move to next pattern
G1 Z0.45 F7200 ; Z hop return
G1 E0.5 F2100 ; Un-retract
SET_PRESSURE_ADVANCE ADVANCE=0.04 ; Set pressure advance
M117 PA 0.04
G1 X161.1794 Y144.15 E1.11464 F10800 ; Print pattern wall
G1 X139.9662 Y165.3632 E1.11464 F10800 ; Print pattern wall
G1 E-0.5 F2100 ; Retract
G1 Z0.55 F7200 ; Z hop
G0 X140.701 Y122.9368 F7200 ; Move to start next pattern wall
G1 Z0.45 F7200 ; Z hop return
G1 E0.5 F2100 ; Un-retract
G1 X161.9142 Y144.15 E1.11464 F10800 ; Print pattern wall
G1 X140.701 Y165.3632 E1.11464 F10800 ; Print pattern wall
G1 E-0.5 F2100 ; Retract
G1 Z0.55 F7200 ; Z hop
G0 X141.4358 Y122.9368 F7200 ; Move to start next pattern wall
G1 Z0.45 F7200 ; Z hop return
G1 E0.5 F2100 ; Un-retract
G1 X162.649 Y144.15 E1.11464 F10800 ; Print pattern wall
G1 X141.4358 Y165.3632 E1.11464 F10800 ; Print pattern wall
G1 E-0.5 F2100 ; Retract
G1 Z0.55 F7200 ; Z hop
G0 X143.9983 Y122.9368 F7200 ; Move to next pattern
G1 Z0.45 F7200 ; Z hop return
G1 E0.5 F2100 ; Un-retract
SET_PRESSURE_ADVANCE ADVANCE=0.045 ; Set pressure advance
M117 PA 0.045
G1 X165.2115 Y144.15 E1.11464 F10800 ; Print pattern wall
G1 X143.9983 Y165.3632 E1.11464 F10800 ; Print pattern wall
G1 E-0.5 F2100 ; Retract
G1 Z0.55 F7200 ; Z hop
G0 X144.7331 Y122.9368 F7200 ; Move to start next pattern wall
G1 Z0.45 F7200 ; Z hop return
G1 E0.5 F2100 ; Un-retract
G1 X165.9463 Y144.15 E1.11464 F10800 ; Print pattern wall
G1 X144.7331 Y165.3632 E1.11464 F10800 ; Print pattern wall
G1 E-0.5 F2100 ; Retract
G1 Z0.55 F7200 ; Z hop
G0 X145.4679 Y122.9368 F7200 ; Move to start next pattern wall
G1 Z0.45 F7200 ; Z hop return
G1 E0.5 F2100 ; Un-retract
G1 X166.6811 Y144.15 E1.11464 F10800 ; Print pattern wall
G1 X145.4679 Y165.3632 E1.11464 F10800 ; Print pattern wall
G1 E-0.5 F2100 ; Retract
G1 Z0.55 F7200 ; Z hop
G0 X148.0304 Y122.9368 F7200 ; Move to next pattern
G1 Z0.45 F7200 ; Z hop return
G1 E0.5 F2100 ; Un-retract
SET_PRESSURE_ADVANCE ADVANCE=0.05 ; Set pressure advance
M117 PA 0.05
G1 X169.2436 Y144.15 E1.11464 F10800 ; Print pattern wall
G1 X148.0304 Y165.3632 E1.11464 F10800 ; Print pattern wall
G1 E-0.5 F2100 ; Retract
G1 Z0.55 F7200 ; Z hop
G0 X148.7652 Y122.9368 F7200 ; Move to start next pattern wall
G1 Z0.45 F7200 ; Z hop return
G1 E0.5 F2100 ; Un-retract
G1 X169.9784 Y144.15 E1.11464 F10800 ; Print pattern wall
G1 X148.7652 Y165.3632 E1.11464 F10800 ; Print pattern wall
G1 E-0.5 F2100 ; Retract
G1 Z0.55 F7200 ; Z hop
G0 X149.5 Y122.9368 F7200 ; Move to start next pattern wall
G1 Z0.45 F7200 ; Z hop return
G1 E0.5 F2100 ; Un-retract
G1 X170.7132 Y144.15 E1.11464 F10800 ; Print pattern wall
G1 X149.5 Y165.3632 E1.11464 F10800 ; Print pattern wall
G1 E-0.5 F2100 ; Retract
G1 Z0.55 F7200 ; Z hop
G0 X152.0625 Y122.9368 F7200 ; Move to next pattern
G1 Z0.45 F7200 ; Z hop return
G1 E0.5 F2100 ; Un-retract
SET_PRESSURE_ADVANCE ADVANCE=0.055 ; Set pressure advance
M117 PA 0.055
G1 X173.2757 Y144.15 E1.11464 F10800 ; Print pattern wall
G1 X152.0625 Y165.3632 E1.11464 F10800 ; Print pattern wall
G1 E-0.5 F2100 ; Retract
G1 Z0.55 F7200 ; Z hop
G0 X152.7973 Y122.9368 F7200 ; Move to start next pattern wall
G1 Z0.45 F7200 ; Z hop return
G1 E0.5 F2100 ; Un-retract
G1 X174.0105 Y144.15 E1.11464 F10800 ; Print pattern wall
G1 X152.7973 Y165.3632 E1.11464 F10800 ; Print pattern wall
G1 E-0.5 F2100 ; Retract
G1 Z0.55 F7200 ; Z hop
G0 X153.5321 Y122.9368 F7200 ; Move to start next pattern wall
G1 Z0.45 F7200 ; Z hop return
G1 E0.5 F2100 ; Un-retract
G1 X174.7453 Y144.15 E1.11464 F10800 ; Print pattern wall
G1 X153.5321 Y165.3632 E1.11464 F10800 ; Print pattern wall
G1 E-0.5 F2100 ; Retract
G1 Z0.55 F7200 ; Z hop
G0 X156.0946 Y122.9368 F7200 ; Move to next pattern
G1 Z0.45 F7200 ; Z hop return
G1 E0.5 F2100 ; Un-retract
SET_PRESSURE_ADVANCE ADVANCE=0.06 ; Set pressure advance
M117 PA 0.06
G1 X177.3078 Y144.15 E1.11464 F10800 ; Print pattern wall
G1 X156.0946 Y165.3632 E1.11464 F10800 ; Print pattern wall
G1 E-0.5 F2100 ; Retract
G1 Z0.55 F7200 ; Z hop
G0 X156.8294 Y122.9368 F7200 ; Move to start next pattern wall
G1 Z0.45 F7200 ; Z hop return
G1 E0.5 F2100 ; Un-retract
G1 X178.0426 Y144.15 E1.11464 F10800 ; Print pattern wall
G1 X156.8294 Y165.3632 E1.11464 F10800 ; Print pattern wall
G1 E-0.5 F2100 ; Retract
G1 Z0.55 F7200 ; Z hop
G0 X157.5642 Y122.9368 F7200 ; Move to start next pattern wall
G1 Z0.45 F7200 ; Z hop return
G1 E0.5 F2100 ; Un-retract
G1 X178.7774 Y144.15 E1.11464 F10800 ; Print pattern wall
G1 X157.5642 Y165.3632 E1.11464 F10800 ; Print pattern wall
G1 E-0.5 F2100 ; Retract
G1 Z0.55 F7200 ; Z hop
G0 X160.1267 Y122.9368 F7200 ; Move to next pattern
G1 Z0.45 F7200 ; Z hop return
G1 E0.5 F2100 ; Un-retract
SET_PRESSURE_ADVANCE ADVANCE=0.065 ; Set pressure advance
M117 PA 0.065
G1 X181.3399 Y144.15 E1.11464 F10800 ; Print pattern wall
G1 X160.1267 Y165.3632 E1.11464 F10800 ; Print pattern wall
G1 E-0.5 F2100 ; Retract
G1 Z0.55 F7200 ; Z hop
G0 X160.8615 Y122.9368 F7200 ; Move to start next pattern wall
G1 Z0.45 F7200 ; Z hop return
G1 E0.5 F2100 ; Un-retract
G1 X182.0747 Y144.15 E1.11464 F10800 ; Print pattern wall
G1 X160.8615 Y165.3632 E1.11464 F10800 ; Print pattern wall
G1 E-0.5 F2100 ; Retract
G1 Z0.55 F7200 ; Z hop
G0 X161.5963 Y122.9368 F7200 ; Move to start next pattern wall
G1 Z0.45 F7200 ; Z hop return
G1 E0.5 F2100 ; Un-retract
G1 X182.8095 Y144.15 E1.11464 F10800 ; Print pattern wall
G1 X161.5963 Y165.3632 E1.11464 F10800 ; Print pattern wall
G1 E-0.5 F2100 ; Retract
G1 Z0.55 F7200 ; Z hop
G0 X164.1588 Y122.9368 F7200 ; Move to next pattern
G1 Z0.45 F7200 ; Z hop return
G1 E0.5 F2100 ; Un-retract
SET_PRESSURE_ADVANCE ADVANCE=0.07 ; Set pressure advance
M117 PA 0.07
G1 X185.372 Y144.15 E1.11464 F10800 ; Print pattern wall
G1 X164.1588 Y165.3632 E1.11464 F10800 ; Print pattern wall
G1 E-0.5 F2100 ; Retract
G1 Z0.55 F7200 ; Z hop
G0 X164.8936 Y122.9368 F7200 ; Move to start next pattern wall
G1 Z0.45 F7200 ; Z hop return
G1 E0.5 F2100 ; Un-retract
G1 X186.1068 Y144.15 E1.11464 F10800 ; Print pattern wall
G1 X164.8936 Y165.3632 E1.11464 F10800 ; Print pattern wall
G1 E-0.5 F2100 ; Retract
G1 Z0.55 F7200 ; Z hop
G0 X165.6283 Y122.9368 F7200 ; Move to start next pattern wall
G1 Z0.45 F7200 ; Z hop return
G1 E0.5 F2100 ; Un-retract
G1 X186.8416 Y144.15 E1.11464 F10800 ; Print pattern wall
G1 X165.6283 Y165.3632 E1.11464 F10800 ; Print pattern wall
G1 E-0.5 F2100 ; Retract
G1 Z0.55 F7200 ; Z hop
G0 X168.1908 Y122.9368 F7200 ; Move to next pattern
G1 Z0.45 F7200 ; Z hop return
G1 E0.5 F2100 ; Un-retract
SET_PRESSURE_ADVANCE ADVANCE=0.075 ; Set pressure advance
M117 PA 0.075
G1 X189.4041 Y144.15 E1.11464 F10800 ; Print pattern wall
G1 X168.1908 Y165.3632 E1.11464 F10800 ; Print pattern wall
G1 E-0.5 F2100 ; Retract
G1 Z0.55 F7200 ; Z hop
G0 X168.9256 Y122.9368 F7200 ; Move to start next pattern wall
G1 Z0.45 F7200 ; Z hop return
G1 E0.5 F2100 ; Un-retract
G1 X190.1388 Y144.15 E1.11464 F10800 ; Print pattern wall
G1 X168.9256 Y165.3632 E1.11464 F10800 ; Print pattern wall
G1 E-0.5 F2100 ; Retract
G1 Z0.55 F7200 ; Z hop
G0 X169.6604 Y122.9368 F7200 ; Move to start next pattern wall
G1 Z0.45 F7200 ; Z hop return
G1 E0.5 F2100 ; Un-retract
G1 X190.8736 Y144.15 E1.11464 F10800 ; Print pattern wall
G1 X169.6604 Y165.3632 E1.11464 F10800 ; Print pattern wall
G1 E-0.5 F2100 ; Retract
G1 Z0.55 F7200 ; Z hop
G0 X172.2229 Y122.9368 F7200 ; Move to next pattern
G1 Z0.45 F7200 ; Z hop return
G1 E0.5 F2100 ; Un-retract
SET_PRESSURE_ADVANCE ADVANCE=0.08 ; Set pressure advance
M117 PA 0.08
G1 X193.4361 Y144.15 E1.11464 F10800 ; Print pattern wall
G1 X172.2229 Y165.3632 E1.11464 F10800 ; Print pattern wall
G1 E-0.5 F2100 ; Retract
G1 Z0.55 F7200 ; Z hop
G0 X172.9577 Y122.9368 F7200 ; Move to start next pattern wall
G1 Z0.45 F7200 ; Z hop return
G1 E0.5 F2100 ; Un-retract
G1 X194.1709 Y144.15 E1.11464 F10800 ; Print pattern wall
G1 X172.9577 Y165.3632 E1.11464 F10800 ; Print pattern wall
G1 E-0.5 F2100 ; Retract
G1 Z0.55 F7200 ; Z hop
G0 X173.6925 Y122.9368 F7200 ; Move to start next pattern wall
G1 Z0.45 F7200 ; Z hop return
G1 E0.5 F2100 ; Un-retract
G1 X194.9057 Y144.15 E1.11464 F10800 ; Print pattern wall
G1 X173.6925 Y165.3632 E1.11464 F10800 ; Print pattern wall
G1 E-0.5 F2100 ; Retract
G1 Z0.55 F7200 ; Z hop
G0 X107.7095 Y122.9368 F7200 ; Move back to start position
G1 Z0.45 F7200 ; Z hop return
G1 E0.5 F2100 ; Un-retract
G0 Z0.65 F7200 ; Move to layer height
SET_PRESSURE_ADVANCE ADVANCE=0 ; Set pressure advance
M117 PA 0
G1 X128.9227 Y144.15 E1.11464 F10800 ; Print pattern wall
G1 X107.7095 Y165.3632 E1.11464 F10800 ; Print pattern wall
G1 E-0.5 F2100 ; Retract
G1 Z0.75 F7200 ; Z hop
G0 X108.4442 Y122.9368 F7200 ; Move to start next pattern wall
G1 Z0.65 F7200 ; Z hop return
G1 E0.5 F2100 ; Un-retract
G1 X129.6575 Y144.15 E1.11464 F10800 ; Print pattern wall
G1 X108.4442 Y165.3632 E1.11464 F10800 ; Print pattern wall
G1 E-0.5 F2100 ; Retract
G1 Z0.75 F7200 ; Z hop
G0 X109.179 Y122.9368 F7200 ; Move to start next pattern wall
G1 Z0.65 F7200 ; Z hop return
G1 E0.5 F2100 ; Un-retract
G1 X130.3922 Y144.15 E1.11464 F10800 ; Print pattern wall
G1 X109.179 Y165.3632 E1.11464 F10800 ; Print pattern wall
G1 E-0.5 F2100 ; Retract
G1 Z0.75 F7200 ; Z hop
G0 X111.7415 Y122.9368 F7200 ; Move to next pattern
G1 Z0.65 F7200 ; Z hop return
G1 E0.5 F2100 ; Un-retract
SET_PRESSURE_ADVANCE ADVANCE=0.005 ; Set pressure advance
M117 PA 0.005
G1 X132.9547 Y144.15 E1.11464 F10800 ; Print pattern wall
G1 X111.7415 Y165.3632 E1.11464 F10800 ; Print pattern wall
G1 E-0.5 F2100 ; Retract
G1 Z0.75 F7200 ; Z hop
G0 X112.4763 Y122.9368 F7200 ; Move to start next pattern wall
G1 Z0.65 F7200 ; Z hop return
G1 E0.5 F2100 ; Un-retract
G1 X133.6895 Y144.15 E1.11464 F10800 ; Print pattern wall
G1 X112.4763 Y165.3632 E1.11464 F10800 ; Print pattern wall
G1 E-0.5 F2100 ; Retract
G1 Z0.75 F7200 ; Z hop
G0 X113.2111 Y122.9368 F7200 ; Move to start next pattern wall
G1 Z0.65 F7200 ; Z hop return
G1 E0.5 F2100 ; Un-retract
G1 X134.4243 Y144.15 E1.11464 F10800 ; Print pattern wall
G1 X113.2111 Y165.3632 E1.11464 F10800 ; Print pattern wall
G1 E-0.5 F2100 ; Retract
G1 Z0.75 F7200 ; Z hop
G0 X115.7736 Y122.9368 F7200 ; Move to next pattern
G1 Z0.65 F7200 ; Z hop return
G1 E0.5 F2100 ; Un-retract
SET_PRESSURE_ADVANCE ADVANCE=0.01 ; Set pressure advance
M117 PA 0.01
G1 X136.9868 Y144.15 E1.11464 F10800 ; Print pattern wall
G1 X115.7736 Y165.3632 E1.11464 F10800 ; Print pattern wall
G1 E-0.5 F2100 ; Retract
G1 Z0.75 F7200 ; Z hop
G0 X116.5084 Y122.9368 F7200 ; Move to start next pattern wall
G1 Z0.65 F7200 ; Z hop return
G1 E0.5 F2100 ; Un-retract
G1 X137.7216 Y144.15 E1.11464 F10800 ; Print pattern wall
G1 X116.5084 Y165.3632 E1.11464 F10800 ; Print pattern wall
G1 E-0.5 F2100 ; Retract
G1 Z0.75 F7200 ; Z hop
G0 X117.2432 Y122.9368 F7200 ; Move to start next pattern wall
G1 Z0.65 F7200 ; Z hop return
G1 E0.5 F2100 ; Un-retract
G1 X138.4564 Y144.15 E1.11464 F10800 ; Print pattern wall
G1 X117.2432 Y165.3632 E1.11464 F10800 ; Print pattern wall
G1 E-0.5 F2100 ; Retract
G1 Z0.75 F7200 ; Z hop
G0 X119.8057 Y122.9368 F7200 ; Move to next pattern
G1 Z0.65 F7200 ; Z hop return
G1 E0.5 F2100 ; Un-retract
SET_PRESSURE_ADVANCE ADVANCE=0.015 ; Set pressure advance
M117 PA 0.015
G1 X141.0189 Y144.15 E1.11464 F10800 ; Print pattern wall
G1 X119.8057 Y165.3632 E1.11464 F10800 ; Print pattern wall
G1 E-0.5 F2100 ; Retract
G1 Z0.75 F7200 ; Z hop
G0 X120.5405 Y122.9368 F7200 ; Move to start next pattern wall
G1 Z0.65 F7200 ; Z hop return
G1 E0.5 F2100 ; Un-retract
G1 X141.7537 Y144.15 E1.11464 F10800 ; Print pattern wall
G1 X120.5405 Y165.3632 E1.11464 F10800 ; Print pattern wall
G1 E-0.5 F2100 ; Retract
G1 Z0.75 F7200 ; Z hop
G0 X121.2753 Y122.9368 F7200 ; Move to start next pattern wall
G1 Z0.65 F7200 ; Z hop return
G1 E0.5 F2100 ; Un-retract
G1 X142.4885 Y144.15 E1.11464 F10800 ; Print pattern wall
G1 X121.2753 Y165.3632 E1.11464 F10800 ; Print pattern wall
G1 E-0.5 F2100 ; Retract
G1 Z0.75 F7200 ; Z hop
G0 X123.8378 Y122.9368 F7200 ; Move to next pattern
G1 Z0.65 F7200 ; Z hop return
G1 E0.5 F2100 ; Un-retract
SET_PRESSURE_ADVANCE ADVANCE=0.02 ; Set pressure advance
M117 PA 0.02
G1 X145.051 Y144.15 E1.11464 F10800 ; Print pattern wall
G1 X123.8378 Y165.3632 E1.11464 F10800 ; Print pattern wall
G1 E-0.5 F2100 ; Retract
G1 Z0.75 F7200 ; Z hop
G0 X124.5726 Y122.9368 F7200 ; Move to start next pattern wall
G1 Z0.65 F7200 ; Z hop return
G1 E0.5 F2100 ; Un-retract
G1 X145.7858 Y144.15 E1.11464 F10800 ; Print pattern wall
G1 X124.5726 Y165.3632 E1.11464 F10800 ; Print pattern wall
G1 E-0.5 F2100 ; Retract
G1 Z0.75 F7200 ; Z hop
G0 X125.3074 Y122.9368 F7200 ; Move to start next pattern wall
G1 Z0.65 F7200 ; Z hop return
G1 E0.5 F2100 ; Un-retract
G1 X146.5206 Y144.15 E1.11464 F10800 ; Print pattern wall
G1 X125.3074 Y165.3632 E1.11464 F10800 ; Print pattern wall
G1 E-0.5 F2100 ; Retract
G1 Z0.75 F7200 ; Z hop
G0 X127.8699 Y122.9368 F7200 ; Move to next pattern
G1 Z0.65 F7200 ; Z hop return
G1 E0.5 F2100 ; Un-retract
SET_PRESSURE_ADVANCE ADVANCE=0.025 ; Set pressure advance
M117 PA 0.025
G1 X149.0831 Y144.15 E1.11464 F10800 ; Print pattern wall
G1 X127.8699 Y165.3632 E1.11464 F10800 ; Print pattern wall
G1 E-0.5 F2100 ; Retract
G1 Z0.75 F7200 ; Z hop
G0 X128.6047 Y122.9368 F7200 ; Move to start next pattern wall
G1 Z0.65 F7200 ; Z hop return
G1 E0.5 F2100 ; Un-retract
G1 X149.8179 Y144.15 E1.11464 F10800 ; Print pattern wall
G1 X128.6047 Y165.3632 E1.11464 F10800 ; Print pattern wall
G1 E-0.5 F2100 ; Retract
G1 Z0.75 F7200 ; Z hop
G0 X129.3395 Y122.9368 F7200 ; Move to start next pattern wall
G1 Z0.65 F7200 ; Z hop return
G1 E0.5 F2100 ; Un-retract
G1 X150.5527 Y144.15 E1.11464 F10800 ; Print pattern wall
G1 X129.3395 Y165.3632 E1.11464 F10800 ; Print pattern wall
G1 E-0.5 F2100 ; Retract
G1 Z0.75 F7200 ; Z hop
G0 X131.902 Y122.9368 F7200 ; Move to next pattern
G1 Z0.65 F7200 ; Z hop return
G1 E0.5 F2100 ; Un-retract
SET_PRESSURE_ADVANCE ADVANCE=0.03 ; Set pressure advance
M117 PA 0.03
G1 X153.1152 Y144.15 E1.11464 F10800 ; Print pattern wall
G1 X131.902 Y165.3632 E1.11464 F10800 ; Print pattern wall
G1 E-0.5 F2100 ; Retract
G1 Z0.75 F7200 ; Z hop
G0 X132.6368 Y122.9368 F7200 ; Move to start next pattern wall
G1 Z0.65 F7200 ; Z hop return
G1 E0.5 F2100 ; Un-retract
G1 X153.85 Y144.15 E1.11464 F10800 ; Print pattern wall
G1 X132.6368 Y165.3632 E1.11464 F10800 ; Print pattern wall
G1 E-0.5 F2100 ; Retract
G1 Z0.75 F7200 ; Z hop
G0 X133.3716 Y122.9368 F7200 ; Move to start next pattern wall
G1 Z0.65 F7200 ; Z hop return
G1 E0.5 F2100 ; Un-retract
G1 X154.5848 Y144.15 E1.11464 F10800 ; Print pattern wall
G1 X133.3716 Y165.3632 E1.11464 F10800 ; Print pattern wall
G1 E-0.5 F2100 ; Retract
G1 Z0.75 F7200 ; Z hop
G0 X135.9341 Y122.9368 F7200 ; Move to next pattern
G1 Z0.65 F7200 ; Z hop return
G1 E0.5 F2100 ; Un-retract
SET_PRESSURE_ADVANCE ADVANCE=0.035 ; Set pressure advance
M117 PA 0.035
G1 X157.1473 Y144.15 E1.11464 F10800 ; Print pattern wall
G1 X135.9341 Y165.3632 E1.11464 F10800 ; Print pattern wall
G1 E-0.5 F2100 ; Retract
G1 Z0.75 F7200 ; Z hop
G0 X136.6689 Y122.9368 F7200 ; Move to start next pattern wall
G1 Z0.65 F7200 ; Z hop return
G1 E0.5 F2100 ; Un-retract
G1 X157.8821 Y144.15 E1.11464 F10800 ; Print pattern wall
G1 X136.6689 Y165.3632 E1.11464 F10800 ; Print pattern wall
G1 E-0.5 F2100 ; Retract
G1 Z0.75 F7200 ; Z hop
G0 X137.4037 Y122.9368 F7200 ; Move to start next pattern wall
G1 Z0.65 F7200 ; Z hop return
G1 E0.5 F2100 ; Un-retract
G1 X158.6169 Y144.15 E1.11464 F10800 ; Print pattern wall
G1 X137.4037 Y165.3632 E1.11464 F10800 ; Print pattern wall
G1 E-0.5 F2100 ; Retract
G1 Z0.75 F7200 ; Z hop
G0 X139.9662 Y122.9368 F7200 ; Move to next pattern
G1 Z0.65 F7200 ; Z hop return
G1 E0.5 F2100 ; Un-retract
SET_PRESSURE_ADVANCE ADVANCE=0.04 ; Set pressure advance
M117 PA 0.04
G1 X161.1794 Y144.15 E1.11464 F10800 ; Print pattern wall
G1 X139.9662 Y165.3632 E1.11464 F10800 ; Print pattern wall
G1 E-0.5 F2100 ; Retract
G1 Z0.75 F7200 ; Z hop
G0 X140.701 Y122.9368 F7200 ; Move to start next pattern wall
G1 Z0.65 F7200 ; Z hop return
G1 E0.5 F2100 ; Un-retract
G1 X161.9142 Y144.15 E1.11464 F10800 ; Print pattern wall
G1 X140.701 Y165.3632 E1.11464 F10800 ; Print pattern wall
G1 E-0.5 F2100 ; Retract
G1 Z0.75 F7200 ; Z hop
G0 X141.4358 Y122.9368 F7200 ; Move to start next pattern wall
G1 Z0.65 F7200 ; Z hop return
G1 E0.5 F2100 ; Un-retract
G1 X162.649 Y144.15 E1.11464 F10800 ; Print pattern wall
G1 X141.4358 Y165.3632 E1.11464 F10800 ; Print pattern wall
G1 E-0.5 F2100 ; Retract
G1 Z0.75 F7200 ; Z hop
G0 X143.9983 Y122.9368 F7200 ; Move to next pattern
G1 Z0.65 F7200 ; Z hop return
G1 E0.5 F2100 ; Un-retract
SET_PRESSURE_ADVANCE ADVANCE=0.045 ; Set pressure advance
M117 PA 0.045
G1 X165.2115 Y144.15 E1.11464 F10800 ; Print pattern wall
G1 X143.9983 Y165.3632 E1.11464 F10800 ; Print pattern wall
G1 E-0.5 F2100 ; Retract
G1 Z0.75 F7200 ; Z hop
G0 X144.7331 Y122.9368 F7200 ; Move to start next pattern wall
G1 Z0.65 F7200 ; Z hop return
G1 E0.5 F2100 ; Un-retract
G1 X165.9463 Y144.15 E1.11464 F10800 ; Print pattern wall
G1 X144.7331 Y165.3632 E1.11464 F10800 ; Print pattern wall
G1 E-0.5 F2100 ; Retract
G1 Z0.75 F7200 ; Z hop
G0 X145.4679 Y122.9368 F7200 ; Move to start next pattern wall
G1 Z0.65 F7200 ; Z hop return
G1 E0.5 F2100 ; Un-retract
G1 X166.6811 Y144.15 E1.11464 F10800 ; Print pattern wall
G1 X145.4679 Y165.3632 E1.11464 F10800 ; Print pattern wall
G1 E-0.5 F2100 ; Retract
G1 Z0.75 F7200 ; Z hop
G0 X148.0304 Y122.9368 F7200 ; Move to next pattern
G1 Z0.65 F7200 ; Z hop return
G1 E0.5 F2100 ; Un-retract
SET_PRESSURE_ADVANCE ADVANCE=0.05 ; Set pressure advance
M117 PA 0.05
G1 X169.2436 Y144.15 E1.11464 F10800 ; Print pattern wall
G1 X148.0304 Y165.3632 E1.11464 F10800 ; Print pattern wall
G1 E-0.5 F2100 ; Retract
G1 Z0.75 F7200 ; Z hop
G0 X148.7652 Y122.9368 F7200 ; Move to start next pattern wall
G1 Z0.65 F7200 ; Z hop return
G1 E0.5 F2100 ; Un-retract
G1 X169.9784 Y144.15 E1.11464 F10800 ; Print pattern wall
G1 X148.7652 Y165.3632 E1.11464 F10800 ; Print pattern wall
G1 E-0.5 F2100 ; Retract
G1 Z0.75 F7200 ; Z hop
G0 X149.5 Y122.9368 F7200 ; Move to start next pattern wall
G1 Z0.65 F7200 ; Z hop return
G1 E0.5 F2100 ; Un-retract
G1 X170.7132 Y144.15 E1.11464 F10800 ; Print pattern wall
G1 X149.5 Y165.3632 E1.11464 F10800 ; Print pattern wall
G1 E-0.5 F2100 ; Retract
G1 Z0.75 F7200 ; Z hop
G0 X152.0625 Y122.9368 F7200 ; Move to next pattern
G1 Z0.65 F7200 ; Z hop return
G1 E0.5 F2100 ; Un-retract
SET_PRESSURE_ADVANCE ADVANCE=0.055 ; Set pressure advance
M117 PA 0.055
G1 X173.2757 Y144.15 E1.11464 F10800 ; Print pattern wall
G1 X152.0625 Y165.3632 E1.11464 F10800 ; Print pattern wall
G1 E-0.5 F2100 ; Retract
G1 Z0.75 F7200 ; Z hop
G0 X152.7973 Y122.9368 F7200 ; Move to start next pattern wall
G1 Z0.65 F7200 ; Z hop return
G1 E0.5 F2100 ; Un-retract
G1 X174.0105 Y144.15 E1.11464 F10800 ; Print pattern wall
G1 X152.7973 Y165.3632 E1.11464 F10800 ; Print pattern wall
G1 E-0.5 F2100 ; Retract
G1 Z0.75 F7200 ; Z hop
G0 X153.5321 Y122.9368 F7200 ; Move to start next pattern wall
G1 Z0.65 F7200 ; Z hop return
G1 E0.5 F2100 ; Un-retract
G1 X174.7453 Y144.15 E1.11464 F10800 ; Print pattern wall
G1 X153.5321 Y165.3632 E1.11464 F10800 ; Print pattern wall
G1 E-0.5 F2100 ; Retract
G1 Z0.75 F7200 ; Z hop
G0 X156.0946 Y122.9368 F7200 ; Move to next pattern
G1 Z0.65 F7200 ; Z hop return
G1 E0.5 F2100 ; Un-retract
SET_PRESSURE_ADVANCE ADVANCE=0.06 ; Set pressure advance
M117 PA 0.06
G1 X177.3078 Y144.15 E1.11464 F10800 ; Print pattern wall
G1 X156.0946 Y165.3632 E1.11464 F10800 ; Print pattern wall
G1 E-0.5 F2100 ; Retract
G1 Z0.75 F7200 ; Z hop
G0 X156.8294 Y122.9368 F7200 ; Move to start next pattern wall
G1 Z0.65 F7200 ; Z hop return
G1 E0.5 F2100 ; Un-retract
G1 X178.0426 Y144.15 E1.11464 F10800 ; Print pattern wall
G1 X156.8294 Y165.3632 E1.11464 F10800 ; Print pattern wall
G1 E-0.5 F2100 ; Retract
G1 Z0.75 F7200 ; Z hop
G0 X157.5642 Y122.9368 F7200 ; Move to start next pattern wall
G1 Z0.65 F7200 ; Z hop return
G1 E0.5 F2100 ; Un-retract
G1 X178.7774 Y144.15 E1.11464 F10800 ; Print pattern wall
G1 X157.5642 Y165.3632 E1.11464 F10800 ; Print pattern wall
G1 E-0.5 F2100 ; Retract
G1 Z0.75 F7200 ; Z hop
G0 X160.1267 Y122.9368 F7200 ; Move to next pattern
G1 Z0.65 F7200 ; Z hop return
G1 E0.5 F2100 ; Un-retract
SET_PRESSURE_ADVANCE ADVANCE=0.065 ; Set pressure advance
M117 PA 0.065
G1 X181.3399 Y144.15 E1.11464 F10800 ; Print pattern wall
G1 X160.1267 Y165.3632 E1.11464 F10800 ; Print pattern wall
G1 E-0.5 F2100 ; Retract
G1 Z0.75 F7200 ; Z hop
G0 X160.8615 Y122.9368 F7200 ; Move to start next pattern wall
G1 Z0.65 F7200 ; Z hop return
G1 E0.5 F2100 ; Un-retract
G1 X182.0747 Y144.15 E1.11464 F10800 ; Print pattern wall
G1 X160.8615 Y165.3632 E1.11464 F10800 ; Print pattern wall
G1 E-0.5 F2100 ; Retract
G1 Z0.75 F7200 ; Z hop
G0 X161.5963 Y122.9368 F7200 ; Move to start next pattern wall
G1 Z0.65 F7200 ; Z hop return
G1 E0.5 F2100 ; Un-retract
G1 X182.8095 Y144.15 E1.11464 F10800 ; Print pattern wall
G1 X161.5963 Y165.3632 E1.11464 F10800 ; Print pattern wall
G1 E-0.5 F2100 ; Retract
G1 Z0.75 F7200 ; Z hop
G0 X164.1588 Y122.9368 F7200 ; Move to next pattern
G1 Z0.65 F7200 ; Z hop return
G1 E0.5 F2100 ; Un-retract
SET_PRESSURE_ADVANCE ADVANCE=0.07 ; Set pressure advance
M117 PA 0.07
G1 X185.372 Y144.15 E1.11464 F10800 ; Print pattern wall
G1 X164.1588 Y165.3632 E1.11464 F10800 ; Print pattern wall
G1 E-0.5 F2100 ; Retract
G1 Z0.75 F7200 ; Z hop
G0 X164.8936 Y122.9368 F7200 ; Move to start next pattern wall
G1 Z0.65 F7200 ; Z hop return
G1 E0.5 F2100 ; Un-retract
G1 X186.1068 Y144.15 E1.11464 F10800 ; Print pattern wall
G1 X164.8936 Y165.3632 E1.11464 F10800 ; Print pattern wall
G1 E-0.5 F2100 ; Retract
G1 Z0.75 F7200 ; Z hop
G0 X165.6283 Y122.9368 F7200 ; Move to start next pattern wall
G1 Z0.65 F7200 ; Z hop return
G1 E0.5 F2100 ; Un-retract
G1 X186.8416 Y144.15 E1.11464 F10800 ; Print pattern wall
G1 X165.6283 Y165.3632 E1.11464 F10800 ; Print pattern wall
G1 E-0.5 F2100 ; Retract
G1 Z0.75 F7200 ; Z hop
G0 X168.1908 Y122.9368 F7200 ; Move to next pattern
G1 Z0.65 F7200 ; Z hop return
G1 E0.5 F2100 ; Un-retract
SET_PRESSURE_ADVANCE ADVANCE=0.075 ; Set pressure advance
M117 PA 0.075
G1 X189.4041 Y144.15 E1.11464 F10800 ; Print pattern wall
G1 X168.1908 Y165.3632 E1.11464 F10800 ; Print pattern wall
G1 E-0.5 F2100 ; Retract
G1 Z0.75 F7200 ; Z hop
G0 X168.9256 Y122.9368 F7200 ; Move to start next pattern wall
G1 Z0.65 F7200 ; Z hop return
G1 E0.5 F2100 ; Un-retract
G1 X190.1388 Y144.15 E1.11464 F10800 ; Print pattern wall
G1 X168.9256 Y165.3632 E1.11464 F10800 ; Print pattern wall
G1 E-0.5 F2100 ; Retract
G1 Z0.75 F7200 ; Z hop
G0 X169.6604 Y122.9368 F7200 ; Move to start next pattern wall
G1 Z0.65 F7200 ; Z hop return
G1 E0.5 F2100 ; Un-retract
G1 X190.8736 Y144.15 E1.11464 F10800 ; Print pattern wall
G1 X169.6604 Y165.3632 E1.11464 F10800 ; Print pattern wall
G1 E-0.5 F2100 ; Retract
G1 Z0.75 F7200 ; Z hop
G0 X172.2229 Y122.9368 F7200 ; Move to next pattern
G1 Z0.65 F7200 ; Z hop return
G1 E0.5 F2100 ; Un-retract
SET_PRESSURE_ADVANCE ADVANCE=0.08 ; Set pressure advance
M117 PA 0.08
G1 X193.4361 Y144.15 E1.11464 F10800 ; Print pattern wall
G1 X172.2229 Y165.3632 E1.11464 F10800 ; Print pattern wall
G1 E-0.5 F2100 ; Retract
G1 Z0.75 F7200 ; Z hop
G0 X172.9577 Y122.9368 F7200 ; Move to start next pattern wall
G1 Z0.65 F7200 ; Z hop return
G1 E0.5 F2100 ; Un-retract
G1 X194.1709 Y144.15 E1.11464 F10800 ; Print pattern wall
G1 X172.9577 Y165.3632 E1.11464 F10800 ; Print pattern wall
G1 E-0.5 F2100 ; Retract
G1 Z0.75 F7200 ; Z hop
G0 X173.6925 Y122.9368 F7200 ; Move to start next pattern wall
G1 Z0.65 F7200 ; Z hop return
G1 E0.5 F2100 ; Un-retract
G1 X194.9057 Y144.15 E1.11464 F10800 ; Print pattern wall
G1 X173.6925 Y165.3632 E1.11464 F10800 ; Print pattern wall
G1 E-0.5 F2100 ; Retract
G1 Z0.75 F7200 ; Z hop
G0 X107.7095 Y122.9368 F7200 ; Move back to start position
G1 Z0.65 F7200 ; Z hop return
G1 E0.5 F2100 ; Un-retract
G0 Z0.85 F7200 ; Move to layer height
SET_PRESSURE_ADVANCE ADVANCE=0 ; Set pressure advance
M117 PA 0
G1 X128.9227 Y144.15 E1.11464 F10800 ; Print pattern wall
G1 X107.7095 Y165.3632 E1.11464 F10800 ; Print pattern wall
G1 E-0.5 F2100 ; Retract
G1 Z0.95 F7200 ; Z hop
G0 X108.4442 Y122.9368 F7200 ; Move to start next pattern wall
G1 Z0.85 F7200 ; Z hop return
G1 E0.5 F2100 ; Un-retract
G1 X129.6575 Y144.15 E1.11464 F10800 ; Print pattern wall
G1 X108.4442 Y165.3632 E1.11464 F10800 ; Print pattern wall
G1 E-0.5 F2100 ; Retract
G1 Z0.95 F7200 ; Z hop
G0 X109.179 Y122.9368 F7200 ; Move to start next pattern wall
G1 Z0.85 F7200 ; Z hop return
G1 E0.5 F2100 ; Un-retract
G1 X130.3922 Y144.15 E1.11464 F10800 ; Print pattern wall
G1 X109.179 Y165.3632 E1.11464 F10800 ; Print pattern wall
G1 E-0.5 F2100 ; Retract
G1 Z0.95 F7200 ; Z hop
G0 X111.7415 Y122.9368 F7200 ; Move to next pattern
G1 Z0.85 F7200 ; Z hop return
G1 E0.5 F2100 ; Un-retract
SET_PRESSURE_ADVANCE ADVANCE=0.005 ; Set pressure advance
M117 PA 0.005
G1 X132.9547 Y144.15 E1.11464 F10800 ; Print pattern wall
G1 X111.7415 Y165.3632 E1.11464 F10800 ; Print pattern wall
G1 E-0.5 F2100 ; Retract
G1 Z0.95 F7200 ; Z hop
G0 X112.4763 Y122.9368 F7200 ; Move to start next pattern wall
G1 Z0.85 F7200 ; Z hop return
G1 E0.5 F2100 ; Un-retract
G1 X133.6895 Y144.15 E1.11464 F10800 ; Print pattern wall
G1 X112.4763 Y165.3632 E1.11464 F10800 ; Print pattern wall
G1 E-0.5 F2100 ; Retract
G1 Z0.95 F7200 ; Z hop
G0 X113.2111 Y122.9368 F7200 ; Move to start next pattern wall
G1 Z0.85 F7200 ; Z hop return
G1 E0.5 F2100 ; Un-retract
G1 X134.4243 Y144.15 E1.11464 F10800 ; Print pattern wall
G1 X113.2111 Y165.3632 E1.11464 F10800 ; Print pattern wall
G1 E-0.5 F2100 ; Retract
G1 Z0.95 F7200 ; Z hop
G0 X115.7736 Y122.9368 F7200 ; Move to next pattern
G1 Z0.85 F7200 ; Z hop return
G1 E0.5 F2100 ; Un-retract
SET_PRESSURE_ADVANCE ADVANCE=0.01 ; Set pressure advance
M117 PA 0.01
G1 X136.9868 Y144.15 E1.11464 F10800 ; Print pattern wall
G1 X115.7736 Y165.3632 E1.11464 F10800 ; Print pattern wall
G1 E-0.5 F2100 ; Retract
G1 Z0.95 F7200 ; Z hop
G0 X116.5084 Y122.9368 F7200 ; Move to start next pattern wall
G1 Z0.85 F7200 ; Z hop return
G1 E0.5 F2100 ; Un-retract
G1 X137.7216 Y144.15 E1.11464 F10800 ; Print pattern wall
G1 X116.5084 Y165.3632 E1.11464 F10800 ; Print pattern wall
G1 E-0.5 F2100 ; Retract
G1 Z0.95 F7200 ; Z hop
G0 X117.2432 Y122.9368 F7200 ; Move to start next pattern wall
G1 Z0.85 F7200 ; Z hop return
G1 E0.5 F2100 ; Un-retract
G1 X138.4564 Y144.15 E1.11464 F10800 ; Print pattern wall
G1 X117.2432 Y165.3632 E1.11464 F10800 ; Print pattern wall
G1 E-0.5 F2100 ; Retract
G1 Z0.95 F7200 ; Z hop
G0 X119.8057 Y122.9368 F7200 ; Move to next pattern
G1 Z0.85 F7200 ; Z hop return
G1 E0.5 F2100 ; Un-retract
SET_PRESSURE_ADVANCE ADVANCE=0.015 ; Set pressure advance
M117 PA 0.015
G1 X141.0189 Y144.15 E1.11464 F10800 ; Print pattern wall
G1 X119.8057 Y165.3632 E1.11464 F10800 ; Print pattern wall
G1 E-0.5 F2100 ; Retract
G1 Z0.95 F7200 ; Z hop
G0 X120.5405 Y122.9368 F7200 ; Move to start next pattern wall
G1 Z0.85 F7200 ; Z hop return
G1 E0.5 F2100 ; Un-retract
G1 X141.7537 Y144.15 E1.11464 F10800 ; Print pattern wall
G1 X120.5405 Y165.3632 E1.11464 F10800 ; Print pattern wall
G1 E-0.5 F2100 ; Retract
G1 Z0.95 F7200 ; Z hop
G0 X121.2753 Y122.9368 F7200 ; Move to start next pattern wall
G1 Z0.85 F7200 ; Z hop return
G1 E0.5 F2100 ; Un-retract
G1 X142.4885 Y144.15 E1.11464 F10800 ; Print pattern wall
G1 X121.2753 Y165.3632 E1.11464 F10800 ; Print pattern wall
G1 E-0.5 F2100 ; Retract
G1 Z0.95 F7200 ; Z hop
G0 X123.8378 Y122.9368 F7200 ; Move to next pattern
G1 Z0.85 F7200 ; Z hop return
G1 E0.5 F2100 ; Un-retract
SET_PRESSURE_ADVANCE ADVANCE=0.02 ; Set pressure advance
M117 PA 0.02
G1 X145.051 Y144.15 E1.11464 F10800 ; Print pattern wall
G1 X123.8378 Y165.3632 E1.11464 F10800 ; Print pattern wall
G1 E-0.5 F2100 ; Retract
G1 Z0.95 F7200 ; Z hop
G0 X124.5726 Y122.9368 F7200 ; Move to start next pattern wall
G1 Z0.85 F7200 ; Z hop return
G1 E0.5 F2100 ; Un-retract
G1 X145.7858 Y144.15 E1.11464 F10800 ; Print pattern wall
G1 X124.5726 Y165.3632 E1.11464 F10800 ; Print pattern wall
G1 E-0.5 F2100 ; Retract
G1 Z0.95 F7200 ; Z hop
G0 X125.3074 Y122.9368 F7200 ; Move to start next pattern wall
G1 Z0.85 F7200 ; Z hop return
G1 E0.5 F2100 ; Un-retract
G1 X146.5206 Y144.15 E1.11464 F10800 ; Print pattern wall
G1 X125.3074 Y165.3632 E1.11464 F10800 ; Print pattern wall
G1 E-0.5 F2100 ; Retract
G1 Z0.95 F7200 ; Z hop
G0 X127.8699 Y122.9368 F7200 ; Move to next pattern
G1 Z0.85 F7200 ; Z hop return
G1 E0.5 F2100 ; Un-retract
SET_PRESSURE_ADVANCE ADVANCE=0.025 ; Set pressure advance
M117 PA 0.025
G1 X149.0831 Y144.15 E1.11464 F10800 ; Print pattern wall
G1 X127.8699 Y165.3632 E1.11464 F10800 ; Print pattern wall
G1 E-0.5 F2100 ; Retract
G1 Z0.95 F7200 ; Z hop
G0 X128.6047 Y122.9368 F7200 ; Move to start next pattern wall
G1 Z0.85 F7200 ; Z hop return
G1 E0.5 F2100 ; Un-retract
G1 X149.8179 Y144.15 E1.11464 F10800 ; Print pattern wall
G1 X128.6047 Y165.3632 E1.11464 F10800 ; Print pattern wall
G1 E-0.5 F2100 ; Retract
G1 Z0.95 F7200 ; Z hop
G0 X129.3395 Y122.9368 F7200 ; Move to start next pattern wall
G1 Z0.85 F7200 ; Z hop return
G1 E0.5 F2100 ; Un-retract
G1 X150.5527 Y144.15 E1.11464 F10800 ; Print pattern wall
G1 X129.3395 Y165.3632 E1.11464 F10800 ; Print pattern wall
G1 E-0.5 F2100 ; Retract
G1 Z0.95 F7200 ; Z hop
G0 X131.902 Y122.9368 F7200 ; Move to next pattern
G1 Z0.85 F7200 ; Z hop return
G1 E0.5 F2100 ; Un-retract
SET_PRESSURE_ADVANCE ADVANCE=0.03 ; Set pressure advance
M117 PA 0.03
G1 X153.1152 Y144.15 E1.11464 F10800 ; Print pattern wall
G1 X131.902 Y165.3632 E1.11464 F10800 ; Print pattern wall
G1 E-0.5 F2100 ; Retract
G1 Z0.95 F7200 ; Z hop
G0 X132.6368 Y122.9368 F7200 ; Move to start next pattern wall
G1 Z0.85 F7200 ; Z hop return
G1 E0.5 F2100 ; Un-retract
G1 X153.85 Y144.15 E1.11464 F10800 ; Print pattern wall
G1 X132.6368 Y165.3632 E1.11464 F10800 ; Print pattern wall
G1 E-0.5 F2100 ; Retract
G1 Z0.95 F7200 ; Z hop
G0 X133.3716 Y122.9368 F7200 ; Move to start next pattern wall
G1 Z0.85 F7200 ; Z hop return
G1 E0.5 F2100 ; Un-retract
G1 X154.5848 Y144.15 E1.11464 F10800 ; Print pattern wall
G1 X133.3716 Y165.3632 E1.11464 F10800 ; Print pattern wall
G1 E-0.5 F2100 ; Retract
G1 Z0.95 F7200 ; Z hop
G0 X135.9341 Y122.9368 F7200 ; Move to next pattern
G1 Z0.85 F7200 ; Z hop return
G1 E0.5 F2100 ; Un-retract
SET_PRESSURE_ADVANCE ADVANCE=0.035 ; Set pressure advance
M117 PA 0.035
G1 X157.1473 Y144.15 E1.11464 F10800 ; Print pattern wall
G1 X135.9341 Y165.3632 E1.11464 F10800 ; Print pattern wall
G1 E-0.5 F2100 ; Retract
G1 Z0.95 F7200 ; Z hop
G0 X136.6689 Y122.9368 F7200 ; Move to start next pattern wall
G1 Z0.85 F7200 ; Z hop return
G1 E0.5 F2100 ; Un-retract
G1 X157.8821 Y144.15 E1.11464 F10800 ; Print pattern wall
G1 X136.6689 Y165.3632 E1.11464 F10800 ; Print pattern wall
G1 E-0.5 F2100 ; Retract
G1 Z0.95 F7200 ; Z hop
G0 X137.4037 Y122.9368 F7200 ; Move to start next pattern wall
G1 Z0.85 F7200 ; Z hop return
G1 E0.5 F2100 ; Un-retract
G1 X158.6169 Y144.15 E1.11464 F10800 ; Print pattern wall
G1 X137.4037 Y165.3632 E1.11464 F10800 ; Print pattern wall
G1 E-0.5 F2100 ; Retract
G1 Z0.95 F7200 ; Z hop
G0 X139.9662 Y122.9368 F7200 ; Move to next pattern
G1 Z0.85 F7200 ; Z hop return
G1 E0.5 F2100 ; Un-retract
SET_PRESSURE_ADVANCE ADVANCE=0.04 ; Set pressure advance
M117 PA 0.04
G1 X161.1794 Y144.15 E1.11464 F10800 ; Print pattern wall
G1 X139.9662 Y165.3632 E1.11464 F10800 ; Print pattern wall
G1 E-0.5 F2100 ; Retract
G1 Z0.95 F7200 ; Z hop
G0 X140.701 Y122.9368 F7200 ; Move to start next pattern wall
G1 Z0.85 F7200 ; Z hop return
G1 E0.5 F2100 ; Un-retract
G1 X161.9142 Y144.15 E1.11464 F10800 ; Print pattern wall
G1 X140.701 Y165.3632 E1.11464 F10800 ; Print pattern wall
G1 E-0.5 F2100 ; Retract
G1 Z0.95 F7200 ; Z hop
G0 X141.4358 Y122.9368 F7200 ; Move to start next pattern wall
G1 Z0.85 F7200 ; Z hop return
G1 E0.5 F2100 ; Un-retract
G1 X162.649 Y144.15 E1.11464 F10800 ; Print pattern wall
G1 X141.4358 Y165.3632 E1.11464 F10800 ; Print pattern wall
G1 E-0.5 F2100 ; Retract
G1 Z0.95 F7200 ; Z hop
G0 X143.9983 Y122.9368 F7200 ; Move to next pattern
G1 Z0.85 F7200 ; Z hop return
G1 E0.5 F2100 ; Un-retract
SET_PRESSURE_ADVANCE ADVANCE=0.045 ; Set pressure advance
M117 PA 0.045
G1 X165.2115 Y144.15 E1.11464 F10800 ; Print pattern wall
G1 X143.9983 Y165.3632 E1.11464 F10800 ; Print pattern wall
G1 E-0.5 F2100 ; Retract
G1 Z0.95 F7200 ; Z hop
G0 X144.7331 Y122.9368 F7200 ; Move to start next pattern wall
G1 Z0.85 F7200 ; Z hop return
G1 E0.5 F2100 ; Un-retract
G1 X165.9463 Y144.15 E1.11464 F10800 ; Print pattern wall
G1 X144.7331 Y165.3632 E1.11464 F10800 ; Print pattern wall
G1 E-0.5 F2100 ; Retract
G1 Z0.95 F7200 ; Z hop
G0 X145.4679 Y122.9368 F7200 ; Move to start next pattern wall
G1 Z0.85 F7200 ; Z hop return
G1 E0.5 F2100 ; Un-retract
G1 X166.6811 Y144.15 E1.11464 F10800 ; Print pattern wall
G1 X145.4679 Y165.3632 E1.11464 F10800 ; Print pattern wall
G1 E-0.5 F2100 ; Retract
G1 Z0.95 F7200 ; Z hop
G0 X148.0304 Y122.9368 F7200 ; Move to next pattern
G1 Z0.85 F7200 ; Z hop return
G1 E0.5 F2100 ; Un-retract
SET_PRESSURE_ADVANCE ADVANCE=0.05 ; Set pressure advance
M117 PA 0.05
G1 X169.2436 Y144.15 E1.11464 F10800 ; Print pattern wall
G1 X148.0304 Y165.3632 E1.11464 F10800 ; Print pattern wall
G1 E-0.5 F2100 ; Retract
G1 Z0.95 F7200 ; Z hop
G0 X148.7652 Y122.9368 F7200 ; Move to start next pattern wall
G1 Z0.85 F7200 ; Z hop return
G1 E0.5 F2100 ; Un-retract
G1 X169.9784 Y144.15 E1.11464 F10800 ; Print pattern wall
G1 X148.7652 Y165.3632 E1.11464 F10800 ; Print pattern wall
G1 E-0.5 F2100 ; Retract
G1 Z0.95 F7200 ; Z hop
G0 X149.5 Y122.9368 F7200 ; Move to start next pattern wall
G1 Z0.85 F7200 ; Z hop return
G1 E0.5 F2100 ; Un-retract
G1 X170.7132 Y144.15 E1.11464 F10800 ; Print pattern wall
G1 X149.5 Y165.3632 E1.11464 F10800 ; Print pattern wall
G1 E-0.5 F2100 ; Retract
G1 Z0.95 F7200 ; Z hop
G0 X152.0625 Y122.9368 F7200 ; Move to next pattern
G1 Z0.85 F7200 ; Z hop return
G1 E0.5 F2100 ; Un-retract
SET_PRESSURE_ADVANCE ADVANCE=0.055 ; Set pressure advance
M117 PA 0.055
G1 X173.2757 Y144.15 E1.11464 F10800 ; Print pattern wall
G1 X152.0625 Y165.3632 E1.11464 F10800 ; Print pattern wall
G1 E-0.5 F2100 ; Retract
G1 Z0.95 F7200 ; Z hop
G0 X152.7973 Y122.9368 F7200 ; Move to start next pattern wall
G1 Z0.85 F7200 ; Z hop return
G1 E0.5 F2100 ; Un-retract
G1 X174.0105 Y144.15 E1.11464 F10800 ; Print pattern wall
G1 X152.7973 Y165.3632 E1.11464 F10800 ; Print pattern wall
G1 E-0.5 F2100 ; Retract
G1 Z0.95 F7200 ; Z hop
G0 X153.5321 Y122.9368 F7200 ; Move to start next pattern wall
G1 Z0.85 F7200 ; Z hop return
G1 E0.5 F2100 ; Un-retract
G1 X174.7453 Y144.15 E1.11464 F10800 ; Print pattern wall
G1 X153.5321 Y165.3632 E1.11464 F10800 ; Print pattern wall
G1 E-0.5 F2100 ; Retract
G1 Z0.95 F7200 ; Z hop
G0 X156.0946 Y122.9368 F7200 ; Move to next pattern
G1 Z0.85 F7200 ; Z hop return
G1 E0.5 F2100 ; Un-retract
SET_PRESSURE_ADVANCE ADVANCE=0.06 ; Set pressure advance
M117 PA 0.06
G1 X177.3078 Y144.15 E1.11464 F10800 ; Print pattern wall
G1 X156.0946 Y165.3632 E1.11464 F10800 ; Print pattern wall
G1 E-0.5 F2100 ; Retract
G1 Z0.95 F7200 ; Z hop
G0 X156.8294 Y122.9368 F7200 ; Move to start next pattern wall
G1 Z0.85 F7200 ; Z hop return
G1 E0.5 F2100 ; Un-retract
G1 X178.0426 Y144.15 E1.11464 F10800 ; Print pattern wall
G1 X156.8294 Y165.3632 E1.11464 F10800 ; Print pattern wall
G1 E-0.5 F2100 ; Retract
G1 Z0.95 F7200 ; Z hop
G0 X157.5642 Y122.9368 F7200 ; Move to start next pattern wall
G1 Z0.85 F7200 ; Z hop return
G1 E0.5 F2100 ; Un-retract
G1 X178.7774 Y144.15 E1.11464 F10800 ; Print pattern wall
G1 X157.5642 Y165.3632 E1.11464 F10800 ; Print pattern wall
G1 E-0.5 F2100 ; Retract
G1 Z0.95 F7200 ; Z hop
G0 X160.1267 Y122.9368 F7200 ; Move to next pattern
G1 Z0.85 F7200 ; Z hop return
G1 E0.5 F2100 ; Un-retract
SET_PRESSURE_ADVANCE ADVANCE=0.065 ; Set pressure advance
M117 PA 0.065
G1 X181.3399 Y144.15 E1.11464 F10800 ; Print pattern wall
G1 X160.1267 Y165.3632 E1.11464 F10800 ; Print pattern wall
G1 E-0.5 F2100 ; Retract
G1 Z0.95 F7200 ; Z hop
G0 X160.8615 Y122.9368 F7200 ; Move to start next pattern wall
G1 Z0.85 F7200 ; Z hop return
G1 E0.5 F2100 ; Un-retract
G1 X182.0747 Y144.15 E1.11464 F10800 ; Print pattern wall
G1 X160.8615 Y165.3632 E1.11464 F10800 ; Print pattern wall
G1 E-0.5 F2100 ; Retract
G1 Z0.95 F7200 ; Z hop
G0 X161.5963 Y122.9368 F7200 ; Move to start next pattern wall
G1 Z0.85 F7200 ; Z hop return
G1 E0.5 F2100 ; Un-retract
G1 X182.8095 Y144.15 E1.11464 F10800 ; Print pattern wall
G1 X161.5963 Y165.3632 E1.11464 F10800 ; Print pattern wall
G1 E-0.5 F2100 ; Retract
G1 Z0.95 F7200 ; Z hop
G0 X164.1588 Y122.9368 F7200 ; Move to next pattern
G1 Z0.85 F7200 ; Z hop return
G1 E0.5 F2100 ; Un-retract
SET_PRESSURE_ADVANCE ADVANCE=0.07 ; Set pressure advance
M117 PA 0.07
G1 X185.372 Y144.15 E1.11464 F10800 ; Print pattern wall
G1 X164.1588 Y165.3632 E1.11464 F10800 ; Print pattern wall
G1 E-0.5 F2100 ; Retract
G1 Z0.95 F7200 ; Z hop
G0 X164.8936 Y122.9368 F7200 ; Move to start next pattern wall
G1 Z0.85 F7200 ; Z hop return
G1 E0.5 F2100 ; Un-retract
G1 X186.1068 Y144.15 E1.11464 F10800 ; Print pattern wall
G1 X164.8936 Y165.3632 E1.11464 F10800 ; Print pattern wall
G1 E-0.5 F2100 ; Retract
G1 Z0.95 F7200 ; Z hop
G0 X165.6283 Y122.9368 F7200 ; Move to start next pattern wall
G1 Z0.85 F7200 ; Z hop return
G1 E0.5 F2100 ; Un-retract
G1 X186.8416 Y144.15 E1.11464 F10800 ; Print pattern wall
G1 X165.6283 Y165.3632 E1.11464 F10800 ; Print pattern wall
G1 E-0.5 F2100 ; Retract
G1 Z0.95 F7200 ; Z hop
G0 X168.1908 Y122.9368 F7200 ; Move to next pattern
G1 Z0.85 F7200 ; Z hop return
G1 E0.5 F2100 ; Un-retract
SET_PRESSURE_ADVANCE ADVANCE=0.075 ; Set pressure advance
M117 PA 0.075
G1 X189.4041 Y144.15 E1.11464 F10800 ; Print pattern wall
G1 X168.1908 Y165.3632 E1.11464 F10800 ; Print pattern wall
G1 E-0.5 F2100 ; Retract
G1 Z0.95 F7200 ; Z hop
G0 X168.9256 Y122.9368 F7200 ; Move to start next pattern wall
G1 Z0.85 F7200 ; Z hop return
G1 E0.5 F2100 ; Un-retract
G1 X190.1388 Y144.15 E1.11464 F10800 ; Print pattern wall
G1 X168.9256 Y165.3632 E1.11464 F10800 ; Print pattern wall
G1 E-0.5 F2100 ; Retract
G1 Z0.95 F7200 ; Z hop
G0 X169.6604 Y122.9368 F7200 ; Move to start next pattern wall
G1 Z0.85 F7200 ; Z hop return
G1 E0.5 F2100 ; Un-retract
G1 X190.8736 Y144.15 E1.11464 F10800 ; Print pattern wall
G1 X169.6604 Y165.3632 E1.11464 F10800 ; Print pattern wall
G1 E-0.5 F2100 ; Retract
G1 Z0.95 F7200 ; Z hop
G0 X172.2229 Y122.9368 F7200 ; Move to next pattern
G1 Z0.85 F7200 ; Z hop return
G1 E0.5 F2100 ; Un-retract
SET_PRESSURE_ADVANCE ADVANCE=0.08 ; Set pressure advance
M117 PA 0.08
G1 X193.4361 Y144.15 E1.11464 F10800 ; Print pattern wall
G1 X172.2229 Y165.3632 E1.11464 F10800 ; Print pattern wall
G1 E-0.5 F2100 ; Retract
G1 Z0.95 F7200 ; Z hop
G0 X172.9577 Y122.9368 F7200 ; Move to start next pattern wall
G1 Z0.85 F7200 ; Z hop return
G1 E0.5 F2100 ; Un-retract
G1 X194.1709 Y144.15 E1.11464 F10800 ; Print pattern wall
G1 X172.9577 Y165.3632 E1.11464 F10800 ; Print pattern wall
G1 E-0.5 F2100 ; Retract
G1 Z0.95 F7200 ; Z hop
G0 X173.6925 Y122.9368 F7200 ; Move to start next pattern wall
G1 Z0.85 F7200 ; Z hop return
G1 E0.5 F2100 ; Un-retract
G1 X194.9057 Y144.15 E1.11464 F10800 ; Print pattern wall
G1 X173.6925 Y165.3632 E1.11464 F10800 ; Print pattern wall
SET_PRESSURE_ADVANCE ADVANCE=0 ; Set pressure advance back to start value
M117 PA 0
G1 E-0.5 F2100 ; Retract
G1 Z0.95 F7200 ; Z hop
G0 Z5.85 F7200 ; Z raise
M104 S0 ; Turn off hotend
M140 S0 ; Turn off bed
M107    ; Turn off fan
;
; End G-code
;
PRINT_END ; End macro. Change name to match yours
;
; FINISH
;
