; File Parsed By Flow Comp Script
; Script Ver. V0.7.0
; Flow Model Ver. V0.2.0
; Logger Ver. V0.0.1
; Flow Comp Model Points:
; (0, 0)
; (0.2, 0.4444)
; (0.4, 0.6145)
; (0.6, 0.7059)
; (0.8, 0.7619)
; (1.5, 0.8571)
; (2, 0.8889)
; (3, 0.9231)
; (5, 0.952)
; (10, 1)

; generated by A3dp-Slicer 2.5 on 2023-09-11 at 06:12:16 UTC


;
;

;
;
; 

; external perimeters extrusion width = 0.50mm
; perimeters extrusion width = 0.50mm
; infill extrusion width = 0.50mm
; solid infill extrusion width = 0.50mm
; top infill extrusion width = 0.50mm
; first layer extrusion width = 0.50mm

; object:{"name":"Right Mount Plate","id":"Right Mount Plate.stl id:0 copy 0","object_center":[150.000000,150.000000,0.000000],"boundingbox_center":[150.000000,150.000000,1.000000],"boundingbox_size":[52.325902,52.325902,2.000000]}
EXCLUDE_OBJECT_DEFINE NAME=Right_Mount_Plate_stl_id_0_copy_0 CENTER=150.000000,150.000000 POLYGON=[[123.837048,152.121328],[152.121328,123.837048],[176.162944,147.878672],[147.878672,176.162944],[123.837048,152.121328]]
; plater:{"center":[150.000000,150.000000,0.000000],"boundingbox_center":[150.000000,150.000000,1.000000],"boundingbox_size":[52.325902,52.325902,2.000000]}

;TYPE:Custom
PRINT_START EXTRUDER=310 BED=125 AREA_START=117.473,117.473 AREA_END=182.527,182.527
M107
G21 ; set units to millimeters
G90 ; use absolute coordinates
M83 ; use relative distances for extrusion
;_BEFORE_TOOLCHANGE 0
;_TOOLCHANGE 0
M104 S310 ; set temperature
M109 S310 ; set temperature and wait for it to be reached
M190 S125 ; set bed temperature and wait for it to be reached
M107
;LAYER_CHANGE
;Z:0.2
;HEIGHT:0.2
;BEFORE_LAYER_CHANGE
TIMELAPSE_TAKE_FRAME
;0.2


G1 Z0.2 F48000
;AFTER_LAYER_CHANGE
;0.2
G92 E0
SET_PRESSURE_ADVANCE ADVANCE=0.01
G1 E-0.8 F3600
G1 Z0.3 F48000
M204 S5000
G1 X133.863 Y133.863
G1 Z0.2
G1 E0.8 F3600
;TYPE:Skirt
;WIDTH:0.6
G1 F1800
G1 X119.721 Y148.006 E0.90792
G1 X118.321 Y150.258 E0.12038
G1 X118.017 Y152.388 E0.09766
G1 X118.506 Y154.483 E0.09766
G1 X119.721 Y156.258 E0.09766
G1 X143.742 Y180.279 E1.5421
G1 X145.994 Y181.679 E0.12038
G1 X148.124 Y181.983 E0.09766
G1 X150.219 Y181.494 E0.09766
G1 X151.994 Y180.279 E0.09766
G1 X180.279 Y151.994 E1.81584
G1 X181.679 Y149.742 E0.12038
G1 X181.983 Y147.612 E0.09766
G1 X181.494 Y145.517 E0.09766
G1 X180.279 Y143.742 E0.09766
G1 X156.258 Y119.721 E1.5421
G1 X154.006 Y118.321 E0.12038
G1 X151.876 Y118.017 E0.09766
G1 X149.781 Y118.506 E0.09766
G1 X148.006 Y119.721 E0.09766
G1 X133.916 Y133.81 E0.90452
G1 X134.31 Y134.204 F48000
G1 F1800
G1 X120.115 Y148.399 E0.91133
G1 X118.954 Y150.153 E0.09545
G1 X118.569 Y152.161 E0.09284
G1 X118.976 Y154.166 E0.09284
G1 X120.115 Y155.864 E0.09284
G1 X144.136 Y179.885 E1.5421
G1 X145.889 Y181.046 E0.09545
G1 X147.897 Y181.431 E0.09284
G1 X149.902 Y181.024 E0.09284
G1 X151.601 Y179.885 E0.09284
G1 X179.885 Y151.601 E1.81584
G1 X181.046 Y149.847 E0.09545
G1 X181.431 Y147.839 E0.09284
G1 X181.024 Y145.834 E0.09284
G1 X179.885 Y144.136 E0.09284
G1 X155.864 Y120.115 E1.5421
G1 X154.111 Y118.954 E0.09545
G1 X152.103 Y118.569 E0.09284
G1 X150.098 Y118.976 E0.09284
G1 X148.399 Y120.115 E0.09284
G1 X134.363 Y134.151 E0.90111
G1 E-0.08 F3600
;WIPE_START
G1 F38400
M204 S10000
G1 X139.794 Y128.72 E-0.684
;WIPE_END
G1 E-0.036 F3600
G1 Z0.3 F48000
; printing object Right Mount Plate.stl id:0 copy 0
EXCLUDE_OBJECT_START NAME=Right_Mount_Plate_stl_id_0_copy_0
; acceleration to travel
G1 X152.911 Y148.117
; decel to extrusion
M204 S5000
G1 X155.276 Y151.614
; end travel
G1 Z0.2
G1 E0.8 F3600
;TYPE:Internal perimeter
;WIDTH:0.5
G1 F1800
G1 X155.239 Y151.534 E0.00327
G1 X155.029 Y151.206 E0.01451
G1 X154.774 Y150.912 E0.01451
G1 X154.479 Y150.657 E0.01451
G1 X154.151 Y150.446 E0.01451
G1 X153.797 Y150.284 E0.01451
G1 X153.423 Y150.174 E0.01451
G1 X153.037 Y150.119 E0.01451
G1 X152.648 Y150.119 E0.01451
G1 X152.262 Y150.174 E0.01451
G1 X151.888 Y150.284 E0.01451
G1 X151.534 Y150.446 E0.01451
G1 X151.206 Y150.657 E0.01451
G1 X150.912 Y150.912 E0.01451
G1 X150.657 Y151.206 E0.01451
G1 X150.446 Y151.534 E0.01451
G1 X150.284 Y151.888 E0.01451
G1 X150.174 Y152.262 E0.01451
G1 X150.119 Y152.648 E0.01451
G1 X150.119 Y153.037 E0.01451
G1 X150.174 Y153.423 E0.01451
G1 X150.284 Y153.797 E0.01451
G1 X150.446 Y154.151 E0.01451
G1 X150.657 Y154.479 E0.01451
G1 X150.912 Y154.774 E0.01451
G1 X151.206 Y155.029 E0.01451
G1 X151.534 Y155.239 E0.01451
G1 X151.888 Y155.401 E0.01451
G1 X152.262 Y155.511 E0.01451
G1 X152.648 Y155.566 E0.01451
G1 X153.037 Y155.566 E0.01451
G1 X153.423 Y155.511 E0.01451
G1 X153.797 Y155.401 E0.01451
G1 X154.151 Y155.239 E0.01451
G1 X154.479 Y155.029 E0.01451
G1 X154.774 Y154.774 E0.01451
G1 X155.029 Y154.479 E0.01451
G1 X155.239 Y154.151 E0.01451
G1 X155.401 Y153.797 E0.01451
G1 X155.511 Y153.423 E0.01451
G1 X155.566 Y153.037 E0.01451
G1 X155.566 Y152.648 E0.01451
G1 X155.511 Y152.262 E0.01451
G1 X155.401 Y151.888 E0.01451
G1 X155.307 Y151.682 E0.00845
G1 X154.806 Y151.705 F48000
G1 F1800
G1 X154.662 Y151.481 E0.0099
G1 X154.449 Y151.236 E0.01208
G1 X154.204 Y151.023 E0.01208
G1 X153.932 Y150.848 E0.01208
G1 X153.637 Y150.714 E0.01208
G1 X153.326 Y150.622 E0.01208
G1 X153.005 Y150.576 E0.01208
G1 X152.681 Y150.576 E0.01208
G1 X152.36 Y150.622 E0.01208
G1 X152.049 Y150.714 E0.01208
G1 X151.754 Y150.848 E0.01208
G1 X151.481 Y151.023 E0.01208
G1 X151.236 Y151.236 E0.01208
G1 X151.023 Y151.481 E0.01208
G1 X150.848 Y151.754 E0.01208
G1 X150.714 Y152.049 E0.01208
G1 X150.622 Y152.36 E0.01208
G1 X150.576 Y152.681 E0.01208
G1 X150.576 Y153.005 E0.01208
G1 X150.622 Y153.326 E0.01208
G1 X150.714 Y153.637 E0.01208
G1 X150.848 Y153.932 E0.01208
G1 X151.023 Y154.204 E0.01208
G1 X151.236 Y154.449 E0.01208
G1 X151.481 Y154.662 E0.01208
G1 X151.754 Y154.837 E0.01208
G1 X152.049 Y154.972 E0.01208
G1 X152.36 Y155.063 E0.01208
G1 X152.681 Y155.109 E0.01208
G1 X153.005 Y155.109 E0.01208
G1 X153.326 Y155.063 E0.01208
G1 X153.637 Y154.972 E0.01208
G1 X153.932 Y154.837 E0.01208
G1 X154.204 Y154.662 E0.01208
G1 X154.449 Y154.449 E0.01208
G1 X154.662 Y154.204 E0.01208
G1 X154.837 Y153.932 E0.01208
G1 X154.972 Y153.637 E0.01208
G1 X155.063 Y153.326 E0.01208
G1 X155.109 Y153.005 E0.01208
G1 X155.109 Y152.681 E0.01208
G1 X155.063 Y152.36 E0.01208
G1 X154.972 Y152.049 E0.01208
G1 X154.844 Y151.769 E0.01146
G1 X154.447 Y152 F48000
G1 F1800
G1 X154.435 Y151.973 E0.00108
G1 X154.295 Y151.755 E0.00964
G1 X154.125 Y151.56 E0.00964
G1 X153.93 Y151.39 E0.00964
G1 X153.712 Y151.25 E0.00964
G1 X153.477 Y151.143 E0.00964
G1 X153.228 Y151.07 E0.00964
G1 X152.972 Y151.033 E0.00964
G1 X152.713 Y151.033 E0.00964
G1 X152.457 Y151.07 E0.00964
G1 X152.209 Y151.143 E0.00964
G1 X151.973 Y151.25 E0.00964
G1 X151.755 Y151.39 E0.00964
G1 X151.56 Y151.56 E0.00964
G1 X151.39 Y151.755 E0.00964
G1 X151.25 Y151.973 E0.00964
G1 X151.143 Y152.209 E0.00964
G1 X151.07 Y152.457 E0.00964
G1 X151.033 Y152.713 E0.00964
G1 X151.033 Y152.972 E0.00964
G1 X151.07 Y153.228 E0.00964
G1 X151.143 Y153.477 E0.00964
G1 X151.25 Y153.712 E0.00964
G1 X151.39 Y153.93 E0.00964
G1 X151.56 Y154.125 E0.00964
G1 X151.755 Y154.295 E0.00964
G1 X151.973 Y154.435 E0.00964
G1 X152.209 Y154.542 E0.00964
G1 X152.457 Y154.615 E0.00964
G1 X152.713 Y154.652 E0.00964
G1 X152.972 Y154.652 E0.00964
G1 X153.228 Y154.615 E0.00964
G1 X153.477 Y154.542 E0.00964
G1 X153.712 Y154.435 E0.00964
G1 X153.93 Y154.295 E0.00964
G1 X154.125 Y154.125 E0.00964
G1 X154.295 Y153.93 E0.00964
G1 X154.435 Y153.712 E0.00964
G1 X154.542 Y153.477 E0.00964
G1 X154.615 Y153.228 E0.00964
G1 X154.652 Y152.972 E0.00964
G1 X154.652 Y152.713 E0.00964
G1 X154.615 Y152.457 E0.00964
G1 X154.542 Y152.209 E0.00964
G1 X154.478 Y152.068 E0.00577
G1 X154.031 Y152.19 F48000
;TYPE:External perimeter
G1 F1800
G1 X153.928 Y152.03 E0.0071
G1 X153.801 Y151.884 E0.00721
G1 X153.655 Y151.757 E0.00721
G1 X153.492 Y151.653 E0.00721
G1 X153.316 Y151.572 E0.00721
G1 X153.131 Y151.518 E0.00721
G1 X152.939 Y151.49 E0.00721
G1 X152.746 Y151.49 E0.00721
G1 X152.554 Y151.518 E0.00721
G1 X152.369 Y151.572 E0.00721
G1 X152.193 Y151.653 E0.00721
G1 X152.03 Y151.757 E0.00721
G1 X151.884 Y151.884 E0.00721
G1 X151.757 Y152.03 E0.00721
G1 X151.653 Y152.193 E0.00721
G1 X151.572 Y152.369 E0.00721
G1 X151.518 Y152.554 E0.00721
G1 X151.49 Y152.746 E0.00721
G1 X151.49 Y152.939 E0.00721
G1 X151.518 Y153.131 E0.00721
G1 X151.572 Y153.316 E0.00721
G1 X151.653 Y153.492 E0.00721
G1 X151.757 Y153.655 E0.00721
G1 X151.884 Y153.801 E0.00721
G1 X152.03 Y153.928 E0.00721
G1 X152.193 Y154.033 E0.00721
G1 X152.369 Y154.113 E0.00721
G1 X152.554 Y154.168 E0.00721
G1 X152.746 Y154.195 E0.00721
G1 X152.939 Y154.195 E0.00721
G1 X153.131 Y154.168 E0.00721
G1 X153.316 Y154.113 E0.00721
G1 X153.492 Y154.033 E0.00721
G1 X153.655 Y153.928 E0.00721
G1 X153.801 Y153.801 E0.00721
G1 X153.928 Y153.655 E0.00721
G1 X154.033 Y153.492 E0.00721
G1 X154.113 Y153.316 E0.00721
G1 X154.168 Y153.131 E0.00721
G1 X154.195 Y152.939 E0.00721
G1 X154.195 Y152.746 E0.00721
G1 X154.168 Y152.554 E0.00721
G1 X154.113 Y152.369 E0.00721
G1 X154.063 Y152.258 E0.00452
;WIPE_START
M204 S10000
G1 X154.281 Y151.757 F48000
;WIPE_END
G1 E-0.08 F3600
;WIPE_START
G1 F38400
G1 X153.979 Y151.707 E-0.02729
G1 X153.805 Y151.557 E-0.02042
G1 X153.613 Y151.433 E-0.02041
G1 X153.404 Y151.337 E-0.02041
G1 X153.184 Y151.273 E-0.02041
G1 X152.957 Y151.24 E-0.02042
G1 X152.728 Y151.24 E-0.02041
G1 X152.501 Y151.273 E-0.02042
G1 X152.281 Y151.337 E-0.02041
G1 X152.073 Y151.433 E-0.02041
G1 X151.88 Y151.557 E-0.02042
G1 X151.707 Y151.707 E-0.02042
G1 X151.557 Y151.88 E-0.02042
G1 X151.433 Y152.073 E-0.02042
G1 X151.337 Y152.281 E-0.02041
G1 X151.273 Y152.501 E-0.02041
G1 X151.24 Y152.728 E-0.02042
G1 X151.24 Y152.957 E-0.02041
G1 X151.273 Y153.184 E-0.02042
G1 X151.337 Y153.404 E-0.02041
G1 X151.433 Y153.613 E-0.02041
G1 X151.557 Y153.805 E-0.02041
G1 X151.707 Y153.979 E-0.02042
G1 X151.88 Y154.129 E-0.02042
G1 X152.073 Y154.253 E-0.02042
G1 X152.281 Y154.348 E-0.02041
G1 X152.501 Y154.412 E-0.02041
G1 X152.728 Y154.445 E-0.02042
G1 X152.957 Y154.445 E-0.02041
G1 X153.184 Y154.412 E-0.02042
G1 X153.404 Y154.348 E-0.02041
G1 X153.613 Y154.253 E-0.02041
G1 X153.805 Y154.129 E-0.02042
G1 X153.835 Y154.104 E-0.00343
;WIPE_END
G1 E-0.036 F3600
G1 Z0.3 F48000
; acceleration to travel
G1 X151.461 Y145.471
; decel to extrusion
M204 S5000
G1 X151.033 Y143.915
; end travel
G1 Z0.2
G1 E0.8 F3600
;TYPE:Internal perimeter
G1 F1800
G1 X151.01 Y143.871 E0.00187
G1 X150.797 Y143.525 E0.01514
G1 X150.557 Y143.197 E0.01514
G1 X150.293 Y142.888 E0.01514
G1 X150.006 Y142.6 E0.01514
G1 X149.697 Y142.336 E0.01514
G1 X149.368 Y142.097 E0.01514
G1 X149.023 Y141.883 E0.01514
G1 X148.661 Y141.698 E0.01514
G1 X148.287 Y141.54 E0.01514
G1 X147.901 Y141.412 E0.01514
G1 X147.506 Y141.315 E0.01514
G1 X147.105 Y141.248 E0.01514
G1 X146.701 Y141.213 E0.01514
G1 X146.294 Y141.209 E0.01514
G1 X145.889 Y141.236 E0.01513
G1 X145.487 Y141.295 E0.01514
G1 X145.09 Y141.385 E0.01514
G1 X144.702 Y141.505 E0.01514
G1 X144.325 Y141.655 E0.01514
G1 X143.96 Y141.834 E0.01514
G1 X143.61 Y142.041 E0.01514
G1 X143.277 Y142.274 E0.01514
G1 X142.963 Y142.532 E0.01513
G1 X142.67 Y142.814 E0.01514
G1 X142.4 Y143.118 E0.01514
G1 X142.154 Y143.441 E0.01514
G1 X141.934 Y143.783 E0.01514
G1 X141.741 Y144.14 E0.01513
G1 X141.577 Y144.512 E0.01514
G1 X141.442 Y144.895 E0.01514
G1 X141.336 Y145.288 E0.01514
G1 X141.262 Y145.687 E0.01513
G1 X141.219 Y146.091 E0.01514
G1 X141.207 Y146.498 E0.01514
G1 X141.227 Y146.903 E0.01514
G1 X141.278 Y147.307 E0.01513
G1 X141.36 Y147.705 E0.01514
G1 X141.473 Y148.095 E0.01514
G1 X141.615 Y148.475 E0.01514
G1 X141.787 Y148.844 E0.01514
G1 X141.987 Y149.198 E0.01514
G1 X142.213 Y149.535 E0.01514
G1 X142.465 Y149.854 E0.01514
G1 X142.741 Y150.152 E0.01514
G1 X143.04 Y150.428 E0.01514
G1 X143.358 Y150.68 E0.01514
G1 X143.696 Y150.907 E0.01514
G1 X144.05 Y151.106 E0.01514
G1 X144.418 Y151.278 E0.01514
G1 X144.798 Y151.421 E0.01514
G1 X145.189 Y151.534 E0.01514
G1 X145.587 Y151.616 E0.01514
G1 X145.99 Y151.667 E0.01513
G1 X146.396 Y151.687 E0.01514
G1 X146.802 Y151.675 E0.01514
G1 X147.206 Y151.631 E0.01514
G1 X147.606 Y151.557 E0.01513
G1 X147.998 Y151.452 E0.01514
G1 X148.381 Y151.317 E0.01514
G1 X148.753 Y151.152 E0.01514
G1 X149.111 Y150.959 E0.01514
G1 X149.452 Y150.739 E0.01514
G1 X149.776 Y150.493 E0.01514
G1 X150.079 Y150.223 E0.01514
G1 X150.361 Y149.93 E0.01514
G1 X150.619 Y149.616 E0.01514
G1 X150.852 Y149.284 E0.01514
G1 X151.059 Y148.934 E0.01514
G1 X151.238 Y148.569 E0.01514
G1 X151.388 Y148.191 E0.01514
G1 X151.508 Y147.803 E0.01514
G1 X151.598 Y147.407 E0.01514
G1 X151.657 Y147.005 E0.01514
G1 X151.685 Y146.599 E0.01513
G1 X151.681 Y146.193 E0.01514
G1 X151.645 Y145.788 E0.01514
G1 X151.579 Y145.387 E0.01514
G1 X151.481 Y144.993 E0.01514
G1 X151.353 Y144.607 E0.01514
G1 X151.196 Y144.232 E0.01513
G1 X151.067 Y143.982 E0.01047
G1 X150.627 Y144.125 F48000
G1 F1800
G1 X150.612 Y144.096 E0.00125
G1 X150.417 Y143.78 E0.01381
G1 X150.198 Y143.48 E0.01382
G1 X149.957 Y143.198 E0.01381
G1 X149.695 Y142.936 E0.01381
G1 X149.413 Y142.695 E0.01381
G1 X149.113 Y142.476 E0.01382
G1 X148.798 Y142.282 E0.01381
G1 X148.468 Y142.112 E0.01381
G1 X148.126 Y141.969 E0.01382
G1 X147.774 Y141.852 E0.01381
G1 X147.414 Y141.763 E0.01381
G1 X147.048 Y141.702 E0.01382
G1 X146.678 Y141.67 E0.01381
G1 X146.308 Y141.666 E0.01382
G1 X145.938 Y141.691 E0.01381
G1 X145.571 Y141.745 E0.01381
G1 X145.209 Y141.827 E0.01381
G1 X144.855 Y141.937 E0.01381
G1 X144.51 Y142.074 E0.01381
G1 X144.177 Y142.237 E0.01381
G1 X143.857 Y142.426 E0.01381
G1 X143.554 Y142.638 E0.01382
G1 X143.267 Y142.874 E0.01381
G1 X143 Y143.131 E0.01381
G1 X142.753 Y143.408 E0.01382
G1 X142.529 Y143.703 E0.01381
G1 X142.328 Y144.015 E0.01382
G1 X142.152 Y144.342 E0.01381
G1 X142.002 Y144.681 E0.01382
G1 X141.878 Y145.031 E0.01381
G1 X141.782 Y145.389 E0.01381
G1 X141.715 Y145.754 E0.01381
G1 X141.675 Y146.122 E0.01382
G1 X141.664 Y146.493 E0.01381
G1 X141.682 Y146.864 E0.01382
G1 X141.729 Y147.231 E0.01381
G1 X141.804 Y147.595 E0.01381
G1 X141.907 Y147.951 E0.01381
G1 X142.037 Y148.298 E0.01381
G1 X142.194 Y148.635 E0.01382
G1 X142.376 Y148.958 E0.01381
G1 X142.583 Y149.265 E0.01381
G1 X142.813 Y149.556 E0.01381
G1 X143.065 Y149.829 E0.01381
G1 X143.337 Y150.08 E0.01382
G1 X143.628 Y150.311 E0.01381
G1 X143.936 Y150.517 E0.01381
G1 X144.259 Y150.7 E0.01382
G1 X144.595 Y150.856 E0.01381
G1 X144.942 Y150.987 E0.01381
G1 X145.299 Y151.09 E0.01381
G1 X145.662 Y151.165 E0.01382
G1 X146.03 Y151.211 E0.01381
G1 X146.4 Y151.229 E0.01382
G1 X146.771 Y151.218 E0.01381
G1 X147.14 Y151.179 E0.01382
G1 X147.504 Y151.111 E0.01381
G1 X147.863 Y151.015 E0.01381
G1 X148.213 Y150.891 E0.01382
G1 X148.552 Y150.741 E0.01381
G1 X148.878 Y150.565 E0.01381
G1 X149.19 Y150.364 E0.01382
G1 X149.485 Y150.14 E0.01381
G1 X149.762 Y149.894 E0.01382
G1 X150.019 Y149.626 E0.01381
G1 X150.255 Y149.34 E0.01381
G1 X150.468 Y149.036 E0.01381
G1 X150.656 Y148.717 E0.01381
G1 X150.82 Y148.384 E0.01381
G1 X150.957 Y148.039 E0.01381
G1 X151.066 Y147.685 E0.01381
G1 X151.148 Y147.323 E0.01382
G1 X151.202 Y146.956 E0.01381
G1 X151.227 Y146.586 E0.01381
G1 X151.224 Y146.215 E0.01382
G1 X151.191 Y145.845 E0.01381
G1 X151.131 Y145.48 E0.01381
G1 X151.042 Y145.119 E0.01382
G1 X150.925 Y144.767 E0.01381
G1 X150.781 Y144.425 E0.01381
G1 X150.661 Y144.192 E0.00978
G1 X150.221 Y144.335 F48000
G1 F1800
G1 X150.037 Y144.035 E0.01311
G1 X149.84 Y143.764 E0.01249
G1 X149.621 Y143.509 E0.01249
G1 X149.384 Y143.272 E0.01249
G1 X149.129 Y143.054 E0.01249
G1 X148.858 Y142.856 E0.01249
G1 X148.573 Y142.68 E0.01249
G1 X148.275 Y142.527 E0.01249
G1 X147.965 Y142.397 E0.01249
G1 X147.647 Y142.291 E0.01249
G1 X147.321 Y142.211 E0.01249
G1 X146.99 Y142.156 E0.01249
G1 X146.656 Y142.127 E0.01249
G1 X146.321 Y142.123 E0.01249
G1 X145.986 Y142.146 E0.01249
G1 X145.654 Y142.195 E0.01249
G1 X145.327 Y142.269 E0.01249
G1 X145.007 Y142.368 E0.01249
G1 X144.695 Y142.492 E0.01249
G1 X144.394 Y142.64 E0.01249
G1 X144.105 Y142.81 E0.01249
G1 X143.83 Y143.003 E0.01249
