; File Parsed By Flow Comp Script
; Script Ver. V0.7.0
; Flow Model Ver. V0.2.0
; Logger Ver. V0.0.1
; Flow Comp Model Points:
; (0, 0)
; (0.2, 0.4444)
; (0.4, 0.6145)
; (0.6, 0.7059)
; (0.8, 0.7619)
; (1.5, 0.8571)
; (2, 0.8889)
; (3, 0.9231)
; (5, 0.952)
; (10, 1)

; generated by A3dp-Slicer 2.5 on 2023-09-09 at 19:55:17 UTC


;
;

;
;
; 

; external perimeters extrusion width = 0.60mm
; perimeters extrusion width = 0.60mm
; infill extrusion width = 0.60mm
; solid infill extrusion width = 0.60mm
; top infill extrusion width = 0.60mm
; first layer extrusion width = 0.60mm

; object:{"name":"Shape-Box","id":"Shape-Box id:0 copy 0","object_center":[150.000000,150.000000,0.000000],"boundingbox_center":[150.000000,150.000000,1.500000],"boundingbox_size":[42.426407,42.426407,3.000000]}
EXCLUDE_OBJECT_DEFINE NAME=Shape_Box_id_0_copy_0 CENTER=150.000000,150.000000 POLYGON=[[128.786808,150.000000],[150.000000,128.786808],[171.213200,150.000000],[150.000000,171.213200],[128.786808,150.000000]]
; plater:{"center":[150.000000,150.000000,0.000000],"boundingbox_center":[150.000000,150.000000,1.500000],"boundingbox_size":[42.426407,42.426407,3.000000]}

;TYPE:Custom
PRINT_START EXTRUDER=260 BED=110 AREA_START=122.34,122.34 AREA_END=177.66,177.66
M107
G21 ; set units to millimeters
G90 ; use absolute coordinates
M83 ; use relative distances for extrusion
;_BEFORE_TOOLCHANGE 0
SET_PRESSURE_ADVANCE SMOOTH_TIME=0.015
;_TOOLCHANGE 0
M104 S260 ; set temperature
M109 S260 ; set temperature and wait for it to be reached
M190 S110 ; set bed temperature and wait for it to be reached
M107
;LAYER_CHANGE
;Z:0.2
;HEIGHT:0.2
;BEFORE_LAYER_CHANGE
TIMELAPSE_TAKE_FRAME
;0.2


G1 Z0.2 F48000
;AFTER_LAYER_CHANGE
;0.2
G92 E0
G1 E-0.8 F3600
G1 Z0.3 F48000
M204 S5000
G1 X135.231 Y135.231
G1 Z0.2
G1 E0.8 F3600
;TYPE:Skirt
;WIDTH:0.6
G1 F1800
G1 X124.588 Y145.874 E0.6484
G1 X123.187 Y148.126 E0.11424
G1 X122.884 Y150.256 E0.09268
G1 X123.373 Y152.351 E0.09268
G1 X124.588 Y154.126 E0.09268
G1 X145.874 Y175.412 E1.2968
G1 X148.126 Y176.813 E0.11424
G1 X150.256 Y177.116 E0.09268
G1 X152.351 Y176.627 E0.09268
G1 X154.126 Y175.412 E0.09268
G1 X175.412 Y154.126 E1.2968
G1 X176.813 Y151.874 E0.11424
G1 X177.116 Y149.744 E0.09268
G1 X176.627 Y147.649 E0.09268
G1 X175.412 Y145.874 E0.09268
G1 X154.126 Y124.588 E1.2968
G1 X151.874 Y123.187 E0.11424
G1 X149.744 Y122.884 E0.09268
G1 X147.649 Y123.373 E0.09268
G1 X145.874 Y124.588 E0.09268
G1 X135.284 Y135.178 E0.64517
G1 X135.678 Y135.571 F48000
G1 F1800
G1 X124.981 Y146.268 E0.65163
G1 X123.821 Y148.021 E0.09058
G1 X123.435 Y150.029 E0.0881
G1 X123.843 Y152.034 E0.0881
G1 X124.981 Y153.732 E0.0881
G1 X146.268 Y175.019 E1.2968
G1 X148.021 Y176.179 E0.09058
G1 X150.029 Y176.565 E0.0881
G1 X152.034 Y176.157 E0.0881
G1 X153.732 Y175.019 E0.0881
G1 X175.019 Y153.732 E1.2968
G1 X176.179 Y151.979 E0.09058
G1 X176.565 Y149.971 E0.0881
G1 X176.157 Y147.966 E0.0881
G1 X175.019 Y146.268 E0.0881
G1 X153.732 Y124.981 E1.2968
G1 X151.979 Y123.821 E0.09058
G1 X149.971 Y123.435 E0.0881
G1 X147.966 Y123.843 E0.0881
G1 X146.268 Y124.981 E0.0881
G1 X135.731 Y135.518 E0.64194
SET_PRESSURE_ADVANCE ADVANCE=0.0019
G1 E-0.08 F3600
;WIPE_START
G1 F38400
M204 S10000
G1 X141.161 Y130.088 E-0.684
;WIPE_END
G1 E-0.036 F3600
G1 Z0.3 F48000
; printing object Shape-Box id:0 copy 0
EXCLUDE_OBJECT_START NAME=Shape_Box_id_0_copy_0
; acceleration to travel
G1 X163.656 Y146.959
; decel to extrusion
M204 S5000
G1 X167.71 Y150
; end travel
G1 Z0.2
G1 E0.8 F3600
;TYPE:Internal perimeter
G1 F1800
G1 X150 Y167.71 E1.07897
G1 X132.29 Y150 E1.07897
G1 X150 Y132.29 E1.07897
G1 X167.657 Y149.947 E1.07574
G1 X168.498 Y150 F48000
G1 F1800
G1 X150 Y168.498 E1.12697
G1 X131.502 Y150 E1.12697
G1 X150 Y131.502 E1.12697
G1 X168.445 Y149.947 E1.12374
G1 X169.286 Y150 F48000
G1 F1800
G1 X150 Y169.286 E1.17496
G1 X130.714 Y150 E1.17496
G1 X150 Y130.714 E1.17496
G1 X169.233 Y149.947 E1.17173
G1 X170.074 Y150 F48000
G1 F1800
G1 X150 Y170.074 E1.22296
G1 X129.926 Y150 E1.22296
G1 X150 Y129.926 E1.22296
G1 X170.021 Y149.947 E1.21973
G1 X170.862 Y150 F48000
;TYPE:External perimeter
G1 F1800
G1 X150 Y170.862 E1.27096
G1 X129.138 Y150 E1.27096
G1 X150 Y129.138 E1.27096
G1 X150.068 Y129.207 E0.00417
G1 X170.809 Y149.947 E1.26356
;WIPE_START
M204 S10000
G1 X170.379 Y150.129 F48000
;WIPE_END
G1 E-0.08 F3600
;WIPE_START
G1 F38400
G1 X164.948 Y155.56 E-0.684
;WIPE_END
G1 E-0.036 F3600
G1 Z0.3 F48000
; acceleration to travel
G1 X152.962 Y136.626
; decel to extrusion
M204 S5000
G1 X150.796 Y133.204
; end travel
G1 Z0.2
G1 E0.8 F3600
;TYPE:Solid infill
G1 F3000
G1 X149.542 Y133.204 E0.04504; Old Flow Value: 0.05401   Length: 1.25400
G1 X148.985 Y133.761 E0.02577; Old Flow Value: 0.03394   Length: 0.78773
G1 X151.015 Y133.761 E0.07783; Old Flow Value: 0.08741   Length: 2.03000
G1 X151.572 Y134.318 E0.02577; Old Flow Value: 0.03394   Length: 0.78772
G1 X148.428 Y134.318 E0.12543; Old Flow Value: 0.13541   Length: 3.14401
G1 X147.871 Y134.875 E0.02577; Old Flow Value: 0.03394   Length: 0.78772
G1 X152.129 Y134.875 E0.17315; Old Flow Value: 0.18341   Length: 4.25800
G1 X152.686 Y135.432 E0.02577; Old Flow Value: 0.03394   Length: 0.78773
G1 X147.314 Y135.432 E0.22115; Old Flow Value: 0.2314   Length: 5.37201
G1 X146.757 Y135.989 E0.02577; Old Flow Value: 0.03394   Length: 0.78771
G1 X153.243 Y135.989 E0.27008; Old Flow Value: 0.2794   Length: 6.48599
G1 X153.8 Y136.546 E0.02577; Old Flow Value: 0.03394   Length: 0.78773
G1 X146.2 Y136.546 E0.31998; Old Flow Value: 0.3274   Length: 7.60001
G1 X145.643 Y137.103 E0.02577; Old Flow Value: 0.03394   Length: 0.78771
G1 X154.357 Y137.103 E0.37085; Old Flow Value: 0.37539   Length: 8.71399
G1 X154.914 Y137.661 E0.02577; Old Flow Value: 0.03394   Length: 0.78843
G1 X145.086 Y137.661 E0.42271; Old Flow Value: 0.42339   Length: 9.82800
G1 X144.529 Y138.218 E0.02577; Old Flow Value: 0.03394   Length: 0.78772
G1 X155.471 Y138.218 E0.47139; Old Flow Value: 0.47139   Length: 10.94199
G1 X156.028 Y138.775 E0.02577; Old Flow Value: 0.03394   Length: 0.78772
G1 X143.972 Y138.775 E0.51938; Old Flow Value: 0.51938   Length: 12.05600
G1 X143.415 Y139.332 E0.02577; Old Flow Value: 0.03394   Length: 0.78773
G1 X156.585 Y139.332 E0.56738; Old Flow Value: 0.56738   Length: 13.17001
G1 X157.142 Y139.889 E0.02577; Old Flow Value: 0.03394   Length: 0.78772
G1 X142.858 Y139.889 E0.61538; Old Flow Value: 0.61538   Length: 14.28400
G1 X142.3 Y140.446 E0.02577; Old Flow Value: 0.03394   Length: 0.78842
G1 X157.7 Y140.446 E0.66337; Old Flow Value: 0.66337   Length: 15.39999
G1 X158.257 Y141.003 E0.02577; Old Flow Value: 0.03394   Length: 0.78773
G1 X141.743 Y141.003 E0.71137; Old Flow Value: 0.71137   Length: 16.51401
G1 X141.186 Y141.56 E0.02577; Old Flow Value: 0.03394   Length: 0.78771
G1 X158.814 Y141.56 E0.75937; Old Flow Value: 0.75937   Length: 17.62799
G1 X159.371 Y142.117 E0.02577; Old Flow Value: 0.03394   Length: 0.78773
G1 X140.629 Y142.117 E0.80736; Old Flow Value: 0.80736   Length: 18.74200
G1 X140.072 Y142.674 E0.02577; Old Flow Value: 0.03394   Length: 0.78771
G1 X159.928 Y142.674 E0.85536; Old Flow Value: 0.85536   Length: 19.85599
G1 X160.485 Y143.231 E0.02577; Old Flow Value: 0.03394   Length: 0.78773
G1 X139.515 Y143.231 E0.90336; Old Flow Value: 0.90336   Length: 20.97000
G1 X138.958 Y143.788 E0.02577; Old Flow Value: 0.03394   Length: 0.78772
G1 X161.042 Y143.788 E0.95135; Old Flow Value: 0.95135   Length: 22.08401
G1 X161.599 Y144.346 E0.02577; Old Flow Value: 0.03394   Length: 0.78842
G1 X138.401 Y144.346 E0.99935; Old Flow Value: 0.99935   Length: 23.19800
G1 X137.844 Y144.903 E0.02577; Old Flow Value: 0.03394   Length: 0.78773
G1 X162.156 Y144.903 E1.04735; Old Flow Value: 1.04735   Length: 24.31201
G1 X162.713 Y145.46 E0.02577; Old Flow Value: 0.03394   Length: 0.78772
G1 X137.287 Y145.46 E1.09534; Old Flow Value: 1.09534   Length: 25.42599
G1 X136.73 Y146.017 E0.02577; Old Flow Value: 0.03394   Length: 0.78772
G1 X163.27 Y146.017 E1.14334; Old Flow Value: 1.14334   Length: 26.54001
G1 X163.827 Y146.574 E0.02577; Old Flow Value: 0.03394   Length: 0.78772
G1 X136.173 Y146.574 E1.19134; Old Flow Value: 1.19134   Length: 27.65399
G1 X135.616 Y147.131 E0.02577; Old Flow Value: 0.03394   Length: 0.78772
G1 X164.384 Y147.131 E1.23933; Old Flow Value: 1.23933   Length: 28.76801
G1 X164.942 Y147.688 E0.02577; Old Flow Value: 0.03394   Length: 0.78843
G1 X135.058 Y147.688 E1.28733; Old Flow Value: 1.28733   Length: 29.88400
G1 X134.501 Y148.245 E0.02577; Old Flow Value: 0.03394   Length: 0.78771
G1 X165.499 Y148.245 E1.33533; Old Flow Value: 1.33533   Length: 30.99799
G1 X166.056 Y148.802 E0.02577; Old Flow Value: 0.03394   Length: 0.78773
G1 X133.944 Y148.802 E1.38332; Old Flow Value: 1.38332   Length: 32.11200
G1 X133.387 Y149.359 E0.02577; Old Flow Value: 0.03394   Length: 0.78772
G1 X166.613 Y149.359 E1.43132; Old Flow Value: 1.43132   Length: 33.22601
G1 X167.17 Y149.916 E0.02577; Old Flow Value: 0.03394   Length: 0.78772
G1 X132.83 Y149.916 E1.47932; Old Flow Value: 1.47932   Length: 34.34000
G1 X132.746 Y150 E0.00148; Old Flow Value: 0.0051   Length: 0.11879
G1 X133.22 Y150.473 E0.02103; Old Flow Value: 0.02884   Length: 0.66963
G1 X166.78 Y150.473 E1.44574; Old Flow Value: 1.44574   Length: 33.56000
G1 X166.223 Y151.03 E0.02577; Old Flow Value: 0.03394   Length: 0.78771
G1 X133.777 Y151.03 E1.39774; Old Flow Value: 1.39774   Length: 32.44601
G1 X134.334 Y151.588 E0.02577; Old Flow Value: 0.03394   Length: 0.78843
G1 X165.666 Y151.588 E1.34975; Old Flow Value: 1.34975   Length: 31.33200
G1 X165.109 Y152.145 E0.02577; Old Flow Value: 0.03394   Length: 0.78773
G1 X134.891 Y152.145 E1.30175; Old Flow Value: 1.30175   Length: 30.21799
G1 X135.448 Y152.702 E0.02577; Old Flow Value: 0.03394   Length: 0.78771
G1 X164.552 Y152.702 E1.25375; Old Flow Value: 1.25375   Length: 29.10400
G1 X163.995 Y153.259 E0.02577; Old Flow Value: 0.03394   Length: 0.78773
G1 X136.005 Y153.259 E1.20576; Old Flow Value: 1.20576   Length: 27.98999
G1 X136.562 Y153.816 E0.02577; Old Flow Value: 0.03394   Length: 0.78771
G1 X163.438 Y153.816 E1.15776; Old Flow Value: 1.15776   Length: 26.87601
G1 X162.881 Y154.373 E0.02577; Old Flow Value: 0.03394   Length: 0.78773
G1 X137.119 Y154.373 E1.10976; Old Flow Value: 1.10976   Length: 25.76199
G1 X137.676 Y154.93 E0.02577; Old Flow Value: 0.03394   Length: 0.78771
G1 X162.324 Y154.93 E1.06177; Old Flow Value: 1.06177   Length: 24.64801
G1 X161.766 Y155.487 E0.02577; Old Flow Value: 0.03394   Length: 0.78843
G1 X138.234 Y155.487 E1.01377; Old Flow Value: 1.01377   Length: 23.53201
G1 X138.791 Y156.044 E0.02577; Old Flow Value: 0.03394   Length: 0.78773
G1 X161.209 Y156.044 E0.96578; Old Flow Value: 0.96578   Length: 22.41800
G1 X160.652 Y156.601 E0.02577; Old Flow Value: 0.03394   Length: 0.78772
G1 X139.348 Y156.601 E0.91778; Old Flow Value: 0.91778   Length: 21.30399
G1 X139.905 Y157.158 E0.02577; Old Flow Value: 0.03394   Length: 0.78772
G1 X160.095 Y157.158 E0.86978; Old Flow Value: 0.86978   Length: 20.19000
G1 X159.538 Y157.715 E0.02577; Old Flow Value: 0.03394   Length: 0.78772
G1 X140.462 Y157.715 E0.82179; Old Flow Value: 0.82179   Length: 19.07599
G1 X141.019 Y158.272 E0.02577; Old Flow Value: 0.03394   Length: 0.78772
G1 X158.981 Y158.272 E0.77379; Old Flow Value: 0.77379   Length: 17.96201
G1 X158.424 Y158.83 E0.02577; Old Flow Value: 0.03394   Length: 0.78843
G1 X141.576 Y158.83 E0.72579; Old Flow Value: 0.72579   Length: 16.84799
G1 X142.133 Y159.387 E0.02577; Old Flow Value: 0.03394   Length: 0.78771
G1 X157.867 Y159.387 E0.6778; Old Flow Value: 0.6778   Length: 15.73401
G1 X157.31 Y159.944 E0.02577; Old Flow Value: 0.03394   Length: 0.78773
G1 X142.69 Y159.944 E0.6298; Old Flow Value: 0.6298   Length: 14.62000
G1 X143.247 Y160.501 E0.02577; Old Flow Value: 0.03394   Length: 0.78772
G1 X156.753 Y160.501 E0.5818; Old Flow Value: 0.5818   Length: 13.50601
G1 X156.196 Y161.058 E0.02577; Old Flow Value: 0.03394   Length: 0.78772
G1 X143.804 Y161.058 E0.53381; Old Flow Value: 0.53381   Length: 12.39200
G1 X144.361 Y161.615 E0.02577; Old Flow Value: 0.03394   Length: 0.78772
G1 X155.639 Y161.615 E0.48581; Old Flow Value: 0.48581   Length: 11.27802
G1 X155.082 Y162.172 E0.02577; Old Flow Value: 0.03394   Length: 0.78772
G1 X144.918 Y162.172 E0.43781; Old Flow Value: 0.43781   Length: 10.16400
G1 X145.476 Y162.729 E0.02577; Old Flow Value: 0.03394   Length: 0.78843
G1 X154.524 Y162.729 E0.38633; Old Flow Value: 0.38982   Length: 9.04800
G1 X153.967 Y163.286 E0.02577; Old Flow Value: 0.03394   Length: 0.78772
G1 X146.033 Y163.286 E0.33516; Old Flow Value: 0.34182   Length: 7.93399
G1 X146.59 Y163.843 E0.02577; Old Flow Value: 0.03394   Length: 0.78772
G1 X153.41 Y163.843 E0.28496; Old Flow Value: 0.29382   Length: 6.82001
G1 X152.853 Y164.4 E0.02577; Old Flow Value: 0.03394   Length: 0.78772
G1 X147.147 Y164.4 E0.23575; Old Flow Value: 0.24583   Length: 5.70599
G1 X147.704 Y164.957 E0.02577; Old Flow Value: 0.03394   Length: 0.78772
G1 X152.296 Y164.957 E0.18751; Old Flow Value: 0.19783   Length: 4.59201
G1 X151.739 Y165.515 E0.02577; Old Flow Value: 0.03394   Length: 0.78843
G1 X148.261 Y165.515 E0.13976; Old Flow Value: 0.14983   Length: 3.47800
G1 X148.818 Y166.072 E0.02577; Old Flow Value: 0.03394   Length: 0.78772
G1 X151.182 Y166.072 E0.09213; Old Flow Value: 0.10184   Length: 2.36401
G1 X150.625 Y166.629 E0.02577; Old Flow Value: 0.03394   Length: 0.78772
G1 X149.375 Y166.629 E0.04488; Old Flow Value: 0.05384   Length: 1.25000
G1 X149.932 Y167.186 E0.02577; Old Flow Value: 0.03394   Length: 0.78773
G1 X150.407 Y167.186 E0.01332; Old Flow Value: 0.02044   Length: 0.47499
;LAYER_CHANGE
;Z:0.44
;HEIGHT:0.24
;BEFORE_LAYER_CHANGE
TIMELAPSE_TAKE_FRAME
;0.44


; stop printing object Shape-Box id:0 copy 0
EXCLUDE_OBJECT_END NAME=Shape_Box_id_0_copy_0
M204 S10000
G1 Z0.44 F48000
;AFTER_LAYER_CHANGE
;0.44
G92 E0
; printing object Shape-Box id:0 copy 0
EXCLUDE_OBJECT_START NAME=Shape_Box_id_0_copy_0
SET_PRESSURE_ADVANCE ADVANCE=0.019
G1 X167.832 Y150
;TYPE:Internal perimeter
;WIDTH:0.5
G1 F18000
G1 X150 Y167.832 E1.04954
G1 X132.168 Y150 E1.04954
G1 X150 Y132.168 E1.04954
G1 X167.779 Y149.947 E1.04642
G1 X168.466 Y150 F48000
G1 F18000
G1 X150 Y168.466 E1.08687
G1 X131.534 Y150 E1.08687
G1 X150 Y131.534 E1.08687
G1 X168.413 Y149.947 E1.08375
G1 X169.1 Y150 F48000
G1 F18000
G1 X150 Y169.1 E1.1242
G1 X130.9 Y150 E1.1242
G1 X150 Y130.9 E1.1242
G1 X169.047 Y149.947 E1.12108
G1 X169.735 Y150 F48000
G1 F18000
G1 X150 Y169.735 E1.16153
G1 X130.265 Y150 E1.16153
G1 X150 Y130.265 E1.16153
G1 X169.682 Y149.947 E1.15841
G1 X170.369 Y150 F48000
G1 F18000
G1 X150 Y170.369 E1.19886
G1 X129.631 Y150 E1.19886
G1 X150 Y129.631 E1.19886
G1 X170.316 Y149.947 E1.19574
G1 X171.003 Y150 F48000
;TYPE:External perimeter
G1 F12000
G1 X150 Y171.003 E1.2362
G1 X128.997 Y150 E1.2362
G1 X150 Y128.997 E1.2362
G1 X170.95 Y149.947 E1.23307
;WIPE_START
G1 X170.52 Y150.129 F48000
;WIPE_END
G1 X166.913 Y150.855
;TYPE:Solid infill
;WIDTH:0.65
G1 F20885.704
G1 X166.913 Y149.508 E0.06311; Old Flow Value: 0.07481   Length: 1.34700
G1 X166.315 Y148.91 E0.03627; Old Flow Value: 0.04701   Length: 0.84569
G1 X166.315 Y151.09 E0.10863; Old Flow Value: 0.12107   Length: 2.17999
G1 X165.716 Y151.689 E0.03628; Old Flow Value: 0.04701   Length: 0.84711
G1 X165.716 Y148.311 E0.17460; Old Flow Value: 0.18755   Length: 3.37799
G1 X165.118 Y147.713 E0.03627; Old Flow Value: 0.04701   Length: 0.84571
G1 X165.118 Y152.287 E0.24073; Old Flow Value: 0.25403   Length: 4.57401
G1 X164.519 Y152.886 E0.03628; Old Flow Value: 0.04701   Length: 0.84711
G1 X164.519 Y147.114 E0.30758; Old Flow Value: 0.32051   Length: 5.77200
G1 X163.921 Y146.516 E0.03627; Old Flow Value: 0.04701   Length: 0.84569
G1 X163.921 Y153.484 E0.37588; Old Flow Value: 0.38699   Length: 6.96799
G1 X163.322 Y154.082 E0.03628; Old Flow Value: 0.04701   Length: 0.84641
G1 X163.322 Y145.918 E0.44562; Old Flow Value: 0.45347   Length: 8.16400
