; generated by SuperSlicer 2.5.59 on 2022-10-30 at 04:47:10 UTC


;
;

;
;
; 

; external perimeters extrusion width = 0.52mm
; perimeters extrusion width = 0.56mm
; infill extrusion width = 0.70mm
; solid infill extrusion width = 0.70mm
; top infill extrusion width = 0.50mm
; first layer extrusion width = 0.60mm

; object:{"name":"Shape-Box","id":"Shape-Box id:0 copy 0","object_center":[150.000000,150.000000,0.000000],"boundingbox_center":[150.000000,150.000000,15.000000],"boundingbox_size":[42.426407,42.426407,30.000000]}
; plater:{"center":[150.000000,150.000000,0.000000],"boundingbox_center":[150.000000,150.000000,15.000000],"boundingbox_size":[42.426407,42.426407,30.000000]}

;TYPE:Custom
PRINT_START EXTRUDER=260 BED=110
M107
G21 ; set units to millimeters
G90 ; use absolute coordinates
M83 ; use relative distances for extrusion
;_TOOLCHANGE 0
M104 S260 ; set temperature
M109 S260 ; set temperature and wait for it to be reached
M190 S110 ; set bed temperature and wait for it to be reached
M107
;LAYER_CHANGE
;Z:0.3
;HEIGHT:0.3
;BEFORE_LAYER_CHANGE
;0.3


G1 Z0.3 F24000
;AFTER_LAYER_CHANGE
;0.3
G92 E0
G1 E-0.6 F2400
; printing object Shape-Box id:0 copy 0
M204 S3000
G1 X150 Y169.133 F24000
G1 E0.6 F2400
;TYPE:Internal perimeter
;WIDTH:0.6
G1 F9000
G1 X130.867 Y150 E1.75336
G1 X150 Y130.867 E1.75336
G1 X169.133 Y150 E1.75336
G1 X150.053 Y169.08 E1.7485
G1 X150 Y169.89 F24000
G1 F9000
G1 X130.11 Y150 E1.82278
G1 X150 Y130.11 E1.82278
G1 X169.89 Y150 E1.82278
G1 X150.053 Y169.837 E1.81792
G1 X150 Y170.648 F24000
;TYPE:External perimeter
G1 F4500
G1 X129.352 Y150 E1.8922
G1 X129.459 Y149.894 E0.00868
G1 X129.671 Y149.682 E0.0184
G1 X150 Y129.352 E1.86304
G1 X150.106 Y129.459 E0.00868
G1 X150.318 Y129.671 E0.0184
G1 X170.648 Y150 E1.86304
G1 X170.541 Y150.106 E0.00868
G1 X170.329 Y150.318 E0.0184
G1 X150.053 Y170.594 E1.85818
;WIPE_START
M204 S10000
G1 X149.871 Y170.165 F24000
;WIPE_END
G1 E-0.06 F2400
;WIPE_START
G1 F19200
G1 X146.816 Y167.11 E-0.513
;WIPE_END
G1 E-0.027 F2400
G1 X149.234 Y131.747 F24000
G1 E0.6 F2400
;TYPE:Solid infill
G1 F7200
G1 X150.44 Y131.747 E0.07812
G1 X150.976 Y132.282 E0.04909
G1 X149.024 Y132.282 E0.12643
G1 X148.489 Y132.818 E0.04909
G1 X151.511 Y132.818 E0.19585
G1 X152.047 Y133.353 E0.04909
G1 X147.953 Y133.353 E0.26526
G1 X147.418 Y133.889 E0.04909
G1 X152.582 Y133.889 E0.33468
G1 X153.118 Y134.425 E0.04909
G1 X146.882 Y134.425 E0.4041
G1 X146.346 Y134.96 E0.04909
G1 X153.654 Y134.96 E0.47352
G1 X154.189 Y135.496 E0.04909
G1 X145.811 Y135.496 E0.54293
G1 X145.275 Y136.032 E0.04909
G1 X154.725 Y136.032 E0.61235
G1 X155.26 Y136.567 E0.04909
G1 X144.74 Y136.567 E0.68177
G1 X144.204 Y137.103 E0.04909
G1 X155.796 Y137.103 E0.75119
G1 X156.332 Y137.638 E0.04909
G1 X143.668 Y137.638 E0.8206
G1 X143.133 Y138.174 E0.04909
G1 X156.867 Y138.174 E0.89002
G1 X157.403 Y138.71 E0.04909
G1 X142.597 Y138.71 E0.95944
G1 X142.061 Y139.245 E0.04909
G1 X157.939 Y139.245 E1.02886
G1 X158.474 Y139.781 E0.04909
G1 X141.526 Y139.781 E1.09827
G1 X140.99 Y140.317 E0.04909
G1 X159.01 Y140.317 E1.16769
G1 X159.545 Y140.852 E0.04909
G1 X140.455 Y140.852 E1.23711
G1 X139.919 Y141.388 E0.04909
G1 X160.081 Y141.388 E1.30653
G1 X160.617 Y141.923 E0.04909
G1 X139.383 Y141.923 E1.37594
G1 X138.848 Y142.459 E0.04909
G1 X161.152 Y142.459 E1.44536
G1 X161.688 Y142.995 E0.04909
G1 X138.312 Y142.995 E1.51478
G1 X137.776 Y143.53 E0.04909
G1 X162.224 Y143.53 E1.5842
G1 X162.759 Y144.066 E0.04909
G1 X137.241 Y144.066 E1.65361
G1 X136.705 Y144.601 E0.04909
G1 X163.295 Y144.601 E1.72303
G1 X163.83 Y145.137 E0.04909
G1 X136.17 Y145.137 E1.79245
G1 X135.634 Y145.673 E0.04909
G1 X164.366 Y145.673 E1.86187
G1 X164.902 Y146.208 E0.04909
G1 X135.098 Y146.208 E1.93128
G1 X134.563 Y146.744 E0.04909
G1 X165.437 Y146.744 E2.0007
G1 X165.973 Y147.28 E0.04909
G1 X134.027 Y147.28 E2.07012
G1 X133.492 Y147.815 E0.04909
G1 X166.508 Y147.815 E2.13954
G1 X167.044 Y148.351 E0.04909
G1 X132.956 Y148.351 E2.20896
G1 X132.42 Y148.886 E0.04909
G1 X167.58 Y148.886 E2.27837
G1 X168.115 Y149.422 E0.04909
G1 X131.885 Y149.422 E2.34779
G1 X131.349 Y149.958 E0.04909
G1 X168.651 Y149.958 E2.41721
G1 X168.693 Y150 E0.00388
G1 X168.2 Y150.493 E0.04521
G1 X131.8 Y150.493 E2.35876
G1 X132.336 Y151.029 E0.04909
G1 X167.664 Y151.029 E2.28934
G1 X167.129 Y151.565 E0.04909
G1 X132.871 Y151.565 E2.21992
G1 X133.407 Y152.1 E0.04909
G1 X166.593 Y152.1 E2.15051
G1 X166.057 Y152.636 E0.04909
G1 X133.943 Y152.636 E2.08109
G1 X134.478 Y153.171 E0.04909
G1 X165.522 Y153.171 E2.01167
G1 X164.986 Y153.707 E0.04909
G1 X135.014 Y153.707 E1.94225
G1 X135.549 Y154.243 E0.04909
G1 X164.451 Y154.243 E1.87284
G1 X163.915 Y154.778 E0.04909
G1 X136.085 Y154.778 E1.80342
G1 X136.621 Y155.314 E0.04909
G1 X163.379 Y155.314 E1.734
G1 X162.844 Y155.849 E0.04909
G1 X137.156 Y155.849 E1.66458
G1 X137.692 Y156.385 E0.04909
G1 X162.308 Y156.385 E1.59516
G1 X161.773 Y156.921 E0.04909
G1 X138.227 Y156.921 E1.52575
G1 X138.763 Y157.456 E0.04909
G1 X161.237 Y157.456 E1.45633
G1 X160.701 Y157.992 E0.04909
G1 X139.299 Y157.992 E1.38691
G1 X139.834 Y158.528 E0.04909
G1 X160.166 Y158.528 E1.31749
G1 X159.63 Y159.063 E0.04909
G1 X140.37 Y159.063 E1.24808
G1 X140.906 Y159.599 E0.04909
G1 X159.094 Y159.599 E1.17866
G1 X158.559 Y160.134 E0.04909
G1 X141.441 Y160.134 E1.10924
G1 X141.977 Y160.67 E0.04909
G1 X158.023 Y160.67 E1.03982
G1 X157.488 Y161.206 E0.04909
G1 X142.512 Y161.206 E0.97041
G1 X143.048 Y161.741 E0.04909
G1 X156.952 Y161.741 E0.90099
G1 X156.416 Y162.277 E0.04909
G1 X143.584 Y162.277 E0.83157
G1 X144.119 Y162.813 E0.04909
G1 X155.881 Y162.813 E0.76215
G1 X155.345 Y163.348 E0.04909
G1 X144.655 Y163.348 E0.69274
G1 X145.191 Y163.884 E0.04909
G1 X154.809 Y163.884 E0.62332
G1 X154.274 Y164.419 E0.04909
G1 X145.726 Y164.419 E0.5539
G1 X146.262 Y164.955 E0.04909
G1 X153.738 Y164.955 E0.48448
G1 X153.203 Y165.491 E0.04909
G1 X146.797 Y165.491 E0.41507
G1 X147.333 Y166.026 E0.04909
G1 X152.667 Y166.026 E0.34565
G1 X152.131 Y166.562 E0.04909
G1 X147.869 Y166.562 E0.27623
G1 X148.404 Y167.097 E0.04909
G1 X151.596 Y167.097 E0.20681
G1 X151.06 Y167.633 E0.04909
G1 X148.94 Y167.633 E0.1374
G1 X149.475 Y168.169 E0.04909
G1 X150.85 Y168.169 E0.08909
;LAYER_CHANGE
;Z:0.54
;HEIGHT:0.24
;BEFORE_LAYER_CHANGE
;0.54


; stop printing object Shape-Box id:0 copy 0
G1 Z0.54 F24000
;AFTER_LAYER_CHANGE
;0.54
G92 E0
M104 S255 ; set temperature
; printing object Shape-Box id:0 copy 0
M204 S3000
G1 X150 Y168.63
;TYPE:Internal perimeter
;WIDTH:0.5625
G1 F12231.026
G1 X131.37 Y150 E1.30304
G1 X150 Y131.37 E1.30304
G1 X168.63 Y150 E1.30304
G1 X150.053 Y168.577 E1.29933
G1 X150 Y169.352 F24000
G1 F12231.026
G1 X130.648 Y150 E1.35358
G1 X150 Y130.648 E1.35358
G1 X169.352 Y150 E1.35358
G1 X150.053 Y169.299 E1.34988
G1 X150 Y170.075 F24000
G1 F12231.026
G1 X129.925 Y150 E1.40413
G1 X150 Y129.925 E1.40413
G1 X170.075 Y150 E1.40413
G1 X150.053 Y170.022 E1.40042
G1 X150 Y170.771 F24000
;TYPE:External perimeter
;WIDTH:0.525
G1 F9000
G1 X129.229 Y150 E1.3462
G1 X129.322 Y149.907 E0.00537
G1 X129.507 Y149.722 E0.01138
G1 X150 Y129.229 E1.32816
G1 X150.093 Y129.322 E0.00537
G1 X150.278 Y129.507 E0.01138
G1 X170.771 Y150 E1.32816
G1 X170.678 Y150.093 E0.00537
G1 X170.493 Y150.278 E0.01138
G1 X150.053 Y170.718 E1.32472
;WIPE_START
M204 S10000
G1 X149.871 Y170.288 F24000
;WIPE_END
G1 X167.624 Y149.073
;TYPE:Solid infill
;WIDTH:0.7
G1 F9637.6913
G1 X167.624 Y150.533 E0.09161
G1 X166.975 Y151.181 E0.05756
G1 X166.975 Y148.819 E0.14826
G1 X166.327 Y148.17 E0.05756
G1 X166.327 Y151.83 E0.22967
G1 X165.678 Y152.478 E0.05756
G1 X165.678 Y147.522 E0.31108
G1 X165.03 Y146.873 E0.05756
G1 X165.03 Y153.127 E0.39248
G1 X164.381 Y153.775 E0.05756
G1 X164.381 Y146.225 E0.47389
G1 X163.733 Y145.576 E0.05756
G1 X163.733 Y154.424 E0.5553
G1 X163.084 Y155.072 E0.05756
G1 X163.084 Y144.928 E0.6367
G1 X162.436 Y144.279 E0.05756
G1 X162.436 Y155.721 E0.71811
G1 X161.787 Y156.369 E0.05756
G1 X161.787 Y143.631 E0.79952
G1 X161.139 Y142.982 E0.05756
G1 X161.139 Y157.018 E0.88092
G1 X160.49 Y157.666 E0.05756
G1 X160.49 Y142.334 E0.96233
G1 X159.842 Y141.685 E0.05756
G1 X159.842 Y158.315 E1.04374
G1 X159.193 Y158.963 E0.05756
G1 X159.193 Y141.037 E1.12514
G1 X158.545 Y140.388 E0.05756
G1 X158.545 Y159.612 E1.20655
G1 X157.896 Y160.26 E0.05756
G1 X157.896 Y139.74 E1.28796
G1 X157.248 Y139.092 E0.05756
G1 X157.248 Y160.909 E1.36936
G1 X156.599 Y161.557 E0.05756
G1 X156.599 Y138.443 E1.45077
G1 X155.951 Y137.795 E0.05756
G1 X155.951 Y162.205 E1.53218
G1 X155.302 Y162.854 E0.05756
G1 X155.302 Y137.146 E1.61358
G1 X154.654 Y136.498 E0.05756
G1 X154.654 Y163.502 E1.69499
G1 X154.005 Y164.151 E0.05756
G1 X154.005 Y135.849 E1.7764
G1 X153.357 Y135.201 E0.05756
G1 X153.357 Y164.799 E1.85781
G1 X152.708 Y165.448 E0.05756
G1 X152.708 Y134.552 E1.93921
G1 X152.06 Y133.904 E0.05756
G1 X152.06 Y166.096 E2.02062
G1 X151.411 Y166.745 E0.05756
G1 X151.411 Y133.255 E2.10203
G1 X150.763 Y132.607 E0.05756
G1 X150.763 Y167.393 E2.18343
G1 X150.114 Y168.042 E0.05756
G1 X150.114 Y131.958 E2.26484
G1 X150 Y131.844 E0.01015
G1 X149.466 Y132.378 E0.04742
G1 X149.466 Y167.622 E2.21213
G1 X148.817 Y166.974 E0.05756
G1 X148.817 Y133.026 E2.13072
G1 X148.169 Y133.675 E0.05756
G1 X148.169 Y166.325 E2.04932
G1 X147.52 Y165.677 E0.05756
G1 X147.52 Y134.323 E1.96791
G1 X146.872 Y134.972 E0.05756
G1 X146.872 Y165.028 E1.8865
G1 X146.223 Y164.38 E0.05756
G1 X146.223 Y135.62 E1.8051
G1 X145.575 Y136.269 E0.05756
G1 X145.575 Y163.731 E1.72369
G1 X144.926 Y163.083 E0.05756
G1 X144.926 Y136.917 E1.64228
G1 X144.278 Y137.566 E0.05756
G1 X144.278 Y162.434 E1.56088
G1 X143.629 Y161.786 E0.05756
G1 X143.629 Y138.214 E1.47947
G1 X142.981 Y138.863 E0.05756
G1 X142.981 Y161.137 E1.39806
G1 X142.332 Y160.489 E0.05756
G1 X142.332 Y139.511 E1.31666
G1 X141.684 Y140.16 E0.05756
G1 X141.684 Y159.84 E1.23525
G1 X141.035 Y159.192 E0.05756
G1 X141.035 Y140.808 E1.15384
G1 X140.387 Y141.457 E0.05756
G1 X140.387 Y158.543 E1.07244
G1 X139.738 Y157.895 E0.05756
G1 X139.738 Y142.105 E0.99103
G1 X139.09 Y142.754 E0.05756
G1 X139.09 Y157.246 E0.90962
G1 X138.441 Y156.598 E0.05756
G1 X138.441 Y143.402 E0.82822
G1 X137.793 Y144.051 E0.05756
G1 X137.793 Y155.949 E0.74681
G1 X137.144 Y155.301 E0.05756
G1 X137.144 Y144.699 E0.6654
G1 X136.496 Y145.348 E0.05756
G1 X136.496 Y154.652 E0.584
G1 X135.847 Y154.004 E0.05756
G1 X135.847 Y145.996 E0.50259
G1 X135.199 Y146.645 E0.05756
G1 X135.199 Y153.355 E0.42118
G1 X134.55 Y152.707 E0.05756
G1 X134.55 Y147.293 E0.33977
G1 X133.902 Y147.942 E0.05756
G1 X133.902 Y152.058 E0.25837
G1 X133.253 Y151.41 E0.05756
G1 X133.253 Y148.59 E0.17696
G1 X132.605 Y149.239 E0.05756
G1 X132.605 Y150.761 E0.09555
G1 X131.956 Y150.113 E0.05756
G1 X131.956 Y149.493 E0.0389
M106 S102
;LAYER_CHANGE
;Z:0.78
;HEIGHT:0.24
;BEFORE_LAYER_CHANGE
;0.78


; stop printing object Shape-Box id:0 copy 0
G1 Z0.78 F24000
;AFTER_LAYER_CHANGE
;0.78
G92 E0
; printing object Shape-Box id:0 copy 0
M204 S3000
G1 X150 Y169.423
;TYPE:Internal perimeter
;WIDTH:0.5625
G1 F9123
G1 X130.577 Y150 E1.35853
G1 X150 Y130.577 E1.35853
G1 X169.423 Y150 E1.35853
G1 X150.053 Y169.37 E1.35482
M106 S102
G1 X150 Y170.146 F24000
G1 F9123
G1 X129.854 Y150 E1.40908
G1 X150 Y129.854 E1.40908
G1 X170.146 Y150 E1.40908
G1 X150.053 Y170.093 E1.40537
M106 S102
G1 X150 Y170.842 F24000
;TYPE:External perimeter
;WIDTH:0.525
G1 F9000
M106 S255
G1 X129.158 Y150 E1.35079
G1 X129.251 Y149.907 E0.00537
G1 X129.436 Y149.722 E0.01138
G1 X150 Y129.158 E1.33274
G1 X150.093 Y129.251 E0.00537
G1 X150.278 Y129.436 E0.01138
G1 X170.842 Y150 E1.33274
G1 X170.749 Y150.093 E0.00537
G1 X170.564 Y150.278 E0.01138
G1 X150.053 Y170.789 E1.3293
M106 S102
;WIPE_START
M204 S10000
G1 X149.871 Y170.359 F24000
;WIPE_END
G1 X149.073 Y131.583
;TYPE:Solid infill
;WIDTH:0.7
G1 F9123
G1 X150.533 Y131.583 E0.09161
G1 X151.181 Y132.231 E0.05756
G1 X148.819 Y132.231 E0.14826
G1 X148.17 Y132.88 E0.05756
G1 X151.83 Y132.88 E0.22967
G1 X152.478 Y133.528 E0.05756
G1 X147.522 Y133.528 E0.31108
G1 X146.873 Y134.177 E0.05756
G1 X153.127 Y134.177 E0.39248
G1 X153.775 Y134.825 E0.05756
G1 X146.225 Y134.825 E0.47389
G1 X145.576 Y135.474 E0.05756
G1 X154.424 Y135.474 E0.5553
G1 X155.072 Y136.122 E0.05756
G1 X144.928 Y136.122 E0.6367
G1 X144.279 Y136.771 E0.05756
G1 X155.721 Y136.771 E0.71811
G1 X156.369 Y137.419 E0.05756
G1 X143.631 Y137.419 E0.79952
G1 X142.982 Y138.068 E0.05756
G1 X157.018 Y138.068 E0.88092
G1 X157.666 Y138.716 E0.05756
G1 X142.334 Y138.716 E0.96233
G1 X141.685 Y139.365 E0.05756
G1 X158.315 Y139.365 E1.04374
G1 X158.963 Y140.013 E0.05756
G1 X141.037 Y140.013 E1.12514
G1 X140.388 Y140.662 E0.05756
G1 X159.612 Y140.662 E1.20655
G1 X160.26 Y141.31 E0.05756
G1 X139.74 Y141.31 E1.28796
G1 X139.091 Y141.959 E0.05756
G1 X160.909 Y141.959 E1.36936
G1 X161.557 Y142.607 E0.05756
G1 X138.443 Y142.607 E1.45077
G1 X137.795 Y143.256 E0.05756
G1 X162.205 Y143.256 E1.53218
G1 X162.854 Y143.904 E0.05756
G1 X137.146 Y143.904 E1.61358
G1 X136.498 Y144.553 E0.05756
G1 X163.502 Y144.553 E1.69499
G1 X164.151 Y145.201 E0.05756
G1 X135.849 Y145.201 E1.7764
G1 X135.201 Y145.85 E0.05756
G1 X164.799 Y145.85 E1.85781
G1 X165.448 Y146.498 E0.05756
G1 X134.552 Y146.498 E1.93921
G1 X133.904 Y147.147 E0.05756
G1 X166.096 Y147.147 E2.02062
G1 X166.745 Y147.795 E0.05756
G1 X133.255 Y147.795 E2.10203
G1 X132.607 Y148.444 E0.05756
G1 X167.393 Y148.444 E2.18343
G1 X168.042 Y149.092 E0.05756
G1 X131.958 Y149.092 E2.26484
G1 X131.31 Y149.741 E0.05756
G1 X168.69 Y149.741 E2.34625
G1 X168.95 Y150 E0.02301
G1 X168.56 Y150.389 E0.03456
G1 X131.44 Y150.389 E2.32991
G1 X132.088 Y151.038 E0.05756
G1 X167.912 Y151.038 E2.2485
G1 X167.263 Y151.686 E0.05756
G1 X132.737 Y151.686 E2.1671
G1 X133.385 Y152.335 E0.05756
G1 X166.615 Y152.335 E2.08569
G1 X165.966 Y152.983 E0.05756
G1 X134.034 Y152.983 E2.00428
G1 X134.682 Y153.632 E0.05756
G1 X165.318 Y153.632 E1.92288
G1 X164.669 Y154.28 E0.05756
G1 X135.331 Y154.28 E1.84147
G1 X135.979 Y154.929 E0.05756
G1 X164.021 Y154.929 E1.76006
G1 X163.372 Y155.577 E0.05756
G1 X136.628 Y155.577 E1.67866
G1 X137.276 Y156.226 E0.05756
G1 X162.724 Y156.226 E1.59725
G1 X162.075 Y156.874 E0.05756
G1 X137.925 Y156.874 E1.51584
G1 X138.573 Y157.523 E0.05756
G1 X161.427 Y157.523 E1.43444
G1 X160.778 Y158.171 E0.05756
G1 X139.222 Y158.171 E1.35303
G1 X139.87 Y158.82 E0.05756
G1 X160.13 Y158.82 E1.27162
G1 X159.481 Y159.468 E0.05756
G1 X140.519 Y159.468 E1.19021
G1 X141.167 Y160.117 E0.05756
G1 X158.833 Y160.117 E1.10881
G1 X158.184 Y160.765 E0.05756
G1 X141.816 Y160.765 E1.0274
G1 X142.464 Y161.414 E0.05756
G1 X157.536 Y161.414 E0.94599
G1 X156.887 Y162.062 E0.05756
G1 X143.113 Y162.062 E0.86459
G1 X143.761 Y162.711 E0.05756
G1 X156.239 Y162.711 E0.78318
G1 X155.59 Y163.359 E0.05756
G1 X144.41 Y163.359 E0.70177
G1 X145.058 Y164.008 E0.05756
G1 X154.942 Y164.008 E0.62037
G1 X154.293 Y164.656 E0.05756
G1 X145.707 Y164.656 E0.53896
G1 X146.355 Y165.305 E0.05756
G1 X153.645 Y165.305 E0.45755
G1 X152.996 Y165.953 E0.05756
G1 X147.004 Y165.953 E0.37615
G1 X147.652 Y166.602 E0.05756
G1 X152.348 Y166.602 E0.29474
G1 X151.699 Y167.25 E0.05756
G1 X148.301 Y167.25 E0.21333
G1 X148.949 Y167.899 E0.05756
G1 X151.051 Y167.899 E0.13193
G1 X150.402 Y168.547 E0.05756
G1 X149.203 Y168.547 E0.07527
M106 S102
;LAYER_CHANGE
;Z:1.02
;HEIGHT:0.24
;BEFORE_LAYER_CHANGE
;1.02


; stop printing object Shape-Box id:0 copy 0
G1 Z1.02 F24000
;AFTER_LAYER_CHANGE
;1.02
G92 E0
; printing object Shape-Box id:0 copy 0
M204 S3000
G1 X150 Y168.701
;TYPE:Internal perimeter
;WIDTH:0.5625
G1 F9302
G1 X131.299 Y150 E1.30799
G1 X150 Y131.299 E1.30799
G1 X168.701 Y150 E1.30799
G1 X150.053 Y168.647 E1.30428
M106 S102
G1 X150 Y169.423 F24000
G1 F9302
G1 X130.577 Y150 E1.35853
G1 X150 Y130.577 E1.35853
G1 X169.423 Y150 E1.35853
G1 X150.053 Y169.37 E1.35482
M106 S102
G1 X150 Y170.146 F24000
G1 F9302
G1 X129.854 Y150 E1.40908
G1 X150 Y129.854 E1.40908
G1 X170.146 Y150 E1.40908
G1 X150.053 Y170.093 E1.40537
M106 S102
G1 X150 Y170.842 F24000
;TYPE:External perimeter
;WIDTH:0.525
G1 F9000
M106 S255
G1 X129.158 Y150 E1.35079
