; generated by SuperSlicer 2.5.59 on 2022-12-03 at 22:40:28 UTC


;
;

;
;
; 

; external perimeters extrusion width = 0.50mm
; perimeters extrusion width = 0.50mm
; infill extrusion width = 0.60mm
; solid infill extrusion width = 0.60mm
; top infill extrusion width = 0.50mm

; object:{"name":"Shape-Box","id":"Shape-Box id:0 copy 0","object_center":[150.000000,150.000000,0.000000],"boundingbox_center":[150.000000,150.000000,1.500000],"boundingbox_size":[42.426407,42.426407,3.000000]}
; plater:{"center":[150.000000,150.000000,0.000000],"boundingbox_center":[150.000000,150.000000,1.500000],"boundingbox_size":[42.426407,42.426407,3.000000]}

;TYPE:Custom
M117


; Pre-Processed for Cancel-Object support by preprocess_cancellation v0.2.0
; 1 known objects
EXCLUDE_OBJECT_DEFINE NAME=Shape_Box_id_0_copy_0 CENTER=149.979,149.837 POLYGON=[[150.0,128.926],[128.926,150.0],[150.042,171.031],[171.074,150.0],[150.0,128.926]]
PRINT_START EXTRUDER=250 BED=105
M107
G21 ; set units to millimeters
G90 ; use absolute coordinates
M83 ; use relative distances for extrusion
SET_PRESSURE_ADVANCE SMOOTH_TIME=0.03
SET_PRESSURE_ADVANCE ADVANCE=0.045
;_TOOLCHANGE 0
M104 S250 ; set temperature
M109 S250 ; set temperature and wait for it to be reached
M190 S105 ; set bed temperature and wait for it to be reached
M107
;LAYER_CHANGE
;Z:0.2
;HEIGHT:0.2
;BEFORE_LAYER_CHANGE
;0.2


G1 Z0.2 F24000
;AFTER_LAYER_CHANGE
;0.2
G92 E0
G1 E-0.6 F2400
M204 S5000
G1 X135.358 Y135.358 F24000
G1 E0.6 F2400
;TYPE:Skirt
;WIDTH:0.48
G1 F1800
G1 X124.715 Y146.001 E0.5142
G1 X123.391 Y148.09 E0.08448
G1 X123.061 Y150.181 E0.07235
G1 X123.524 Y152.248 E0.07235
G1 X124.715 Y153.999 E0.07235
G1 X146.001 Y175.285 E1.0284
G1 X148.09 Y176.609 E0.08448
G1 X150.181 Y176.939 E0.07235
G1 X152.248 Y176.476 E0.07235
G1 X153.999 Y175.285 E0.07235
G1 X175.285 Y153.999 E1.0284
G1 X176.609 Y151.91 E0.08448
G1 X176.939 Y149.819 E0.07235
G1 X176.476 Y147.752 E0.07235
G1 X175.285 Y146.001 E0.07235
G1 X153.999 Y124.715 E1.0284
G1 X151.91 Y123.391 E0.08448
G1 X149.819 Y123.061 E0.07235
G1 X147.752 Y123.524 E0.07235
G1 X146.001 Y124.715 E0.07235
G1 X135.4 Y135.315 E0.51215
G1 X135.709 Y135.624 F24000
G1 F1800
G1 X125.024 Y146.31 E0.51625
G1 X123.889 Y148.011 E0.06984
G1 X123.495 Y150.006 E0.06947
G1 X123.894 Y152 E0.06947
G1 X125.024 Y153.69 E0.06947
G1 X146.31 Y174.976 E1.0284
G1 X148.011 Y176.111 E0.06984
G1 X150.006 Y176.505 E0.06947
G1 X152 Y176.106 E0.06947
G1 X153.69 Y174.976 E0.06947
G1 X174.976 Y153.69 E1.0284
G1 X176.111 Y151.989 E0.06984
G1 X176.505 Y149.994 E0.06947
G1 X176.106 Y148 E0.06947
G1 X174.976 Y146.31 E0.06947
G1 X153.69 Y125.024 E1.0284
G1 X151.989 Y123.889 E0.06984
G1 X149.994 Y123.495 E0.06947
G1 X148 Y123.894 E0.06947
G1 X146.31 Y125.024 E0.06947
G1 X135.752 Y135.582 E0.5101
G1 E-0.06 F2400
;WIPE_START
G1 F19200
G1 X132.697 Y138.637 E-0.513
;WIPE_END
G1 E-0.027 F2400
; printing object Shape-Box id:0 copy 0
EXCLUDE_OBJECT_START NAME=Shape_Box_id_0_copy_0
G1 X150 Y168.993 F24000
G1 E0.6 F2400
;TYPE:Internal perimeter
;WIDTH:0.5
G1 F1800
G1 X131.007 Y150 E0.95962
G1 X150 Y131.007 E0.95962
G1 X168.993 Y150 E0.95962
G1 X150.042 Y168.951 E0.95748
G1 X150 Y169.64 F24000
G1 F1800
G1 X130.36 Y150 E0.99228
G1 X150 Y130.36 E0.99228
G1 X169.64 Y150 E0.99228
G1 X150.042 Y169.597 E0.99013
G1 X150 Y170.286 F24000
G1 F1800
G1 X129.714 Y150 E1.02494
G1 X150 Y129.714 E1.02494
G1 X170.286 Y150 E1.02494
G1 X150.042 Y170.244 E1.02279
G1 X150 Y170.933 F24000
;TYPE:External perimeter
G1 F1800
G1 X129.067 Y150 E1.0576
G1 X129.156 Y149.912 E0.00399
G1 X129.333 Y149.735 E0.00845
G1 X150 Y129.068 E1.0442
G1 X150.088 Y129.156 E0.00399
G1 X150.265 Y129.333 E0.00845
G1 X170.932 Y150 E1.0442
G1 X170.844 Y150.088 E0.00399
G1 X170.667 Y150.265 E0.00845
G1 X150.042 Y170.89 E1.04206
;WIPE_START
M204 S10000
G1 X149.896 Y170.546 F24000
;WIPE_END
G1 E-0.06 F2400
;WIPE_START
G1 F19200
M204 S5000
G1 X146.842 Y167.491 E-0.513
;WIPE_END
G1 E-0.027 F2400
G1 X149.204 Y131.879 F24000
G1 E0.6 F2400
;TYPE:Solid infill
;WIDTH:0.6
G1 F3000
G1 X150.458 Y131.879 E0.05459
G1 X151.015 Y132.436 E0.0343
G1 X148.985 Y132.436 E0.08835
G1 X148.428 Y132.993 E0.0343
G1 X151.572 Y132.993 E0.13687
G1 X152.129 Y133.55 E0.0343
G1 X147.871 Y133.55 E0.18538
G1 X147.314 Y134.107 E0.0343
G1 X152.686 Y134.107 E0.23389
G1 X153.243 Y134.664 E0.0343
G1 X146.757 Y134.664 E0.28241
G1 X146.2 Y135.221 E0.0343
G1 X153.8 Y135.221 E0.33092
G1 X154.357 Y135.778 E0.0343
G1 X145.643 Y135.778 E0.37943
G1 X145.086 Y136.335 E0.0343
G1 X154.914 Y136.335 E0.42794
G1 X155.471 Y136.892 E0.0343
G1 X144.529 Y136.892 E0.47646
G1 X143.972 Y137.45 E0.0343
G1 X156.028 Y137.45 E0.52497
G1 X156.585 Y138.007 E0.0343
G1 X143.415 Y138.007 E0.57348
G1 X142.858 Y138.564 E0.0343
G1 X157.142 Y138.564 E0.62199
G1 X157.7 Y139.121 E0.0343
G1 X142.3 Y139.121 E0.67051
G1 X141.743 Y139.678 E0.0343
G1 X158.257 Y139.678 E0.71902
G1 X158.814 Y140.235 E0.0343
G1 X141.186 Y140.235 E0.76753
G1 X140.629 Y140.792 E0.0343
G1 X159.371 Y140.792 E0.81605
G1 X159.928 Y141.349 E0.0343
G1 X140.072 Y141.349 E0.86456
G1 X139.515 Y141.906 E0.0343
G1 X160.485 Y141.906 E0.91307
G1 X161.042 Y142.463 E0.0343
G1 X138.958 Y142.463 E0.96158
G1 X138.401 Y143.02 E0.0343
G1 X161.599 Y143.02 E1.0101
G1 X162.156 Y143.577 E0.0343
G1 X137.844 Y143.577 E1.05861
G1 X137.287 Y144.134 E0.0343
G1 X162.713 Y144.134 E1.10712
G1 X163.27 Y144.692 E0.0343
G1 X136.73 Y144.692 E1.15564
G1 X136.173 Y145.249 E0.0343
G1 X163.827 Y145.249 E1.20415
G1 X164.384 Y145.806 E0.0343
G1 X135.616 Y145.806 E1.25266
G1 X135.058 Y146.363 E0.0343
G1 X164.942 Y146.363 E1.30117
G1 X165.499 Y146.92 E0.0343
G1 X134.501 Y146.92 E1.34969
G1 X133.944 Y147.477 E0.0343
G1 X166.056 Y147.477 E1.3982
G1 X166.613 Y148.034 E0.0343
G1 X133.387 Y148.034 E1.44671
G1 X132.83 Y148.591 E0.0343
G1 X167.17 Y148.591 E1.49522
G1 X167.727 Y149.148 E0.0343
G1 X132.273 Y149.148 E1.54374
G1 X131.716 Y149.705 E0.0343
G1 X168.284 Y149.705 E1.59225
G1 X168.579 Y150 E0.01815
G1 X168.316 Y150.262 E0.01615
G1 X131.684 Y150.262 E1.59507
G1 X132.241 Y150.819 E0.0343
G1 X167.759 Y150.819 E1.54656
G1 X167.202 Y151.376 E0.0343
G1 X132.798 Y151.376 E1.49805
G1 X133.355 Y151.934 E0.0343
G1 X166.645 Y151.934 E1.44954
G1 X166.088 Y152.491 E0.0343
G1 X133.912 Y152.491 E1.40102
G1 X134.469 Y153.048 E0.0343
G1 X165.531 Y153.048 E1.35251
G1 X164.974 Y153.605 E0.0343
G1 X135.026 Y153.605 E1.304
G1 X135.583 Y154.162 E0.0343
G1 X164.417 Y154.162 E1.25548
G1 X163.86 Y154.719 E0.0343
G1 X136.14 Y154.719 E1.20697
G1 X136.697 Y155.276 E0.0343
G1 X163.303 Y155.276 E1.15846
G1 X162.746 Y155.833 E0.0343
G1 X137.254 Y155.833 E1.10995
G1 X137.811 Y156.39 E0.0343
G1 X162.189 Y156.39 E1.06143
G1 X161.632 Y156.947 E0.0343
G1 X138.368 Y156.947 E1.01292
G1 X138.926 Y157.504 E0.0343
G1 X161.074 Y157.504 E0.96441
G1 X160.517 Y158.061 E0.0343
G1 X139.483 Y158.061 E0.9159
G1 X140.04 Y158.619 E0.0343
G1 X159.96 Y158.619 E0.86738
G1 X159.403 Y159.176 E0.0343
G1 X140.597 Y159.176 E0.81887
G1 X141.154 Y159.733 E0.0343
G1 X158.846 Y159.733 E0.77036
G1 X158.289 Y160.29 E0.0343
G1 X141.711 Y160.29 E0.72184
G1 X142.268 Y160.847 E0.0343
G1 X157.732 Y160.847 E0.67333
G1 X157.175 Y161.404 E0.0343
G1 X142.825 Y161.404 E0.62482
G1 X143.382 Y161.961 E0.0343
G1 X156.618 Y161.961 E0.57631
G1 X156.061 Y162.518 E0.0343
G1 X143.939 Y162.518 E0.52779
G1 X144.496 Y163.075 E0.0343
G1 X155.504 Y163.075 E0.47928
G1 X154.947 Y163.632 E0.0343
G1 X145.053 Y163.632 E0.43077
G1 X145.611 Y164.189 E0.0343
G1 X154.389 Y164.189 E0.38226
G1 X153.832 Y164.746 E0.0343
G1 X146.168 Y164.746 E0.33374
G1 X146.725 Y165.303 E0.0343
G1 X153.275 Y165.303 E0.28523
G1 X152.718 Y165.861 E0.0343
G1 X147.282 Y165.861 E0.23672
G1 X147.839 Y166.418 E0.0343
G1 X152.161 Y166.418 E0.1882
G1 X151.604 Y166.975 E0.0343
G1 X148.396 Y166.975 E0.13969
G1 X148.953 Y167.532 E0.0343
G1 X151.047 Y167.532 E0.09118
G1 X150.49 Y168.089 E0.0343
G1 X149.171 Y168.089 E0.05742
;LAYER_CHANGE
;Z:0.4
;HEIGHT:0.2
;BEFORE_LAYER_CHANGE
;0.4


; stop printing object Shape-Box id:0 copy 0
EXCLUDE_OBJECT_END NAME=Shape_Box_id_0_copy_0
M204 S10000
G1 Z0.4 F24000
;AFTER_LAYER_CHANGE
;0.4
G92 E0
M104 S245 ; set temperature
; printing object Shape-Box id:0 copy 0
EXCLUDE_OBJECT_START NAME=Shape_Box_id_0_copy_0
G1 X150 Y168.418
;TYPE:Internal perimeter
;WIDTH:0.5
G1 F10800
G1 X131.582 Y150 E0.93053
G1 X150 Y131.582 E0.93053
G1 X168.418 Y150 E0.93053
G1 X150.042 Y168.375 E0.92839
G1 X150 Y169.064 F24000
G1 F10800
G1 X130.936 Y150 E0.96319
G1 X150 Y130.936 E0.96319
G1 X169.064 Y150 E0.96319
G1 X150.042 Y169.022 E0.96105
G1 X150 Y169.71 F24000
G1 F10800
G1 X130.29 Y150 E0.99585
G1 X150 Y130.29 E0.99585
G1 X169.71 Y150 E0.99585
G1 X150.042 Y169.668 E0.99371
G1 X150 Y170.357 F24000
G1 F10800
G1 X129.643 Y150 E1.02851
G1 X150 Y129.643 E1.02851
G1 X170.357 Y150 E1.02851
G1 X150.042 Y170.314 E1.02637
G1 X150 Y171.003 F24000
;TYPE:External perimeter
G1 F6000
G1 X128.997 Y150 E1.06117
G1 X129.085 Y149.912 E0.00399
G1 X129.262 Y149.735 E0.00845
G1 X150 Y128.997 E1.04777
G1 X150.088 Y129.085 E0.00399
G1 X150.265 Y129.262 E0.00845
G1 X171.003 Y150 E1.04777
G1 X170.915 Y150.088 E0.00399
G1 X170.738 Y150.265 E0.00845
G1 X150.042 Y170.961 E1.04563
;WIPE_START
G1 X149.896 Y170.617 F24000
;WIPE_END
G1 X167.546 Y149.204
;TYPE:Solid infill
;WIDTH:0.6
G1 F16155.679
G1 X167.546 Y150.458 E0.05459
G1 X166.989 Y151.015 E0.0343
G1 X166.989 Y148.985 E0.08835
G1 X166.431 Y148.428 E0.0343
G1 X166.431 Y151.572 E0.13687
G1 X165.874 Y152.129 E0.0343
G1 X165.874 Y147.871 E0.18538
G1 X165.317 Y147.314 E0.0343
G1 X165.317 Y152.686 E0.23389
G1 X164.76 Y153.243 E0.0343
G1 X164.76 Y146.757 E0.28241
G1 X164.203 Y146.2 E0.0343
G1 X164.203 Y153.8 E0.33092
G1 X163.646 Y154.357 E0.0343
G1 X163.646 Y145.643 E0.37943
G1 X163.089 Y145.086 E0.0343
G1 X163.089 Y154.914 E0.42794
G1 X162.532 Y155.471 E0.0343
G1 X162.532 Y144.529 E0.47646
G1 X161.975 Y143.972 E0.0343
G1 X161.975 Y156.028 E0.52497
G1 X161.418 Y156.585 E0.0343
G1 X161.418 Y143.415 E0.57348
G1 X160.861 Y142.858 E0.0343
G1 X160.861 Y157.142 E0.62199
G1 X160.304 Y157.7 E0.0343
G1 X160.304 Y142.3 E0.67051
G1 X159.746 Y141.743 E0.0343
G1 X159.746 Y158.257 E0.71902
G1 X159.189 Y158.814 E0.0343
G1 X159.189 Y141.186 E0.76753
G1 X158.632 Y140.629 E0.0343
G1 X158.632 Y159.371 E0.81605
G1 X158.075 Y159.928 E0.0343
G1 X158.075 Y140.072 E0.86456
G1 X157.518 Y139.515 E0.0343
G1 X157.518 Y160.485 E0.91307
G1 X156.961 Y161.042 E0.0343
G1 X156.961 Y138.958 E0.96158
G1 X156.404 Y138.401 E0.0343
G1 X156.404 Y161.599 E1.0101
G1 X155.847 Y162.156 E0.0343
G1 X155.847 Y137.844 E1.05861
G1 X155.29 Y137.287 E0.0343
G1 X155.29 Y162.713 E1.10712
G1 X154.733 Y163.27 E0.0343
G1 X154.733 Y136.73 E1.15564
G1 X154.176 Y136.173 E0.0343
G1 X154.176 Y163.827 E1.20415
G1 X153.619 Y164.384 E0.0343
G1 X153.619 Y135.616 E1.25266
G1 X153.062 Y135.058 E0.0343
G1 X153.062 Y164.942 E1.30117
G1 X152.504 Y165.499 E0.0343
G1 X152.504 Y134.501 E1.34969
G1 X151.947 Y133.944 E0.0343
G1 X151.947 Y166.056 E1.3982
G1 X151.39 Y166.613 E0.0343
G1 X151.39 Y133.387 E1.44671
G1 X150.833 Y132.83 E0.0343
G1 X150.833 Y167.17 E1.49522
G1 X150.276 Y167.727 E0.0343
G1 X150.276 Y132.273 E1.54374
G1 X150 Y131.997 E0.017
G1 X149.719 Y132.278 E0.0173
G1 X149.719 Y167.722 E1.54332
G1 X149.162 Y167.165 E0.0343
G1 X149.162 Y132.835 E1.49481
G1 X148.605 Y133.392 E0.0343
G1 X148.605 Y166.608 E1.44629
G1 X148.048 Y166.051 E0.0343
G1 X148.048 Y133.949 E1.39778
G1 X147.491 Y134.506 E0.0343
G1 X147.491 Y165.494 E1.34927
G1 X146.934 Y164.937 E0.0343
G1 X146.934 Y135.063 E1.30076
G1 X146.377 Y135.62 E0.0343
G1 X146.377 Y164.38 E1.25224
G1 X145.82 Y163.823 E0.0343
G1 X145.82 Y136.177 E1.20373
G1 X145.262 Y136.734 E0.0343
G1 X145.262 Y163.266 E1.15522
G1 X144.705 Y162.708 E0.0343
G1 X144.705 Y137.292 E1.1067
G1 X144.148 Y137.849 E0.0343
G1 X144.148 Y162.151 E1.05819
G1 X143.591 Y161.594 E0.0343
G1 X143.591 Y138.406 E1.00968
G1 X143.034 Y138.963 E0.0343
G1 X143.034 Y161.037 E0.96117
G1 X142.477 Y160.48 E0.0343
G1 X142.477 Y139.52 E0.91265
G1 X141.92 Y140.077 E0.0343
G1 X141.92 Y159.923 E0.86414
G1 X141.363 Y159.366 E0.0343
G1 X141.363 Y140.634 E0.81563
G1 X140.806 Y141.191 E0.0343
G1 X140.806 Y158.809 E0.76712
G1 X140.249 Y158.252 E0.0343
G1 X140.249 Y141.748 E0.7186
G1 X139.692 Y142.305 E0.0343
G1 X139.692 Y157.695 E0.67009
G1 X139.135 Y157.138 E0.0343
G1 X139.135 Y142.862 E0.62158
G1 X138.577 Y143.419 E0.0343
G1 X138.577 Y156.581 E0.57306
G1 X138.02 Y156.023 E0.0343
G1 X138.02 Y143.977 E0.52455
G1 X137.463 Y144.534 E0.0343
G1 X137.463 Y155.466 E0.47604
G1 X136.906 Y154.909 E0.0343
G1 X136.906 Y145.091 E0.42753
G1 X136.349 Y145.648 E0.0343
G1 X136.349 Y154.352 E0.37901
G1 X135.792 Y153.795 E0.0343
G1 X135.792 Y146.205 E0.3305
G1 X135.235 Y146.762 E0.0343
G1 X135.235 Y153.238 E0.28199
G1 X134.678 Y152.681 E0.0343
G1 X134.678 Y147.319 E0.23347
G1 X134.121 Y147.876 E0.0343
G1 X134.121 Y152.124 E0.18496
G1 X133.564 Y151.567 E0.0343
G1 X133.564 Y148.433 E0.13645
G1 X133.007 Y148.99 E0.0343
G1 X133.007 Y151.01 E0.08794
G1 X132.45 Y150.453 E0.0343
G1 X132.45 Y149.209 E0.05417
;LAYER_CHANGE
;Z:0.6
;HEIGHT:0.2
;BEFORE_LAYER_CHANGE
;0.6


; stop printing object Shape-Box id:0 copy 0
EXCLUDE_OBJECT_END NAME=Shape_Box_id_0_copy_0
G1 Z0.6 F24000
;AFTER_LAYER_CHANGE
;0.6
G92 E0
; printing object Shape-Box id:0 copy 0
EXCLUDE_OBJECT_START NAME=Shape_Box_id_0_copy_0
G1 X150 Y169.135
;TYPE:Internal perimeter
;WIDTH:0.5
G1 F7526
G1 X130.865 Y150 E0.96676
G1 X150 Y130.865 E0.96676
G1 X169.135 Y150 E0.96676
G1 X150.042 Y169.092 E0.96462
G1 X150 Y169.781 F24000
G1 F7526
G1 X130.219 Y150 E0.99942
G1 X150 Y130.219 E0.99942
G1 X169.781 Y150 E0.99942
G1 X150.042 Y169.739 E0.99728
G1 X150 Y170.428 F24000
G1 F7526
G1 X129.572 Y150 E1.03208
G1 X150 Y129.572 E1.03208
G1 X170.428 Y150 E1.03208
G1 X150.042 Y170.385 E1.02994
G1 X150 Y171.074 F24000
;TYPE:External perimeter
G1 F6000
G1 X128.926 Y150 E1.06474
G1 X129.014 Y149.912 E0.00399
G1 X129.191 Y149.735 E0.00845
G1 X150 Y128.926 E1.05134
G1 X150.088 Y129.014 E0.00399
G1 X150.265 Y129.191 E0.00845
G1 X171.074 Y150 E1.05134
G1 X170.986 Y150.088 E0.00399
G1 X170.809 Y150.265 E0.00845
G1 X150.042 Y171.031 E1.0492
;WIPE_START
G1 X149.896 Y170.688 F24000
;WIPE_END
G1 X150 Y168.991
;TYPE:Internal infill
;WIDTH:0.6
G1 F7526
G1 X150 Y131.009 E1.65384
G1 X152.653 Y133.661 F24000
G1 F7526
G1 X152.653 Y166.339 E1.42283
G1 X153.075 Y165.917 F24000
G1 F7526
G1 X146.925 Y165.917 E0.26776
G1 X147.347 Y166.339 F24000
G1 F7526
G1 X147.347 Y133.661 E1.42283
G1 X146.925 Y134.083 F24000
G1 F7526
G1 X153.075 Y134.083 E0.26776
G1 X155.306 Y136.314 F24000
G1 F7526
G1 X155.306 Y163.686 E1.19181
G1 X155.727 Y163.264 F24000
G1 F7526
G1 X144.273 Y163.264 E0.49877
G1 X144.694 Y163.686 F24000
G1 F7526
G1 X144.694 Y136.314 E1.19181
G1 X144.273 Y136.736 F24000
G1 F7526
G1 X155.727 Y136.736 E0.49877
G1 X157.958 Y138.967 F24000
G1 F7526
G1 X157.958 Y161.033 E0.9608
G1 X158.38 Y160.611 F24000
G1 F7526
G1 X141.62 Y160.611 E0.72979
G1 X142.042 Y161.033 F24000
G1 F7526
G1 X142.042 Y138.967 E0.9608
G1 X141.62 Y139.389 F24000
G1 F7526
G1 X158.38 Y139.389 E0.72979
G1 X160.611 Y141.62 F24000
G1 F7526
G1 X160.611 Y158.38 E0.72979
G1 X161.033 Y157.958 F24000
G1 F7526
G1 X138.967 Y157.958 E0.9608
G1 X139.389 Y158.38 F24000
G1 F7526
G1 X139.389 Y141.62 E0.72979
G1 X138.967 Y142.042 F24000
G1 F7526
G1 X161.033 Y142.042 E0.9608
G1 X163.264 Y144.273 F24000
G1 F7526
G1 X163.264 Y155.727 E0.49877
G1 X163.686 Y155.306 F24000
G1 F7526
G1 X136.314 Y155.306 E1.19181
G1 X136.736 Y155.727 F24000
G1 F7526
G1 X136.736 Y144.273 E0.49877
G1 X136.314 Y144.694 F24000
G1 F7526
G1 X163.686 Y144.694 E1.19181
G1 X165.917 Y146.925 F24000
G1 F7526
G1 X165.917 Y153.075 E0.26776
G1 X166.339 Y152.653 F24000
G1 F7526
G1 X133.661 Y152.653 E1.42283
G1 X134.083 Y153.075 F24000
G1 F7526
G1 X134.083 Y146.925 E0.26776
G1 X133.661 Y147.347 F24000
G1 F7526
G1 X166.339 Y147.347 E1.42283
G1 X168.991 Y150 F24000
G1 F7526
G1 X131.009 Y150 E1.65384
M106 S102
;LAYER_CHANGE
;Z:0.8
;HEIGHT:0.2
;BEFORE_LAYER_CHANGE
;0.8


; stop printing object Shape-Box id:0 copy 0
