; File Parsed By Flow Comp Script
; Script Ver. V0.7.0
; Flow Model Ver. V0.2.0
; Logger Ver. V0.0.1
; Flow Comp Model Points:
; (0, 0)
; (0.2, 0.4444)
; (0.4, 0.6145)
; (0.6, 0.7059)
; (0.8, 0.7619)
; (1.5, 0.8571)
; (2, 0.8889)
; (3, 0.9231)
; (5, 0.952)
; (10, 1)

; generated by A3dp-Slicer 2.5 on 2023-09-15 at 05:36:36 UTC


;
;

;
;
; 

; external perimeters extrusion width = 0.50mm
; perimeters extrusion width = 0.50mm
; infill extrusion width = 0.50mm
; solid infill extrusion width = 0.50mm
; top infill extrusion width = 0.50mm
; first layer extrusion width = 0.50mm

; object:{"name":"Shape-Box","id":"Shape-Box id:0 copy 0","object_center":[61.808986,43.011858,0.000000],"boundingbox_center":[61.808986,43.011858,1.500000],"boundingbox_size":[42.426407,42.426407,3.000000]}
EXCLUDE_OBJECT_DEFINE NAME=Shape_Box_id_0_copy_0 CENTER=61.808986,43.011858 POLYGON=[[40.595784,43.011856],[61.808988,21.798652],[83.022184,43.011856],[61.808988,64.225060],[40.595784,43.011856]]
; plater:{"center":[61.808986,43.011858,0.000000],"boundingbox_center":[61.808986,43.011858,1.500000],"boundingbox_size":[42.426407,42.426407,3.000000]}

;TYPE:Custom
PRINT_START EXTRUDER=310 BED=125 AREA_START=34.2568,15.4597 AREA_END=89.3611,70.564
M107
G21 ; set units to millimeters
G90 ; use absolute coordinates
M83 ; use relative distances for extrusion
;_BEFORE_TOOLCHANGE 0
;_TOOLCHANGE 0
M104 S310 ; set temperature
M109 S310 ; set temperature and wait for it to be reached
M190 S125 ; set bed temperature and wait for it to be reached
M107
;LAYER_CHANGE
;Z:0.2
;HEIGHT:0.2
;BEFORE_LAYER_CHANGE
TIMELAPSE_TAKE_FRAME
;0.2


G1 Z0.2 F48000
;AFTER_LAYER_CHANGE
;0.2
G92 E0
SET_PRESSURE_ADVANCE ADVANCE=0.01
G1 E-0.8 F3600
G1 Z0.3 F48000
M204 S5000
G1 X37.695 Y37.695
G1 Z0.2
G1 E0.8 F3600
;TYPE:Skirt
;WIDTH:0.6
G1 F1800
G1 X36.504 Y38.885 E0.06552
G1 X35.104 Y41.138 E0.10319
G1 X34.801 Y43.268 E0.08371
G1 X35.289 Y45.363 E0.08371
G1 X36.504 Y47.138 E0.08371
G1 X57.683 Y68.317 E1.16538
G1 X59.935 Y69.717 E0.10319
G1 X62.065 Y70.02 E0.08371
G1 X64.16 Y69.531 E0.08371
G1 X65.935 Y68.317 E0.08371
G1 X87.114 Y47.138 E1.16538
G1 X88.514 Y44.886 E0.10319
G1 X88.817 Y42.756 E0.08371
G1 X88.329 Y40.661 E0.08371
G1 X87.114 Y38.885 E0.08371
G1 X65.935 Y17.707 E1.16538
G1 X63.683 Y16.307 E0.10319
G1 X61.553 Y16.003 E0.08371
G1 X59.458 Y16.492 E0.08371
G1 X57.683 Y17.707 E0.08371
G1 X37.748 Y37.642 E1.09695
G1 X38.142 Y38.036 F48000
G1 F1800
G1 X36.898 Y39.279 E0.06843
G1 X35.737 Y41.033 E0.08182
G1 X35.352 Y43.041 E0.07958
G1 X35.76 Y45.045 E0.07958
G1 X36.898 Y46.744 E0.07958
G1 X58.076 Y67.923 E1.16538
G1 X59.83 Y69.084 E0.08182
G1 X61.838 Y69.469 E0.07958
G1 X63.843 Y69.061 E0.07958
G1 X65.541 Y67.923 E0.07958
G1 X86.72 Y46.744 E1.16538
G1 X87.881 Y44.991 E0.08182
G1 X88.266 Y42.983 E0.07958
G1 X87.858 Y40.978 E0.07958
G1 X86.72 Y39.279 E0.07958
G1 X65.541 Y18.101 E1.16538
G1 X63.788 Y16.94 E0.08182
G1 X61.78 Y16.555 E0.07958
G1 X59.775 Y16.962 E0.07958
G1 X58.076 Y18.101 E0.07958
G1 X38.195 Y37.983 E1.09403
G1 E-0.08 F3600
;WIPE_START
G1 F38400
M204 S10000
G1 X43.625 Y32.552 E-0.684
;WIPE_END
G1 E-0.036 F3600
G1 Z0.3 F48000
; printing object Shape-Box id:0 copy 0
EXCLUDE_OBJECT_START NAME=Shape_Box_id_0_copy_0
; acceleration to travel
G1 X74.486 Y41.414
; decel to extrusion
M204 S5000
G1 X80.048 Y43.012
; end travel
G1 Z0.2
G1 E0.8 F3600
;TYPE:Internal perimeter
;WIDTH:0.5
G1 F1800
G1 X61.809 Y61.251 E0.82349
G1 X43.57 Y43.012 E0.82349
G1 X61.809 Y24.773 E0.82349
G1 X79.995 Y42.959 E0.82109
G1 X80.695 Y43.012 F48000
G1 F1800
G1 X61.809 Y61.897 E0.85267
G1 X42.923 Y43.012 E0.85267
G1 X61.809 Y24.126 E0.85267
G1 X80.642 Y42.959 E0.85028
G1 X81.341 Y43.012 F48000
G1 F1800
G1 X61.809 Y62.544 E0.88185
G1 X42.277 Y43.012 E0.88185
G1 X61.809 Y23.48 E0.88185
G1 X81.288 Y42.959 E0.87946
G1 X81.987 Y43.012 F48000
G1 F1800
G1 X61.809 Y63.19 E0.91104
G1 X41.631 Y43.012 E0.91104
G1 X61.809 Y22.833 E0.91104
G1 X81.934 Y42.959 E0.90865
G1 X82.634 Y43.012 F48000
;TYPE:External perimeter
G1 F1800
G1 X61.809 Y63.837 E0.94022
G1 X40.984 Y43.012 E0.94022
G1 X61.809 Y22.187 E0.94022
G1 X82.581 Y42.959 E0.93783
;WIPE_START
M204 S10000
G1 X82.151 Y43.141 F48000
;WIPE_END
G1 E-0.08 F3600
;WIPE_START
G1 F38400
G1 X76.72 Y48.572 E-0.684
;WIPE_END
G1 E-0.036 F3600
G1 Z0.3 F48000
; acceleration to travel
G1 X63.722 Y58.859
; decel to extrusion
M204 S5000
G1 X61.373 Y60.718
; end travel
G1 Z0.2
G1 E0.8 F3600
;TYPE:Solid infill
;WIDTH:0.493627
G1 F3000
G1 X61.967 Y60.718 E0.01318; Old Flow Value: 0.01873   Length: 0.59400
G1 X62.424 Y60.261 E0.01471; Old Flow Value: 0.02037   Length: 0.64629
G1 X61.194 Y60.261 E0.03224; Old Flow Value: 0.03878   Length: 1.23000
G1 X60.737 Y59.804 E0.01471; Old Flow Value: 0.02037   Length: 0.64630
G1 X62.881 Y59.804 E0.06054; Old Flow Value: 0.06759   Length: 2.14400
G1 X63.338 Y59.347 E0.01471; Old Flow Value: 0.02037   Length: 0.64630
G1 X60.28 Y59.347 E0.08912; Old Flow Value: 0.09641   Length: 3.05800
G1 X59.823 Y58.89 E0.01471; Old Flow Value: 0.02037   Length: 0.64629
G1 X63.795 Y58.89 E0.11776; Old Flow Value: 0.12522   Length: 3.97200
G1 X64.253 Y58.433 E0.01471; Old Flow Value: 0.02037   Length: 0.64700
G1 X59.365 Y58.433 E0.14646; Old Flow Value: 0.15403   Length: 4.88800
G1 X58.908 Y57.976 E0.01471; Old Flow Value: 0.02037   Length: 0.64629
G1 X64.71 Y57.976 E0.17552; Old Flow Value: 0.18284   Length: 5.80200
G1 X65.167 Y57.518 E0.01471; Old Flow Value: 0.02037   Length: 0.64700
G1 X58.451 Y57.518 E0.20507; Old Flow Value: 0.21166   Length: 6.71600
G1 X57.994 Y57.061 E0.01471; Old Flow Value: 0.02037   Length: 0.64630
G1 X65.624 Y57.061 E0.23509; Old Flow Value: 0.24047   Length: 7.63000
G1 X66.081 Y56.604 E0.01471; Old Flow Value: 0.02037   Length: 0.64630
G1 X57.537 Y56.604 E0.26559; Old Flow Value: 0.26928   Length: 8.54400
G1 X57.08 Y56.147 E0.01471; Old Flow Value: 0.02037   Length: 0.64629
G1 X66.538 Y56.147 E0.29658; Old Flow Value: 0.2981   Length: 9.45800
G1 X66.995 Y55.69 E0.01471; Old Flow Value: 0.02037   Length: 0.64630
G1 X56.623 Y55.69 E0.32691; Old Flow Value: 0.32691   Length: 10.37200
G1 X56.166 Y55.233 E0.01471; Old Flow Value: 0.02037   Length: 0.64629
G1 X67.452 Y55.233 E0.35572; Old Flow Value: 0.35572   Length: 11.28600
G1 X67.909 Y54.776 E0.01471; Old Flow Value: 0.02037   Length: 0.64629
G1 X55.709 Y54.776 E0.38453; Old Flow Value: 0.38453   Length: 12.20000
G1 X55.252 Y54.319 E0.01471; Old Flow Value: 0.02037   Length: 0.64630
G1 X68.366 Y54.319 E0.41335; Old Flow Value: 0.41335   Length: 13.11400
G1 X68.823 Y53.862 E0.01471; Old Flow Value: 0.02037   Length: 0.64630
G1 X54.795 Y53.862 E0.44216; Old Flow Value: 0.44216   Length: 14.02800
G1 X54.338 Y53.405 E0.01471; Old Flow Value: 0.02037   Length: 0.64629
G1 X69.28 Y53.405 E0.47097; Old Flow Value: 0.47097   Length: 14.94200
G1 X69.737 Y52.948 E0.01471; Old Flow Value: 0.02037   Length: 0.64629
G1 X53.881 Y52.948 E0.49979; Old Flow Value: 0.49979   Length: 15.85600
G1 X53.423 Y52.491 E0.01471; Old Flow Value: 0.02037   Length: 0.64700
G1 X70.195 Y52.491 E0.5286; Old Flow Value: 0.5286   Length: 16.77200
G1 X70.652 Y52.034 E0.01471; Old Flow Value: 0.02037   Length: 0.64630
G1 X52.966 Y52.034 E0.55741; Old Flow Value: 0.55741   Length: 17.68600
G1 X52.509 Y51.576 E0.01471; Old Flow Value: 0.02037   Length: 0.64700
G1 X71.109 Y51.576 E0.58622; Old Flow Value: 0.58622   Length: 18.60000
G1 X71.566 Y51.119 E0.01471; Old Flow Value: 0.02037   Length: 0.64630
G1 X52.052 Y51.119 E0.61504; Old Flow Value: 0.61504   Length: 19.51400
G1 X51.595 Y50.662 E0.01471; Old Flow Value: 0.02037   Length: 0.64629
G1 X72.023 Y50.662 E0.64385; Old Flow Value: 0.64385   Length: 20.42800
G1 X72.48 Y50.205 E0.01471; Old Flow Value: 0.02037   Length: 0.64629
G1 X51.138 Y50.205 E0.67266; Old Flow Value: 0.67266   Length: 21.34200
G1 X50.681 Y49.748 E0.01471; Old Flow Value: 0.02037   Length: 0.64630
G1 X72.937 Y49.748 E0.70147; Old Flow Value: 0.70147   Length: 22.25600
G1 X73.394 Y49.291 E0.01471; Old Flow Value: 0.02037   Length: 0.64630
G1 X50.224 Y49.291 E0.73029; Old Flow Value: 0.73029   Length: 23.17000
G1 X49.767 Y48.834 E0.01471; Old Flow Value: 0.02037   Length: 0.64630
G1 X73.851 Y48.834 E0.7591; Old Flow Value: 0.7591   Length: 24.08400
G1 X74.308 Y48.377 E0.01471; Old Flow Value: 0.02037   Length: 0.64630
G1 X49.31 Y48.377 E0.78791; Old Flow Value: 0.78791   Length: 24.99800
G1 X48.853 Y47.92 E0.01471; Old Flow Value: 0.02037   Length: 0.64630
G1 X74.765 Y47.92 E0.81673; Old Flow Value: 0.81673   Length: 25.91200
G1 X75.222 Y47.463 E0.01471; Old Flow Value: 0.02037   Length: 0.64629
G1 X48.396 Y47.463 E0.84554; Old Flow Value: 0.84554   Length: 26.82600
G1 X47.938 Y47.006 E0.01471; Old Flow Value: 0.02037   Length: 0.64700
G1 X75.679 Y47.006 E0.87435; Old Flow Value: 0.87435   Length: 27.74100
G1 X76.137 Y46.549 E0.01471; Old Flow Value: 0.02037   Length: 0.64700
G1 X47.481 Y46.549 E0.90316; Old Flow Value: 0.90316   Length: 28.65600
G1 X47.024 Y46.091 E0.01471; Old Flow Value: 0.02037   Length: 0.64700
G1 X76.594 Y46.091 E0.93198; Old Flow Value: 0.93198   Length: 29.57000
G1 X77.051 Y45.634 E0.01471; Old Flow Value: 0.02037   Length: 0.64630
G1 X46.567 Y45.634 E0.96079; Old Flow Value: 0.96079   Length: 30.48400
G1 X46.11 Y45.177 E0.01471; Old Flow Value: 0.02037   Length: 0.64630
G1 X77.508 Y45.177 E0.9896; Old Flow Value: 0.9896   Length: 31.39800
G1 X77.965 Y44.72 E0.01471; Old Flow Value: 0.02037   Length: 0.64629
G1 X45.653 Y44.72 E1.01842; Old Flow Value: 1.01842   Length: 32.31200
G1 X45.196 Y44.263 E0.01471; Old Flow Value: 0.02037   Length: 0.64630
G1 X78.422 Y44.263 E1.04723; Old Flow Value: 1.04723   Length: 33.22600
G1 X78.879 Y43.806 E0.01471; Old Flow Value: 0.02037   Length: 0.64630
G1 X44.739 Y43.806 E1.07604; Old Flow Value: 1.07604   Length: 34.14000
G1 X44.282 Y43.349 E0.01471; Old Flow Value: 0.02037   Length: 0.64629
G1 X79.336 Y43.349 E1.10485; Old Flow Value: 1.10485   Length: 35.05400
G1 X79.673 Y43.012 E0.00981; Old Flow Value: 0.01503   Length: 0.47659
G1 X79.553 Y42.892 E0.00210; Old Flow Value: 0.00534   Length: 0.16970
G1 X44.065 Y42.892 E1.11855; Old Flow Value: 1.11855   Length: 35.48800
G1 X44.522 Y42.435 E0.01471; Old Flow Value: 0.02037   Length: 0.64629
G1 X79.096 Y42.435 E1.08974; Old Flow Value: 1.08974   Length: 34.57400
G1 X78.639 Y41.978 E0.01471; Old Flow Value: 0.02037   Length: 0.64630
G1 X44.979 Y41.978 E1.06092; Old Flow Value: 1.06092   Length: 33.66000
G1 X45.436 Y41.521 E0.01471; Old Flow Value: 0.02037   Length: 0.64630
G1 X78.182 Y41.521 E1.03211; Old Flow Value: 1.03211   Length: 32.74600
G1 X77.725 Y41.064 E0.01471; Old Flow Value: 0.02037   Length: 0.64630
G1 X45.893 Y41.064 E1.0033; Old Flow Value: 1.0033   Length: 31.83200
G1 X46.35 Y40.607 E0.01471; Old Flow Value: 0.02037   Length: 0.64629
G1 X77.268 Y40.607 E0.97449; Old Flow Value: 0.97449   Length: 30.91800
G1 X76.811 Y40.149 E0.01471; Old Flow Value: 0.02037   Length: 0.64700
G1 X46.807 Y40.149 E0.94567; Old Flow Value: 0.94567   Length: 30.00400
G1 X47.264 Y39.692 E0.01471; Old Flow Value: 0.02037   Length: 0.64629
G1 X76.354 Y39.692 E0.91686; Old Flow Value: 0.91686   Length: 29.09000
G1 X75.897 Y39.235 E0.01471; Old Flow Value: 0.02037   Length: 0.64629
G1 X47.721 Y39.235 E0.88805; Old Flow Value: 0.88805   Length: 28.17600
G1 X48.178 Y38.778 E0.01471; Old Flow Value: 0.02037   Length: 0.64630
G1 X75.44 Y38.778 E0.85923; Old Flow Value: 0.85923   Length: 27.26200
G1 X74.983 Y38.321 E0.01471; Old Flow Value: 0.02037   Length: 0.64630
G1 X48.635 Y38.321 E0.83042; Old Flow Value: 0.83042   Length: 26.34800
G1 X49.092 Y37.864 E0.01471; Old Flow Value: 0.02037   Length: 0.64630
G1 X74.526 Y37.864 E0.80161; Old Flow Value: 0.80161   Length: 25.43400
G1 X74.068 Y37.407 E0.01471; Old Flow Value: 0.02037   Length: 0.64700
G1 X49.55 Y37.407 E0.7728; Old Flow Value: 0.7728   Length: 24.51800
G1 X50.007 Y36.95 E0.01471; Old Flow Value: 0.02037   Length: 0.64630
G1 X73.611 Y36.95 E0.74398; Old Flow Value: 0.74398   Length: 23.60400
G1 X73.154 Y36.493 E0.01471; Old Flow Value: 0.02037   Length: 0.64630
G1 X50.464 Y36.493 E0.71517; Old Flow Value: 0.71517   Length: 22.69000
G1 X50.921 Y36.036 E0.01471; Old Flow Value: 0.02037   Length: 0.64630
G1 X72.697 Y36.036 E0.68636; Old Flow Value: 0.68636   Length: 21.77600
G1 X72.24 Y35.579 E0.01471; Old Flow Value: 0.02037   Length: 0.64630
G1 X51.378 Y35.579 E0.65754; Old Flow Value: 0.65754   Length: 20.86200
G1 X51.835 Y35.122 E0.01471; Old Flow Value: 0.02037   Length: 0.64629
G1 X71.783 Y35.122 E0.62873; Old Flow Value: 0.62873   Length: 19.94800
G1 X71.326 Y34.665 E0.01471; Old Flow Value: 0.02037   Length: 0.64630
G1 X52.292 Y34.665 E0.59992; Old Flow Value: 0.59992   Length: 19.03400
G1 X52.749 Y34.207 E0.01471; Old Flow Value: 0.02037   Length: 0.64700
G1 X70.869 Y34.207 E0.57111; Old Flow Value: 0.57111   Length: 18.12000
G1 X70.412 Y33.75 E0.01471; Old Flow Value: 0.02037   Length: 0.64630
G1 X53.206 Y33.75 E0.54229; Old Flow Value: 0.54229   Length: 17.20600
G1 X53.663 Y33.293 E0.01471; Old Flow Value: 0.02037   Length: 0.64629
G1 X69.955 Y33.293 E0.51348; Old Flow Value: 0.51348   Length: 16.29200
G1 X69.498 Y32.836 E0.01471; Old Flow Value: 0.02037   Length: 0.64630
G1 X54.12 Y32.836 E0.48467; Old Flow Value: 0.48467   Length: 15.37800
G1 X54.577 Y32.379 E0.01471; Old Flow Value: 0.02037   Length: 0.64629
G1 X69.041 Y32.379 E0.45586; Old Flow Value: 0.45586   Length: 14.46400
G1 X68.583 Y31.922 E0.01471; Old Flow Value: 0.02037   Length: 0.64700
G1 X55.034 Y31.922 E0.42704; Old Flow Value: 0.42704   Length: 13.54900
G1 X55.492 Y31.465 E0.01471; Old Flow Value: 0.02037   Length: 0.64700
G1 X68.126 Y31.465 E0.39823; Old Flow Value: 0.39823   Length: 12.63400
G1 X67.669 Y31.008 E0.01471; Old Flow Value: 0.02037   Length: 0.64630
G1 X55.949 Y31.008 E0.36942; Old Flow Value: 0.36942   Length: 11.72000
G1 X56.406 Y30.551 E0.01471; Old Flow Value: 0.02037   Length: 0.64629
G1 X67.212 Y30.551 E0.3406; Old Flow Value: 0.3406   Length: 10.80600
G1 X66.755 Y30.094 E0.01471; Old Flow Value: 0.02037   Length: 0.64630
G1 X56.863 Y30.094 E0.31147; Old Flow Value: 0.31179   Length: 9.89200
G1 X57.32 Y29.637 E0.01471; Old Flow Value: 0.02037   Length: 0.64630
G1 X66.298 Y29.637 E0.28026; Old Flow Value: 0.28298   Length: 8.97800
G1 X65.841 Y29.18 E0.01471; Old Flow Value: 0.02037   Length: 0.64629
G1 X57.777 Y29.18 E0.24953; Old Flow Value: 0.25417   Length: 8.06400
G1 X58.234 Y28.722 E0.01471; Old Flow Value: 0.02037   Length: 0.64700
G1 X65.384 Y28.722 E0.21927; Old Flow Value: 0.22535   Length: 7.15000
G1 X64.927 Y28.265 E0.01471; Old Flow Value: 0.02037   Length: 0.64630
G1 X58.691 Y28.265 E0.18950; Old Flow Value: 0.19654   Length: 6.23600
G1 X59.148 Y27.808 E0.01471; Old Flow Value: 0.02037   Length: 0.64629
G1 X64.47 Y27.808 E0.16022; Old Flow Value: 0.16773   Length: 5.32200
G1 X64.013 Y27.351 E0.01471; Old Flow Value: 0.02037   Length: 0.64630
G1 X59.605 Y27.351 E0.13138; Old Flow Value: 0.13891   Length: 4.40800
G1 X60.062 Y26.894 E0.01471; Old Flow Value: 0.02037   Length: 0.64630
G1 X63.556 Y26.894 E0.10273; Old Flow Value: 0.1101   Length: 3.49400
G1 X63.099 Y26.437 E0.01471; Old Flow Value: 0.02037   Length: 0.64630
G1 X60.519 Y26.437 E0.07413; Old Flow Value: 0.08129   Length: 2.58000
G1 X60.977 Y25.98 E0.01471; Old Flow Value: 0.02037   Length: 0.64700
G1 X62.641 Y25.98 E0.04562; Old Flow Value: 0.05248   Length: 1.66400
G1 X62.184 Y25.523 E0.01471; Old Flow Value: 0.02037   Length: 0.64630
G1 X61.156 Y25.523 E0.02607; Old Flow Value: 0.03242   Length: 1.02800
M106 S165.75
;LAYER_CHANGE
;Z:0.44
;HEIGHT:0.24
;BEFORE_LAYER_CHANGE
TIMELAPSE_TAKE_FRAME
;0.44


; stop printing object Shape-Box id:0 copy 0
EXCLUDE_OBJECT_END NAME=Shape_Box_id_0_copy_0
M204 S10000
G1 Z0.44 F48000
;AFTER_LAYER_CHANGE
;0.44
G92 E0
; printing object Shape-Box id:0 copy 0
EXCLUDE_OBJECT_START NAME=Shape_Box_id_0_copy_0
G1 X80.167 Y43.012
;TYPE:Internal perimeter
;WIDTH:0.5
G1 F4500
G1 X61.809 Y61.37 E0.97596
