; generated by A3dp-Slicer 2.5 on 2022-11-20 at 04:37:37 UTC


;
;

;
;
; 

; external perimeters extrusion width = 0.52mm
; perimeters extrusion width = 0.56mm
; infill extrusion width = 0.70mm
; solid infill extrusion width = 0.70mm
; top infill extrusion width = 0.47mm
; first layer extrusion width = 0.60mm

; object:{"name":"Sidewinder_X1_Waggster_mod_BLtouch_fan_duct","id":"Sidewinder_X1_Waggster_mod_BLtouch_fan_duct.stl id:0 copy 0","object_center":[146.797690,150.650363,0.000000],"boundingbox_center":[146.797690,150.650363,10.175000],"boundingbox_size":[47.856283,63.945086,20.350001]}
; plater:{"center":[146.797690,150.650363,0.000000],"boundingbox_center":[146.797690,150.650363,10.175000],"boundingbox_size":[47.856283,63.945086,20.350001]}

;TYPE:Custom
PRINT_START EXTRUDER=260 BED=110
M107
G21 ; set units to millimeters
G90 ; use absolute coordinates
M83 ; use relative distances for extrusion
SET_PRESSURE_ADVANCE SMOOTH_TIME=0.03
SET_PRESSURE_ADVANCE ADVANCE=0.06
;_TOOLCHANGE 0
M104 S260 ; set temperature
M109 S260 ; set temperature and wait for it to be reached
M190 S110 ; set bed temperature and wait for it to be reached
M107
;LAYER_CHANGE
;Z:0.3
;HEIGHT:0.3
;BEFORE_LAYER_CHANGE
;0.3


G1 Z0.3 F36000
;AFTER_LAYER_CHANGE
;0.3
G92 E0
G1 E-0.6 F2400
M204 S10000
G1 X121.681 Y143.859 F36000
G1 E0.6 F2400
;TYPE:Skirt
;WIDTH:0.6
G1 F7467.9879
G1 X124.735 Y141.466 E0.22811
G1 X129.625 Y138.975 E0.3226
G1 X135.338 Y137.394 E0.34847
G1 X136.433 Y137.304 E0.0646
G1 X138.014 Y135.723 E0.13146
G1 X138.298 Y135.288 E0.03052
G1 X142.552 Y131.062 E0.35254
G1 X143.341 Y130.57 E0.05465
G1 X144.207 Y130.252 E0.05421
G1 X146.08 Y130.183 E0.11023
G1 X147.019 Y130.449 E0.05738
G1 X148.181 Y131.122 E0.07892
G1 X174.084 Y157.025 E2.1536
G1 X174.806 Y158.25 E0.08358
G1 X175.099 Y159.208 E0.05887
G1 X175.173 Y160.371 E0.0685
G1 X175.075 Y161.228 E0.05072
G1 X174.196 Y163.031 E0.11792
G1 X168.189 Y169.058 E0.50027
G1 X168.101 Y170.143 E0.06396
G1 X166.68 Y175.445 E0.32273
G1 X163.783 Y181.133 E0.37526
G1 X161.604 Y183.843 E0.20442
G1 X159.989 Y185.223 E0.12489
G1 X158.049 Y186.283 E0.12999
G1 X155.933 Y186.912 E0.12974
G1 X153.209 Y187.051 E0.16037
G1 X151.219 Y186.697 E0.11879
G1 X149.347 Y185.972 E0.11806
G1 X147.311 Y184.636 E0.14315
G1 X145.495 Y182.885 E0.14829
G1 X144.897 Y181.992 E0.06316
G1 X144.542 Y180.998 E0.06209
G1 X144.448 Y179.836 E0.06853
G1 X144.661 Y178.554 E0.0764
G1 X145.058 Y177.64 E0.05859
G1 X145.563 Y176.937 E0.05088
G1 X145.669 Y176.833 E0.00873
G1 X145.538 Y176.474 E0.02252
G1 X145.435 Y175.154 E0.07782
G1 X145.626 Y174.112 E0.06229
G1 X145.956 Y173.325 E0.05018
G1 X147.209 Y171.601 E0.12527
G1 X148.615 Y170.61 E0.10114
G1 X150.032 Y170.241 E0.08605
G1 X149.623 Y169.481 E0.05072
G1 X149.366 Y167.798 E0.10011
G1 X149.753 Y165.669 E0.12718
G1 X150.06 Y164.932 E0.04691
G1 X150.701 Y164.027 E0.06525
G1 X150.034 Y163.548 E0.04826
G1 X149.566 Y162.994 E0.04263
G1 X148.511 Y161.136 E0.1256
G1 X148.302 Y160.475 E0.04078
G1 X148.242 Y159.86 E0.03631
G1 X148.049 Y159.78 E0.01228
G1 X147.48 Y159.402 E0.04013
G1 X146.16 Y158.098 E0.10908
G1 X145.681 Y157.379 E0.0508
G1 X145.625 Y157.251 E0.00822
G1 X144.342 Y156.981 E0.07709
G1 X142.326 Y155.807 E0.13716
G1 X141.455 Y154.784 E0.07898
G1 X141.304 Y154.933 E0.01246
G1 X139.838 Y155.74 E0.09838
G1 X137.907 Y156.115 E0.11563
G1 X136.256 Y155.953 E0.09752
G1 X135.391 Y155.532 E0.05656
G1 X135.011 Y156.852 E0.08075
G1 X133.98 Y158.231 E0.10124
G1 X132.222 Y159.449 E0.12574
G1 X130.38 Y159.922 E0.11181
G1 X128.997 Y159.77 E0.08174
G1 X128.781 Y159.691 E0.01355
G1 X128.544 Y159.939 E0.02012
G1 X127.806 Y160.461 E0.05319
G1 X126.913 Y160.839 E0.05697
G1 X125.187 Y161.053 E0.10224
G1 X124.429 Y160.932 E0.04512
G1 X123.719 Y160.695 E0.04403
G1 X122.994 Y160.305 E0.04841
G1 X120.777 Y158.083 E0.18454
G1 X119.478 Y156.062 E0.14123
G1 X118.688 Y153.851 E0.13801
G1 X118.412 Y151.706 E0.12718
G1 X118.539 Y149.815 E0.11139
G1 X119.005 Y147.973 E0.11169
G1 X120.097 Y145.759 E0.14513
G1 X121.633 Y143.917 E0.14102
G1 X122.034 Y144.263 F36000
G1 F7467.9879
G1 X125.002 Y141.932 E0.22187
G1 X129.844 Y139.465 E0.31947
G1 X135.455 Y137.917 E0.3422
G1 X136.671 Y137.823 E0.07172
G1 X138.434 Y136.06 E0.14655
G1 X138.697 Y135.647 E0.02878
G1 X142.863 Y131.499 E0.34563
G1 X143.552 Y131.063 E0.04792
G1 X144.351 Y130.77 E0.05005
G1 X145.978 Y130.711 E0.09571
G1 X146.784 Y130.931 E0.04909
G1 X147.828 Y131.526 E0.07065
G1 X173.681 Y157.38 E2.14945
G1 X174.327 Y158.493 E0.07568
G1 X174.567 Y159.273 E0.04798
G1 X174.637 Y160.38 E0.06521
G1 X174.548 Y161.118 E0.04371
G1 X173.736 Y162.754 E0.10735
G1 X167.67 Y168.819 E0.50431
G1 X167.577 Y170.028 E0.07125
G1 X166.17 Y175.279 E0.31962
G1 X163.348 Y180.819 E0.36548
G1 X161.203 Y183.488 E0.2013
G1 X159.663 Y184.797 E0.1188
G1 X157.818 Y185.799 E0.12344
G1 X155.812 Y186.389 E0.12291
G1 X153.272 Y186.519 E0.14954
G1 X151.387 Y186.188 E0.11248
G1 X149.616 Y185.508 E0.11153
G1 X147.665 Y184.232 E0.13705
G1 X145.887 Y182.519 E0.14514
G1 X145.391 Y181.78 E0.05233
G1 X145.058 Y180.852 E0.05799
G1 X144.984 Y179.83 E0.06024
G1 X145.183 Y178.677 E0.06878
G1 X145.509 Y177.93 E0.04793
G1 X145.981 Y177.273 E0.04752
G1 X146.305 Y176.981 E0.02564
G1 X146.068 Y176.389 E0.03752
G1 X145.968 Y175.215 E0.06924
G1 X146.147 Y174.238 E0.05842
G1 X146.437 Y173.563 E0.04316
G1 X147.554 Y172.013 E0.11232
G1 X148.883 Y171.076 E0.09559
G1 X150.234 Y170.742 E0.08182
G1 X151.118 Y170.804 E0.05207
G1 X150.79 Y170.495 E0.0265
G1 X150.144 Y169.349 E0.07734
G1 X149.902 Y167.847 E0.08941
G1 X150.26 Y165.845 E0.11961
G1 X150.516 Y165.214 E0.04005
G1 X151.071 Y164.415 E0.05715
G1 X151.638 Y163.946 E0.04324
G1 X151.359 Y163.84 E0.01754
G1 X150.374 Y163.132 E0.07129
G1 X150.019 Y162.708 E0.03254
G1 X149.013 Y160.948 E0.11915
G1 X148.822 Y160.342 E0.03739
G1 X148.746 Y159.48 E0.05085
G1 X148.318 Y159.316 E0.02694
G1 X147.837 Y159.002 E0.03373
G1 X146.557 Y157.737 E0.10584
G1 X146.145 Y157.109 E0.04412
G1 X146.01 Y156.753 E0.02243
G1 X145.882 Y156.755 E0.00753
G1 X144.573 Y156.496 E0.07841
G1 X142.637 Y155.367 E0.13179
G1 X141.737 Y154.286 E0.08269
G1 X141.554 Y153.845 E0.02805
G1 X141.004 Y154.487 E0.0497
G1 X139.617 Y155.25 E0.09304
G1 X137.846 Y155.581 E0.10589
G1 X136.361 Y155.426 E0.08782
G1 X135.089 Y154.778 E0.08389
G1 X134.89 Y154.58 E0.0165
G1 X134.926 Y155.201 E0.03656
G1 X134.552 Y156.572 E0.08355
G1 X133.578 Y157.875 E0.09567
G1 X131.958 Y158.981 E0.11526
G1 X130.39 Y159.384 E0.09522
G1 X129.094 Y159.242 E0.07661
G1 X128.643 Y159.053 E0.02879
G1 X128.212 Y159.517 E0.03727
G1 X127.52 Y160.007 E0.04981
G1 X126.741 Y160.33 E0.0496
G1 X125.232 Y160.518 E0.0894
G1 X124.577 Y160.417 E0.03895
G1 X123.911 Y160.195 E0.04131
G1 X123.284 Y159.853 E0.04195
G1 X121.177 Y157.726 E0.17603
G1 X119.972 Y155.852 E0.131
G1 X119.215 Y153.753 E0.13114
G1 X118.949 Y151.715 E0.12085
G1 X119.071 Y149.875 E0.10839
G1 X119.517 Y148.133 E0.1057
G1 X120.563 Y146.026 E0.13832
G1 X121.986 Y144.321 E0.13057
G1 X122.388 Y144.667 F36000
G1 F7467.9879
G1 X125.268 Y142.397 E0.21559
G1 X130.063 Y139.955 E0.31633
G1 X135.572 Y138.441 E0.33589
G1 X136.909 Y138.342 E0.07884
G1 X138.857 Y136.394 E0.16196
G1 X139.098 Y136.004 E0.02694
G1 X143.174 Y131.935 E0.33859
G1 X143.813 Y131.531 E0.04445
G1 X144.493 Y131.288 E0.04243
G1 X145.88 Y131.239 E0.0816
G1 X146.552 Y131.415 E0.04084
G1 X147.475 Y131.931 E0.06217
G1 X173.277 Y157.733 E2.14517
G1 X173.848 Y158.733 E0.06767
G1 X174.034 Y159.338 E0.03726
G1 X174.101 Y160.389 E0.06186
G1 X174.022 Y161.006 E0.0366
G1 X173.326 Y162.406 E0.09189
G1 X167.15 Y168.582 E0.51348
G1 X167.053 Y169.914 E0.07851
G1 X165.66 Y175.114 E0.31648
G1 X162.913 Y180.505 E0.3557
G1 X160.801 Y183.132 E0.19817
G1 X159.338 Y184.37 E0.11266
G1 X157.588 Y185.314 E0.11689
G1 X155.692 Y185.866 E0.1161
G1 X153.334 Y185.986 E0.13884
G1 X151.553 Y185.678 E0.10621
G1 X149.884 Y185.044 E0.10498
G1 X148.018 Y183.829 E0.13088
G1 X146.28 Y182.154 E0.14192
G1 X145.856 Y181.513 E0.04521
G1 X145.576 Y180.709 E0.05003
G1 X145.518 Y179.886 E0.04849
G1 X145.688 Y178.858 E0.06129
G1 X145.961 Y178.218 E0.04086
G1 X146.398 Y177.611 E0.04398
G1 X146.95 Y177.13 E0.04306
G1 X146.598 Y176.301 E0.05292
G1 X146.505 Y175.207 E0.06457
G1 X146.667 Y174.368 E0.05024
G1 X146.888 Y173.852 E0.03295
G1 X147.962 Y172.364 E0.10789
G1 X149.146 Y171.546 E0.08461
G1 X150.314 Y171.274 E0.07054
G1 X151.341 Y171.361 E0.06055
G1 X152.042 Y171.688 E0.0455
G1 X152.361 Y171.063 E0.04125
G1 X152.083 Y170.942 E0.0178
G1 X151.234 Y170.193 E0.06656
G1 X150.634 Y169.127 E0.0719
G1 X150.437 Y167.897 E0.07324
G1 X150.782 Y165.968 E0.11524
G1 X150.999 Y165.447 E0.03319
G1 X151.487 Y164.754 E0.0498
G1 X152.369 Y164.045 E0.06655
G1 X153.186 Y163.721 E0.05167
G1 X152.585 Y163.7 E0.03541
G1 X151.639 Y163.381 E0.05867
G1 X150.716 Y162.718 E0.06682
G1 X150.449 Y162.388 E0.02495
G1 X149.514 Y160.756 E0.1106
G1 X149.353 Y160.264 E0.03042
G1 X149.272 Y159.353 E0.05375
G1 X149.306 Y159.115 E0.01414
G1 X148.585 Y158.851 E0.04512
G1 X148.153 Y158.568 E0.03034
G1 X146.955 Y157.377 E0.09933
G1 X146.611 Y156.845 E0.03724
G1 X146.371 Y156.171 E0.0421
G1 X145.94 Y156.222 E0.0255
G1 X144.803 Y156.01 E0.06797
G1 X142.948 Y154.929 E0.12622
G1 X142.18 Y153.982 E0.07172
G1 X141.816 Y153.031 E0.05982
G1 X141.778 Y152.278 E0.04436
G1 X141.441 Y153.137 E0.05426
G1 X140.701 Y154.043 E0.06878
G1 X139.4 Y154.758 E0.08725
G1 X138.562 Y154.886 E0.04987
G1 X137.778 Y155.048 E0.04706
G1 X136.56 Y154.926 E0.07198
G1 X135.378 Y154.323 E0.07798
G1 X134.504 Y153.332 E0.07769
G1 X134.416 Y153.139 E0.01243
G1 X134.019 Y153.342 E0.02625
G1 X134.304 Y153.983 E0.04123
G1 X134.396 Y155.111 E0.0665
G1 X134.09 Y156.297 E0.07201
G1 X133.238 Y157.458 E0.08471
G1 X131.695 Y158.512 E0.10985
G1 X130.4 Y158.846 E0.07863
G1 X129.195 Y158.714 E0.07126
G1 X128.448 Y158.376 E0.0482
G1 X128.298 Y158.636 E0.0176
G1 X127.876 Y159.099 E0.03684
G1 X127.282 Y159.526 E0.04302
G1 X126.635 Y159.804 E0.04142
G1 X125.276 Y159.983 E0.08056
G1 X124.682 Y159.891 E0.03533
G1 X124.106 Y159.695 E0.03579
G1 X123.577 Y159.403 E0.03552
G1 X121.579 Y157.37 E0.16759
G1 X120.439 Y155.588 E0.12435
G1 X119.742 Y153.654 E0.12086
G1 X119.485 Y151.723 E0.11453
G1 X119.596 Y149.984 E0.10246
G1 X120.029 Y148.293 E0.10258
G1 X120.995 Y146.344 E0.1279
G1 X122.34 Y144.724 E0.12377
G1 X122.742 Y145.069 F36000
G1 F7467.9879
G1 X125.535 Y142.862 E0.20929
G1 X130.281 Y140.444 E0.31316
G1 X135.688 Y138.964 E0.32953
G1 X137.147 Y138.862 E0.08597
G1 X139.284 Y136.725 E0.17773
G1 X139.5 Y136.359 E0.025
G1 X143.489 Y132.37 E0.3316
G1 X144.023 Y132.025 E0.03738
G1 X144.634 Y131.806 E0.03818
G1 X145.787 Y131.768 E0.06778
G1 X146.325 Y131.902 E0.03265
G1 X147.123 Y132.337 E0.05343
G1 X172.872 Y158.086 E2.14074
G1 X173.366 Y158.97 E0.05955
G1 X173.502 Y159.404 E0.02675
G1 X173.565 Y160.396 E0.05843
G1 X173.498 Y160.891 E0.02935
G1 X172.917 Y162.058 E0.07662
G1 X166.63 Y168.345 E0.52271
G1 X166.529 Y169.8 E0.08576
G1 X165.149 Y174.948 E0.31332
G1 X162.479 Y180.191 E0.34591
G1 X160.4 Y182.776 E0.19502
G1 X159.015 Y183.942 E0.10645
G1 X157.361 Y184.828 E0.11033
G1 X155.574 Y185.343 E0.10931
G1 X153.395 Y185.453 E0.12828
G1 X151.718 Y185.168 E0.09998
G1 X150.151 Y184.579 E0.09841
G1 X148.371 Y183.426 E0.12466
G1 X146.674 Y181.789 E0.13861
G1 X146.323 Y181.249 E0.03787
G1 X146.094 Y180.57 E0.0421
G1 X146.051 Y179.94 E0.03715
G1 X146.195 Y179.034 E0.05396
G1 X146.414 Y178.506 E0.03357
G1 X146.814 Y177.949 E0.04032
G1 X147.247 Y177.575 E0.03362
G1 X147.726 Y177.323 E0.03184
G1 X147.519 Y177.093 E0.01818
G1 X147.128 Y176.211 E0.0567
G1 X147.042 Y175.2 E0.05966
G1 X147.186 Y174.502 E0.04187
G1 X147.34 Y174.142 E0.02306
G1 X148.368 Y172.715 E0.10336
G1 X149.404 Y172.018 E0.07341
G1 X150.31 Y171.811 E0.05466
G1 X151.245 Y171.89 E0.05514
G1 X152.279 Y172.403 E0.06785
G1 X153.111 Y170.77 E0.10779
G1 X152.396 Y170.505 E0.04485
G1 X151.675 Y169.885 E0.05592
G1 X151.153 Y168.989 E0.06094
G1 X150.972 Y167.946 E0.06225
G1 X151.304 Y166.091 E0.11075
G1 X151.457 Y165.727 E0.02322
G1 X151.854 Y165.147 E0.04131
G1 X152.672 Y164.488 E0.06176
G1 X153.467 Y164.187 E0.04995
G1 X154.069 Y164.171 E0.0354
G1 X153.902 Y163.118 E0.06265
G1 X153.653 Y163.191 E0.01528
G1 X152.716 Y163.179 E0.05506
G1 X151.848 Y162.886 E0.05384
G1 X151.108 Y162.352 E0.05369
G1 X150.902 Y162.101 E0.01905
G1 X150.012 Y160.558 E0.10478
G1 X149.884 Y160.184 E0.0232
G1 X149.809 Y159.342 E0.04972
G1 X149.929 Y158.683 E0.0394
G1 X149.592 Y158.65 E0.01995
G1 X148.8 Y158.359 E0.04956
G1 X148.474 Y158.139 E0.02313
G1 X147.354 Y157.018 E0.09316
G1 X147.105 Y156.635 E0.02683
G1 X146.843 Y155.901 E0.04587
G1 X146.81 Y155.561 E0.02007
G1 X145.993 Y155.687 E0.04855
G1 X144.948 Y155.492 E0.06254
G1 X143.263 Y154.493 E0.11516
G1 X142.665 Y153.751 E0.05601
G1 X142.332 Y152.882 E0.05471
G1 X142.301 Y151.847 E0.06087
G1 X142.374 Y151.592 E0.01561
G1 X141.321 Y151.427 E0.06263
G1 X141.305 Y152.013 E0.03442
G1 X140.995 Y152.838 E0.05181
G1 X140.392 Y153.602 E0.05725
G1 X139.271 Y154.236 E0.07568
G1 X138.467 Y154.359 E0.04783
G1 X137.711 Y154.515 E0.0454
G1 X136.669 Y154.399 E0.06161
G1 X135.672 Y153.873 E0.06624
G1 X134.943 Y153.02 E0.06598
G1 X134.714 Y152.386 E0.03966
G1 X133.312 Y153.102 E0.09258
G1 X133.774 Y154.075 E0.06334
G1 X133.858 Y155.108 E0.0609
G1 X133.586 Y156.108 E0.06094
G1 X132.899 Y157.042 E0.06816
G1 X131.433 Y158.042 E0.10436
G1 X130.32 Y158.315 E0.06734
G1 X129.303 Y158.188 E0.06023
G1 X128.527 Y157.821 E0.05047
G1 X128.296 Y157.612 E0.01834
G1 X128.171 Y157.765 E0.01168
G1 X127.88 Y158.299 E0.0357
G1 X127.499 Y158.718 E0.03329
G1 X127.039 Y159.048 E0.03331
G1 X126.523 Y159.279 E0.0332
G1 X125.316 Y159.447 E0.07166
G1 X124.832 Y159.376 E0.02879
G1 X124.302 Y159.196 E0.03291
G1 X123.873 Y158.955 E0.02893
G1 X121.981 Y157.016 E0.15926
G1 X120.933 Y155.377 E0.11437
G1 X120.269 Y153.554 E0.11409
G1 X120.021 Y151.731 E0.10815
G1 X120.129 Y150.043 E0.0994
G1 X120.54 Y148.455 E0.09648
G1 X121.46 Y146.611 E0.12114
G1 X122.694 Y145.127 E0.11343
G1 X123.096 Y145.472 F36000
G1 F7467.9879
G1 X125.802 Y143.327 E0.20295
G1 X130.5 Y140.934 E0.30998
G1 X135.803 Y139.488 E0.32312
G1 X137.383 Y139.384 E0.09309
G1 X139.716 Y137.051 E0.19395
G1 X139.905 Y136.711 E0.02287
G1 X143.848 Y132.769 E0.32777
G1 X144.233 Y132.519 E0.02699
G1 X144.775 Y132.325 E0.03388
G1 X145.699 Y132.297 E0.05433
G1 X146.106 Y132.392 E0.02456
G1 X146.773 Y132.744 E0.04437
G1 X172.466 Y158.437 E2.13612
G1 X172.883 Y159.201 E0.05116
G1 X172.979 Y159.527 E0.01996
G1 X173.028 Y160.399 E0.05137
G1 X172.974 Y160.771 E0.02211
G1 X172.507 Y161.71 E0.0616
G1 X166.108 Y168.108 E0.532
G1 X166.005 Y169.687 E0.09298
G1 X164.639 Y174.782 E0.31012
G1 X162.044 Y179.877 E0.33613
G1 X159.999 Y182.42 E0.19185
G1 X158.692 Y183.514 E0.10017
G1 X157.134 Y184.342 E0.10376
G1 X155.456 Y184.819 E0.10253
G1 X153.454 Y184.92 E0.11785
G1 X151.882 Y184.657 E0.09371
G1 X150.367 Y184.087 E0.09518
G1 X148.725 Y183.022 E0.11506
G1 X147.069 Y181.426 E0.13521
G1 X146.794 Y180.991 E0.03025
G1 X146.614 Y180.437 E0.03425
G1 X146.585 Y179.994 E0.02607
G1 X146.719 Y179.151 E0.05023
G1 X146.894 Y178.745 E0.02597
G1 X147.192 Y178.33 E0.03005
G1 X147.525 Y178.034 E0.02619
G1 X148.027 Y177.769 E0.03334
G1 X148.525 Y177.365 E0.03773
G1 X147.986 Y176.825 E0.04485
G1 X147.657 Y176.114 E0.04604
G1 X147.575 Y175.269 E0.04993
G1 X147.706 Y174.636 E0.03797
G1 X147.792 Y174.43 E0.01316
G1 X148.775 Y173.067 E0.09879
G1 X149.572 Y172.529 E0.05651
G1 X150.387 Y172.343 E0.04918
G1 X151.141 Y172.418 E0.04455
G1 X152.511 Y173.127 E0.09068
G1 X153.736 Y170.723 E0.1586
G1 X153.809 Y170.444 E0.01697
G1 X152.701 Y170.062 E0.0689
G1 X152.11 Y169.57 E0.04523
G1 X151.671 Y168.842 E0.04999
G1 X151.508 Y167.99 E0.05095
G1 X151.812 Y166.264 E0.10303
G1 X151.915 Y166.005 E0.01641
G1 X152.274 Y165.482 E0.03729
G1 X152.902 Y164.974 E0.04748
G1 X153.611 Y164.706 E0.04458
G1 X154.691 Y164.707 E0.06352
G1 X154.33 Y162.394 E0.13762
G1 X153.606 Y162.655 E0.04525
G1 X152.84 Y162.656 E0.04499
G1 X152.124 Y162.426 E0.04423
G1 X151.495 Y161.981 E0.04529
G1 X151.354 Y161.813 E0.01288
