; generated by SuperSlicer 2.5.59 on 2022-10-12 at 02:20:41 UTC


;
;

;
;
; 

; external perimeters extrusion width = 0.63mm
; perimeters extrusion width = 0.68mm
; infill extrusion width = 0.84mm
; solid infill extrusion width = 0.84mm
; top infill extrusion width = 0.60mm
; first layer extrusion width = 0.80mm

; external perimeters extrusion width = 0.63mm
; perimeters extrusion width = 0.68mm
; infill extrusion width = 0.84mm
; solid infill extrusion width = 0.84mm
; top infill extrusion width = 0.60mm
; first layer extrusion width = 0.80mm

; object:{"name":"Spool_Adapter","id":"Spool_Adapter.stl id:0 copy 0","object_center":[148.101269,154.061835,0.000000],"boundingbox_center":[148.101269,154.061835,12.500000],"boundingbox_size":[49.209681,40.305087,25.000000]}
; object:{"name":"spool_3030_troodon","id":"spool_3030_troodon.stl id:1 copy 0","object_center":[160.770453,141.419070,0.000000],"boundingbox_center":[160.770453,141.419070,12.500000],"boundingbox_size":[31.466252,31.466252,25.000000]}
; plater:{"center":[150.000004,149.950161,0.000000],"boundingbox_center":[150.000004,149.950161,12.500000],"boundingbox_size":[53.007150,48.528434,25.000000]}

;TYPE:Custom
PRINT_START EXTRUDER=255 BED=115


; Pre-Processed for Cancel-Object support by preprocess_cancellation v0.2.0
; 2 known objects
EXCLUDE_OBJECT_DEFINE NAME=Spool_Adapter_stl_id_0_copy_0 CENTER=150.442,159.575 POLYGON=[[137.351,134.355],[123.942,147.764],[136.032,159.854],[167.803,173.723],[172.261,169.265],[137.351,134.355]]
EXCLUDE_OBJECT_DEFINE NAME=spool_3030_troodon_stl_id_1_copy_0 CENTER=160.759,142.052 POLYGON=[[150.061,125.686],[149.738,125.938],[147.973,127.697],[145.483,130.283],[160.555,149.602],[164.608,153.655],[171.971,156.643],[176.189,152.426],[176.189,151.979],[150.341,125.686],[150.061,125.686]]
M107
G21 ; set units to millimeters
G90 ; use absolute coordinates
M83 ; use relative distances for extrusion
SET_PRESSURE_ADVANCE ADVANCE=0.01
SET_PRESSURE_ADVANCE SMOOTH=0.04

;_TOOLCHANGE 0
M104 S255 ; set temperature
M109 S255 ; set temperature and wait for it to be reached
M190 S115 ; set bed temperature and wait for it to be reached
M107
;LAYER_CHANGE
;Z:0.24
;HEIGHT:0.24
;BEFORE_LAYER_CHANGE
;0.24


G1 Z0.24 F24000
;AFTER_LAYER_CHANGE
;0.24
G92 E0
G1 E-0.6 F3600
M204 S10000
G1 Z0.84 F24000
G1 X130.622 Y130.622
G1 Z0.24
G1 E0.6 F2400
;TYPE:Skirt
;WIDTH:0.675
G1 F5613.5123
G1 X120.104 Y141.14 E0.86062
G1 X119.064 Y142.458 E0.09712
G1 X118.169 Y144.672 E0.1382
G1 X118.05 Y147.058 E0.1382
G1 X118.719 Y149.351 E0.1382
G1 X120.104 Y151.297 E0.1382
G1 X132.394 Y163.587 E1.00559
G1 X134.575 Y165.081 E0.15294
G1 X166.395 Y179.109 E2.012
G1 X167.746 Y179.551 E0.08224
G1 X170.132 Y179.67 E0.1382
G1 X172.425 Y179 E0.1382
G1 X174.371 Y177.616 E0.1382
G1 X177.643 Y174.343 E0.26775
G1 X179.006 Y172.441 E0.13539
G1 X179.692 Y170.153 E0.1382
G1 X181.967 Y151.896 E1.0645
G1 X181.814 Y149.287 E0.15117
G1 X180.864 Y147.096 E0.1382
G1 X179.473 Y145.34 E0.12962
G1 X156.85 Y122.717 E1.85107
G1 X155.189 Y121.381 E0.12332
G1 X152.732 Y120.331 E0.15456
G1 X150.347 Y120.212 E0.1382
G1 X148.054 Y120.882 E0.1382
G1 X134.218 Y127.588 E0.88956
G1 X132.272 Y128.972 E0.13819
G1 X130.686 Y130.559 E0.1298
G1 X131.127 Y130.999 F24000
G1 F5613.5123
G1 X120.545 Y141.581 E0.86583
G1 X118.851 Y144.509 E0.19574
G1 X118.648 Y146.782 E0.13202
G1 X119.237 Y148.987 E0.13202
G1 X120.545 Y150.857 E0.13202
G1 X132.835 Y163.146 E1.00559
G1 X134.827 Y164.51 E0.13967
G1 X166.647 Y178.538 E2.012
G1 X169.856 Y179.071 E0.18822
G1 X172.06 Y178.483 E0.13202
G1 X173.93 Y177.175 E0.13202
G1 X177.202 Y173.902 E0.26775
G1 X178.401 Y172.257 E0.1178
G1 X179.073 Y170.076 E0.13202
G1 X181.349 Y151.819 E1.0645
G1 X181.232 Y149.536 E0.13224
G1 X180.341 Y147.435 E0.13202
G1 X179.032 Y145.78 E0.12208
G1 X156.409 Y123.158 E1.85107
G1 X154.841 Y121.899 E0.11632
G1 X152.797 Y120.987 E0.12952
G1 X150.521 Y120.82 E0.13202
G1 X148.326 Y121.443 E0.13202
G1 X134.49 Y128.149 E0.88956
G1 X132.713 Y129.413 E0.12619
G1 X131.19 Y130.936 E0.1246
G1 X131.631 Y131.377 F24000
G1 F5613.5123
G1 X120.986 Y142.022 E0.87104
G1 X119.544 Y144.366 E0.15919
G1 X119.255 Y146.516 E0.12554
G1 X119.758 Y148.627 E0.12554
G1 X120.986 Y150.416 E0.12554
G1 X133.276 Y162.705 E1.00559
G1 X135.078 Y163.94 E0.12639
G1 X166.898 Y177.968 E2.012
G1 X169.59 Y178.465 E0.15836
G1 X171.7 Y177.962 E0.12554
G1 X173.489 Y176.734 E0.12554
G1 X176.762 Y173.461 E0.26775
G1 X177.797 Y172.067 E0.10051
G1 X178.454 Y169.999 E0.12554
G1 X180.73 Y151.741 E1.0645
G1 X180.647 Y149.78 E0.11359
G1 X179.818 Y147.775 E0.12554
G1 X178.591 Y146.221 E0.11454
G1 X155.968 Y123.599 E1.85107
G1 X154.494 Y122.417 E0.10932
G1 X152.849 Y121.648 E0.10504
G1 X150.69 Y121.431 E0.12554
G1 X148.598 Y122.004 E0.12554
G1 X134.762 Y128.71 E0.88956
G1 X133.154 Y129.854 E0.11419
G1 X131.695 Y131.313 E0.11939
G1 X132.136 Y131.754 F24000
G1 F5613.5123
G1 X121.427 Y142.463 E0.87624
G1 X120.251 Y144.245 E0.12353
G1 X119.871 Y146.261 E0.11871
G1 X120.283 Y148.271 E0.11871
G1 X121.427 Y149.975 E0.11871
G1 X133.717 Y162.265 E1.00559
G1 X135.33 Y163.369 E0.11311
G1 X167.15 Y177.397 E2.012
G1 X169.335 Y177.849 E0.1291
G1 X171.345 Y177.436 E0.11871
G1 X173.048 Y176.293 E0.11871
G1 X176.321 Y173.021 E0.26775
G1 X177.193 Y171.87 E0.08355
G1 X177.836 Y169.922 E0.11871
G1 X180.111 Y151.664 E1.0645
G1 X180.059 Y150.018 E0.09527
G1 X179.295 Y148.114 E0.11871
G1 X178.15 Y146.662 E0.107
G1 X155.527 Y124.039 E1.85107
G1 X154.146 Y122.935 E0.10233
G1 X152.888 Y122.313 E0.0812
G1 X150.854 Y122.044 E0.11871
G1 X148.87 Y122.565 E0.11871
G1 X135.034 Y129.271 E0.88956
G1 X133.595 Y130.295 E0.1022
G1 X132.199 Y131.69 E0.11418
G1 E-0.06 F3600
;WIPE_START
G1 F19200
M204 S3000
G1 X130.163 Y133.727 E-0.513
;WIPE_END
G1 E-0.027 F3600
G1 Z0.84 F24000
; printing object Spool_Adapter.stl id:0 copy 0
EXCLUDE_OBJECT_START NAME=Spool_Adapter_stl_id_0_copy_0
G1 X163.037 Y165.132
G1 Z0.24
G1 E0.6 F2400
;TYPE:Internal perimeter
;WIDTH:0.8
G1 F9000
G1 X147.166 Y158.623 E1.19145
G1 X139.104 Y155.341 E0.60459
G1 X129.982 Y146.219 E0.89601
G1 X137.351 Y138.851 E0.72377
G1 X163.275 Y164.775 E2.54645
G1 X163.087 Y165.057 E0.02356
G1 E-0.06 F3600
;WIPE_START
G1 F19200
G1 X160.417 Y163.978 E-0.513
;WIPE_END
G1 E-0.027 F3600
G1 Z0.84 F24000
G1 X166.257 Y167.304
G1 Z0.24
G1 E0.6 F2400
G1 F9000
G1 X165.036 Y166.761 E0.09282
G1 X146.883 Y159.316 E1.36276
G1 X138.682 Y155.977 E0.61501
G1 X128.924 Y146.219 E0.95851
G1 X137.351 Y137.792 E0.82774
G1 X166.503 Y166.945 E2.86358
G1 X166.308 Y167.23 E0.02401
G1 E-0.06 F3600
;WIPE_START
G1 F19200
G1 X165.036 Y166.761 E-0.24148
G1 X163.625 Y166.182 E-0.27152
;WIPE_END
G1 E-0.027 F3600
G1 Z0.84 F24000
G1 X169.17 Y169.977
G1 Z0.24
G1 E0.6 F2400
G1 F9000
G1 X168.843 Y169.727 E0.02856
G1 X167.863 Y169.065 E0.08215
G1 X166.846 Y168.461 E0.08215
G1 X165.795 Y167.918 E0.08215
G1 X164.741 Y167.449 E0.08012
G1 X146.6 Y160.008 E1.36195
G1 X138.26 Y156.613 E0.62543
G1 X127.865 Y146.219 E1.021
G1 X137.351 Y136.733 E0.93172
G1 X169.882 Y169.265 E3.19545
G1 X169.233 Y169.913 E0.06371
G1 X169.236 Y170.97 F24000
G1 F9000
G1 X168.406 Y170.335 E0.07256
G1 X167.462 Y169.697 E0.0791
G1 X166.483 Y169.116 E0.07911
G1 X165.471 Y168.593 E0.0791
G1 X164.447 Y168.137 E0.07783
G1 X146.316 Y160.701 E1.36113
G1 X137.837 Y157.249 E0.63586
G1 X126.807 Y146.219 E1.08349
G1 X137.351 Y135.675 E1.0357
G1 X170.94 Y169.265 E3.29943
G1 X169.299 Y170.906 E0.16122
G1 X169.274 Y171.989 F24000
;TYPE:External perimeter
G1 F4500
G1 X168.84 Y171.609 E0.04011
G1 X167.968 Y170.943 E0.07619
G1 X167.061 Y170.33 E0.07606
G1 X166.12 Y169.771 E0.07606
G1 X165.147 Y169.268 E0.07606
G1 X164.153 Y168.826 E0.07555
G1 X146.033 Y161.394 E1.36032
G1 X137.497 Y157.919 E0.64016
G1 X137.472 Y157.943 E0.00024
G1 X137.331 Y157.802 E0.01246
G1 X137.048 Y157.519 E0.02635
G1 X125.748 Y146.219 E1.10996
G1 X125.89 Y146.077 E0.0124
G1 X126.173 Y145.795 E0.02629
G1 X137.351 Y134.616 E1.098
G1 X137.492 Y134.758 E0.01246
G1 X137.775 Y135.041 E0.02635
G1 X171.999 Y169.265 E3.36173
G1 X171.858 Y169.406 E0.0124
G1 X171.575 Y169.689 E0.02629
G1 X169.338 Y171.926 E0.21973
;WIPE_START
M204 S10000
G1 X169.093 Y171.417 F24000
;WIPE_END
G1 E-0.06 F3600
;WIPE_START
G1 F19200
G1 X168.144 Y170.699 E-0.21209
G1 X167.222 Y170.076 E-0.19818
G1 X166.726 Y169.782 E-0.10273
;WIPE_END
G1 E-0.027 F3600
G1 Z0.84 F24000
G1 X169.273 Y169.385
G1 Z0.24
G1 E0.6 F2400
;TYPE:Gap fill
;WIDTH:0.437441
G1 F9000
G1 X169.121 Y169.265 E0.00696
G1 X168.895 Y169.079 E0.01047
;WIDTH:0.51178
G1 X168.67 Y168.893 E0.01248
;WIDTH:0.586119
G1 X168.444 Y168.707 E0.0145
;WIDTH:0.664419
G1 X168.219 Y168.521 E0.01662
G1 X168.013 Y168.361 E0.01482
;WIDTH:0.7399
G1 X167.822 Y168.212 E0.01549
;WIDTH:0.815381
G1 F8818.7762
G1 X167.63 Y168.063 E0.01719
;WIDTH:0.890862
G1 F8025.7293
G1 X167.439 Y167.914 E0.01889
;WIDTH:0.973148
G1 F7309.1829
G1 X167.247 Y167.765 E0.02074
G1 X167.14 Y167.687 E0.01138
;WIDTH:1.038891
G1 F6822.5128
G1 X167.055 Y167.624 E0.0097
G1 X166.954 Y167.553 E0.01131
;WIDTH:1.095252
G1 F6454.1098
G1 X166.853 Y167.482 E0.01195
;WIDTH:1.151612
G1 F6123.4554
G1 X166.752 Y167.411 E0.0126
;WIDTH:1.207972
G1 F5825.0297
G1 X166.651 Y167.34 E0.01325
G1 X165.503 Y166.522 F24000
;WIDTH:0.205104
G1 F9000
G1 X165.44 Y166.478 E0.00109
G1 X165.331 Y166.403 E0.00188
;WIDTH:0.302876
G1 X165.222 Y166.329 E0.00308
G1 X165.079 Y166.234 E0.004
;WIDTH:0.376244
G1 X164.94 Y166.141 E0.00505
;WIDTH:0.449596
G1 X164.8 Y166.048 E0.0062
;WIDTH:0.522948
G1 X164.661 Y165.955 E0.00734
;WIDTH:0.5963
G1 X164.521 Y165.862 E0.00848
;WIDTH:0.669653
G1 X164.381 Y165.769 E0.00962
;WIDTH:0.743005
G1 X164.242 Y165.676 E0.01076
;WIDTH:0.816357
G1 F8807.5276
G1 X164.102 Y165.583 E0.0119
;WIDTH:0.889709
G1 F8036.7713
G1 X163.963 Y165.49 E0.01305
;WIDTH:0.963061
G1 F7390.0592
G1 X163.823 Y165.397 E0.01419
G1 X163.728 Y165.334 E0.00964
;WIDTH:1.030113
G1 F6883.7097
G1 X163.633 Y165.271 E0.01035
;WIDTH:1.097165
G1 F6442.2981
G1 X163.538 Y165.208 E0.01106
;WIDTH:1.164217
G1 F6054.0857
G1 X163.443 Y165.145 E0.01177
G1 X162.324 Y164.399 F24000
;WIDTH:0.205103
G1 F9000
G1 X162.26 Y164.357 E0.00109
G1 X162.114 Y164.26 E0.0025
;WIDTH:0.280899
G1 X161.968 Y164.163 E0.00373
;WIDTH:0.356695
G1 X161.823 Y164.066 E0.00496
;WIDTH:0.432491
G1 X161.677 Y163.969 E0.00619
;WIDTH:0.508286
G1 X161.531 Y163.872 E0.00742
;WIDTH:0.584082
G1 X161.386 Y163.775 E0.00865
;WIDTH:0.659878
G1 X161.24 Y163.678 E0.00988
;WIDTH:0.735673
G1 X161.094 Y163.581 E0.01111
;WIDTH:0.811469
G1 F8864.1767
G1 X160.948 Y163.484 E0.01235
;WIDTH:0.887265
G1 F8060.2782
G1 X160.803 Y163.387 E0.01358
;WIDTH:0.96306
G1 F7390.0673
G1 X160.657 Y163.29 E0.01481
G1 X160.562 Y163.227 E0.00964
;WIDTH:1.030113
G1 F6883.7123
G1 X160.467 Y163.163 E0.01035
;WIDTH:1.097166
G1 F6442.2958
G1 X160.372 Y163.1 E0.01106
;WIDTH:1.164218
G1 F6054.081
G1 X160.277 Y163.037 E0.01177
G1 E-0.06 F3600
;WIPE_START
G1 F19200
G1 X160.372 Y163.1 E-0.0203
;WIPE_END
G1 E-0.5197 F3600
G1 Z0.84 F24000
G1 X136.281 Y140.079
G1 Z0.24
G1 E0.6 F2400
;TYPE:Solid infill
;WIDTH:0.8
G1 F7200
G1 X137.965 Y140.079 E0.11701
G1 X138.714 Y140.828 E0.07352
G1 X135.988 Y140.828 E0.18937
G1 X135.239 Y141.576 E0.07352
G1 X139.462 Y141.576 E0.29334
G1 X140.211 Y142.325 E0.07352
G1 X134.491 Y142.325 E0.39732
G1 X133.742 Y143.073 E0.07352
G1 X140.959 Y143.073 E0.5013
G1 X141.708 Y143.822 E0.07352
G1 X132.994 Y143.822 E0.60527
G1 X132.245 Y144.57 E0.07352
G1 X142.456 Y144.57 E0.70925
G1 X143.205 Y145.319 E0.07352
G1 X131.497 Y145.319 E0.81323
G1 X130.748 Y146.067 E0.07352
G1 X143.953 Y146.067 E0.9172
G1 X144.702 Y146.816 E0.07352
G1 X131.193 Y146.816 E0.93828
G1 X131.942 Y147.564 E0.07352
G1 X145.45 Y147.564 E0.93828
G1 X146.199 Y148.313 E0.07352
G1 X132.69 Y148.313 E0.93828
G1 X133.439 Y149.061 E0.07352
G1 X146.947 Y149.061 E0.93828
G1 X147.696 Y149.81 E0.07352
G1 X134.187 Y149.81 E0.93828
G1 X134.936 Y150.558 E0.07352
G1 X148.444 Y150.558 E0.93828
G1 X149.193 Y151.307 E0.07352
G1 X135.684 Y151.307 E0.93828
G1 X136.433 Y152.055 E0.07352
G1 X149.941 Y152.055 E0.93828
G1 X150.69 Y152.804 E0.07352
G1 X137.181 Y152.804 E0.93828
G1 X137.93 Y153.552 E0.07352
G1 X151.438 Y153.552 E0.93828
G1 X152.187 Y154.301 E0.07352
G1 X138.678 Y154.301 E0.93828
G1 X139.35 Y154.972 E0.06595
G1 X139.538 Y155.049 E0.01414
G1 X152.935 Y155.049 E0.93055
G1 X153.684 Y155.798 E0.07352
G1 X141.367 Y155.798 E0.85546
G1 X143.197 Y156.546 E0.1373
G1 X154.432 Y156.546 E0.78038
G1 X155.181 Y157.295 E0.07352
G1 X145.027 Y157.295 E0.70529
G1 X146.856 Y158.043 E0.1373
G1 X155.929 Y158.043 E0.6302
G1 X156.678 Y158.792 E0.07352
G1 X148.686 Y158.792 E0.55512
G1 X150.515 Y159.54 E0.1373
G1 X157.426 Y159.54 E0.48003
G1 X158.175 Y160.288 E0.07352
G1 X152.345 Y160.288 E0.40494
G1 X154.174 Y161.037 E0.1373
G1 X158.923 Y161.037 E0.32986
G1 X159.672 Y161.785 E0.07352
G1 X156.004 Y161.785 E0.25477
G1 X157.833 Y162.534 E0.1373
G1 X160.181 Y162.534 E0.16305
G1 X159.683 Y163.282 E0.06245
G1 X158.813 Y163.282 E0.06041
G1 E-0.06 F3600
;WIPE_START
G1 F19200
M204 S3000
G1 X159.683 Y163.282 E-0.15492
G1 X160.181 Y162.534 E-0.16016
G1 X159.07 Y162.534 E-0.19792
;WIPE_END
G1 E-0.027 F3600
G1 Z0.84 F24000
; stop printing object Spool_Adapter.stl id:0 copy 0
EXCLUDE_OBJECT_END NAME=Spool_Adapter_stl_id_0_copy_0
; printing object spool_3030_troodon.stl id:1 copy 0
EXCLUDE_OBJECT_START NAME=spool_3030_troodon_stl_id_1_copy_0
G1 X165.812 Y149.114
G1 Z0.24
G1 E0.6 F2400
;TYPE:Internal perimeter
G1 F9000
G1 X165.097 Y148.398 E0.07029
G1 X166.335 Y147.159 E0.12169
G1 X167.051 Y147.875 E0.07029
G1 X165.876 Y149.05 E0.11544
G1 E-0.06 F3600
;WIPE_START
G1 F19200
G1 X165.097 Y148.398 E-0.18098
G1 X166.335 Y147.159 E-0.31208
G1 X166.415 Y147.238 E-0.01994
;WIPE_END
G1 E-0.027 F3600
G1 Z0.84 F24000
G1 X170.372 Y151.734
G1 Z0.24
G1 E0.6 F2400
G1 F9000
G1 X167.311 Y148.673 E0.30067
G1 X165.812 Y150.172 E0.14725
G1 X164.038 Y148.398 E0.17427
G1 X165.537 Y146.899 E0.14725
G1 X150.455 Y131.817 E1.48144
G1 X151.254 Y131.019 E0.07842
G1 X171.17 Y150.936 E1.95638
G1 X170.436 Y151.671 E0.07217
G1 X170.372 Y152.793 F24000
G1 F9000
G1 X167.311 Y149.732 E0.30067
G1 X165.812 Y151.231 E0.14725
G1 X162.979 Y148.398 E0.27825
G1 X164.479 Y146.899 E0.14725
G1 X149.397 Y131.817 E1.48144
G1 X151.254 Y129.961 E0.1824
G1 X172.229 Y150.936 E2.06036
G1 X170.436 Y152.729 E0.17615
G1 X170.372 Y153.851 F24000
G1 F9000
G1 X167.311 Y150.79 E0.30067
G1 X165.812 Y152.289 E0.14725
G1 X165.238 Y151.716 E0.05637
G1 X161.921 Y148.398 E0.32586
G1 X163.42 Y146.899 E0.14725
G1 X148.338 Y131.817 E1.48144
G1 X151.254 Y128.902 E0.28637
G1 X173.288 Y150.936 E2.16433
G1 X170.436 Y153.788 E0.28012
G1 X170.372 Y154.91 F24000
;TYPE:External perimeter
G1 F4500
G1 X167.311 Y151.849 E0.30067
G1 X167.17 Y151.99 E0.01246
G1 X166.887 Y152.273 E0.02635
G1 X165.812 Y153.348 E0.10557
G1 X165.671 Y153.207 E0.01246
G1 X165.388 Y152.924 E0.02635
G1 X164.709 Y152.245 E0.06668
G1 X160.862 Y148.398 E0.37785
G1 X161.004 Y148.257 E0.01246
G1 X161.287 Y147.974 E0.02635
G1 X162.361 Y146.899 E0.10557
G1 X162.22 Y146.758 E0.01246
G1 X161.937 Y146.475 E0.02635
G1 X147.28 Y131.817 E1.43977
G1 X147.421 Y131.676 E0.01246
G1 X147.704 Y131.393 E0.02635
G1 X151.237 Y127.86 E0.34708
G1 X151.388 Y127.991 E0.01263
G1 X151.498 Y128.088 E0.00889
G1 X174.102 Y150.692 E2.22032
G1 X174.33 Y150.952 E0.02405
G1 X174.188 Y151.094 E0.01263
G1 X173.906 Y151.376 E0.02652
G1 X170.436 Y154.846 E0.34083
;WIPE_START
M204 S10000
G1 X170.217 Y154.33 F24000
;WIPE_END
G1 E-0.06 F3600
;WIPE_START
G1 F19200
G1 X168.18 Y152.294 E-0.513
;WIPE_END
G1 E-0.027 F3600
G1 Z0.84 F24000
G1 X170.527 Y151.091
G1 Z0.24
G1 E0.6 F2400
;TYPE:Gap fill
;WIDTH:0.489638
G1 F9000
G1 X170.372 Y150.936 E0.00891
G1 X167.58 Y148.144 E0.16053
G1 X167.425 Y147.989 E0.00891
G1 E-0.06 F3600
;WIPE_START
G1 F19200
G1 X167.58 Y148.144 E-0.03902
G1 X169.462 Y150.026 E-0.47398
;WIPE_END
G1 E-0.027 F3600
G1 Z0.84 F24000
G1 X166.221 Y146.785
G1 Z0.24
G1 E0.6 F2400
;WIDTH:0.489642
G1 F9000
G1 X166.144 Y146.708 E0.00445
G1 X166.066 Y146.63 E0.00445
G1 X151.254 Y131.817 E0.8517
G1 X151.176 Y131.74 E0.00445
