; generated by SuperSlicer 2.5.59 on 2022-10-11 at 20:35:55 UTC


;
;

;
;
; 

; external perimeters extrusion width = 0.63mm
; perimeters extrusion width = 0.68mm
; infill extrusion width = 0.84mm
; solid infill extrusion width = 0.84mm
; top infill extrusion width = 0.60mm
; first layer extrusion width = 0.80mm

; external perimeters extrusion width = 0.63mm
; perimeters extrusion width = 0.68mm
; infill extrusion width = 0.84mm
; solid infill extrusion width = 0.84mm
; top infill extrusion width = 0.60mm
; first layer extrusion width = 0.80mm

; object:{"name":"spool_3030_troodon","id":"spool_3030_troodon.stl id:0 copy 0","object_center":[134.752996,163.010647,0.000000],"boundingbox_center":[134.752996,163.010647,12.500000],"boundingbox_size":[31.466252,31.466252,25.000000]}
; object:{"name":"Spool_Adapter","id":"Spool_Adapter.stl id:1 copy 0","object_center":[156.428335,141.408573,0.000000],"boundingbox_center":[156.428335,141.408573,12.500000],"boundingbox_size":[49.209681,40.305087,25.000000]}
; plater:{"center":[150.026523,149.999901,0.000000],"boundingbox_center":[150.026523,149.999901,12.500000],"boundingbox_size":[62.013305,57.487743,25.000000]}

;TYPE:Custom
PRINT_START EXTRUDER=255 BED=115


; Pre-Processed for Cancel-Object support by preprocess_cancellation v0.2.0
; 2 known objects
EXCLUDE_OBJECT_DEFINE NAME=spool_3030_troodon_stl_id_0_copy_0 CENTER=134.741,163.648 POLYGON=[[124.043,147.278],[123.72,147.529],[121.956,149.289],[119.465,151.874],[134.538,171.194],[138.59,175.247],[145.954,178.235],[150.171,174.017],[150.171,173.57],[124.339,147.293],[124.043,147.278]]
EXCLUDE_OBJECT_DEFINE NAME=Spool_Adapter_stl_id_1_copy_0 CENTER=159.091,136.053 POLYGON=[[176.066,121.684],[144.359,135.617],[132.269,147.707],[145.678,161.116],[180.588,126.206],[176.066,121.684]]
M107
G21 ; set units to millimeters
G90 ; use absolute coordinates
M83 ; use relative distances for extrusion
SET_PRESSURE_ADVANCE ADVANCE=0.01
SET_PRESSURE_ADVANCE SMOOTH=0.04

;_TOOLCHANGE 0
M104 S255 ; set temperature
M109 S255 ; set temperature and wait for it to be reached
M190 S115 ; set bed temperature and wait for it to be reached
M107
;LAYER_CHANGE
;Z:0.24
;HEIGHT:0.24
;BEFORE_LAYER_CHANGE
;0.24


G1 Z0.24 F24000
;AFTER_LAYER_CHANGE
;0.24
G92 E0
G1 E-0.6 F3600
M204 S10000
G1 Z0.84 F24000
G1 X120.09 Y143.858
G1 Z0.24
G1 E0.6 F2400
;TYPE:Skirt
;WIDTH:0.675
G1 F5613.5123
G1 X115.618 Y148.33 E0.36594
G1 X113.869 Y151.178 E0.19336
G1 X113.516 Y153.541 E0.1382
G1 X113.956 Y155.888 E0.1382
G1 X115.142 Y157.962 E0.1382
G1 X128.768 Y174.586 E1.24366
G1 X134.673 Y180.54 E0.48517
G1 X137.386 Y182.244 E0.18537
G1 X141.99 Y183.849 E0.28207
G1 X145.194 Y184.2 E0.1865
G1 X147.487 Y183.53 E0.1382
G1 X149.433 Y182.146 E0.1382
G1 X153.902 Y177.677 E0.3656
G1 X154.731 Y176.683 E0.07494
G1 X186.8 Y130.29 E3.26306
G1 X187.906 Y127.752 E0.16015
G1 X188.025 Y125.366 E0.1382
G1 X187.355 Y123.074 E0.1382
G1 X185.97 Y121.127 E0.1382
G1 X182.698 Y117.855 E0.26775
G1 X181.598 Y116.954 E0.08224
G1 X179.417 Y115.98 E0.1382
G1 X177.038 Y115.775 E0.1382
G1 X174.722 Y116.362 E0.1382
G1 X142.902 Y130.39 E2.012
G1 X121.563 Y142.725 E1.42606
G1 X120.162 Y143.803 E0.10232
G1 X120.538 Y144.293 F24000
G1 F5613.5123
G1 X116.059 Y148.771 E0.36647
G1 X114.564 Y151.083 E0.1593
G1 X114.138 Y153.325 E0.13202
G1 X114.507 Y155.577 E0.13202
G1 X115.624 Y157.567 E0.13202
G1 X129.25 Y174.191 E1.24366
G1 X135.114 Y180.1 E0.48161
G1 X137.592 Y181.655 E0.16928
G1 X142.195 Y183.26 E0.28207
G1 X144.918 Y183.602 E0.15878
G1 X147.123 Y183.013 E0.13202
G1 X148.992 Y181.705 E0.13202
G1 X153.461 Y177.237 E0.3656
G1 X154.218 Y176.328 E0.06843
G1 X186.287 Y129.935 E3.26306
G1 X187.224 Y127.915 E0.12883
G1 X187.426 Y125.642 E0.13202
G1 X186.838 Y123.438 E0.13202
G1 X185.529 Y121.568 E0.13202
G1 X182.257 Y118.296 E0.26775
G1 X179.458 Y116.638 E0.18822
G1 X177.19 Y116.389 E0.13202
G1 X174.974 Y116.932 E0.13202
G1 X143.154 Y130.96 E2.012
G1 X121.876 Y143.264 E1.42207
G1 X120.61 Y144.238 E0.09244
G1 X120.987 Y144.728 F24000
G1 F5613.5123
G1 X116.5 Y149.212 E0.36701
G1 X115.268 Y151.009 E0.12601
G1 X114.768 Y153.12 E0.12554
G1 X115.061 Y155.27 E0.12554
G1 X116.106 Y157.171 E0.12554
G1 X129.732 Y173.796 E1.24366
G1 X135.554 Y179.659 E0.47805
G1 X137.797 Y181.066 E0.15318
G1 X142.4 Y182.671 E0.28207
G1 X144.652 Y182.995 E0.13161
G1 X146.763 Y182.492 E0.12554
G1 X148.552 Y181.264 E0.12554
G1 X153.02 Y176.796 E0.3656
G1 X153.705 Y175.974 E0.06193
G1 X185.774 Y129.581 E3.26306
G1 X186.53 Y128.059 E0.09831
G1 X186.82 Y125.909 E0.12554
G1 X186.317 Y123.798 E0.12554
G1 X185.089 Y122.009 E0.12554
G1 X181.816 Y118.737 E0.26775
G1 X179.487 Y117.3 E0.15836
G1 X177.337 Y117.005 E0.12554
G1 X175.225 Y117.503 E0.12554
G1 X143.405 Y131.531 E2.012
G1 X122.189 Y143.803 E1.41809
G1 X121.058 Y144.674 E0.08257
G1 X121.435 Y145.164 F24000
G1 F5613.5123
G1 X116.941 Y149.653 E0.36754
G1 X115.984 Y150.959 E0.09365
G1 X115.407 Y152.927 E0.11871
G1 X115.619 Y154.968 E0.11871
G1 X116.588 Y156.776 E0.11871
G1 X130.215 Y173.4 E1.24366
G1 X135.995 Y179.218 E0.4745
G1 X138.002 Y180.477 E0.13709
G1 X142.606 Y182.083 E0.28207
G1 X144.397 Y182.379 E0.10506
G1 X146.407 Y181.966 E0.11871
G1 X148.111 Y180.823 E0.11871
G1 X152.579 Y176.355 E0.3656
G1 X153.192 Y175.619 E0.05542
G1 X185.261 Y129.226 E3.26306
G1 X185.823 Y128.179 E0.06874
G1 X186.203 Y126.163 E0.11871
G1 X185.791 Y124.153 E0.11871
G1 X184.648 Y122.45 E0.11871
G1 X181.375 Y119.177 E0.26775
G1 X179.501 Y117.966 E0.1291
G1 X177.478 Y117.624 E0.11871
G1 X175.477 Y118.073 E0.11871
G1 X143.133 Y132.368 E2.04595
G1 X122.502 Y144.343 E1.38015
G1 X121.506 Y145.109 E0.0727
G1 E-0.06 F3600
;WIPE_START
G1 F19200
M204 S3000
G1 X121.413 Y145.181 E-0.02102
G1 X119.46 Y147.134 E-0.49198
;WIPE_END
G1 E-0.027 F3600
G1 Z0.84 F24000
; printing object spool_3030_troodon.stl id:0 copy 0
EXCLUDE_OBJECT_START NAME=spool_3030_troodon_stl_id_0_copy_0
G1 X139.795 Y170.705
G1 Z0.24
G1 E0.6 F2400
;TYPE:Internal perimeter
;WIDTH:0.8
G1 F9000
G1 X139.079 Y169.99 E0.07029
G1 X140.318 Y168.751 E0.12169
G1 X141.034 Y169.467 E0.07029
G1 X139.858 Y170.642 E0.11544
G1 E-0.06 F3600
;WIPE_START
G1 F19200
G1 X139.079 Y169.99 E-0.18098
G1 X140.318 Y168.751 E-0.31208
G1 X140.397 Y168.83 E-0.01994
;WIPE_END
G1 E-0.027 F3600
G1 Z0.84 F24000
G1 X144.355 Y173.326
G1 Z0.24
G1 E0.6 F2400
G1 F9000
G1 X141.294 Y170.265 E0.30067
G1 X139.795 Y171.764 E0.14725
G1 X138.021 Y169.99 E0.17427
G1 X139.52 Y168.491 E0.14725
G1 X124.438 Y153.409 E1.48144
G1 X125.236 Y152.611 E0.07842
G1 X145.153 Y172.527 E1.95638
G1 X144.418 Y173.262 E0.07217
G1 X144.355 Y174.384 F24000
G1 F9000
G1 X141.294 Y171.323 E0.30067
G1 X139.795 Y172.822 E0.14725
G1 X136.962 Y169.99 E0.27825
G1 X138.461 Y168.491 E0.14725
G1 X123.379 Y153.409 E1.48144
G1 X125.236 Y151.552 E0.1824
G1 X146.212 Y172.527 E2.06036
G1 X144.418 Y174.321 E0.17615
G1 X144.355 Y175.443 F24000
G1 F9000
G1 X141.294 Y172.382 E0.30067
G1 X139.795 Y173.881 E0.14725
G1 X139.221 Y173.307 E0.05637
G1 X135.903 Y169.99 E0.32586
G1 X137.403 Y168.491 E0.14725
G1 X122.321 Y153.409 E1.48144
G1 X125.236 Y150.494 E0.28637
G1 X147.27 Y172.527 E2.16433
G1 X144.418 Y175.379 E0.28012
G1 X144.355 Y176.501 F24000
;TYPE:External perimeter
G1 F4500
G1 X141.294 Y173.44 E0.30067
G1 X141.152 Y173.582 E0.01246
G1 X140.869 Y173.865 E0.02635
G1 X139.795 Y174.94 E0.10557
G1 X139.653 Y174.798 E0.01246
G1 X139.37 Y174.515 E0.02635
G1 X138.692 Y173.836 E0.06668
G1 X134.845 Y169.99 E0.37785
G1 X134.986 Y169.848 E0.01246
G1 X135.269 Y169.566 E0.02635
G1 X136.344 Y168.491 E0.10557
G1 X136.203 Y168.349 E0.01246
G1 X135.92 Y168.066 E0.02635
G1 X121.262 Y153.409 E1.43977
G1 X121.404 Y153.268 E0.01246
G1 X121.686 Y152.985 E0.02635
G1 X125.22 Y149.451 E0.34708
G1 X125.37 Y149.583 E0.01263
G1 X125.48 Y149.679 E0.00889
G1 X148.084 Y172.283 E2.22032
G1 X148.312 Y172.544 E0.02405
G1 X148.171 Y172.685 E0.01263
G1 X147.888 Y172.968 E0.02652
G1 X144.418 Y176.438 E0.34083
;WIPE_START
M204 S10000
G1 X144.199 Y175.922 F24000
;WIPE_END
G1 E-0.06 F3600
;WIPE_START
G1 F19200
G1 X142.163 Y173.885 E-0.513
;WIPE_END
G1 E-0.027 F3600
G1 Z0.84 F24000
G1 X144.51 Y172.682
G1 Z0.24
G1 E0.6 F2400
;TYPE:Gap fill
;WIDTH:0.489638
G1 F9000
G1 X144.355 Y172.527 E0.00891
G1 X141.563 Y169.736 E0.16053
G1 X141.408 Y169.581 E0.00891
G1 E-0.06 F3600
;WIPE_START
G1 F19200
G1 X141.563 Y169.736 E-0.03902
G1 X143.444 Y171.617 E-0.47398
;WIPE_END
G1 E-0.027 F3600
G1 Z0.84 F24000
G1 X140.204 Y168.377
G1 Z0.24
G1 E0.6 F2400
;WIDTH:0.489642
G1 F9000
G1 X140.126 Y168.299 E0.00445
G1 X140.049 Y168.222 E0.00445
G1 X125.236 Y153.409 E0.8517
G1 X125.159 Y153.332 E0.00445
G1 X125.081 Y153.254 E0.00445
G1 E-0.06 F3600
;WIPE_START
G1 F19200
M204 S3000
G1 X125.159 Y153.332 E-0.01951
G1 X125.236 Y153.409 E-0.01951
G1 X127.118 Y155.291 E-0.47398
;WIPE_END
G1 E-0.027 F3600
G1 Z0.84 F24000
; stop printing object spool_3030_troodon.stl id:0 copy 0
EXCLUDE_OBJECT_END NAME=spool_3030_troodon_stl_id_0_copy_0
; printing object Spool_Adapter.stl id:1 copy 0
EXCLUDE_OBJECT_START NAME=Spool_Adapter_stl_id_1_copy_0
G1 X145.678 Y156.62
G1 Z0.24
G1 E0.6 F2400
;TYPE:Internal perimeter
;WIDTH:0.8
G1 F9000
G1 X138.31 Y149.252 E0.72377
G1 X147.431 Y140.13 E0.89601
G1 X155.493 Y136.848 E0.60459
G1 X171.364 Y130.339 E1.19144
G1 X171.602 Y130.696 E0.02981
G1 X145.741 Y156.556 E2.5402
G1 X145.678 Y157.678 F24000
G1 F9000
G1 X137.251 Y149.252 E0.82774
G1 X147.009 Y139.494 E0.95851
G1 X155.21 Y136.155 E0.61502
G1 X173.363 Y128.71 E1.36275
G1 X174.584 Y128.167 E0.09282
G1 X174.83 Y128.526 E0.03026
G1 X145.741 Y157.615 E2.85733
G1 X145.678 Y158.737 F24000
G1 F9000
G1 X136.192 Y149.252 E0.93172
G1 X146.587 Y138.857 E1.021
G1 X154.927 Y135.462 E0.62544
G1 X173.069 Y128.021 E1.36194
G1 X174.122 Y127.553 E0.08012
G1 X175.173 Y127.01 E0.08215
G1 X176.19 Y126.406 E0.08215
G1 X177.17 Y125.743 E0.08215
G1 X177.497 Y125.494 E0.02856
G1 X178.209 Y126.206 E0.06996
G1 X145.741 Y158.673 E3.1892
G1 X145.678 Y159.795 F24000
G1 F9000
G1 X135.134 Y149.252 E1.0357
G1 X146.164 Y138.221 E1.08349
G1 X154.643 Y134.769 E0.63586
G1 X172.774 Y127.333 E1.36113
G1 X173.798 Y126.878 E0.07783
G1 X174.81 Y126.355 E0.0791
G1 X175.789 Y125.773 E0.07911
G1 X176.733 Y125.136 E0.0791
G1 X177.563 Y124.501 E0.07256
G1 X179.268 Y126.206 E0.16747
G1 X145.741 Y159.732 E3.29318
G1 X145.678 Y160.854 F24000
;TYPE:External perimeter
G1 F4500
G1 X134.075 Y149.252 E1.13967
G1 X134.217 Y149.11 E0.0124
G1 X134.5 Y148.827 E0.02629
G1 X145.8 Y137.527 E1.10996
G1 X145.824 Y137.552 E0.00024
G1 X146.009 Y137.476 E0.01336
G1 X146.379 Y137.325 E0.02725
G1 X154.36 Y134.076 E0.59849
G1 X172.48 Y126.645 E1.36031
G1 X173.474 Y126.203 E0.07555
G1 X174.447 Y125.7 E0.07606
G1 X175.388 Y125.141 E0.07606
G1 X176.296 Y124.528 E0.07606
G1 X177.167 Y123.861 E0.07619
G1 X177.601 Y123.481 E0.04011
G1 X177.743 Y123.622 E0.01263
G1 X178.026 Y123.905 E0.02652
G1 X178.648 Y124.528 E0.06114
G1 X180.326 Y126.206 E0.16483
G1 X180.185 Y126.347 E0.0124
G1 X179.902 Y126.63 E0.02629
G1 X145.741 Y160.79 E3.35548
;WIPE_START
M204 S10000
G1 X145.523 Y160.274 F24000
;WIPE_END
G1 E-0.06 F3600
;WIPE_START
G1 F19200
G1 X143.486 Y158.238 E-0.513
;WIPE_END
G1 E-0.027 F3600
G1 Z0.84 F24000
G1 X165.496 Y132.861
G1 Z0.24
G1 E0.6 F2400
;TYPE:Solid infill
G1 F7200
G1 X168.457 Y132.861 E0.20569
G1 X168.604 Y133.08 E0.01833
G1 X168.075 Y133.609 E0.05194
G1 X164.516 Y133.609 E0.24715
G1 X162.687 Y134.357 E0.1373
G1 X167.326 Y134.357 E0.32224
G1 X166.578 Y135.106 E0.07352
G1 X160.857 Y135.106 E0.39733
G1 X159.028 Y135.854 E0.1373
G1 X165.829 Y135.854 E0.47241
G1 X165.081 Y136.603 E0.07352
G1 X157.198 Y136.603 E0.5475
G1 X155.369 Y137.351 E0.1373
G1 X164.332 Y137.351 E0.62259
G1 X163.584 Y138.1 E0.07352
G1 X153.539 Y138.1 E0.69767
G1 X151.71 Y138.848 E0.1373
G1 X162.835 Y138.848 E0.77276
G1 X162.087 Y139.597 E0.07352
G1 X149.88 Y139.597 E0.84785
G1 X148.051 Y140.345 E0.1373
G1 X161.338 Y140.345 E0.92293
G1 X160.59 Y141.094 E0.07352
G1 X147.081 Y141.094 E0.93828
G1 X146.333 Y141.842 E0.07352
G1 X159.841 Y141.842 E0.93828
G1 X159.093 Y142.591 E0.07352
G1 X145.584 Y142.591 E0.93828
G1 X144.836 Y143.339 E0.07352
G1 X158.344 Y143.339 E0.93828
G1 X157.596 Y144.088 E0.07352
G1 X144.087 Y144.088 E0.93828
G1 X143.339 Y144.836 E0.07352
G1 X156.847 Y144.836 E0.93828
G1 X156.099 Y145.585 E0.07352
G1 X142.59 Y145.585 E0.93828
G1 X141.842 Y146.333 E0.07352
G1 X155.35 Y146.333 E0.93828
G1 X154.602 Y147.082 E0.07352
G1 X141.093 Y147.082 E0.93828
G1 X140.345 Y147.83 E0.07352
G1 X153.853 Y147.83 E0.93828
G1 X153.105 Y148.579 E0.07352
G1 X139.596 Y148.579 E0.93828
G1 X138.923 Y149.252 E0.06608
G1 X138.999 Y149.327 E0.00745
G1 X152.356 Y149.327 E0.92775
G1 X151.608 Y150.076 E0.07352
G1 X139.748 Y150.076 E0.82377
G1 X140.496 Y150.824 E0.07352
G1 X150.859 Y150.824 E0.7198
G1 X150.111 Y151.573 E0.07352
G1 X141.245 Y151.573 E0.61582
G1 X141.993 Y152.321 E0.07352
G1 X149.362 Y152.321 E0.51184
G1 X148.614 Y153.07 E0.07352
G1 X142.742 Y153.07 E0.40787
G1 X143.49 Y153.818 E0.07352
G1 X147.865 Y153.818 E0.30389
G1 X147.117 Y154.567 E0.07352
G1 X144.239 Y154.567 E0.19991
G1 X144.987 Y155.315 E0.07352
G1 X146.824 Y155.315 E0.12755
G1 E-0.06 F3600
;WIPE_START
G1 F19200
G1 X144.987 Y155.315 E-0.32711
G1 X144.249 Y154.577 E-0.18589
;WIPE_END
G1 E-0.027 F3600
G1 Z0.84 F24000
G1 X168.605 Y132.433
G1 Z0.24
G1 E0.6 F2400
;TYPE:Gap fill
;WIDTH:1.164218
G1 F6054.081
G1 X168.699 Y132.37 E0.01177
;WIDTH:1.097166
G1 F6442.295
G1 X168.794 Y132.307 E0.01106
;WIDTH:1.030114
G1 F6883.707
G1 X168.889 Y132.244 E0.01035
;WIDTH:0.963061
G1 F7390.0592
G1 X168.984 Y132.181 E0.00964
G1 X169.13 Y132.084 E0.01481
;WIDTH:0.887266
G1 F8060.2693
G1 X169.275 Y131.987 E0.01358
;WIDTH:0.81147
G1 F8864.1673
G1 X169.421 Y131.89 E0.01235
;WIDTH:0.735674
G1 F9000
G1 X169.567 Y131.793 E0.01111
;WIDTH:0.659878
G1 X169.713 Y131.696 E0.00988
;WIDTH:0.584082
G1 X169.858 Y131.599 E0.00865
;WIDTH:0.508287
G1 X170.004 Y131.502 E0.00742
;WIDTH:0.432491
G1 X170.15 Y131.405 E0.00619
;WIDTH:0.356695
G1 X170.296 Y131.308 E0.00496
;WIDTH:0.280899
G1 X170.441 Y131.211 E0.00373
;WIDTH:0.205103
G1 X170.587 Y131.114 E0.0025
G1 X170.651 Y131.071 E0.00109
G1 X171.771 Y130.326 F24000
;WIDTH:1.164217
G1 F6054.0857
G1 X171.865 Y130.263 E0.01177
;WIDTH:1.097165
G1 F6442.2981
G1 X171.96 Y130.199 E0.01106
;WIDTH:1.030113
G1 F6883.7097
G1 X172.055 Y130.136 E0.01035
;WIDTH:0.963061
G1 F7390.0592
G1 X172.15 Y130.073 E0.00964
G1 X172.29 Y129.98 E0.01419
;WIDTH:0.88971
G1 F8036.7683
G1 X172.429 Y129.887 E0.01305
;WIDTH:0.816358
G1 F8807.5204
G1 X172.569 Y129.794 E0.0119
;WIDTH:0.743006
G1 F9000
G1 X172.708 Y129.701 E0.01076
;WIDTH:0.669654
G1 X172.848 Y129.608 E0.00962
;WIDTH:0.596302
G1 X172.988 Y129.516 E0.00848
;WIDTH:0.52295
G1 X173.127 Y129.423 E0.00734
;WIDTH:0.449598
G1 X173.267 Y129.33 E0.0062
;WIDTH:0.376246
G1 X173.407 Y129.237 E0.00505
;WIDTH:0.302879
G1 X173.549 Y129.142 E0.004
G1 X173.658 Y129.067 E0.00308
;WIDTH:0.205104
G1 X173.767 Y128.992 E0.00188
G1 X173.83 Y128.949 E0.00109
G1 X174.978 Y128.13 F24000
;WIDTH:1.207972
G1 F5825.0297
G1 X175.079 Y128.059 E0.01325
;WIDTH:1.151612
G1 F6123.4554
G1 X175.18 Y127.988 E0.0126
;WIDTH:1.095252
G1 F6454.1098
G1 X175.281 Y127.917 E0.01195
;WIDTH:1.038891
G1 F6822.5128
G1 X175.382 Y127.846 E0.01131
G1 X175.467 Y127.784 E0.0097
;WIDTH:0.973147
G1 F7309.1888
G1 X175.574 Y127.705 E0.01138
G1 X175.766 Y127.556 E0.02074
;WIDTH:0.890863
G1 F8025.7227
G1 X175.957 Y127.407 E0.01889
;WIDTH:0.815382
G1 F8818.7704
G1 X176.149 Y127.259 E0.01719
;WIDTH:0.739901
G1 F9000
G1 X176.34 Y127.11 E0.01549
;WIDTH:0.664419
G1 X176.546 Y126.95 E0.01482
G1 X176.771 Y126.764 E0.01662
;WIDTH:0.58612
G1 X176.997 Y126.578 E0.0145
;WIDTH:0.511781
G1 X177.222 Y126.392 E0.01248
;WIDTH:0.437442
G1 X177.448 Y126.206 E0.01047
G1 X177.6 Y126.086 E0.00696
;LAYER_CHANGE
;Z:0.34
;HEIGHT:0.1
;BEFORE_LAYER_CHANGE
;0.34


; stop printing object Spool_Adapter.stl id:1 copy 0
EXCLUDE_OBJECT_END NAME=Spool_Adapter_stl_id_1_copy_0
G1 Z0.34 F24000
;AFTER_LAYER_CHANGE
;0.34
G92 E0
M104 S250 ; set temperature
M140 S110 ; set bed temperature
G1 E-0.6 F3600
M204 S3000
