; generated by SuperSlicer 2.5.59 on 2022-10-30 at 00:46:36 UTC


;
;

;
;
; 

; external perimeters extrusion width = 0.52mm
; perimeters extrusion width = 0.56mm
; infill extrusion width = 0.70mm
; solid infill extrusion width = 0.70mm
; top infill extrusion width = 0.50mm
; first layer extrusion width = 0.60mm

; object:{"name":"square_tower","id":"square_tower.stl id:0 copy 0","object_center":[149.999995,149.999975,0.000000],"boundingbox_center":[149.999995,149.999975,25.000000],"boundingbox_size":[65.945206,66.000000,50.000000]}
; plater:{"center":[149.999995,149.999975,0.000000],"boundingbox_center":[149.999995,149.999975,25.000000],"boundingbox_size":[65.945206,66.000000,50.000000]}

;TYPE:Custom
PRINT_START EXTRUDER=260 BED=110
M107
G21 ; set units to millimeters
G90 ; use absolute coordinates
M83 ; use relative distances for extrusion
;_TOOLCHANGE 0
M104 S260 ; set temperature
M109 S260 ; set temperature and wait for it to be reached
M190 S110 ; set bed temperature and wait for it to be reached
M107
;LAYER_CHANGE
;Z:0.3
;HEIGHT:0.3
;BEFORE_LAYER_CHANGE
;0.3


G1 Z0.3 F24000
;AFTER_LAYER_CHANGE
;0.3
G92 E0
G1 E-0.6 F2400
; printing object square_tower.stl id:0 copy 0
M204 S3000
G1 X150 Y176.436 F24000
G1 E0.6 F2400
;TYPE:Internal perimeter
;WIDTH:0.6
G1 F3000
G1 X151.936 Y176.436 E0.12026
G1 X151.936 Y175.936 E0.03106
G1 X175.936 Y175.936 E1.4911
G1 X175.936 Y151.936 E1.4911
G1 X176.436 Y151.936 E0.03106
G1 X176.436 Y148.064 E0.24052
G1 X175.936 Y148.064 E0.03106
G1 X175.936 Y124.064 E1.4911
G1 X155.936 Y124.064 E1.24258
G1 X155.936 Y123.564 E0.03106
G1 X152.064 Y123.564 E0.24052
G1 X152.064 Y124.064 E0.03106
G1 X124.064 Y124.064 E1.73961
G1 X124.064 Y148.064 E1.4911
G1 X123.564 Y148.064 E0.03106
G1 X123.564 Y151.936 E0.24052
G1 X124.064 Y151.936 E0.03106
G1 X124.064 Y175.936 E1.4911
G1 X148.064 Y175.936 E1.4911
G1 X148.064 Y176.436 E0.03106
G1 X149.925 Y176.436 E0.1156
G1 X150 Y175.9 F24000
;TYPE:External perimeter
G1 F3000
G1 X151.4 Y175.9 E0.08698
G1 X151.4 Y175.75 E0.00832
G1 X151.4 Y175.45 E0.01764
G1 X151.4 Y175.4 E0.00311
G1 X151.55 Y175.4 E0.00832
G1 X151.85 Y175.4 E0.01764
G1 X175.4 Y175.4 E1.46314
G1 X175.4 Y175.25 E0.00832
G1 X175.4 Y174.95 E0.01764
G1 X175.4 Y151.4 E1.46314
G1 X175.55 Y151.4 E0.00832
G1 X175.85 Y151.4 E0.01764
G1 X175.9 Y151.4 E0.00311
G1 X175.9 Y151.25 E0.00832
G1 X175.9 Y150.95 E0.01764
G1 X175.9 Y148.6 E0.146
G1 X175.75 Y148.6 E0.00832
G1 X175.45 Y148.6 E0.01764
G1 X175.4 Y148.6 E0.00311
G1 X175.4 Y148.45 E0.00832
G1 X175.4 Y148.15 E0.01764
G1 X175.4 Y124.6 E1.46314
G1 X175.25 Y124.6 E0.00832
G1 X174.95 Y124.6 E0.01764
G1 X155.4 Y124.6 E1.21462
G1 X155.4 Y124.45 E0.00832
G1 X155.4 Y124.15 E0.01764
G1 X155.4 Y124.1 E0.00311
G1 X155.25 Y124.1 E0.00832
G1 X154.95 Y124.1 E0.01764
G1 X152.6 Y124.1 E0.146
G1 X152.6 Y124.25 E0.00832
G1 X152.6 Y124.55 E0.01764
G1 X152.6 Y124.6 E0.00311
G1 X152.45 Y124.6 E0.00832
G1 X152.15 Y124.6 E0.01764
G1 X124.6 Y124.6 E1.71165
G1 X124.6 Y124.75 E0.00832
G1 X124.6 Y125.05 E0.01764
G1 X124.6 Y148.6 E1.46314
G1 X124.45 Y148.6 E0.00832
G1 X124.15 Y148.6 E0.01764
G1 X124.1 Y148.6 E0.00311
G1 X124.1 Y148.75 E0.00832
G1 X124.1 Y149.05 E0.01764
G1 X124.1 Y151.4 E0.146
G1 X124.25 Y151.4 E0.00832
G1 X124.55 Y151.4 E0.01764
G1 X124.6 Y151.4 E0.00311
G1 X124.6 Y151.55 E0.00832
G1 X124.6 Y151.85 E0.01764
G1 X124.6 Y175.4 E1.46314
G1 X124.75 Y175.4 E0.00832
G1 X125.05 Y175.4 E0.01764
G1 X148.6 Y175.4 E1.46314
G1 X148.6 Y175.55 E0.00832
G1 X148.6 Y175.85 E0.01764
G1 X148.6 Y175.9 E0.00311
G1 X148.75 Y175.9 E0.00832
G1 X149.05 Y175.9 E0.01764
G1 X149.925 Y175.9 E0.05436
;WIPE_START
M204 S10000
G1 X150.25 Y176.333 F24000
;WIPE_END
G1 E-0.06 F2400
;WIPE_START
G1 F19200
M204 S3000
G1 X151.65 Y176.15 E-0.16766
G1 X151.65 Y175.65 E-0.05937
G1 X154.058 Y175.65 E-0.28596
;WIPE_END
G1 E-0.027 F2400
G1 X150 Y179.064 F24000
G1 E0.6 F2400
;TYPE:Internal perimeter
G1 F3000
G1 X125.945 Y179.064 E1.49451
G1 X125.515 Y180.03 E0.06565
G1 X125.017 Y180.716 E0.05272
G1 X124.386 Y181.284 E0.05272
G1 X123.651 Y181.708 E0.05272
G1 X122.844 Y181.97 E0.05272
G1 X122 Y182.059 E0.05272
G1 X121.156 Y181.97 E0.05273
G1 X120.349 Y181.708 E0.05272
G1 X119.614 Y181.284 E0.05272
G1 X118.983 Y180.716 E0.05272
G1 X118.485 Y180.03 E0.05273
G1 X118.139 Y179.254 E0.05272
G1 X117.963 Y178.424 E0.05273
G1 X117.963 Y177.576 E0.05272
G1 X118.139 Y176.746 E0.05273
G1 X118.485 Y175.97 E0.05272
G1 X118.983 Y175.284 E0.05273
G1 X119.612 Y174.718 E0.05252
G1 X120.936 Y173.966 E0.09461
G1 X120.936 Y126.034 E2.97794
G1 X119.612 Y125.282 E0.09461
G1 X118.983 Y124.716 E0.05252
G1 X118.485 Y124.03 E0.05272
G1 X118.139 Y123.254 E0.05272
G1 X117.963 Y122.424 E0.05272
G1 X117.963 Y121.576 E0.05272
G1 X118.139 Y120.746 E0.05272
G1 X118.485 Y119.97 E0.05272
G1 X118.983 Y119.284 E0.05272
G1 X119.614 Y118.716 E0.05272
G1 X120.349 Y118.292 E0.05272
G1 X121.156 Y118.029 E0.05272
G1 X122 Y117.941 E0.05273
G1 X122.844 Y118.029 E0.05273
G1 X123.651 Y118.292 E0.05272
G1 X124.386 Y118.716 E0.05272
G1 X125.017 Y119.284 E0.05272
G1 X125.515 Y119.97 E0.05272
G1 X125.945 Y120.936 E0.06564
G1 X174.055 Y120.936 E2.98901
G1 X174.485 Y119.97 E0.06564
G1 X174.983 Y119.284 E0.05272
G1 X175.614 Y118.716 E0.05272
G1 X176.349 Y118.292 E0.05272
G1 X177.156 Y118.029 E0.05272
G1 X178 Y117.941 E0.05272
G1 X178.249 Y117.967 E0.01554
G1 X178.844 Y118.029 E0.03719
G1 X179.651 Y118.292 E0.05272
G1 X180.386 Y118.716 E0.05272
G1 X181.017 Y119.284 E0.05272
G1 X181.515 Y119.97 E0.05272
G1 X181.861 Y120.746 E0.05272
G1 X182.037 Y121.576 E0.05272
G1 X182.037 Y122.424 E0.05272
G1 X181.861 Y123.254 E0.05272
G1 X181.515 Y124.03 E0.05272
G1 X181.017 Y124.716 E0.05272
G1 X180.388 Y125.282 E0.05252
G1 X179.064 Y126.034 E0.09461
G1 X179.064 Y173.966 E2.97794
G1 X180.388 Y174.718 E0.09461
G1 X181.017 Y175.284 E0.05252
G1 X181.515 Y175.97 E0.05273
G1 X181.861 Y176.746 E0.05272
G1 X182.037 Y177.576 E0.05273
G1 X182.037 Y178.424 E0.05272
G1 X181.861 Y179.254 E0.05273
G1 X181.515 Y180.03 E0.05272
G1 X181.017 Y180.716 E0.05273
G1 X180.386 Y181.284 E0.05272
G1 X179.651 Y181.708 E0.05272
G1 X178.844 Y181.97 E0.05273
G1 X178 Y182.059 E0.05272
G1 X177.156 Y181.97 E0.05272
G1 X176.349 Y181.708 E0.05273
G1 X175.614 Y181.284 E0.05272
G1 X174.983 Y180.716 E0.05272
G1 X174.485 Y180.03 E0.05273
G1 X174.055 Y179.064 E0.06564
G1 X150.075 Y179.064 E1.48985
G1 X150 Y179.6 F24000
;TYPE:External perimeter
G1 F3000
G1 X126.293 Y179.6 E1.4729
G1 X126.232 Y179.737 E0.00898
G1 X126.11 Y180.011 E0.0183
G1 X125.982 Y180.299 E0.01957
G1 X125.417 Y181.077 E0.05972
G1 X124.702 Y181.72 E0.05972
G1 X123.87 Y182.2 E0.05971
G1 X122.956 Y182.497 E0.05972
G1 X122 Y182.598 E0.05972
G1 X121.044 Y182.497 E0.05972
G1 X120.13 Y182.2 E0.05972
G1 X119.297 Y181.72 E0.05972
G1 X118.583 Y181.077 E0.05972
G1 X118.018 Y180.299 E0.05972
G1 X117.627 Y179.421 E0.05972
G1 X117.427 Y178.481 E0.05972
G1 X117.427 Y177.519 E0.05971
G1 X117.627 Y176.579 E0.05972
G1 X118.018 Y175.701 E0.05972
G1 X118.583 Y174.923 E0.05972
G1 X119.296 Y174.281 E0.05963
G1 X120.4 Y173.654 E0.07886
G1 X120.4 Y126.346 E2.93921
G1 X119.296 Y125.719 E0.07886
G1 X118.583 Y125.077 E0.05963
G1 X118.018 Y124.299 E0.05972
G1 X117.627 Y123.421 E0.05972
G1 X117.427 Y122.481 E0.05972
G1 X117.427 Y121.519 E0.05972
G1 X117.627 Y120.579 E0.05972
G1 X118.018 Y119.701 E0.05972
G1 X118.583 Y118.923 E0.05972
G1 X119.298 Y118.28 E0.05972
G1 X120.13 Y117.8 E0.05972
G1 X121.044 Y117.503 E0.05972
G1 X122 Y117.402 E0.05972
G1 X122.956 Y117.503 E0.05972
G1 X123.87 Y117.8 E0.05972
G1 X124.702 Y118.28 E0.05972
G1 X125.417 Y118.923 E0.05972
G1 X125.982 Y119.701 E0.05972
G1 X126.293 Y120.4 E0.04753
G1 X126.443 Y120.4 E0.00898
G1 X126.743 Y120.4 E0.0183
G1 X173.707 Y120.4 E2.91783
G1 X173.768 Y120.263 E0.00898
G1 X173.89 Y119.989 E0.0183
G1 X174.018 Y119.701 E0.01957
G1 X174.583 Y118.923 E0.05972
G1 X175.297 Y118.28 E0.05972
G1 X176.13 Y117.8 E0.05972
G1 X177.044 Y117.503 E0.05972
G1 X178 Y117.402 E0.05972
G1 X178.305 Y117.434 E0.01904
G1 X178.956 Y117.503 E0.04068
G1 X179.87 Y117.8 E0.05972
G1 X180.703 Y118.28 E0.05972
G1 X181.417 Y118.923 E0.05972
G1 X181.982 Y119.701 E0.05972
G1 X182.373 Y120.579 E0.05972
G1 X182.573 Y121.519 E0.05972
G1 X182.573 Y122.481 E0.05972
G1 X182.373 Y123.421 E0.05972
G1 X181.982 Y124.299 E0.05972
G1 X181.417 Y125.077 E0.05972
G1 X180.704 Y125.719 E0.05963
G1 X179.6 Y126.346 E0.07886
G1 X179.6 Y173.654 E2.93921
G1 X180.704 Y174.281 E0.07886
G1 X181.417 Y174.923 E0.05963
G1 X181.982 Y175.701 E0.05972
G1 X182.373 Y176.579 E0.05972
G1 X182.573 Y177.519 E0.05972
G1 X182.573 Y178.481 E0.05971
G1 X182.373 Y179.421 E0.05972
G1 X181.982 Y180.299 E0.05972
G1 X181.417 Y181.077 E0.05972
G1 X180.703 Y181.72 E0.05972
G1 X179.87 Y182.2 E0.05972
G1 X178.956 Y182.497 E0.05972
G1 X178 Y182.598 E0.05972
G1 X177.044 Y182.497 E0.05972
G1 X176.13 Y182.2 E0.05972
G1 X175.297 Y181.72 E0.05972
G1 X174.583 Y181.077 E0.05972
G1 X174.018 Y180.299 E0.05972
G1 X173.707 Y179.6 E0.04753
G1 X173.557 Y179.6 E0.00898
G1 X173.257 Y179.6 E0.0183
G1 X150.075 Y179.6 E1.44028
;WIPE_START
M204 S10000
G1 X149.75 Y179.167 F24000
;WIPE_END
G1 E-0.06 F2400
;WIPE_START
G1 F19200
G1 X145.43 Y179.2 E-0.513
;WIPE_END
G1 E-0.027 F2400
G1 X179.678 Y118.4 F24000
G1 E0.6 F2400
;TYPE:Solid infill
G1 F1800
G1 X180.821 Y119.543 E0.10044
G1 X181.245 Y120.127 E0.04481
G1 X181.563 Y120.842 E0.04867
G1 X181.618 Y121.097 E0.01621
G1 X178.892 Y118.372 E0.23948
G1 X178.779 Y118.335 E0.00739
G1 X178.241 Y118.278 E0.03359
G1 X178.052 Y118.289 E0.01177
G1 X181.726 Y121.963 E0.32282
G1 X181.726 Y122.392 E0.02661
G1 X181.669 Y122.663 E0.01725
G1 X177.336 Y118.33 E0.3807
G1 X177.214 Y118.337 E0.00759
G1 X176.739 Y118.491 E0.03099
G1 X181.515 Y123.267 E0.41959
G1 X181.282 Y123.791 E0.03565
G1 X176.217 Y118.727 E0.44499
G1 X175.798 Y118.969 E0.03009
G1 X175.747 Y119.014 E0.00422
G1 X180.976 Y124.243 E0.45944
G1 X180.784 Y124.507 E0.02027
G1 X180.626 Y124.65 E0.01328
G1 X175.349 Y119.373 E0.46366
G1 X175.216 Y119.493 E0.01112
G1 X175.003 Y119.785 E0.02245
G1 X180.227 Y125.009 E0.45899
G1 X180.206 Y125.028 E0.0018
G1 X179.749 Y125.288 E0.03265
G1 X174.703 Y120.243 E0.4433
G1 X174.47 Y120.767 E0.03565
G1 X179.266 Y125.563 E0.42136
G1 X178.783 Y125.837 E0.03452
G1 X174.192 Y121.246 E0.40336
G1 X173.434 Y121.246 E0.04706
G1 X178.754 Y126.566 E0.46738
G1 X178.754 Y127.323 E0.04706
G1 X176.246 Y124.816 E0.22032
G1 X176.246 Y125.573 E0.04706
G1 X178.754 Y128.081 E0.22032
G1 X178.754 Y128.838 E0.04706
G1 X176.246 Y126.331 E0.22032
G1 X176.246 Y127.088 E0.04706
G1 X178.754 Y129.595 E0.22032
G1 X178.754 Y130.353 E0.04706
G1 X176.246 Y127.845 E0.22032
G1 X176.246 Y128.603 E0.04706
G1 X178.754 Y131.11 E0.22032
G1 X178.754 Y131.868 E0.04706
G1 X176.246 Y129.36 E0.22032
G1 X176.246 Y130.118 E0.04706
G1 X178.754 Y132.625 E0.22032
G1 X178.754 Y133.383 E0.04706
G1 X176.246 Y130.875 E0.22032
G1 X176.246 Y131.633 E0.04706
G1 X178.754 Y134.14 E0.22032
G1 X178.754 Y134.898 E0.04706
G1 X176.246 Y132.39 E0.22032
G1 X176.246 Y133.148 E0.04706
G1 X178.754 Y135.655 E0.22032
G1 X178.754 Y136.413 E0.04706
G1 X176.246 Y133.905 E0.22032
G1 X176.246 Y134.663 E0.04706
G1 X178.754 Y137.17 E0.22032
G1 X178.754 Y137.928 E0.04706
G1 X176.246 Y135.42 E0.22032
G1 X176.246 Y136.178 E0.04706
G1 X178.754 Y138.685 E0.22032
G1 X178.754 Y139.443 E0.04706
G1 X176.246 Y136.935 E0.22032
G1 X176.246 Y137.693 E0.04706
G1 X178.754 Y140.2 E0.22032
G1 X178.754 Y140.958 E0.04706
G1 X176.246 Y138.45 E0.22032
G1 X176.246 Y139.208 E0.04706
G1 X178.754 Y141.715 E0.22032
G1 X178.754 Y142.473 E0.04706
G1 X176.246 Y139.965 E0.22032
G1 X176.246 Y140.723 E0.04706
G1 X178.754 Y143.23 E0.22032
G1 X178.754 Y143.988 E0.04706
G1 X176.246 Y141.48 E0.22032
G1 X176.246 Y142.238 E0.04706
G1 X178.754 Y144.745 E0.22032
G1 X178.754 Y145.503 E0.04706
G1 X176.246 Y142.995 E0.22032
G1 X176.246 Y143.753 E0.04706
G1 X178.754 Y146.26 E0.22032
G1 X178.754 Y147.018 E0.04706
G1 X176.246 Y144.51 E0.22032
G1 X176.246 Y145.268 E0.04706
G1 X178.754 Y147.775 E0.22032
G1 X178.754 Y148.532 E0.04706
G1 X176.246 Y146.025 E0.22032
G1 X176.246 Y146.782 E0.04706
G1 X178.754 Y149.29 E0.22032
G1 X178.754 Y150.047 E0.04706
G1 X176.016 Y147.31 E0.24055
G1 X176.516 Y148.567 F24000
G1 F1800
G1 X178.754 Y150.805 E0.19662
G1 X178.754 Y151.562 E0.04706
G1 X176.746 Y149.555 E0.17639
G1 X176.746 Y150.312 E0.04706
G1 X178.754 Y152.32 E0.17639
G1 X178.754 Y153.077 E0.04706
G1 X176.746 Y151.07 E0.17639
G1 X176.746 Y151.827 E0.04706
G1 X178.754 Y153.835 E0.17639
G1 X178.754 Y154.592 E0.04706
G1 X176.408 Y152.246 E0.20614
G1 X176.246 Y152.246 E0.01003
G1 X176.246 Y152.842 E0.03703
G1 X178.754 Y155.35 E0.22032
G1 X178.754 Y156.107 E0.04706
G1 X176.246 Y153.6 E0.22032
G1 X176.246 Y154.357 E0.04706
G1 X178.754 Y156.865 E0.22032
G1 X178.754 Y157.622 E0.04706
G1 X176.246 Y155.115 E0.22032
G1 X176.246 Y155.872 E0.04706
G1 X178.754 Y158.38 E0.22032
G1 X178.754 Y159.137 E0.04706
G1 X176.246 Y156.63 E0.22032
G1 X176.246 Y157.387 E0.04706
G1 X178.754 Y159.895 E0.22032
G1 X178.754 Y160.652 E0.04706
G1 X176.246 Y158.145 E0.22032
G1 X176.246 Y158.902 E0.04706
G1 X178.754 Y161.41 E0.22032
G1 X178.754 Y162.167 E0.04706
G1 X176.246 Y159.66 E0.22032
G1 X176.246 Y160.417 E0.04706
G1 X178.754 Y162.925 E0.22032
G1 X178.754 Y163.682 E0.04706
G1 X176.246 Y161.175 E0.22032
G1 X176.246 Y161.932 E0.04706
G1 X178.754 Y164.44 E0.22032
G1 X178.754 Y165.197 E0.04706
G1 X176.246 Y162.69 E0.22032
G1 X176.246 Y163.447 E0.04706
G1 X178.754 Y165.955 E0.22032
G1 X178.754 Y166.712 E0.04706
G1 X176.246 Y164.205 E0.22032
G1 X176.246 Y164.962 E0.04706
G1 X178.754 Y167.469 E0.22032
G1 X178.754 Y168.227 E0.04706
G1 X176.246 Y165.719 E0.22032
G1 X176.246 Y166.477 E0.04706
G1 X178.754 Y168.984 E0.22032
G1 X178.754 Y169.742 E0.04706
G1 X176.246 Y167.234 E0.22032
G1 X176.246 Y167.992 E0.04706
G1 X178.754 Y170.499 E0.22032
G1 X178.754 Y171.257 E0.04706
G1 X176.246 Y168.749 E0.22032
G1 X176.246 Y169.507 E0.04706
G1 X178.754 Y172.014 E0.22032
G1 X178.754 Y172.772 E0.04706
G1 X176.246 Y170.264 E0.22032
G1 X176.246 Y171.022 E0.04706
G1 X178.754 Y173.529 E0.22032
G1 X178.754 Y174.146 E0.03834
G1 X180.183 Y174.959 E0.10216
G1 X180.963 Y175.739 E0.06851
G1 X181.245 Y176.127 E0.02978
G1 X181.563 Y176.842 E0.04867
G1 X181.632 Y177.165 E0.02052
G1 X176.246 Y171.779 E0.47323
G1 X176.246 Y172.537 E0.04706
G1 X181.726 Y178.017 E0.4815
G1 X181.726 Y178.392 E0.02328
G1 X181.659 Y178.707 E0.02005
G1 X176.246 Y173.294 E0.47561
G1 X176.246 Y174.052 E0.04706
G1 X181.498 Y179.304 E0.46148
G1 X181.265 Y179.828 E0.03564
G1 X176.246 Y174.809 E0.44097
G1 X176.246 Y175.567 E0.04706
G1 X180.954 Y180.274 E0.41362
G1 X180.784 Y180.507 E0.01789
G1 X180.598 Y180.675 E0.01563
G1 X176.168 Y176.246 E0.38917
G1 X175.411 Y176.246 E0.04706
G1 X180.198 Y181.034 E0.42064
G1 X179.718 Y181.311 E0.03445
G1 X174.653 Y176.246 E0.445
G1 X173.896 Y176.246 E0.04706
G1 X179.183 Y181.534 E0.46457
G1 X178.779 Y181.665 E0.02641
G1 X178.578 Y181.686 E0.01254
G1 X173.138 Y176.246 E0.47796
G1 X172.381 Y176.246 E0.04706
G1 X177.868 Y181.733 E0.48208
G1 X177.221 Y181.665 E0.04039
G1 X176.956 Y181.579 E0.01731
G1 X171.623 Y176.246 E0.46855
G1 X170.866 Y176.246 E0.04706
G1 X173.373 Y178.754 E0.22032
G1 X172.616 Y178.754 E0.04706
G1 X170.108 Y176.246 E0.22032
G1 X169.351 Y176.246 E0.04706
G1 X171.858 Y178.754 E0.22032
G1 X171.101 Y178.754 E0.04706
G1 X168.593 Y176.246 E0.22032
G1 X167.836 Y176.246 E0.04706
G1 X170.344 Y178.754 E0.22032
G1 X169.586 Y178.754 E0.04706
G1 X167.079 Y176.246 E0.22032
G1 X166.321 Y176.246 E0.04706
G1 X168.829 Y178.754 E0.22032
G1 X168.071 Y178.754 E0.04706
G1 X165.564 Y176.246 E0.22032
G1 X164.806 Y176.246 E0.04706
G1 X167.314 Y178.754 E0.22032
G1 X166.556 Y178.754 E0.04706
G1 X164.049 Y176.246 E0.22032
G1 X163.291 Y176.246 E0.04706
G1 X165.799 Y178.754 E0.22032
G1 X165.041 Y178.754 E0.04706
G1 X162.534 Y176.246 E0.22032
G1 X161.776 Y176.246 E0.04706
G1 X164.284 Y178.754 E0.22032
G1 X163.526 Y178.754 E0.04706
G1 X161.019 Y176.246 E0.22032
G1 X160.261 Y176.246 E0.04706
G1 X162.769 Y178.754 E0.22032
G1 X162.011 Y178.754 E0.04706
G1 X159.504 Y176.246 E0.22032
