; generated by SuperSlicer 2.5.59 on 2023-08-17 at 01:31:59 UTC


;
;

;
;
; 

; external perimeters extrusion width = 0.50mm
; perimeters extrusion width = 0.50mm
; infill extrusion width = 0.75mm
; solid infill extrusion width = 0.65mm
; top infill extrusion width = 0.60mm
; first layer extrusion width = 0.60mm

; object:{"name":"square_tower","id":"square_tower.stl id:0 copy 0","object_center":[150.000000,150.000000,0.000000],"boundingbox_center":[150.000000,150.000000,25.000000],"boundingbox_size":[89.182263,89.182263,50.000000]}
EXCLUDE_OBJECT_DEFINE NAME=square_tower_stl_id_0_copy_0 CENTER=150.000000,150.000000 POLYGON=[[105.408872,150.261664],[105.463584,149.217808],[105.734088,148.208160],[106.208616,147.276832],[106.866472,146.464448],[146.464448,106.866472],[147.276784,106.208656],[148.208128,105.734112],[149.217824,105.463568],[150.261664,105.408864],[151.294080,105.572384],[152.269936,105.946976],[153.146576,106.516280],[153.885712,107.255408],[193.483664,146.853360],[194.053008,147.730048],[194.427584,148.705888],[194.591136,149.738336],[194.536400,150.782160],[194.265840,151.791808],[193.791296,152.723168],[193.133504,153.535520],[153.535520,193.133504],[152.723120,193.791328],[151.791792,194.265872],[150.782176,194.536400],[149.738352,194.591120],[148.705904,194.427584],[147.730032,194.053024],[146.853360,193.483664],[107.255408,153.885712],[106.516280,153.146576],[105.946960,152.269936],[105.572384,151.294064],[105.408872,150.261664]]
; plater:{"center":[150.000000,150.000000,0.000000],"boundingbox_center":[150.000000,150.000000,25.000000],"boundingbox_size":[89.182263,89.182263,50.000000]}

;TYPE:Custom
PRINT_START EXTRUDER=260 BED=110 AREA_START=98.9013,98.9013 AREA_END=201.099,201.099
M107
G21 ; set units to millimeters
G90 ; use absolute coordinates
M83 ; use relative distances for extrusion
;_TOOLCHANGE 0
M109 S260 ; set temperature and wait for it to be reached
M190 S110 ; set bed temperature and wait for it to be reached
M107
;LAYER_CHANGE
;Z:0.2
;HEIGHT:0.2
;BEFORE_LAYER_CHANGE
TIMELAPSE_TAKE_FRAME
;0.2


G1 Z0.2 F36000
;AFTER_LAYER_CHANGE
;0.2
G92 E0
G1 E-0.8 F3600
G1 Z0.3 F36000
M204 S5000
G1 X122.493 Y122.493
G1 Z0.2
G1 E0.8 F3600
;TYPE:Skirt
;WIDTH:0.6
G1 F1800
G1 X102.594 Y142.391 E1.16013
G1 X101.538 Y143.645 E0.0676
G1 X100.406 Y145.586 E0.09261
G1 X99.702 Y147.719 E0.09261
G1 X99.458 Y149.952 E0.0926
G1 X99.682 Y152.187 E0.09261
G1 X100.367 Y154.327 E0.0926
G1 X100.921 Y155.414 E0.05031
G1 X102.25 Y157.226 E0.09261
G1 X142.046 Y197.023 E2.32026
G1 X143.722 Y198.518 E0.0926
G1 X145.673 Y199.633 E0.09263
G1 X147.812 Y200.317 E0.0926
G1 X150.048 Y200.542 E0.09262
G1 X152.281 Y200.298 E0.09261
G1 X154.414 Y199.594 E0.09261
G1 X156.354 Y198.462 E0.0926
G1 X157.609 Y197.406 E0.06761
G1 X197.406 Y157.609 E2.32026
G1 X198.462 Y156.354 E0.06761
G1 X199.594 Y154.414 E0.0926
G1 X200.298 Y152.281 E0.0926
G1 X200.542 Y150.048 E0.09261
G1 X200.317 Y147.812 E0.09262
G1 X199.633 Y145.673 E0.0926
G1 X199.079 Y144.586 E0.0503
G1 X197.75 Y142.774 E0.09261
G1 X157.226 Y102.25 E2.3627
G1 X156.277 Y101.482 E0.0503
G1 X154.327 Y100.367 E0.09261
G1 X153.366 Y99.998 E0.04244
G1 X151.171 Y99.521 E0.09261
G1 X148.924 Y99.511 E0.09261
G1 X146.725 Y99.969 E0.09261
G1 X144.669 Y100.873 E0.09261
G1 X143.645 Y101.538 E0.0503
G1 X142.391 Y102.594 E0.0676
G1 X122.546 Y122.44 E1.15704
G1 X122.94 Y122.834 F36000
G1 F1800
G1 X102.988 Y142.785 E1.16322
G1 X101.971 Y143.996 E0.0652
G1 X100.902 Y145.839 E0.08782
G1 X100.24 Y147.864 E0.08782
G1 X100.014 Y149.981 E0.08781
G1 X100.233 Y152.1 E0.08782
G1 X100.887 Y154.127 E0.08781
G1 X101.388 Y155.111 E0.04551
G1 X102.643 Y156.832 E0.08781
G1 X142.44 Y196.629 E2.32026
G1 X144.026 Y198.051 E0.0878
G1 X145.873 Y199.113 E0.08783
G1 X147.9 Y199.767 E0.0878
G1 X150.019 Y199.986 E0.08783
G1 X152.137 Y199.76 E0.08781
G1 X154.161 Y199.098 E0.08781
G1 X156.004 Y198.029 E0.08781
G1 X157.215 Y197.012 E0.06521
G1 X197.012 Y157.215 E2.32026
G1 X198.029 Y156.004 E0.06521
G1 X199.098 Y154.161 E0.08781
G1 X199.76 Y152.137 E0.08781
G1 X199.986 Y150.019 E0.08782
G1 X199.767 Y147.9 E0.08783
G1 X199.113 Y145.873 E0.08781
G1 X198.612 Y144.889 E0.0455
G1 X197.357 Y143.168 E0.08782
G1 X156.832 Y102.643 E2.3627
G1 X155.974 Y101.949 E0.04549
G1 X154.127 Y100.887 E0.08782
G1 X153.166 Y100.518 E0.04244
G1 X151.083 Y100.072 E0.08782
G1 X148.953 Y100.068 E0.08781
G1 X146.869 Y100.507 E0.08782
G1 X144.921 Y101.37 E0.08782
G1 X143.996 Y101.971 E0.04549
G1 X142.785 Y102.988 E0.0652
G1 X122.993 Y122.781 E1.15394
G1 E-0.08 F3600
;WIPE_START
G1 F28800
M204 S10000
G1 X127.066 Y118.708 E-0.684
;WIPE_END
G1 E-0.036 F3600
G1 Z0.3 F36000
; printing object square_tower.stl id:0 copy 0
EXCLUDE_OBJECT_START NAME=square_tower_stl_id_0_copy_0
; acceleration to travel
G1 X115.246 Y145.216
; decel to extrusion
M204 S5000
G1 X113.113 Y150
; end travel
G1 Z0.2
G1 E0.8 F3600
;TYPE:Internal perimeter
G1 F1800
G1 X130.169 Y167.056 E0.9944
G1 X129.814 Y167.411 E0.02072
G1 X132.589 Y170.186 E0.16178
G1 X132.944 Y169.831 E0.02072
G1 X150 Y186.887 E0.9944
G1 X167.056 Y169.831 E0.9944
G1 X167.411 Y170.186 E0.02072
G1 X170.186 Y167.411 E0.16178
G1 X169.831 Y167.056 E0.02072
G1 X186.886 Y150 E0.9944
G1 X169.831 Y132.944 E0.9944
G1 X170.186 Y132.589 E0.02072
G1 X167.411 Y129.814 E0.16178
G1 X167.056 Y130.169 E0.02072
G1 X150 Y113.113 E0.9944
G1 X148.977 Y114.137 E0.05967
G1 X135.787 Y127.327 E0.769
G1 X135.431 Y126.971 E0.02072
G1 X132.657 Y129.746 E0.16178
G1 X133.012 Y130.102 E0.02072
G1 X113.166 Y149.947 E1.15704
G1 X113.901 Y150 F36000
;TYPE:External perimeter
G1 F1800
G1 X130.957 Y167.056 E0.9944
G1 X130.602 Y167.411 E0.02072
G1 X132.589 Y169.398 E0.11585
G1 X132.944 Y169.043 E0.02072
G1 X150 Y186.099 E0.9944
G1 X167.056 Y169.043 E0.9944
G1 X167.411 Y169.398 E0.02072
G1 X169.398 Y167.411 E0.11585
G1 X169.043 Y167.056 E0.02072
G1 X186.099 Y150 E0.9944
G1 X169.043 Y132.944 E0.9944
G1 X169.398 Y132.589 E0.02072
G1 X167.411 Y130.602 E0.11585
G1 X167.056 Y130.957 E0.02072
G1 X150 Y113.901 E0.9944
G1 X149.37 Y114.531 E0.0367
G1 X135.787 Y128.115 E0.79196
G1 X135.431 Y127.759 E0.02072
G1 X133.444 Y129.746 E0.11585
G1 X133.8 Y130.102 E0.02072
G1 X113.954 Y149.947 E1.15704
;WIPE_START
M204 S10000
G1 X113.548 Y150.354 F36000
;WIPE_END
G1 E-0.08 F3600
;WIPE_START
G1 F28800
G1 X117.663 Y154.384 E-0.684
;WIPE_END
G1 E-0.036 F3600
G1 Z0.3 F36000
; acceleration to travel
G1 X113.015 Y147.646
; decel to extrusion
M204 S5000
G1 X112.177 Y146.43
; end travel
G1 Z0.2
G1 E0.8 F3600
;TYPE:Internal perimeter
G1 F1800
G1 X112.254 Y146.46 E0.00343
G1 X146.459 Y112.254 E1.99424
G1 X146.076 Y111.255 E0.04415
G1 X145.943 Y110.416 E0.03502
G1 X145.987 Y109.567 E0.03501
G1 X146.207 Y108.747 E0.03502
G1 X146.593 Y107.99 E0.03502
G1 X147.127 Y107.33 E0.03502
G1 X147.787 Y106.796 E0.03502
G1 X148.544 Y106.41 E0.03502
G1 X149.364 Y106.19 E0.03502
G1 X150.213 Y106.146 E0.03502
G1 X150.805 Y106.24 E0.02473
G1 X151.051 Y106.279 E0.01029
G1 X151.844 Y106.583 E0.03502
G1 X152.557 Y107.046 E0.03502
G1 X153.157 Y107.646 E0.03502
G1 X153.62 Y108.359 E0.03502
G1 X153.924 Y109.152 E0.03502
G1 X154.057 Y109.99 E0.03502
G1 X154.013 Y110.839 E0.03502
G1 X153.793 Y111.659 E0.03501
G1 X153.507 Y112.221 E0.02599
G1 X187.779 Y146.492 E1.99813
G1 X188.34 Y146.207 E0.02597
G1 X189.161 Y145.987 E0.03505
G1 X190.01 Y145.943 E0.03501
G1 X190.848 Y146.076 E0.03502
G1 X191.641 Y146.38 E0.03501
G1 X192.354 Y146.843 E0.03502
G1 X192.954 Y147.443 E0.03501
G1 X193.417 Y148.156 E0.03502
G1 X193.721 Y148.948 E0.03501
G1 X193.854 Y149.787 E0.03502
G1 X193.81 Y150.636 E0.03501
G1 X193.59 Y151.456 E0.03501
G1 X193.204 Y152.213 E0.03502
G1 X192.67 Y152.873 E0.03501
G1 X192.01 Y153.407 E0.03502
G1 X191.253 Y153.793 E0.03502
G1 X190.432 Y154.013 E0.03502
G1 X189.584 Y154.057 E0.03501
G1 X188.745 Y153.924 E0.03502
G1 X187.746 Y153.541 E0.04415
G1 X153.54 Y187.746 E1.99424
G1 X153.924 Y188.745 E0.04415
G1 X154.057 Y189.584 E0.03502
G1 X154.013 Y190.433 E0.03501
G1 X153.793 Y191.253 E0.03501
G1 X153.407 Y192.01 E0.03502
G1 X152.873 Y192.67 E0.03502
G1 X152.213 Y193.204 E0.03502
G1 X151.456 Y193.59 E0.03502
G1 X150.636 Y193.81 E0.03501
G1 X149.787 Y193.854 E0.03501
G1 X148.948 Y193.721 E0.03502
G1 X148.156 Y193.417 E0.03502
G1 X147.443 Y192.954 E0.03502
G1 X146.843 Y192.354 E0.03501
G1 X146.38 Y191.641 E0.03502
G1 X146.076 Y190.848 E0.03502
G1 X145.943 Y190.01 E0.03502
G1 X145.987 Y189.161 E0.03501
G1 X146.207 Y188.34 E0.03504
G1 X146.492 Y187.779 E0.02597
G1 X112.221 Y153.507 E1.99814
G1 X111.659 Y153.793 E0.02599
G1 X110.839 Y154.013 E0.03501
G1 X109.99 Y154.057 E0.03502
G1 X109.151 Y153.924 E0.03502
G1 X108.359 Y153.62 E0.03502
G1 X107.646 Y153.157 E0.03501
G1 X107.046 Y152.557 E0.03502
G1 X106.583 Y151.844 E0.03501
G1 X106.279 Y151.052 E0.03502
G1 X106.146 Y150.213 E0.03502
G1 X106.19 Y149.364 E0.03502
G1 X106.41 Y148.544 E0.03501
G1 X106.796 Y147.787 E0.03501
G1 X107.33 Y147.127 E0.03502
G1 X107.99 Y146.593 E0.03502
G1 X108.747 Y146.207 E0.03501
G1 X109.567 Y145.987 E0.03501
G1 X110.416 Y145.943 E0.03502
G1 X111.255 Y146.076 E0.03501
G1 X112.107 Y146.403 E0.03763
G1 X112.116 Y145.81 F36000
;TYPE:External perimeter
G1 F1800
G1 X145.81 Y112.116 E1.96441
G1 X145.535 Y111.4 E0.03165
G1 X145.383 Y110.445 E0.03984
G1 X145.434 Y109.48 E0.03984
G1 X145.684 Y108.546 E0.03984
G1 X146.123 Y107.685 E0.03984
G1 X146.731 Y106.934 E0.03984
G1 X147.482 Y106.326 E0.03984
G1 X148.343 Y105.887 E0.03984
G1 X149.277 Y105.637 E0.03984
G1 X150.242 Y105.586 E0.03984
G1 X150.892 Y105.689 E0.02714
G1 X151.196 Y105.738 E0.0127
G1 X152.099 Y106.084 E0.03984
G1 X152.909 Y106.61 E0.03984
G1 X153.593 Y107.294 E0.03984
G1 X154.119 Y108.104 E0.03984
G1 X154.465 Y109.007 E0.03984
G1 X154.617 Y109.961 E0.03984
G1 X154.566 Y110.926 E0.03984
G1 X154.316 Y111.86 E0.03984
G1 X154.187 Y112.113 E0.01172
G1 X187.887 Y145.813 E1.96478
G1 X188.14 Y145.684 E0.01171
G1 X189.074 Y145.434 E0.03986
G1 X190.039 Y145.383 E0.03984
G1 X190.993 Y145.535 E0.03984
G1 X191.896 Y145.881 E0.03984
G1 X192.706 Y146.407 E0.03985
G1 X193.39 Y147.091 E0.03984
G1 X193.916 Y147.901 E0.03985
G1 X194.262 Y148.803 E0.03984
G1 X194.414 Y149.758 E0.03984
G1 X194.363 Y150.723 E0.03984
G1 X194.113 Y151.657 E0.03984
G1 X193.674 Y152.518 E0.03984
G1 X193.066 Y153.269 E0.03984
G1 X192.315 Y153.877 E0.03984
G1 X191.454 Y154.316 E0.03984
G1 X190.52 Y154.566 E0.03984
G1 X189.555 Y154.617 E0.03984
G1 X188.6 Y154.465 E0.03984
G1 X187.884 Y154.19 E0.03165
G1 X154.19 Y187.884 E1.96441
G1 X154.465 Y188.6 E0.03165
G1 X154.617 Y189.555 E0.03984
G1 X154.566 Y190.52 E0.03984
G1 X154.316 Y191.454 E0.03984
G1 X153.877 Y192.315 E0.03984
G1 X153.269 Y193.066 E0.03984
G1 X152.518 Y193.674 E0.03984
G1 X151.657 Y194.113 E0.03984
G1 X150.723 Y194.363 E0.03984
G1 X149.758 Y194.414 E0.03984
G1 X148.803 Y194.262 E0.03984
G1 X147.901 Y193.916 E0.03984
G1 X147.091 Y193.39 E0.03984
G1 X146.407 Y192.706 E0.03984
G1 X145.881 Y191.896 E0.03984
G1 X145.535 Y190.993 E0.03984
G1 X145.383 Y190.039 E0.03984
G1 X145.434 Y189.074 E0.03984
G1 X145.684 Y188.14 E0.03985
G1 X145.813 Y187.887 E0.01171
G1 X145.257 Y187.331 E0.03239
G1 X112.113 Y154.187 E1.93239
G1 X111.86 Y154.316 E0.01172
G1 X110.926 Y154.566 E0.03984
G1 X109.961 Y154.617 E0.03984
G1 X109.007 Y154.465 E0.03984
G1 X108.104 Y154.119 E0.03984
G1 X107.294 Y153.593 E0.03984
G1 X106.61 Y152.909 E0.03984
G1 X106.084 Y152.099 E0.03984
G1 X105.738 Y151.196 E0.03984
G1 X105.586 Y150.242 E0.03984
G1 X105.637 Y149.277 E0.03984
G1 X105.887 Y148.343 E0.03984
G1 X106.326 Y147.482 E0.03984
G1 X106.934 Y146.731 E0.03984
G1 X107.685 Y146.123 E0.03985
G1 X108.546 Y145.684 E0.03984
G1 X109.48 Y145.434 E0.03984
G1 X110.445 Y145.383 E0.03984
G1 X111.399 Y145.535 E0.03984
G1 X112.046 Y145.783 E0.02856
;WIPE_START
M204 S10000
G1 X112.516 Y146.111 F36000
;WIPE_END
G1 E-0.08 F3600
;WIPE_START
G1 F28800
G1 X116.568 Y142.017 E-0.684
;WIPE_END
G1 E-0.036 F3600
G1 Z0.3 F36000
; acceleration to travel
G1 X143.689 Y111.933
; decel to extrusion
M204 S5000
G1 X148.605 Y106.48
; end travel
G1 Z0.2
G1 E0.8 F3600
;TYPE:Solid infill
G1 F3000
G1 X150.259 Y106.48 E0.06821
G1 X150.729 Y106.555 E0.01959
G1 X151.703 Y106.877 E0.04233
G1 X151.951 Y107.037 E0.01216
G1 X148.024 Y107.037 E0.16187
G1 X147.964 Y107.068 E0.00279
G1 X147.357 Y107.56 E0.03222
G1 X147.329 Y107.594 E0.00183
G1 X152.649 Y107.594 E0.21931
G1 X152.905 Y107.851 E0.01494
G1 X153.1 Y108.152 E0.01479
G1 X146.878 Y108.152 E0.25653
G1 X146.589 Y108.709 E0.02586
G1 X153.408 Y108.709 E0.28112
G1 X153.611 Y109.236 E0.02327
G1 X153.615 Y109.266 E0.00126
G1 X146.403 Y109.266 E0.29735
G1 X146.308 Y109.618 E0.01505
G1 X146.297 Y109.823 E0.00844
G1 X153.704 Y109.823 E0.30533
G1 X153.733 Y110.007 E0.0077
G1 X153.713 Y110.38 E0.01538
G1 X146.268 Y110.38 E0.30693
G1 X146.352 Y110.937 E0.02323
G1 X153.652 Y110.937 E0.30093
G1 X153.503 Y111.494 E0.02378
G1 X146.514 Y111.494 E0.28813
G1 X146.727 Y112.051 E0.0246
G1 X153.23 Y112.051 E0.26809
G1 X153.112 Y112.283 E0.01073
G1 X153.437 Y112.608 E0.01896
G1 X146.563 Y112.608 E0.28342
G1 X146.006 Y113.165 E0.03248
G1 X149.491 Y113.165 E0.1437
G1 X150 Y112.657 E0.02966
G1 X150.509 Y113.165 E0.02966
G1 X153.994 Y113.165 E0.1437
G1 X154.552 Y113.722 E0.03248
G1 X151.066 Y113.722 E0.1437
G1 X151.623 Y114.279 E0.03248
G1 X155.109 Y114.279 E0.1437
G1 X155.666 Y114.837 E0.03248
G1 X152.18 Y114.837 E0.1437
G1 X152.737 Y115.394 E0.03248
G1 X156.223 Y115.394 E0.1437
G1 X156.78 Y115.951 E0.03248
G1 X153.294 Y115.951 E0.1437
G1 X153.851 Y116.508 E0.03248
G1 X157.337 Y116.508 E0.1437
G1 X157.894 Y117.065 E0.03248
G1 X154.408 Y117.065 E0.1437
G1 X154.965 Y117.622 E0.03248
G1 X158.451 Y117.622 E0.1437
G1 X159.008 Y118.179 E0.03248
G1 X155.522 Y118.179 E0.1437
G1 X156.079 Y118.736 E0.03248
G1 X159.565 Y118.736 E0.1437
G1 X160.122 Y119.293 E0.03248
G1 X156.637 Y119.293 E0.1437
G1 X157.194 Y119.85 E0.03248
G1 X160.679 Y119.85 E0.1437
G1 X161.236 Y120.407 E0.03248
G1 X157.751 Y120.407 E0.1437
G1 X158.308 Y120.964 E0.03248
G1 X161.794 Y120.964 E0.1437
G1 X162.351 Y121.521 E0.03248
G1 X158.865 Y121.521 E0.1437
G1 X159.422 Y122.079 E0.03248
G1 X162.908 Y122.079 E0.1437
G1 X163.465 Y122.636 E0.03248
G1 X159.979 Y122.636 E0.1437
G1 X160.536 Y123.193 E0.03248
G1 X164.022 Y123.193 E0.1437
G1 X164.579 Y123.75 E0.03248
G1 X161.093 Y123.75 E0.1437
G1 X161.65 Y124.307 E0.03248
G1 X165.136 Y124.307 E0.1437
G1 X165.693 Y124.864 E0.03248
G1 X162.207 Y124.864 E0.1437
G1 X162.764 Y125.421 E0.03248
G1 X166.25 Y125.421 E0.1437
G1 X166.807 Y125.978 E0.03248
G1 X163.322 Y125.978 E0.1437
G1 X163.879 Y126.535 E0.03248
G1 X167.364 Y126.535 E0.1437
G1 X167.921 Y127.092 E0.03248
G1 X164.436 Y127.092 E0.1437
G1 X164.993 Y127.649 E0.03248
G1 X168.478 Y127.649 E0.1437
G1 X169.036 Y128.206 E0.03248
G1 X165.55 Y128.206 E0.1437
G1 X166.107 Y128.763 E0.03248
G1 X169.593 Y128.763 E0.1437
G1 X170.15 Y129.321 E0.03248
G1 X166.664 Y129.321 E0.1437
G1 X167.056 Y129.712 E0.02284
G1 X167.411 Y129.357 E0.02072
G1 X167.932 Y129.878 E0.03035
G1 X170.707 Y129.878 E0.11441
G1 X171.264 Y130.435 E0.03248
G1 X168.489 Y130.435 E0.11441
G1 X169.046 Y130.992 E0.03248
G1 X171.821 Y130.992 E0.11441
G1 X172.378 Y131.549 E0.03248
G1 X169.603 Y131.549 E0.11441
G1 X170.16 Y132.106 E0.03248
G1 X172.935 Y132.106 E0.11441
G1 X173.492 Y132.663 E0.03248
G1 X170.569 Y132.663 E0.12053
G1 X170.288 Y132.944 E0.01639
G1 X170.564 Y133.22 E0.01609
G1 X174.049 Y133.22 E0.1437
G1 X174.606 Y133.777 E0.03248
G1 X171.121 Y133.777 E0.1437
G1 X171.678 Y134.334 E0.03248
G1 X175.163 Y134.334 E0.1437
G1 X175.721 Y134.891 E0.03248
G1 X172.235 Y134.891 E0.1437
G1 X172.792 Y135.448 E0.03248
G1 X176.278 Y135.448 E0.1437
G1 X176.835 Y136.006 E0.03248
G1 X173.349 Y136.006 E0.1437
G1 X173.906 Y136.563 E0.03248
G1 X177.392 Y136.563 E0.1437
G1 X177.949 Y137.12 E0.03248
G1 X174.463 Y137.12 E0.1437
G1 X175.02 Y137.677 E0.03248
G1 X178.506 Y137.677 E0.1437
G1 X179.063 Y138.234 E0.03248
G1 X175.577 Y138.234 E0.1437
G1 X176.134 Y138.791 E0.03248
G1 X179.62 Y138.791 E0.1437
G1 X180.177 Y139.348 E0.03248
G1 X176.691 Y139.348 E0.1437
G1 X177.248 Y139.905 E0.03248
