; generated by SuperSlicer 2.5.59 on 2023-08-20 at 17:58:53 UTC


;
;

;
;
; 

; external perimeters extrusion width = 0.50mm
; perimeters extrusion width = 0.50mm
; infill extrusion width = 0.75mm
; solid infill extrusion width = 0.65mm
; top infill extrusion width = 0.60mm
; first layer extrusion width = 0.60mm

; object:{"name":"wago_rear v1","id":"wago_rear v1.stl id:0 copy 0","object_center":[149.801006,149.823207,0.000000],"boundingbox_center":[149.801006,149.823207,8.383925],"boundingbox_size":[52.725600,52.769948,16.767850]}
EXCLUDE_OBJECT_DEFINE NAME=wago_rear_v1_stl_id_0_copy_0 CENTER=149.801006,149.823207 POLYGON=[[123.438200,155.163120],[123.442568,155.055200],[123.476096,154.942208],[123.536392,154.831968],[123.619384,154.731952],[134.231696,144.119744],[154.732240,123.619408],[154.832256,123.536432],[154.942512,123.476128],[155.055424,123.442672],[155.163424,123.438232],[155.258992,123.463248],[155.335792,123.515856],[164.214304,132.394424],[171.847664,140.027856],[171.868528,140.048736],[176.086176,145.680672],[176.138800,145.757456],[176.163808,145.853040],[176.159360,145.961024],[176.125920,146.073952],[176.065600,146.184192],[175.982624,146.284208],[156.143280,166.212272],[146.328448,176.027008],[146.228432,176.110000],[146.118176,176.170288],[146.005184,176.203824],[145.897280,176.208176],[145.801616,176.183248],[145.724896,176.130560],[140.048576,171.868384],[140.043328,171.863152],[128.640288,160.460032],[126.140304,157.960016],[123.515824,155.335488],[123.463136,155.258768],[123.438200,155.163120]]
; plater:{"center":[149.801006,149.823207,0.000000],"boundingbox_center":[149.801006,149.823207,8.383925],"boundingbox_size":[52.725600,52.769948,16.767850]}

;TYPE:Custom
PRINT_START EXTRUDER=260 BED=110 AREA_START=126.098,126.098 AREA_END=178.792,178.882
M107
G21 ; set units to millimeters
G90 ; use absolute coordinates
M83 ; use relative distances for extrusion
SET_PRESSURE_ADVANCE SMOOTH_TIME=0.02
SET_PRESSURE_ADVANCE ADVANCE=0.022
;_TOOLCHANGE 0
M104 S260 ; set temperature
M109 S260 ; set temperature and wait for it to be reached
M190 S110 ; set bed temperature and wait for it to be reached
M107
;LAYER_CHANGE
;Z:0.2
;HEIGHT:0.2
;BEFORE_LAYER_CHANGE
TIMELAPSE_TAKE_FRAME
;0.2


G1 Z0.2 F36000
;AFTER_LAYER_CHANGE
;0.2
G92 E0
G1 E-0.8 F3600
G1 Z0.3 F36000
M204 S5000
G1 X144.023 Y144.025
G1 Z0.2
G1 E0.8 F3600
;TYPE:Skirt
;WIDTH:0.6
G1 F1800
G1 X128.318 Y159.73 E0.91562
G1 X127.49 Y160.771 E0.05484
G1 X126.645 Y162.913 E0.09492
G1 X126.842 Y165.838 E0.12088
G1 X128.3 Y168.262 E0.11661
G1 X135.974 Y175.931 E0.44726
G1 X138.172 Y177.311 E0.10699
G1 X140.614 Y178.139 E0.10631
G1 X141.793 Y178.327 E0.04921
G1 X143.049 Y178.281 E0.05184
G1 X144.632 Y177.842 E0.06771
G1 X146.436 Y176.648 E0.0892
G1 X151.717 Y171.507 E0.30382
G1 X172.184 Y150.857 E1.19861
G1 X176.57 Y146.33 E0.25988
G1 X177.796 Y144.439 E0.09289
G1 X178.191 Y142.962 E0.06305
G1 X178.237 Y141.699 E0.05211
G1 X178.046 Y140.512 E0.04955
G1 X177.364 Y138.33 E0.09423
G1 X175.931 Y135.974 E0.1137
G1 X168.263 Y128.3 E0.44725
G1 X165.833 Y126.84 E0.11687
G1 X162.859 Y126.656 E0.12282
G1 X160.772 Y127.49 E0.09269
G1 X159.73 Y128.318 E0.05484
G1 X144.076 Y143.972 E0.91268
G1 X144.47 Y144.366 F36000
G1 F1800
G1 X128.712 Y160.124 E0.91871
G1 X127.958 Y161.073 E0.05
G1 X127.193 Y163.016 E0.08608
G1 X127.103 Y164.163 E0.0474
G1 X127.534 Y166.118 E0.08253
G1 X128.694 Y167.868 E0.08657
G1 X136.368 Y175.537 E0.44726
G1 X138.356 Y176.785 E0.09677
G1 X140.757 Y177.601 E0.10454
G1 X141.833 Y177.771 E0.0449
G1 X142.969 Y177.73 E0.04689
G1 X144.416 Y177.328 E0.0619
G1 X146.048 Y176.248 E0.08069
G1 X151.323 Y171.113 E0.30348
G1 X171.783 Y150.47 E1.19825
G1 X176.17 Y145.942 E0.25988
G1 X177.279 Y144.232 E0.08402
G1 X177.64 Y142.882 E0.05764
G1 X177.681 Y141.739 E0.04713
G1 X177.508 Y140.656 E0.04521
G1 X176.834 Y138.499 E0.09316
G1 X175.537 Y136.368 E0.10285
G1 X167.868 Y128.694 E0.44725
G1 X166.117 Y127.533 E0.08662
G1 X164.164 Y127.104 E0.08244
G1 X162.962 Y127.203 E0.04972
G1 X161.074 Y127.958 E0.08384
G1 X160.124 Y128.712 E0.04999
G1 X144.523 Y144.313 E0.90959
G1 E-0.08 F3600
;WIPE_START
G1 F28800
M204 S10000
G1 X148.596 Y140.24 E-0.684
;WIPE_END
G1 E-0.036 F3600
G1 Z0.3 F36000
; printing object wago_rear v1.stl id:0 copy 0
EXCLUDE_OBJECT_START NAME=wago_rear_v1_stl_id_0_copy_0
; acceleration to travel
G1 X160.713 Y147.631
; decel to extrusion
M204 S5000
G1 X162.899 Y148.964
; end travel
G1 Z0.2
G1 E0.8 F3600
;TYPE:Internal perimeter
G1 F1800
G1 X162.087 Y149.774 E0.04728
G1 X161.574 Y149.485 E0.0243
G1 X161.075 Y149.24 E0.02291
G1 X160.564 Y149.027 E0.0228
G1 X160.046 Y148.85 E0.02261
G1 X159.515 Y148.706 E0.02266
G1 X158.823 Y148.573 E0.02904
G1 X158.114 Y148.509 E0.02935
G1 X157.409 Y148.517 E0.02909
G1 X156.724 Y148.603 E0.02845
G1 X156.183 Y148.73 E0.02289
G1 X155.661 Y148.909 E0.02276
G1 X155.045 Y149.201 E0.0281
G1 X154.459 Y149.586 E0.02892
G1 X153.933 Y150.05 E0.02889
G1 X153.494 Y150.566 E0.02795
G1 X153.209 Y150.996 E0.02125
G1 X152.978 Y151.432 E0.02036
G1 X152.79 Y151.886 E0.02024
G1 X152.644 Y152.354 E0.02025
G1 X152.595 Y152.579 E0.00946
G1 X152.04 Y152.726 E0.02366
G1 X151.662 Y152.868 E0.01665
G1 X151.325 Y153.022 E0.01529
G1 X150.998 Y153.202 E0.01542
G1 X150.685 Y153.406 E0.01537
G1 X150.389 Y153.631 E0.01533
G1 X150.112 Y153.878 E0.01531
G1 X149.853 Y154.145 E0.01533
G1 X149.606 Y154.443 E0.01595
G1 X149.364 Y154.793 E0.01753
G1 X149.207 Y155.055 E0.0126
G1 X149.038 Y155.387 E0.01535
G1 X148.889 Y155.741 E0.01587
G1 X148.726 Y156.24 E0.02162
G1 X148.61 Y156.764 E0.02213
G1 X148.55 Y157.213 E0.01866
G1 X148.523 Y157.655 E0.01828
G1 X148.526 Y158.097 E0.01822
G1 X148.558 Y158.542 E0.01838
G1 X148.619 Y158.989 E0.0186
G1 X148.706 Y159.43 E0.01853
G1 X148.818 Y159.866 E0.01857
G1 X148.955 Y160.304 E0.0189
G1 X149.118 Y160.739 E0.01916
G1 X149.309 Y161.175 E0.01962
G1 X149.566 Y161.677 E0.02325
G1 X149.748 Y161.998 E0.01523
G1 X149.861 Y162.179 E0.0088
G1 X149.037 Y163.005 E0.04811
G1 X148.685 Y162.216 E0.03561
G1 X148.369 Y161.645 E0.02691
G1 X148.003 Y161.095 E0.02724
G1 X147.59 Y160.575 E0.02736
G1 X147.135 Y160.086 E0.02753
G1 X146.638 Y159.635 E0.02765
G1 X146.116 Y159.235 E0.02713
G1 X145.612 Y158.904 E0.02487
G1 X145.087 Y158.616 E0.02468
G1 X144.546 Y158.371 E0.0245
G1 X143.985 Y158.173 E0.0245
G1 X143.41 Y158.026 E0.02449
G1 X142.825 Y157.936 E0.02439
G1 X142.164 Y157.905 E0.02729
G1 X144.349 Y155.72 E0.1274
G1 X144.599 Y155.372 E0.01765
G1 X144.807 Y154.969 E0.01871
G1 X144.843 Y154.848 E0.00521
G1 X145.271 Y154.656 E0.01934
G1 X145.712 Y154.357 E0.02195
G1 X154.349 Y145.72 E0.50353
G1 X154.599 Y145.372 E0.01769
G1 X154.807 Y144.968 E0.01873
G1 X154.843 Y144.848 E0.00516
G1 X155.271 Y144.656 E0.01934
G1 X155.712 Y144.357 E0.02196
G1 X157.919 Y142.15 E0.12869
G1 X157.951 Y142.789 E0.02639
G1 X158.036 Y143.354 E0.02355
G1 X158.169 Y143.898 E0.02309
G1 X158.35 Y144.436 E0.0234
G1 X158.576 Y144.963 E0.02363
G1 X158.847 Y145.476 E0.02393
G1 X159.156 Y145.968 E0.02394
G1 X159.499 Y146.435 E0.02389
G1 X159.878 Y146.881 E0.02412
G1 X160.286 Y147.298 E0.02405
G1 X160.721 Y147.685 E0.02402
G1 X161.185 Y148.043 E0.02414
G1 X161.665 Y148.359 E0.0237
G1 X162.065 Y148.586 E0.01896
G1 X162.465 Y148.782 E0.01837
G1 X162.83 Y148.935 E0.0163
G1 X163.948 Y148.704 F36000
G1 F1800
G1 X162.162 Y150.487 E0.10404
G1 X161.773 Y150.237 E0.01908
G1 X161.314 Y149.978 E0.0217
G1 X160.845 Y149.748 E0.02154
G1 X160.367 Y149.549 E0.02136
G1 X159.882 Y149.382 E0.02112
G1 X159.39 Y149.249 E0.02104
G1 X158.745 Y149.126 E0.02704
G1 X158.092 Y149.066 E0.02704
G1 X157.447 Y149.074 E0.02662
G1 X156.823 Y149.152 E0.02593
G1 X156.338 Y149.266 E0.02054
G1 X155.871 Y149.426 E0.02033
G1 X155.318 Y149.688 E0.02521
G1 X154.797 Y150.03 E0.0257
G1 X154.332 Y150.441 E0.02562
G1 X153.939 Y150.902 E0.02493
G1 X153.688 Y151.28 E0.01874
G1 X153.482 Y151.669 E0.01814
G1 X153.315 Y152.075 E0.01812
G1 X153.183 Y152.497 E0.01821
G1 X153.06 Y153.062 E0.02384
G1 X152.833 Y153.092 E0.00945
G1 X152.211 Y153.257 E0.02654
G1 X151.877 Y153.383 E0.0147
G1 X151.576 Y153.521 E0.01366
G1 X151.284 Y153.681 E0.01372
G1 X151.006 Y153.861 E0.01366
G1 X150.744 Y154.062 E0.01361
G1 X150.497 Y154.28 E0.01358
G1 X150.268 Y154.517 E0.01359
G1 X150.05 Y154.78 E0.01405
G1 X149.833 Y155.095 E0.0158
G1 X149.694 Y155.325 E0.01105
G1 X149.544 Y155.621 E0.0137
G1 X149.411 Y155.936 E0.01411
G1 X149.264 Y156.387 E0.01954
G1 X149.159 Y156.861 E0.02003
G1 X149.105 Y157.266 E0.01685
G1 X149.08 Y157.67 E0.01666
G1 X149.083 Y158.075 E0.01671
G1 X149.112 Y158.484 E0.01691
G1 X149.168 Y158.897 E0.01717
G1 X149.25 Y159.307 E0.01721
G1 X149.354 Y159.714 E0.01732
G1 X149.482 Y160.122 E0.01765
G1 X149.635 Y160.529 E0.01792
G1 X149.813 Y160.936 E0.01832
G1 X150.056 Y161.413 E0.02206
G1 X150.226 Y161.713 E0.01421
G1 X150.462 Y162.087 E0.01823
G1 X150.576 Y162.252 E0.00828
G1 X148.743 Y164.087 E0.1069
G1 X148.622 Y163.571 E0.02186
G1 X148.429 Y163.009 E0.02447
G1 X148.185 Y162.465 E0.02459
G1 X147.893 Y161.934 E0.02498
G1 X147.552 Y161.423 E0.02533
G1 X147.168 Y160.938 E0.02549
G1 X146.743 Y160.483 E0.02566
G1 X146.281 Y160.063 E0.02574
G1 X145.794 Y159.689 E0.02532
G1 X145.324 Y159.382 E0.02312
G1 X144.838 Y159.115 E0.02289
G1 X144.337 Y158.889 E0.02264
G1 X143.823 Y158.706 E0.02249
G1 X143.299 Y158.573 E0.02232
G1 X142.77 Y158.491 E0.02207
G1 X142.244 Y158.466 E0.02169
G1 X141.728 Y158.497 E0.02131
G1 X141.22 Y158.587 E0.02127
G1 X141.065 Y158.635 E0.00668
G1 X140.908 Y158.373 E0.01258
G1 X143.923 Y155.358 E0.1758
G1 X144.123 Y155.08 E0.01409
G1 X144.288 Y154.759 E0.01492
G1 X144.4 Y154.39 E0.0159
G1 X144.714 Y154.295 E0.01352
G1 X144.999 Y154.167 E0.01289
G1 X145.356 Y153.926 E0.01776
G1 X153.923 Y145.359 E0.49948
G1 X154.122 Y145.081 E0.01411
G1 X154.288 Y144.758 E0.01493
G1 X154.399 Y144.39 E0.01586
G1 X154.713 Y144.296 E0.01351
G1 X154.999 Y144.168 E0.01289
G1 X155.355 Y143.926 E0.01776
G1 X158.39 Y140.891 E0.17695
G1 X158.651 Y141.047 E0.01254
G1 X158.595 Y141.235 E0.00808
G1 X158.509 Y141.729 E0.02067
G1 X158.481 Y142.232 E0.02077
G1 X158.506 Y142.734 E0.02072
G1 X158.583 Y143.246 E0.02136
G1 X158.704 Y143.743 E0.02107
G1 X158.871 Y144.237 E0.02149
G1 X159.08 Y144.723 E0.02179
G1 X159.33 Y145.198 E0.02213
G1 X159.617 Y145.654 E0.02223
G1 X159.937 Y146.09 E0.02227
G1 X160.29 Y146.505 E0.02248
G1 X160.671 Y146.894 E0.02245
G1 X161.077 Y147.256 E0.02242
G1 X161.509 Y147.589 E0.02247
G1 X161.956 Y147.883 E0.02209
G1 X162.326 Y148.093 E0.01752
G1 X162.696 Y148.275 E0.01702
G1 X163.072 Y148.433 E0.01679
G1 X163.4 Y148.548 E0.01434
G1 X163.876 Y148.683 E0.02042
G1 E-0.08 F3600
;WIPE_START
G1 F28800
M204 S10000
G1 X163.4 Y148.548 E-0.05881
G1 X163.072 Y148.433 E-0.04131
G1 X162.696 Y148.275 E-0.04836
G1 X162.326 Y148.093 E-0.04903
G1 X161.956 Y147.883 E-0.05046
G1 X161.509 Y147.589 E-0.06362
G1 X161.077 Y147.256 E-0.06472
G1 X160.671 Y146.894 E-0.06458
G1 X160.29 Y146.505 E-0.06467
G1 X159.937 Y146.09 E-0.06476
G1 X159.617 Y145.654 E-0.06416
G1 X159.395 Y145.301 E-0.04951
;WIPE_END
G1 E-0.036 F3600
G1 Z0.3 F36000
; acceleration to travel
G1 X161.837 Y138.939
; decel to extrusion
M204 S5000
G1 X162.278 Y137.791
; end travel
G1 Z0.2
G1 E0.8 F3600
G1 F1800
G1 X164.495 Y135.574 E0.12923
G1 X169.966 Y141.05 E0.31911
G1 X170.09 Y141.771 E0.03019
G1 X169.096 Y142.767 E0.05802
G1 X168.799 Y142.102 E0.03004
G1 X168.483 Y141.531 E0.02691
G1 X168.117 Y140.981 E0.02724
G1 X167.704 Y140.461 E0.02736
G1 X167.249 Y139.972 E0.02753
G1 X166.753 Y139.521 E0.02765
G1 X166.23 Y139.121 E0.02713
G1 X165.726 Y138.79 E0.02487
G1 X165.201 Y138.502 E0.02467
G1 X164.66 Y138.257 E0.0245
G1 X164.1 Y138.059 E0.0245
G1 X163.524 Y137.912 E0.02449
G1 X162.939 Y137.822 E0.02439
G1 X162.353 Y137.795 E0.02419
G1 X161.18 Y138.521 F36000
G1 F1800
G1 X161.022 Y138.259 E0.01258
G1 X163.922 Y135.359 E0.16908
G1 X164.122 Y135.081 E0.01411
G1 X164.349 Y134.64 E0.02045
G1 X170.485 Y140.781 E0.35791
G1 X170.688 Y141.961 E0.04937
G1 X168.824 Y143.829 E0.10878
G1 X168.736 Y143.457 E0.01575
G1 X168.543 Y142.895 E0.02448
G1 X168.3 Y142.351 E0.02459
G1 X168.007 Y141.82 E0.02498
G1 X167.666 Y141.309 E0.02533
G1 X167.282 Y140.824 E0.0255
G1 X166.857 Y140.369 E0.02566
G1 X166.395 Y139.949 E0.02574
G1 X165.908 Y139.575 E0.02532
G1 X165.438 Y139.268 E0.02312
G1 X164.952 Y139.001 E0.02289
G1 X164.452 Y138.775 E0.02264
G1 X163.937 Y138.592 E0.02249
G1 X163.413 Y138.459 E0.02232
G1 X162.884 Y138.377 E0.02206
G1 X162.358 Y138.352 E0.02169
G1 X161.842 Y138.383 E0.02131
G1 X161.334 Y138.473 E0.02127
G1 X161.251 Y138.498 E0.00358
G1 E-0.08 F3600
;WIPE_START
G1 F28800
M204 S10000
G1 X161.334 Y138.473 E-0.0103
G1 X161.842 Y138.383 E-0.06126
G1 X162.358 Y138.352 E-0.06137
G1 X162.884 Y138.377 E-0.06247
G1 X163.413 Y138.459 E-0.06356
G1 X163.937 Y138.592 E-0.06429
G1 X164.452 Y138.775 E-0.06479
G1 X164.952 Y139.001 E-0.06521
G1 X165.438 Y139.268 E-0.06593
G1 X165.908 Y139.575 E-0.06661
G1 X166.395 Y139.949 E-0.07293
G1 X166.553 Y140.092 E-0.02527
;WIPE_END
G1 E-0.036 F3600
G1 Z0.3 F36000
; acceleration to travel
G1 X146.526 Y164.693
; decel to extrusion
M204 S5000
G1 X142.913 Y169.132
; end travel
G1 Z0.2
G1 E0.8 F3600
G1 F1800
G1 X141.928 Y170.117 E0.05742
G1 X141.05 Y169.966 E0.03674
G1 X135.574 Y164.494 E0.31911
G1 X137.805 Y162.264 E0.13005
G1 X137.837 Y162.907 E0.02656
G1 X137.921 Y163.465 E0.02327
G1 X138.055 Y164.012 E0.0232
G1 X138.236 Y164.55 E0.0234
G1 X138.462 Y165.077 E0.02363
G1 X138.733 Y165.59 E0.02393
G1 X139.042 Y166.081 E0.02394
G1 X139.385 Y166.549 E0.02389
G1 X139.764 Y166.995 E0.02412
G1 X140.172 Y167.412 E0.02405
G1 X140.607 Y167.799 E0.02403
G1 X141.071 Y168.156 E0.02414
G1 X141.551 Y168.473 E0.0237
G1 X141.951 Y168.699 E0.01896
G1 X142.351 Y168.896 E0.01837
G1 X142.844 Y169.103 E0.02202
G1 X143.975 Y168.858 F36000
G1 F1800
G1 X142.118 Y170.715 E0.10826
G1 X140.781 Y170.485 E0.05592
G1 X134.626 Y164.334 E0.35874
G1 X135 Y164.167 E0.01688
G1 X135.356 Y163.925 E0.01775
G1 X138.276 Y161.005 E0.17026
G1 X138.537 Y161.161 E0.01254
G1 X138.481 Y161.349 E0.0081
G1 X138.395 Y161.843 E0.02067
G1 X138.367 Y162.346 E0.02077
G1 X138.392 Y162.852 E0.02088
G1 X138.468 Y163.358 E0.02109
G1 X138.59 Y163.857 E0.02119
G1 X138.757 Y164.351 E0.02149
G1 X138.966 Y164.836 E0.02179
G1 X139.215 Y165.312 E0.02213
G1 X139.503 Y165.768 E0.02224
G1 X139.823 Y166.203 E0.02227
G1 X140.176 Y166.619 E0.02248
G1 X140.557 Y167.008 E0.02245
G1 X140.963 Y167.37 E0.02242
G1 X141.395 Y167.702 E0.02247
G1 X141.842 Y167.997 E0.02208
G1 X142.212 Y168.207 E0.01752
G1 X142.582 Y168.389 E0.01702
G1 X142.958 Y168.546 E0.01679
G1 X143.286 Y168.662 E0.01436
G1 X143.903 Y168.837 E0.02641
G1 E-0.08 F3600
;WIPE_START
G1 F28800
M204 S10000
G1 X143.286 Y168.662 E-0.07608
G1 X142.958 Y168.546 E-0.04136
G1 X142.582 Y168.389 E-0.04836
G1 X142.212 Y168.207 E-0.04904
G1 X141.842 Y167.997 E-0.05046
G1 X141.395 Y167.702 E-0.06361
G1 X140.963 Y167.37 E-0.06472
G1 X140.557 Y167.008 E-0.06459
G1 X140.176 Y166.619 E-0.06467
G1 X139.823 Y166.203 E-0.06476
G1 X139.503 Y165.768 E-0.06416
G1 X139.359 Y165.538 E-0.0322
;WIPE_END
G1 E-0.036 F3600
G1 Z0.3 F36000
; acceleration to travel
G1 X143.205 Y155.675
; decel to extrusion
M204 S5000
G1 X143.899 Y153.895
; end travel
G1 Z0.2
G1 E0.8 F3600
G1 F1800
G1 X144.308 Y153.835 E0.01706
G1 X144.519 Y153.772 E0.00906
G1 X144.727 Y153.679 E0.0094
G1 X144.999 Y153.494 E0.01357
G1 X153.497 Y144.997 E0.49543
G1 X153.646 Y144.789 E0.01054
G1 X153.769 Y144.549 E0.01114
G1 X153.854 Y144.268 E0.01208
G1 X153.898 Y143.896 E0.01547
G1 X154.308 Y143.836 E0.01706
G1 X154.518 Y143.773 E0.00906
G1 X154.726 Y143.68 E0.0094
G1 X154.999 Y143.495 E0.01357
G1 X163.496 Y134.997 E0.49543
G1 X163.645 Y134.79 E0.01054
G1 X163.769 Y134.549 E0.01114
G1 X163.854 Y134.269 E0.01208
G1 X163.89 Y133.963 E0.0127
G1 X163.85 Y133.353 E0.0252
G1 X171.005 Y140.512 E0.41726
G1 X171.239 Y141.88 E0.0572
G1 X171.398 Y142.039 E0.00925
G1 X168.428 Y145.013 E0.1733
G1 X168.322 Y144.131 E0.03662
G1 X168.2 Y143.612 E0.02201
G1 X168.024 Y143.1 E0.0223
G1 X167.801 Y142.599 E0.02261
G1 X167.53 Y142.11 E0.02305
