; generated by SuperSlicer 2.5.59 on 2023-06-18 at 05:03:29 UTC


;
;

;
;
; 

; external perimeters extrusion width = 0.45mm
; perimeters extrusion width = 0.45mm
; infill extrusion width = 0.45mm
; solid infill extrusion width = 0.45mm
; top infill extrusion width = 0.40mm
; first layer extrusion width = 0.60mm

; object:{"name":"x_endstop_holder","id":"x_endstop_holder.STL id:0 copy 0","object_center":[150.000002,150.000001,0.000000],"boundingbox_center":[150.000002,150.000001,2.950000],"boundingbox_size":[37.526152,37.526152,5.900000]}
EXCLUDE_OBJECT_DEFINE NAME=x_endstop_holder_STL_id_0_copy_0 CENTER=150.000002,150.000001 POLYGON=[[131.236936,155.200832],[131.237744,155.153024],[131.240208,155.105280],[131.244280,155.057664],[131.249968,155.010192],[131.257296,154.962960],[131.266224,154.916000],[131.276736,154.869376],[131.288848,154.823120],[131.302520,154.777312],[131.317768,154.732000],[131.334536,154.687248],[131.352848,154.643072],[131.372616,154.599552],[131.393888,154.556752],[131.416608,154.514672],[131.440752,154.473424],[131.466280,154.432992],[131.493176,154.393472],[131.521408,154.354912],[131.550936,154.317312],[131.581728,154.280752],[131.613752,154.245248],[131.646976,154.210880],[143.257744,142.600112],[143.307968,142.551616],[143.359856,142.504912],[143.413312,142.460032],[143.468320,142.417072],[143.524816,142.376016],[143.582688,142.336992],[143.641872,142.300000],[161.188656,131.950320],[161.339792,131.863064],[161.493904,131.781128],[161.650752,131.704624],[161.810176,131.633640],[161.972000,131.568256],[162.136000,131.508560],[162.301984,131.454632],[162.469744,131.406528],[162.639088,131.364304],[162.809792,131.328016],[162.981680,131.297712],[163.154496,131.273424],[163.328064,131.255192],[163.502160,131.243008],[163.676576,131.236920],[163.851104,131.236920],[164.025536,131.243008],[164.199616,131.255192],[164.373184,131.273424],[164.546016,131.297712],[164.717888,131.328016],[164.888592,131.364304],[165.057936,131.406528],[165.225712,131.454632],[165.359648,131.497648],[165.391680,131.508560],[165.520336,131.554840],[165.555680,131.568256],[165.678992,131.617480],[165.717504,131.633640],[165.835424,131.685488],[165.876944,131.704624],[165.989424,131.758792],[166.033792,131.781128],[166.140832,131.837312],[166.187904,131.863056],[166.289504,131.920944],[166.339040,131.950320],[166.435216,132.009616],[166.487024,132.042800],[166.577824,132.103184],[166.631728,132.140400],[166.717168,132.201568],[166.772912,132.242984],[166.853056,132.304640],[166.910448,132.350432],[166.985344,132.412312],[167.044144,132.462616],[167.113904,132.524416],[167.173824,132.579392],[167.238560,132.640840],[167.299376,132.700624],[167.359168,132.761448],[167.420608,132.826176],[167.475584,132.886096],[167.537392,132.955856],[167.587696,133.014648],[167.649568,133.089552],[167.695360,133.146944],[167.757024,133.227080],[167.798432,133.282840],[167.859600,133.368272],[167.896816,133.422184],[167.957200,133.512968],[167.990384,133.564792],[168.049680,133.660968],[168.079056,133.710496],[168.136944,133.812104],[168.162688,133.859160],[168.218880,133.966200],[168.241216,134.010576],[168.295376,134.123064],[168.314512,134.164584],[168.366368,134.282496],[168.382528,134.321008],[168.431744,134.444320],[168.445168,134.479664],[168.491440,134.608320],[168.502352,134.640352],[168.545360,134.774288],[168.593472,134.942064],[168.635696,135.111408],[168.671984,135.282112],[168.702288,135.453984],[168.726576,135.626816],[168.744816,135.800384],[168.756992,135.974480],[168.763072,136.148896],[168.763072,136.323424],[168.756992,136.497840],[168.744816,136.671936],[168.726576,136.845504],[168.702288,137.018320],[168.671984,137.190208],[168.635696,137.360912],[168.593472,137.530256],[168.545360,137.698016],[168.491440,137.864000],[168.431744,138.028000],[168.366368,138.189824],[168.295376,138.349248],[168.218880,138.506096],[168.136928,138.660208],[168.049680,138.811344],[157.694512,156.367200],[157.658032,156.424944],[157.619616,156.481392],[157.579280,156.536512],[157.537088,156.590208],[157.493088,156.642464],[157.447344,156.693152],[157.399888,156.742256],[145.789120,168.353024],[145.754752,168.386240],[145.719248,168.418272],[145.682688,168.449072],[145.645104,168.478592],[145.606528,168.506816],[145.567008,168.533728],[145.526576,168.559264],[145.485328,168.583392],[145.443248,168.606112],[145.400448,168.627376],[145.356928,168.647152],[145.312752,168.665472],[145.268000,168.682240],[145.222688,168.697472],[145.176880,168.711152],[145.130624,168.723264],[145.084000,168.733792],[145.037056,168.742704],[144.989808,168.750032],[144.942336,168.755744],[144.894720,168.759792],[144.846976,168.762256],[144.799168,168.763056],[143.964864,168.763056],[143.964640,168.762848],[143.961440,168.759664],[131.258192,156.056416],[131.240344,156.038560],[131.237152,156.035360],[131.236936,156.035136],[131.236936,155.200832]]
; plater:{"center":[150.000002,150.000001,0.000000],"boundingbox_center":[150.000002,150.000001,2.950000],"boundingbox_size":[37.526152,37.526152,5.900000]}

;TYPE:Custom
PRINT_START EXTRUDER=280 BED=110 AREA_START=129.842,130.321 AREA_END=169.678,170.158
M107
G21 ; set units to millimeters
G90 ; use absolute coordinates
M83 ; use relative distances for extrusion
M900 K0.2 ; Filament gcode
;_TOOLCHANGE 0
M109 S280 ; set temperature and wait for it to be reached
M190 S110 ; set bed temperature and wait for it to be reached
M107
;LAYER_CHANGE
;Z:0.25
;HEIGHT:0.25
;BEFORE_LAYER_CHANGE
TIMELAPSE_TAKE_FRAME
;0.25


G1 Z0.25 F10800
;AFTER_LAYER_CHANGE
;0.25
G92 E0
G1 E-0.8 F3600
G1 Z0.35 F10800
M204 S1000
G1 X141.991 Y142.8
G1 Z0.25
G1 E0.8 F3600
;TYPE:Skirt
;WIDTH:0.65
G1 F900
G1 X131.083 Y153.647 E0.86768
G1 X130.749 Y154.077 E0.03071
G1 X130.446 Y155.052 E0.05758
G1 X130.439 Y156.029 E0.05514
G1 X130.673 Y156.6 E0.03477
G1 X143.4 Y169.327 E1.01529
G1 X143.966 Y169.561 E0.0345
G1 X144.942 Y169.555 E0.05508
G1 X145.586 Y169.414 E0.03717
G1 X146.258 Y169.005 E0.04439
G1 X157.964 Y157.307 E0.93347
G1 X158.442 Y156.667 E0.04501
G1 X169.003 Y135.634 E1.32753
G1 X169.082 Y135.014 E0.03529
G1 X168.99 Y134.493 E0.02984
G1 X168.591 Y133.581 E0.05612
G1 X168.079 Y132.811 E0.05218
G1 X167.485 Y132.174 E0.04912
G1 X166.731 Y131.593 E0.05371
G1 X165.845 Y131.135 E0.05625
G1 X165.099 Y130.927 E0.04366
G1 X164.153 Y131.074 E0.05405
G1 X143.08 Y141.717 E1.33156
G1 X142.044 Y142.747 E0.08243
G1 E-0.08 F3600
;WIPE_START
G1 F8640
M204 S3000
G1 X143.08 Y141.717 E-0.57849
G1 X143.318 Y141.597 E-0.10551
;WIPE_END
G1 E-0.036 F3600
G1 Z0.35 F10800
; printing object x_endstop_holder.STL id:0 copy 0
EXCLUDE_OBJECT_START NAME=x_endstop_holder_STL_id_0_copy_0
; acceleration to travel
M204 S1500
G1 X153.696 Y152.078
; decel to extrusion
M204 S1000
G1 X156.204 Y154.611
; end travel
G1 Z0.25
G1 E0.8 F3600
;TYPE:Internal perimeter
;WIDTH:0.6
G1 F900
G1 X156.483 Y154.477 E0.01602
G1 X156.628 Y154.622 E0.01063
G1 X156.767 Y154.787 E0.01115
G1 X156.894 Y155.049 E0.01504
G1 X156.936 Y155.296 E0.01292
G1 X156.932 Y155.425 E0.00671
G1 X156.91 Y155.553 E0.00671
G1 X156.815 Y155.794 E0.01339
G1 X156.635 Y156.028 E0.01524
G1 X156.432 Y156.23 E0.01479
G1 X156.142 Y156.062 E0.01737
G1 X156.225 Y155.753 E0.01651
G1 X156.274 Y155.236 E0.02686
G1 X156.212 Y154.686 E0.02861
G1 E-0.08 F3600
;WIPE_START
G1 F8640
M204 S3000
G1 X156.274 Y155.236 E-0.21917
G1 X156.225 Y155.753 E-0.20572
G1 X156.142 Y156.062 E-0.12648
G1 X156.431 Y156.23 E-0.13264
;WIPE_END
G1 E-0.036 F3600
G1 Z0.35 F10800
; acceleration to travel
M204 S1500
G1 X150.306 Y162.361
; decel to extrusion
M204 S1000
G1 X148.825 Y163.843
; end travel
G1 Z0.25
G1 E0.8 F3600
G1 F900
G1 X147.577 Y165.092 E0.09126
G1 X147.417 Y164.506 E0.03137
G1 X147.034 Y163.838 E0.03982
G1 X147.839 Y163.917 E0.04178
G1 X148.751 Y163.848 E0.04727
G1 E-0.08 F3600
;WIPE_START
G1 F8640
M204 S3000
G1 X147.839 Y163.917 E-0.36207
G1 X147.034 Y163.838 E-0.32003
G1 X147.036 Y163.842 E-0.0019
;WIPE_END
G1 E-0.036 F3600
G1 Z0.35 F10800
; acceleration to travel
M204 S1500
G1 X143.687 Y163.997
; decel to extrusion
M204 S1000
G1 X142.878 Y164.035
; end travel
G1 Z0.25
G1 E0.8 F3600
G1 F900
G1 X142.574 Y164.631 E0.03456
G1 X142.443 Y165.091 E0.02471
G1 X142.391 Y165.71 E0.03211
G1 X140.857 Y164.177 E0.11207
G1 X141.989 Y164.22 E0.0585
G1 X142.804 Y164.05 E0.04304
G1 E-0.08 F3600
;WIPE_START
G1 F8640
M204 S3000
G1 X141.989 Y164.22 E-0.32968
G1 X141.094 Y164.186 E-0.35431
;WIPE_END
G1 E-0.036 F3600
G1 Z0.35 F10800
; acceleration to travel
M204 S1500
G1 X136.854 Y159.793
; decel to extrusion
M204 S1000
G1 X135.829 Y158.732
; end travel
G1 Z0.25
G1 E0.8 F3600
G1 F900
G1 X135.549 Y158.87 E0.01617
G1 X134.3 Y157.622 E0.09121
G1 X135 Y157.539 E0.0364
G1 X135.454 Y157.391 E0.02469
G1 X135.959 Y157.111 E0.02984
G1 X135.792 Y157.938 E0.04358
G1 X135.78 Y158.353 E0.02145
G1 X135.82 Y158.657 E0.01589
G1 E-0.08 F3600
;WIPE_START
G1 F8640
M204 S3000
G1 X135.78 Y158.353 E-0.12171
G1 X135.792 Y157.938 E-0.1643
G1 X135.959 Y157.111 E-0.33382
G1 X135.818 Y157.19 E-0.06417
;WIPE_END
G1 E-0.036 F3600
G1 Z0.35 F10800
; acceleration to travel
M204 S1500
G1 X136.136 Y153.767
; decel to extrusion
M204 S1000
G1 X136.214 Y152.94
; end travel
G1 Z0.25
G1 E0.8 F3600
G1 F900
G1 X135.312 Y152.513 E0.05156
G1 X134.893 Y152.438 E0.02201
G1 X136.129 Y151.202 E0.09033
G1 X136.088 Y152.342 E0.05896
G1 X136.198 Y152.867 E0.02769
G1 E-0.08 F3600
;WIPE_START
G1 F8640
M204 S3000
G1 X136.088 Y152.342 E-0.21213
G1 X136.129 Y151.202 E-0.45161
G1 X136.093 Y151.238 E-0.02026
;WIPE_END
G1 E-0.036 F3600
G1 Z0.35 F10800
; acceleration to travel
M204 S1500
G1 X142.402 Y145.273
; decel to extrusion
M204 S1000
G1 X143.927 Y143.832
; end travel
G1 Z0.25
G1 E0.8 F3600
G1 F900
G1 X143.787 Y143.55 E0.01624
G1 X143.959 Y143.379 E0.01252
G1 X144.163 Y143.214 E0.01357
G1 X144.309 Y143.136 E0.00855
G1 X144.545 Y143.072 E0.01265
G1 X144.79 Y143.073 E0.01266
G1 X145.015 Y143.13 E0.01197
G1 X145.22 Y143.239 E0.01204
G1 X145.534 Y143.528 E0.02203
G1 X145.368 Y143.818 E0.01727
G1 X145.142 Y143.759 E0.01204
G1 X144.69 Y143.727 E0.02345
G1 X144.001 Y143.821 E0.03591
G1 E-0.08 F3600
;WIPE_START
G1 F8640
M204 S3000
G1 X144.69 Y143.727 E-0.2751
G1 X145.142 Y143.759 E-0.17961
G1 X145.368 Y143.818 E-0.09225
G1 X145.534 Y143.528 E-0.13232
G1 X145.525 Y143.52 E-0.00471
;WIPE_END
G1 E-0.036 F3600
G1 Z0.35 F10800
; acceleration to travel
M204 S1500
G1 X149.896 Y147.305
; decel to extrusion
M204 S1000
G1 X150.953 Y148.22
; end travel
G1 Z0.25
G1 E0.8 F3600
G1 F900
G1 X161.086 Y138.082 E0.7407
G1 X161.651 Y138.696 E0.04312
G1 X161.94 Y138.883 E0.01774
G1 X151.78 Y149.048 E0.74265
G1 X151.006 Y148.273 E0.0566
G1 X150.203 Y148.197 F10800
G1 F900
G1 X160.719 Y137.677 E0.76866
G1 X161.241 Y137.113 E0.03971
G1 X161.592 Y137.825 E0.04102
G1 X162.006 Y138.275 E0.03161
G1 X162.465 Y138.572 E0.02826
G1 X162.931 Y138.716 E0.02518
G1 X162.379 Y139.215 E0.03846
G1 X151.781 Y149.82 E0.77479
G1 X150.21 Y148.25 E0.11477
G1 E-0.08 F3600
;WIPE_START
G1 F8640
M204 S3000
G1 X151.432 Y149.472 E-0.684
;WIPE_END
G1 E-0.036 F3600
G1 Z0.35 F10800
; acceleration to travel
M204 S1500
G1 X147.875 Y162.463
; decel to extrusion
M204 S1000
G1 X147.016 Y165.603
; end travel
G1 Z0.25
G1 E0.8 F3600
;TYPE:External perimeter
G1 F900
G1 X147.027 Y165.152 E0.02333
G1 X146.908 Y164.717 E0.02328
G1 X146.69 Y164.337 E0.02266
G1 X146.444 Y164.061 E0.0191
G1 X146.155 Y163.834 E0.019
G1 X145.775 Y163.641 E0.02203
G1 X145.418 Y163.538 E0.01919
G1 X144.989 Y163.501 E0.02225
G1 X144.562 Y163.553 E0.02225
G1 X144.209 Y163.668 E0.01919
G1 X143.836 Y163.875 E0.02202
G1 X143.551 Y164.113 E0.01919
G1 X143.28 Y164.448 E0.02225
G1 X143.085 Y164.832 E0.02226
G1 X142.983 Y165.189 E0.01922
G1 X142.947 Y165.621 E0.02238
G1 X143.008 Y166.051 E0.02245
G1 X143.138 Y166.407 E0.01957
G1 X143.372 Y166.757 E0.02177
G1 X143.601 Y167.009 E0.01762
G1 X143.906 Y167.281 E0.02108
G1 X144.292 Y167.498 E0.0229
G1 X144.738 Y167.592 E0.02355
G1 X145.126 Y167.552 E0.02018
G1 X145.822 Y167.283 E0.03857
G1 X146.106 Y167.119 E0.0169
G1 X146.4 Y166.863 E0.02017
G1 X146.639 Y166.546 E0.02051
G1 X146.902 Y165.942 E0.03405
G1 X146.992 Y165.674 E0.01459
;WIPE_START
M204 S3000
G1 X147.476 Y165.409 F10800
;WIPE_END
G1 E-0.08 F3600
;WIPE_START
G1 F8640
G1 X147.278 Y165.122 E-0.13826
G1 X147.141 Y164.621 E-0.20553
G1 X146.894 Y164.19 E-0.19653
G1 X146.653 Y163.919 E-0.14368
;WIPE_END
G1 E-0.036 F3600
G1 Z0.35 F10800
; acceleration to travel
M204 S1500
G1 X137.384 Y155.156
; decel to extrusion
M204 S1000
G1 X135.144 Y153.038
; end travel
G1 Z0.25
G1 E0.8 F3600
G1 F900
G1 X134.701 Y152.959 E0.02324
G1 X134.316 Y153.002 E0.02003
G1 X133.619 Y153.274 E0.03864
G1 X133.29 Y153.472 E0.01985
G1 X133.043 Y153.695 E0.0172
G1 X132.809 Y154.004 E0.02003
G1 X132.67 Y154.29 E0.01642
G1 X132.565 Y154.567 E0.01532
G1 X132.433 Y154.952 E0.02102
G1 X132.427 Y155.41 E0.02366
G1 X132.563 Y155.84 E0.02335
G1 X132.766 Y156.152 E0.01924
G1 X133.038 Y156.445 E0.02062
G1 X133.298 Y156.672 E0.01783
G1 X133.664 Y156.896 E0.02219
G1 X134.084 Y157.022 E0.02265
G1 X134.457 Y157.053 E0.01937
G1 X134.882 Y157.002 E0.02211
G1 X135.236 Y156.888 E0.01921
G1 X135.608 Y156.681 E0.02203
G1 X135.893 Y156.442 E0.01919
G1 X136.164 Y156.108 E0.02225
G1 X136.361 Y155.72 E0.02248
G1 X136.473 Y155.304 E0.02225
G1 X136.499 Y154.934 E0.01919
G1 X136.447 Y154.511 E0.02202
G1 X136.332 Y154.158 E0.01919
G1 X136.123 Y153.781 E0.02226
G1 X135.839 Y153.456 E0.0223
G1 X135.542 Y153.227 E0.01938
G1 X135.212 Y153.07 E0.01891
;WIPE_START
M204 S3000
G1 X135.016 Y152.554 F10800
;WIPE_END
G1 E-0.08 F3600
;WIPE_START
G1 F8640
G1 X134.709 Y152.706 E-0.13561
G1 X134.256 Y152.758 E-0.18074
G1 X133.509 Y153.049 E-0.31727
G1 X133.4 Y153.114 E-0.05038
;WIPE_END
G1 E-0.036 F3600
G1 Z0.35 F10800
; acceleration to travel
M204 S1500
G1 X136.081 Y152.812
; decel to extrusion
M204 S1000
G1 X136.729 Y152.739
; end travel
G1 Z0.25
G1 E0.8 F3600
G1 F900
G1 X136.864 Y153.043 E0.01718
G1 X137.082 Y153.388 E0.02109
G1 X137.231 Y153.672 E0.01659
G1 X137.414 Y154.178 E0.02779
G1 X137.495 Y154.597 E0.02206
G1 X137.514 Y155.131 E0.0276
G1 X137.441 Y155.661 E0.02765
G1 X137.279 Y156.167 E0.02748
G1 X137.032 Y156.641 E0.0276
G1 X136.581 Y157.259 E0.03952
G1 X136.404 Y157.669 E0.02309
G1 X136.336 Y158 E0.01746
G1 X136.328 Y158.325 E0.01679
G1 X136.363 Y158.595 E0.01406
G1 X136.454 Y158.906 E0.01679
G1 X136.601 Y159.206 E0.01724
G1 X136.827 Y159.502 E0.01926
G1 X140.497 Y163.172 E0.26819
G1 X140.695 Y163.332 E0.01319
G1 X140.921 Y163.468 E0.01361
G1 X141.168 Y163.573 E0.01384
G1 X141.491 Y163.654 E0.01724
G1 X141.943 Y163.671 E0.02336
G1 X142.394 Y163.577 E0.02381
G1 X142.802 Y163.382 E0.02337
G1 X143.177 Y163.093 E0.02447
G1 X143.447 Y162.914 E0.01674
G1 X143.832 Y162.721 E0.02224
G1 X144.339 Y162.559 E0.02752
G1 X144.868 Y162.486 E0.02756
G1 X145.402 Y162.505 E0.02764
G1 X145.924 Y162.616 E0.02756
G1 X146.42 Y162.814 E0.0276
G1 X147.081 Y163.2 E0.03955
G1 X147.508 Y163.335 E0.02314
G1 X147.845 Y163.369 E0.01751
G1 X148.174 Y163.344 E0.01705
G1 X148.494 Y163.262 E0.01705
G1 X148.791 Y163.129 E0.01683
G1 X149.015 Y162.982 E0.01385
G1 X149.198 Y162.823 E0.01256
G1 X154.914 Y157.105 E0.41779
G1 X155.172 Y156.799 E0.02069
G1 X155.424 Y156.396 E0.02458
G1 X155.584 Y156.031 E0.02056
G1 X155.686 Y155.656 E0.0201
G1 X155.725 Y155.241 E0.02151
G1 X155.679 Y154.835 E0.02113
G1 X155.541 Y154.451 E0.02108
G1 X155.307 Y154.12 E0.02095
G1 X145.888 Y144.7 E0.68836
G1 X145.669 Y144.529 E0.01437
G1 X145.375 Y144.384 E0.01693
G1 X145.053 Y144.3 E0.01717
G1 X144.708 Y144.276 E0.01789
G1 X144.196 Y144.346 E0.02668
G1 X143.75 Y144.504 E0.02445
G1 X143.328 Y144.738 E0.02494
G1 X142.899 Y145.081 E0.02839
G1 X137.135 Y150.846 E0.42126
G1 X136.974 Y151.045 E0.01322
G1 X136.836 Y151.275 E0.01387
G1 X136.716 Y151.573 E0.0166
G1 X136.653 Y151.847 E0.01455
G1 X136.636 Y152.296 E0.02319
G1 X136.714 Y152.665 E0.01954
;WIPE_START
M204 S3000
G1 X136.407 Y153.121 F10800
;WIPE_END
G1 E-0.08 F3600
;WIPE_START
G1 F8640
G1 X136.865 Y153.513 E-0.23869
G1 X137.002 Y153.773 E-0.11632
