; generated by SuperSlicer 2.5.59 on 2023-06-18 at 03:55:48 UTC


;
;

;
;
; 

; external perimeters extrusion width = 0.45mm
; perimeters extrusion width = 0.45mm
; infill extrusion width = 0.45mm
; solid infill extrusion width = 0.45mm
; top infill extrusion width = 0.40mm
; first layer extrusion width = 0.60mm

; external perimeters extrusion width = 0.45mm
; perimeters extrusion width = 0.45mm
; infill extrusion width = 0.45mm
; solid infill extrusion width = 0.45mm
; top infill extrusion width = 0.40mm
; first layer extrusion width = 0.60mm

; external perimeters extrusion width = 0.45mm
; perimeters extrusion width = 0.45mm
; infill extrusion width = 0.45mm
; solid infill extrusion width = 0.45mm
; top infill extrusion width = 0.40mm
; first layer extrusion width = 0.60mm

; external perimeters extrusion width = 0.45mm
; perimeters extrusion width = 0.45mm
; infill extrusion width = 0.45mm
; solid infill extrusion width = 0.45mm
; top infill extrusion width = 0.40mm
; first layer extrusion width = 0.60mm

; external perimeters extrusion width = 0.45mm
; perimeters extrusion width = 0.45mm
; infill extrusion width = 0.45mm
; solid infill extrusion width = 0.45mm
; top infill extrusion width = 0.40mm
; first layer extrusion width = 0.60mm

; object:{"name":"x_endstop_holder","id":"x_endstop_holder.STL id:0 copy 0","object_center":[136.681982,140.711661,0.000000],"boundingbox_center":[136.681982,140.711661,2.950000],"boundingbox_size":[37.526152,37.526152,5.900000]}
EXCLUDE_OBJECT_DEFINE NAME=x_endstop_holder_STL_id_0_copy_0 CENTER=136.681982,140.711661 POLYGON=[[117.918904,145.912512],[117.919720,145.864704],[117.922176,145.816960],[117.926248,145.769328],[117.931944,145.721856],[117.939264,145.674624],[117.948192,145.627664],[117.958712,145.581040],[117.970824,145.534784],[117.984504,145.488976],[117.999744,145.443664],[118.016520,145.398912],[118.034816,145.354736],[118.054600,145.311216],[118.075864,145.268416],[118.098584,145.226352],[118.122720,145.185088],[118.148256,145.144672],[118.175152,145.105152],[118.203384,145.066576],[118.232912,145.028976],[118.263712,144.992416],[118.295736,144.956928],[118.328960,144.922544],[129.939728,133.311784],[129.989944,133.263288],[130.041824,133.216584],[130.095288,133.171704],[130.150296,133.128736],[130.206784,133.087696],[130.264664,133.048664],[130.323856,133.011672],[147.870640,122.661984],[148.021776,122.574728],[148.175872,122.492800],[148.332736,122.416288],[148.492160,122.345304],[148.653984,122.279920],[148.817984,122.220232],[148.983968,122.166304],[149.151712,122.118192],[149.321056,122.075976],[149.491776,122.039696],[149.663648,122.009384],[149.836464,121.985096],[150.010048,121.966856],[150.184144,121.954680],[150.358544,121.948592],[150.533088,121.948592],[150.707504,121.954680],[150.881600,121.966856],[151.055168,121.985104],[151.228000,122.009384],[151.399872,122.039688],[151.570576,122.075984],[151.739920,122.118192],[151.907680,122.166304],[152.041632,122.209328],[152.073648,122.220240],[152.202320,122.266512],[152.237664,122.279920],[152.360960,122.329144],[152.399472,122.345304],[152.517392,122.397160],[152.558912,122.416288],[152.671408,122.470464],[152.715776,122.492800],[152.822816,122.548984],[152.869872,122.574728],[152.971488,122.632624],[153.021008,122.661984],[153.117184,122.721272],[153.169008,122.754480],[153.259792,122.814848],[153.313712,122.852064],[153.399136,122.913240],[153.454896,122.954648],[153.535040,123.016320],[153.592416,123.062096],[153.667328,123.123968],[153.726128,123.174280],[153.795888,123.236080],[153.855808,123.291064],[153.920528,123.352504],[153.981360,123.412296],[154.041136,123.473112],[154.102592,123.537832],[154.157568,123.597760],[154.219360,123.667536],[154.269664,123.726320],[154.331536,123.801224],[154.377328,123.858624],[154.438992,123.938752],[154.480416,123.994512],[154.541584,124.079952],[154.578800,124.133840],[154.639168,124.224632],[154.672368,124.276448],[154.731664,124.372632],[154.761040,124.422176],[154.818928,124.523784],[154.844672,124.570824],[154.900848,124.677880],[154.923184,124.722248],[154.977360,124.834736],[154.996496,124.876248],[155.048336,124.994168],[155.064496,125.032680],[155.113728,125.155992],[155.127136,125.191328],[155.173424,125.319984],[155.184320,125.352024],[155.227344,125.485968],[155.275456,125.653736],[155.317680,125.823072],[155.353952,125.993784],[155.384256,126.165656],[155.408560,126.338488],[155.426784,126.512056],[155.438960,126.686152],[155.445056,126.860568],[155.445056,127.035088],[155.438960,127.209504],[155.426784,127.383608],[155.408560,127.557176],[155.384256,127.730000],[155.353952,127.901872],[155.317680,128.072584],[155.275456,128.241928],[155.227344,128.409680],[155.173424,128.575672],[155.113728,128.739672],[155.048336,128.901488],[154.977360,129.060912],[154.900848,129.217776],[154.818912,129.371872],[154.731664,129.523008],[144.376480,147.078880],[144.340016,147.136608],[144.301584,147.193072],[144.261264,147.248192],[144.219072,147.301888],[144.175072,147.354128],[144.129312,147.404816],[144.081856,147.453920],[132.471104,159.064704],[132.436720,159.097920],[132.401232,159.129952],[132.364672,159.160736],[132.327072,159.190256],[132.288496,159.218496],[132.248976,159.245392],[132.208560,159.270928],[132.167296,159.295056],[132.125232,159.317776],[132.082432,159.339056],[132.038912,159.358832],[131.994736,159.377136],[131.949984,159.393904],[131.904664,159.409152],[131.858856,159.422816],[131.812608,159.434944],[131.765976,159.445472],[131.719024,159.454384],[131.671784,159.461696],[131.624312,159.467408],[131.576688,159.471472],[131.528944,159.473920],[131.481144,159.474736],[130.646832,159.474736],[130.644912,159.472832],[118.577016,147.404944],[118.215688,147.043616],[117.944624,146.772544],[117.918904,146.746816],[117.918904,145.912512]]
; object:{"name":"Clip_0","id":"Clip_0.6mm.stl id:1 copy 0","object_center":[154.536079,158.566662,0.000000],"boundingbox_center":[154.536079,158.566662,1.250420],"boundingbox_size":[22.846801,22.847410,2.500839]}
EXCLUDE_OBJECT_DEFINE NAME=Clip_0_6mm_stl_id_1_copy_0 CENTER=154.536079,158.566662 POLYGON=[[143.112672,152.838448],[143.122832,152.767824],[143.142928,152.699392],[143.172560,152.634496],[143.211136,152.574480],[143.257856,152.520576],[148.490608,147.288112],[148.544512,147.241408],[148.604544,147.202832],[148.669424,147.173200],[148.737872,147.153104],[148.808480,147.142960],[148.879824,147.142960],[148.950480,147.153120],[149.018896,147.173216],[149.083792,147.202848],[149.083856,147.202880],[149.143872,147.241456],[149.197792,147.288160],[165.814320,163.905664],[165.861024,163.959584],[165.899600,164.019600],[165.929232,164.084496],[165.949328,164.152944],[165.959472,164.223552],[165.959472,164.294896],[165.949312,164.365504],[165.929216,164.433968],[165.899584,164.498848],[165.861008,164.558848],[165.814288,164.612768],[160.581536,169.845216],[160.527632,169.891920],[160.467600,169.930496],[160.402720,169.960128],[160.334272,169.980224],[160.263664,169.990368],[160.192320,169.990368],[160.121664,169.980208],[160.053184,169.960096],[159.988352,169.930480],[159.988288,169.930448],[159.928272,169.891872],[159.874352,169.845168],[159.308688,169.279472],[143.257824,153.227664],[143.211120,153.173760],[143.172544,153.113744],[143.142912,153.048848],[143.122816,152.980400],[143.112672,152.909776],[143.112672,152.838448]]
; object:{"name":"Clip_0","id":"Clip_0.8mm.stl id:2 copy 0","object_center":[170.657697,158.566662,0.000000],"boundingbox_center":[170.657697,158.566662,1.250420],"boundingbox_size":[22.846801,22.847410,2.500839]}
EXCLUDE_OBJECT_DEFINE NAME=Clip_0_8mm_stl_id_2_copy_0 CENTER=170.657697,158.566662 POLYGON=[[159.234304,152.838448],[159.244464,152.767824],[159.264560,152.699392],[159.294192,152.634496],[159.332768,152.574480],[159.379488,152.520576],[164.612224,147.288112],[164.666144,147.241408],[164.726160,147.202832],[164.791040,147.173200],[164.859504,147.153104],[164.930112,147.142960],[165.001456,147.142960],[165.072112,147.153120],[165.140512,147.173216],[165.140592,147.173248],[165.205488,147.202880],[165.265504,147.241456],[165.319408,147.288160],[181.935952,163.905664],[181.982656,163.959584],[182.021232,164.019600],[182.050864,164.084496],[182.070960,164.152944],[182.081104,164.223552],[182.081104,164.294896],[182.070944,164.365504],[182.050848,164.433968],[182.021216,164.498848],[181.982640,164.558848],[181.935920,164.612768],[176.703168,169.845216],[176.649264,169.891920],[176.589232,169.930496],[176.524352,169.960128],[176.455904,169.980224],[176.385280,169.990368],[176.313952,169.990368],[176.243280,169.980208],[176.174800,169.960096],[176.109904,169.930448],[176.049904,169.891872],[175.995984,169.845168],[175.430320,169.279472],[159.379456,153.227664],[159.332752,153.173760],[159.294176,153.113744],[159.264544,153.048848],[159.244448,152.980400],[159.234304,152.909776],[159.234304,152.838448]]
; object:{"name":"Clip_0","id":"Clip_0.8mm.stl id:3 copy 0","object_center":[170.657697,142.444098,0.000000],"boundingbox_center":[170.657697,142.444098,1.250420],"boundingbox_size":[22.846801,22.847410,2.500839]}
EXCLUDE_OBJECT_DEFINE NAME=Clip_0_8mm_stl_id_3_copy_0 CENTER=170.657697,142.444098 POLYGON=[[159.234304,136.715872],[159.244464,136.645248],[159.264560,136.576816],[159.294192,136.511920],[159.332768,136.451904],[159.379488,136.397984],[164.612224,131.165560],[164.666144,131.118832],[164.726160,131.080264],[164.791040,131.050632],[164.859504,131.030536],[164.930112,131.020384],[165.001456,131.020384],[165.072112,131.030552],[165.072144,131.030560],[165.140592,131.050656],[165.205488,131.080304],[165.265504,131.118880],[165.319408,131.165592],[167.794224,133.640536],[181.935952,147.783104],[181.982656,147.837008],[182.021232,147.897024],[182.050864,147.961920],[182.070960,148.030368],[182.081104,148.100976],[182.081104,148.172320],[182.070944,148.242928],[182.050848,148.311392],[182.021216,148.376272],[181.982640,148.436272],[181.935920,148.490208],[176.703168,153.722624],[176.649264,153.769344],[176.589232,153.807920],[176.524352,153.837552],[176.455904,153.857648],[176.385280,153.867792],[176.313952,153.867792],[176.243280,153.857632],[176.174800,153.837520],[176.109904,153.807872],[176.049904,153.769312],[175.995984,153.722592],[175.430320,153.156896],[159.379456,137.105088],[159.332752,137.051184],[159.294176,136.991168],[159.264544,136.926272],[159.244448,136.857824],[159.234304,136.787200],[159.234304,136.715872]]
; object:{"name":"Clip_0","id":"Clip_0.6mm.stl id:4 copy 0","object_center":[146.475034,166.627708,0.000000],"boundingbox_center":[146.475034,166.627708,1.250420],"boundingbox_size":[22.846801,22.847410,2.500839]}
EXCLUDE_OBJECT_DEFINE NAME=Clip_0_6mm_stl_id_4_copy_0 CENTER=146.475034,166.627708 POLYGON=[[135.051632,160.899472],[135.061792,160.828864],[135.081888,160.760416],[135.111520,160.695520],[135.150096,160.635520],[135.196816,160.581600],[140.429568,155.349152],[140.483472,155.302448],[140.543504,155.263872],[140.608384,155.234240],[140.676832,155.214144],[140.747456,155.204000],[140.818784,155.204000],[140.889456,155.214160],[140.957856,155.234256],[140.957936,155.234288],[141.022832,155.263920],[141.082848,155.302496],[141.136752,155.349200],[157.753280,171.966704],[157.799984,172.020608],[157.838560,172.080624],[157.868192,172.145520],[157.888288,172.213968],[157.898432,172.284592],[157.898432,172.355920],[157.888272,172.426544],[157.868176,172.494992],[157.838544,172.559872],[157.799968,172.619888],[157.753248,172.673792],[152.520512,177.906256],[152.466592,177.952960],[152.406576,177.991536],[152.341696,178.021168],[152.273232,178.041264],[152.202624,178.051408],[152.131280,178.051408],[152.060624,178.041248],[151.992144,178.021136],[151.927248,177.991488],[151.867232,177.952912],[151.813328,177.906208],[151.247648,177.340496],[135.196800,161.288704],[135.150080,161.234784],[135.111504,161.174768],[135.081872,161.109872],[135.061776,161.041424],[135.051632,160.970816],[135.051632,160.899472]]
; plater:{"center":[150.000002,149.999999,0.000000],"boundingbox_center":[150.000002,149.999999,2.950000],"boundingbox_size":[64.162191,56.102828,5.900000]}

;TYPE:Custom
PRINT_START EXTRUDER=280 BED=110 AREA_START=116.524,121.033 AREA_END=183.476,179.442
M107
G21 ; set units to millimeters
G90 ; use absolute coordinates
M83 ; use relative distances for extrusion
M900 K0.2 ; Filament gcode
;_TOOLCHANGE 0
M104 S280 ; set temperature
M109 S280 ; set temperature and wait for it to be reached
M190 S110 ; set bed temperature and wait for it to be reached
M107
;LAYER_CHANGE
;Z:0.25
;HEIGHT:0.25
;BEFORE_LAYER_CHANGE
TIMELAPSE_TAKE_FRAME
;0.25


G1 Z0.25 F10800
;AFTER_LAYER_CHANGE
;0.25
G92 E0
G1 E-0.8 F3600
G1 Z0.35 F10800
M204 S1000
G1 X129.762 Y132.428
G1 Z0.25
G1 E0.8 F3600
;TYPE:Skirt
;WIDTH:0.65
G1 F900
G1 X117.727 Y144.398 E0.95741
G1 X117.431 Y144.789 E0.02765
G1 X117.203 Y145.327 E0.03296
G1 X117.121 Y146.741 E0.0799
G1 X117.355 Y147.311 E0.03477
G1 X130.123 Y160.077 E1.01839
G1 X151.343 Y178.555 E1.58712
G1 X151.822 Y178.801 E0.0304
G1 X152.188 Y178.848 E0.02079
G1 X176.708 Y170.737 E1.45674
G1 X177.267 Y170.41 E0.03656
G1 X182.5 Y165.177 E0.4174
G1 X182.831 Y164.604 E0.03734
G1 X182.879 Y148.172 E0.92681
G1 X182.769 Y147.618 E0.03187
G1 X182.5 Y147.219 E0.02715
G1 X165.798 Y130.527 E1.33192
G1 X153.404 Y122.299 E0.83905
G1 X152.527 Y121.846 E0.0557
G1 X151.781 Y121.638 E0.04366
G1 X150.835 Y121.786 E0.05405
G1 X129.829 Y132.395 E1.32733
G1 E-0.08 F3600
;WIPE_START
G1 F8640
M204 S3000
G1 X131.372 Y131.616 E-0.684
;WIPE_END
G1 E-0.036 F3600
G1 Z0.35 F10800
; printing object x_endstop_holder.STL id:0 copy 0
EXCLUDE_OBJECT_START NAME=x_endstop_holder_STL_id_0_copy_0
; acceleration to travel
M204 S1500
G1 X140.645 Y142.655
; decel to extrusion
M204 S1000
G1 X142.886 Y145.323
; end travel
G1 Z0.25
G1 E0.8 F3600
;TYPE:Internal perimeter
;WIDTH:0.6
G1 F900
G1 X143.165 Y145.188 E0.01602
G1 X143.31 Y145.334 E0.01063
G1 X143.449 Y145.499 E0.01115
G1 X143.576 Y145.761 E0.01504
G1 X143.618 Y146.007 E0.01292
G1 X143.614 Y146.137 E0.00671
G1 X143.592 Y146.265 E0.00671
G1 X143.497 Y146.506 E0.01339
G1 X143.317 Y146.739 E0.01524
G1 X143.114 Y146.942 E0.01479
G1 X142.824 Y146.773 E0.01737
G1 X142.907 Y146.465 E0.01651
G1 X142.956 Y145.948 E0.02686
G1 X142.894 Y145.397 E0.02861
G1 E-0.08 F3600
;WIPE_START
G1 F8640
M204 S3000
G1 X142.956 Y145.948 E-0.21917
G1 X142.907 Y146.465 E-0.20572
G1 X142.824 Y146.773 E-0.12648
G1 X143.113 Y146.941 E-0.13264
;WIPE_END
G1 E-0.036 F3600
G1 Z0.35 F10800
; acceleration to travel
M204 S1500
G1 X136.988 Y153.072
; decel to extrusion
M204 S1000
G1 X135.507 Y154.554
; end travel
G1 Z0.25
G1 E0.8 F3600
G1 F900
G1 X134.259 Y155.803 E0.09126
G1 X134.099 Y155.218 E0.03137
G1 X133.716 Y154.549 E0.03982
G1 X134.521 Y154.629 E0.04178
G1 X135.433 Y154.56 E0.04727
G1 E-0.08 F3600
;WIPE_START
G1 F8640
M204 S3000
G1 X134.521 Y154.629 E-0.36207
G1 X133.716 Y154.549 E-0.32003
G1 X133.718 Y154.553 E-0.0019
;WIPE_END
G1 E-0.036 F3600
G1 Z0.35 F10800
; acceleration to travel
M204 S1500
G1 X130.369 Y154.709
; decel to extrusion
M204 S1000
G1 X129.56 Y154.747
; end travel
G1 Z0.25
G1 E0.8 F3600
G1 F900
G1 X129.256 Y155.342 E0.03456
G1 X129.125 Y155.802 E0.02471
G1 X129.073 Y156.422 E0.03211
G1 X127.539 Y154.888 E0.11207
G1 X128.671 Y154.931 E0.0585
G1 X129.486 Y154.762 E0.04304
G1 E-0.08 F3600
;WIPE_START
G1 F8640
M204 S3000
G1 X128.671 Y154.931 E-0.32968
G1 X127.776 Y154.897 E-0.35431
;WIPE_END
G1 E-0.036 F3600
G1 Z0.35 F10800
; acceleration to travel
M204 S1500
G1 X123.536 Y150.505
; decel to extrusion
M204 S1000
G1 X122.511 Y149.444
; end travel
G1 Z0.25
G1 E0.8 F3600
G1 F900
G1 X122.231 Y149.582 E0.01617
G1 X120.982 Y148.334 E0.09121
G1 X121.682 Y148.25 E0.0364
G1 X122.136 Y148.103 E0.02469
G1 X122.641 Y147.823 E0.02984
G1 X122.474 Y148.649 E0.04358
G1 X122.462 Y149.064 E0.02145
G1 X122.502 Y149.369 E0.01589
G1 E-0.08 F3600
;WIPE_START
G1 F8640
M204 S3000
G1 X122.462 Y149.064 E-0.12171
G1 X122.474 Y148.649 E-0.1643
