; generated by SuperSlicer 2.5.59 on 2023-06-05 at 00:56:03 UTC


;
;

;
;
; 

; external perimeters extrusion width = 0.50mm
; perimeters extrusion width = 0.50mm
; infill extrusion width = 0.50mm
; solid infill extrusion width = 0.50mm
; top infill extrusion width = 0.60mm

; object:{"name":"xyzCalibration_cube","id":"xyzCalibration_cube.stl id:0 copy 0","object_center":[150.000000,150.000000,0.000000],"boundingbox_center":[150.000000,150.000000,10.000000],"boundingbox_size":[28.284271,28.284271,20.000000]}
EXCLUDE_OBJECT_DEFINE NAME=xyzCalibration_cube_stl_id_0_copy_0 CENTER=150.000000,150.000000 POLYGON=[[135.857872,150.000000],[150.000000,135.857872],[153.564064,139.421920],[164.142144,150.000000],[150.000000,164.142144],[135.857872,150.000000]]
; plater:{"center":[150.000000,150.000000,0.000000],"boundingbox_center":[150.000000,150.000000,10.000000],"boundingbox_size":[28.284271,28.284271,20.000000]}

;TYPE:Custom
PRINT_START EXTRUDER=240 BED=110 AREA_START=129.626,129.626 AREA_END=170.374,170.374
M107
G21 ; set units to millimeters
G90 ; use absolute coordinates
M83 ; use relative distances for extrusion
;_TOOLCHANGE 0
M104 S240 ; set temperature
M109 S240 ; set temperature and wait for it to be reached
M190 S110 ; set bed temperature and wait for it to be reached
M107
;LAYER_CHANGE
;Z:0.2
;HEIGHT:0.2
;BEFORE_LAYER_CHANGE
TIMELAPSE_TAKE_FRAME
;0.2


G1 Z0.2 F24000
;AFTER_LAYER_CHANGE
;0.2
G92 E0
G1 E-0.6 F2400
M204 S5000
G1 Z0.4 F24000
G1 X138.873 Y138.873
G1 Z0.2
G1 E0.6 F2400
;TYPE:Skirt
;WIDTH:0.6
G1 F1800
G1 X131.873 Y145.874 E0.38979
G1 X130.473 Y148.126 E0.10441
G1 X130.169 Y150.256 E0.08471
G1 X130.658 Y152.351 E0.08471
G1 X131.873 Y154.126 E0.08471
G1 X145.874 Y168.127 E0.77959
G1 X148.126 Y169.527 E0.10441
G1 X150.256 Y169.831 E0.08471
G1 X152.351 Y169.342 E0.08471
G1 X154.126 Y168.127 E0.08471
G1 X168.127 Y154.126 E0.77959
G1 X169.527 Y151.874 E0.10441
G1 X169.831 Y149.744 E0.08471
G1 X169.342 Y147.649 E0.08471
G1 X168.127 Y145.874 E0.08471
G1 X154.126 Y131.873 E0.77959
G1 X151.874 Y130.473 E0.10441
G1 X149.744 Y130.169 E0.08471
G1 X147.649 Y130.658 E0.08471
G1 X145.874 Y131.873 E0.08471
G1 X138.926 Y138.82 E0.38684
G1 X139.32 Y139.214 F24000
G1 F1800
G1 X132.267 Y146.268 E0.39275
G1 X131.106 Y148.021 E0.08279
G1 X130.721 Y150.029 E0.08053
G1 X131.128 Y152.034 E0.08053
G1 X132.267 Y153.732 E0.08053
G1 X146.268 Y167.733 E0.77959
G1 X148.021 Y168.894 E0.08279
G1 X150.029 Y169.279 E0.08053
G1 X152.034 Y168.872 E0.08053
G1 X153.732 Y167.733 E0.08053
G1 X167.733 Y153.732 E0.77959
G1 X168.894 Y151.979 E0.08279
G1 X169.279 Y149.971 E0.08053
G1 X168.872 Y147.966 E0.08053
G1 X167.733 Y146.268 E0.08053
G1 X153.732 Y132.267 E0.77959
G1 X151.979 Y131.106 E0.08279
G1 X149.971 Y130.721 E0.08053
G1 X147.966 Y131.128 E0.08053
G1 X146.268 Y132.267 E0.08053
G1 X139.373 Y139.161 E0.38389
G1 E-0.06 F2400
;WIPE_START
G1 F19200
G1 X142.428 Y136.106 E-0.513
;WIPE_END
G1 E-0.027 F2400
G1 Z0.4 F24000
; printing object xyzCalibration_cube.stl id:0 copy 0
EXCLUDE_OBJECT_START NAME=xyzCalibration_cube_stl_id_0_copy_0
G1 X161.708 Y150
G1 Z0.2
G1 E0.6 F2400
;TYPE:Internal perimeter
;WIDTH:0.5
G1 F1800
G1 X150 Y161.708 E0.5349
G1 X138.292 Y150 E0.5349
G1 X150 Y138.292 E0.5349
G1 X161.655 Y149.947 E0.53247
G1 X162.354 Y150 F24000
G1 F1800
G1 X150 Y162.354 E0.56443
G1 X137.646 Y150 E0.56443
G1 X150 Y137.646 E0.56443
G1 X162.301 Y149.947 E0.56201
G1 X163.001 Y150 F24000
G1 F1800
G1 X150 Y163.001 E0.59396
G1 X136.999 Y150 E0.59396
G1 X150 Y136.999 E0.59396
G1 X162.948 Y149.947 E0.59154
G1 X163.647 Y150 F24000
;TYPE:External perimeter
G1 F1800
G1 X150 Y163.647 E0.62349
G1 X136.353 Y150 E0.62349
G1 X150 Y136.353 E0.62349
G1 X163.594 Y149.947 E0.62107
;WIPE_START
M204 S10000
G1 X163.164 Y150.129 F24000
;WIPE_END
G1 E-0.06 F2400
;WIPE_START
G1 F19200
M204 S5000
G1 X160.109 Y153.184 E-0.513
;WIPE_END
G1 E-0.027 F2400
G1 Z0.4 F24000
G1 X149.347 Y139.042
G1 Z0.2
G1 E0.6 F2400
;TYPE:Solid infill
G1 F3600
G1 X150.375 Y139.042 E0.03323
G1 X150.832 Y139.499 E0.02088
G1 X149.168 Y139.499 E0.05379
G1 X148.71 Y139.957 E0.02088
G1 X151.29 Y139.957 E0.08332
G1 X151.747 Y140.414 E0.02088
G1 X148.253 Y140.414 E0.11285
G1 X147.796 Y140.871 E0.02088
G1 X152.204 Y140.871 E0.14238
G1 X152.661 Y141.328 E0.02088
G1 X147.339 Y141.328 E0.17192
G1 X146.882 Y141.785 E0.02088
G1 X153.118 Y141.785 E0.20145
G1 X153.575 Y142.242 E0.02088
G1 X146.425 Y142.242 E0.23098
G1 X145.968 Y142.699 E0.02088
G1 X154.032 Y142.699 E0.26051
G1 X154.489 Y143.156 E0.02088
G1 X145.511 Y143.156 E0.29004
G1 X145.054 Y143.613 E0.02088
G1 X154.946 Y143.613 E0.31958
G1 X155.403 Y144.07 E0.02088
G1 X144.597 Y144.07 E0.34911
G1 X144.14 Y144.527 E0.02088
G1 X155.86 Y144.527 E0.37864
G1 X156.317 Y144.984 E0.02088
G1 X143.683 Y144.984 E0.40817
G1 X143.226 Y145.441 E0.02088
G1 X156.774 Y145.441 E0.43771
G1 X157.232 Y145.899 E0.02088
G1 X142.768 Y145.899 E0.46724
G1 X142.311 Y146.356 E0.02088
G1 X157.689 Y146.356 E0.49677
G1 X158.146 Y146.813 E0.02088
G1 X141.854 Y146.813 E0.5263
G1 X141.397 Y147.27 E0.02088
G1 X158.603 Y147.27 E0.55583
G1 X159.06 Y147.727 E0.02088
G1 X140.94 Y147.727 E0.58537
G1 X140.483 Y148.184 E0.02088
G1 X159.517 Y148.184 E0.6149
G1 X159.974 Y148.641 E0.02088
G1 X140.026 Y148.641 E0.64443
G1 X139.569 Y149.098 E0.02088
G1 X160.431 Y149.098 E0.67396
G1 X160.888 Y149.555 E0.02088
G1 X139.112 Y149.555 E0.7035
G1 X138.667 Y150 E0.02032
G1 X138.679 Y150.012 E0.00056
G1 X161.321 Y150.012 E0.73145
G1 X160.864 Y150.469 E0.02088
G1 X139.136 Y150.469 E0.70191
G1 X139.593 Y150.926 E0.02088
G1 X160.407 Y150.926 E0.67238
G1 X159.95 Y151.383 E0.02088
G1 X140.05 Y151.383 E0.64285
G1 X140.508 Y151.841 E0.02088
G1 X159.492 Y151.841 E0.61332
G1 X159.035 Y152.298 E0.02088
G1 X140.965 Y152.298 E0.58378
G1 X141.422 Y152.755 E0.02088
G1 X158.578 Y152.755 E0.55425
G1 X158.121 Y153.212 E0.02088
G1 X141.879 Y153.212 E0.52472
G1 X142.336 Y153.669 E0.02088
G1 X157.664 Y153.669 E0.49519
G1 X157.207 Y154.126 E0.02088
G1 X142.793 Y154.126 E0.46566
G1 X143.25 Y154.583 E0.02088
G1 X156.75 Y154.583 E0.43612
G1 X156.293 Y155.04 E0.02088
G1 X143.707 Y155.04 E0.40659
G1 X144.164 Y155.497 E0.02088
G1 X155.836 Y155.497 E0.37706
G1 X155.379 Y155.954 E0.02088
G1 X144.621 Y155.954 E0.34753
G1 X145.078 Y156.411 E0.02088
G1 X154.922 Y156.411 E0.31799
G1 X154.465 Y156.868 E0.02088
G1 X145.535 Y156.868 E0.28846
G1 X145.992 Y157.326 E0.02088
G1 X154.008 Y157.326 E0.25893
G1 X153.55 Y157.783 E0.02088
G1 X146.45 Y157.783 E0.2294
G1 X146.907 Y158.24 E0.02088
G1 X153.093 Y158.24 E0.19987
G1 X152.636 Y158.697 E0.02088
G1 X147.364 Y158.697 E0.17033
G1 X147.821 Y159.154 E0.02088
G1 X152.179 Y159.154 E0.1408
G1 X151.722 Y159.611 E0.02088
G1 X148.278 Y159.611 E0.11127
G1 X148.735 Y160.068 E0.02088
G1 X151.265 Y160.068 E0.08174
G1 X150.808 Y160.525 E0.02088
G1 X149.192 Y160.525 E0.0522
G1 X149.649 Y160.982 E0.02088
G1 X150.629 Y160.982 E0.03165
;LAYER_CHANGE
;Z:0.44
;HEIGHT:0.24
;BEFORE_LAYER_CHANGE
TIMELAPSE_TAKE_FRAME
;0.44


; stop printing object xyzCalibration_cube.stl id:0 copy 0
EXCLUDE_OBJECT_END NAME=xyzCalibration_cube_stl_id_0_copy_0
M204 S10000
G1 Z0.44 F24000
;AFTER_LAYER_CHANGE
;0.44
G92 E0
; printing object xyzCalibration_cube.stl id:0 copy 0
EXCLUDE_OBJECT_START NAME=xyzCalibration_cube_stl_id_0_copy_0
G1 X161.181 Y150
;TYPE:Internal perimeter
G1 F10800
G1 X150 Y161.181 E0.60146
G1 X138.819 Y150 E0.60146
G1 X150 Y138.819 E0.60146
G1 X161.128 Y149.947 E0.59861
G1 X161.815 Y150 F24000
G1 F10800
G1 X150 Y161.815 E0.63558
G1 X138.185 Y150 E0.63558
G1 X150 Y138.185 E0.63558
G1 X161.762 Y149.947 E0.63273
G1 X162.449 Y150 F24000
G1 F10800
G1 X150 Y162.449 E0.66971
G1 X137.551 Y150 E0.66971
G1 X150 Y137.551 E0.66971
G1 X162.396 Y149.947 E0.66685
G1 X163.084 Y150 F24000
G1 F10800
G1 X150 Y163.084 E0.70383
G1 X136.916 Y150 E0.70383
G1 X150 Y136.916 E0.70383
G1 X163.031 Y149.947 E0.70097
G1 X163.718 Y150 F24000
;TYPE:External perimeter
G1 F6000
G1 X150 Y163.718 E0.73795
G1 X136.282 Y150 E0.73795
G1 X150 Y136.282 E0.73795
G1 X163.665 Y149.947 E0.73509
;WIPE_START
G1 X163.235 Y150.129 F24000
;WIPE_END
G1 X160.445 Y149.359
;TYPE:Solid infill
G1 F16722.574
G1 X160.445 Y150.368 E0.0384
G1 X159.996 Y150.817 E0.02413
G1 X159.996 Y149.183 E0.06214
G1 X159.548 Y148.735 E0.02413
G1 X159.548 Y151.265 E0.09626
G1 X159.099 Y151.714 E0.02413
G1 X159.099 Y148.286 E0.13038
G1 X158.651 Y147.838 E0.02413
G1 X158.651 Y152.162 E0.1645
G1 X158.202 Y152.611 E0.02413
G1 X158.202 Y147.389 E0.19862
G1 X157.754 Y146.941 E0.02413
G1 X157.754 Y153.059 E0.23274
G1 X157.305 Y153.508 E0.02413
G1 X157.305 Y146.492 E0.26686
G1 X156.857 Y146.044 E0.02413
G1 X156.857 Y153.956 E0.30098
G1 X156.408 Y154.405 E0.02413
G1 X156.408 Y145.595 E0.3351
G1 X155.96 Y145.147 E0.02413
G1 X155.96 Y154.853 E0.36922
G1 X155.511 Y155.302 E0.02413
G1 X155.511 Y144.698 E0.40334
G1 X155.063 Y144.25 E0.02413
G1 X155.063 Y155.75 E0.43746
G1 X154.614 Y156.199 E0.02413
G1 X154.614 Y143.801 E0.47158
G1 X154.166 Y143.353 E0.02413
G1 X154.166 Y156.647 E0.5057
G1 X153.717 Y157.096 E0.02413
G1 X153.717 Y142.904 E0.53982
G1 X153.269 Y142.456 E0.02413
G1 X153.269 Y157.544 E0.57394
G1 X152.82 Y157.993 E0.02413
G1 X152.82 Y142.007 E0.60806
G1 X152.372 Y141.559 E0.02413
G1 X152.372 Y158.441 E0.64218
G1 X151.923 Y158.89 E0.02413
G1 X151.923 Y141.11 E0.6763
G1 X151.475 Y140.662 E0.02413
G1 X151.475 Y159.338 E0.71042
G1 X151.026 Y159.787 E0.02413
G1 X151.026 Y140.213 E0.74454
G1 X150.578 Y139.765 E0.02413
G1 X150.578 Y160.235 E0.77866
G1 X150.129 Y160.684 E0.02413
G1 X150.129 Y139.316 E0.81278
G1 X150 Y139.187 E0.00695
G1 X149.681 Y139.506 E0.01717
G1 X149.681 Y160.494 E0.79833
G1 X149.232 Y160.045 E0.02413
G1 X149.232 Y139.955 E0.76421
G1 X148.784 Y140.403 E0.02413
G1 X148.784 Y159.597 E0.73009
G1 X148.335 Y159.148 E0.02413
G1 X148.335 Y140.852 E0.69597
G1 X147.887 Y141.3 E0.02413
G1 X147.887 Y158.7 E0.66185
G1 X147.438 Y158.251 E0.02413
G1 X147.438 Y141.749 E0.62773
G1 X146.99 Y142.197 E0.02413
G1 X146.99 Y157.803 E0.59361
G1 X146.541 Y157.354 E0.02413
G1 X146.541 Y142.646 E0.55949
G1 X146.093 Y143.094 E0.02413
G1 X146.093 Y156.906 E0.52537
G1 X145.644 Y156.457 E0.02413
G1 X145.644 Y143.543 E0.49125
G1 X145.196 Y143.991 E0.02413
G1 X145.196 Y156.009 E0.45713
G1 X144.747 Y155.56 E0.02413
G1 X144.747 Y144.44 E0.42301
G1 X144.299 Y144.888 E0.02413
G1 X144.299 Y155.112 E0.38889
G1 X143.85 Y154.663 E0.02413
G1 X143.85 Y145.337 E0.35477
G1 X143.402 Y145.785 E0.02413
G1 X143.402 Y154.215 E0.32064
G1 X142.953 Y153.766 E0.02413
G1 X142.953 Y146.234 E0.28652
G1 X142.505 Y146.682 E0.02413
G1 X142.505 Y153.318 E0.2524
G1 X142.056 Y152.869 E0.02413
G1 X142.056 Y147.131 E0.21828
G1 X141.608 Y147.579 E0.02413
G1 X141.608 Y152.421 E0.18416
G1 X141.159 Y151.972 E0.02413
G1 X141.159 Y148.028 E0.15004
G1 X140.711 Y148.476 E0.02413
G1 X140.711 Y151.524 E0.11592
G1 X140.262 Y151.075 E0.02413
G1 X140.262 Y148.925 E0.0818
G1 X139.814 Y149.373 E0.02413
G1 X139.814 Y150.627 E0.04768
G1 X139.365 Y150.178 E0.02413
G1 X139.365 Y149.549 E0.02394
M106 S188.7
;LAYER_CHANGE
;Z:0.68
;HEIGHT:0.24
;BEFORE_LAYER_CHANGE
TIMELAPSE_TAKE_FRAME
;0.68


; stop printing object xyzCalibration_cube.stl id:0 copy 0
EXCLUDE_OBJECT_END NAME=xyzCalibration_cube_stl_id_0_copy_0
G1 Z0.68 F24000
;AFTER_LAYER_CHANGE
;0.68
G92 E0
; printing object xyzCalibration_cube.stl id:0 copy 0
EXCLUDE_OBJECT_START NAME=xyzCalibration_cube_stl_id_0_copy_0
G1 X161.886 Y150
;TYPE:Internal perimeter
G1 F10800
G1 X150 Y161.886 E0.63939
G1 X138.114 Y150 E0.63939
G1 X150 Y138.114 E0.63939
G1 X161.833 Y149.947 E0.63654
M106 S188.7
G1 X162.52 Y150 F24000
G1 F10800
G1 X150 Y162.52 E0.67351
G1 X137.48 Y150 E0.67351
G1 X150 Y137.48 E0.67351
G1 X162.467 Y149.947 E0.67066
M106 S188.7
G1 X163.154 Y150 F24000
G1 F10800
G1 X150 Y163.154 E0.70763
G1 X136.846 Y150 E0.70763
G1 X150 Y136.846 E0.70763
G1 X163.101 Y149.947 E0.70478
M106 S188.7
G1 X163.789 Y150 F24000
;TYPE:External perimeter
G1 F6000
M106 S198.9
G1 X150 Y163.789 E0.74175
G1 X136.211 Y150 E0.74175
G1 X150 Y136.211 E0.74175
G1 X163.736 Y149.947 E0.7389
M106 S188.7
;WIPE_START
G1 X163.306 Y150.129 F24000
;WIPE_END
G1 X149.359 Y138.85
;TYPE:Solid infill
G1 F16722.574
G1 X150.368 Y138.85 E0.0384
G1 X150.817 Y139.299 E0.02413
G1 X149.183 Y139.299 E0.06214
G1 X148.735 Y139.747 E0.02413
G1 X151.265 Y139.747 E0.09626
G1 X151.714 Y140.196 E0.02413
G1 X148.286 Y140.196 E0.13038
G1 X147.838 Y140.644 E0.02413
G1 X152.162 Y140.644 E0.1645
G1 X152.611 Y141.093 E0.02413
G1 X147.389 Y141.093 E0.19862
G1 X146.941 Y141.541 E0.02413
G1 X153.059 Y141.541 E0.23274
G1 X153.508 Y141.99 E0.02413
G1 X146.492 Y141.99 E0.26686
G1 X146.044 Y142.438 E0.02413
G1 X153.956 Y142.438 E0.30098
G1 X154.405 Y142.887 E0.02413
G1 X145.595 Y142.887 E0.3351
G1 X145.147 Y143.335 E0.02413
G1 X154.853 Y143.335 E0.36922
G1 X155.302 Y143.784 E0.02413
G1 X144.698 Y143.784 E0.40334
G1 X144.25 Y144.232 E0.02413
G1 X155.75 Y144.232 E0.43746
G1 X156.199 Y144.681 E0.02413
G1 X143.801 Y144.681 E0.47158
G1 X143.353 Y145.129 E0.02413
G1 X156.647 Y145.129 E0.5057
G1 X157.096 Y145.578 E0.02413
G1 X142.904 Y145.578 E0.53982
G1 X142.456 Y146.026 E0.02413
G1 X157.544 Y146.026 E0.57394
G1 X157.993 Y146.475 E0.02413
G1 X142.007 Y146.475 E0.60806
G1 X141.559 Y146.923 E0.02413
G1 X158.441 Y146.923 E0.64218
G1 X158.89 Y147.372 E0.02413
G1 X141.11 Y147.372 E0.6763
G1 X140.662 Y147.82 E0.02413
G1 X159.338 Y147.82 E0.71042
G1 X159.787 Y148.269 E0.02413
G1 X140.213 Y148.269 E0.74454
G1 X139.765 Y148.717 E0.02413
G1 X160.235 Y148.717 E0.77866
G1 X160.684 Y149.166 E0.02413
G1 X139.316 Y149.166 E0.81278
G1 X138.868 Y149.614 E0.02413
G1 X161.132 Y149.614 E0.8469
G1 X161.518 Y150 E0.02075
G1 X161.455 Y150.063 E0.00338
G1 X138.545 Y150.063 E0.87147
G1 X138.993 Y150.511 E0.02413
G1 X161.007 Y150.511 E0.83735
G1 X160.558 Y150.96 E0.02413
G1 X139.442 Y150.96 E0.80323
G1 X139.89 Y151.408 E0.02413
G1 X160.11 Y151.408 E0.76911
G1 X159.661 Y151.857 E0.02413
G1 X140.339 Y151.857 E0.73499
G1 X140.787 Y152.305 E0.02413
G1 X159.213 Y152.305 E0.70087
G1 X158.764 Y152.754 E0.02413
G1 X141.236 Y152.754 E0.66675
G1 X141.684 Y153.202 E0.02413
G1 X158.316 Y153.202 E0.63263
G1 X157.867 Y153.651 E0.02413
G1 X142.133 Y153.651 E0.59851
G1 X142.581 Y154.099 E0.02413
G1 X157.419 Y154.099 E0.56439
G1 X156.97 Y154.548 E0.02413
G1 X143.03 Y154.548 E0.53027
G1 X143.478 Y154.996 E0.02413
G1 X156.522 Y154.996 E0.49615
G1 X156.073 Y155.445 E0.02413
G1 X143.927 Y155.445 E0.46203
G1 X144.375 Y155.893 E0.02413
G1 X155.625 Y155.893 E0.42791
G1 X155.176 Y156.342 E0.02413
G1 X144.824 Y156.342 E0.39379
G1 X145.272 Y156.79 E0.02413
G1 X154.728 Y156.79 E0.35967
G1 X154.279 Y157.239 E0.02413
G1 X145.721 Y157.239 E0.32555
G1 X146.169 Y157.687 E0.02413
G1 X153.831 Y157.687 E0.29143
G1 X153.382 Y158.136 E0.02413
G1 X146.618 Y158.136 E0.25731
G1 X147.066 Y158.584 E0.02413
G1 X152.934 Y158.584 E0.22319
G1 X152.485 Y159.033 E0.02413
G1 X147.515 Y159.033 E0.18907
G1 X147.963 Y159.481 E0.02413
G1 X152.037 Y159.481 E0.15495
G1 X151.588 Y159.93 E0.02413
G1 X148.412 Y159.93 E0.12083
G1 X148.86 Y160.378 E0.02413
G1 X151.14 Y160.378 E0.08671
G1 X150.691 Y160.827 E0.02413
G1 X149.309 Y160.827 E0.05259
G1 X149.757 Y161.275 E0.02413
G1 X150.516 Y161.275 E0.02884
M106 S188.7
M106 S186.15
;LAYER_CHANGE
;Z:0.92
;HEIGHT:0.24
;BEFORE_LAYER_CHANGE
TIMELAPSE_TAKE_FRAME
;0.92


; stop printing object xyzCalibration_cube.stl id:0 copy 0
EXCLUDE_OBJECT_END NAME=xyzCalibration_cube_stl_id_0_copy_0
G1 Z0.92 F24000
;AFTER_LAYER_CHANGE
;0.92
G92 E0
; printing object xyzCalibration_cube.stl id:0 copy 0
EXCLUDE_OBJECT_START NAME=xyzCalibration_cube_stl_id_0_copy_0
G1 X161.252 Y150
;TYPE:Internal perimeter
G1 F10800
G1 X150 Y161.252 E0.60527
G1 X138.748 Y150 E0.60527
G1 X150 Y138.748 E0.60527
G1 X161.198 Y149.947 E0.60242
M106 S186.15
G1 X161.886 Y150 F24000
G1 F10800
G1 X150 Y161.886 E0.63939
G1 X138.114 Y150 E0.63939
G1 X150 Y138.114 E0.63939
G1 X161.833 Y149.947 E0.63654
M106 S186.15
G1 X162.52 Y150 F24000
G1 F10800
G1 X150 Y162.52 E0.67351
G1 X137.48 Y150 E0.67351
G1 X150 Y137.48 E0.67351
G1 X162.467 Y149.947 E0.67066
