; generated by SuperSlicer 2.5.59 on 2022-09-22 at 09:04:23 UTC

; 

; external perimeters extrusion width = 0.45mm
; perimeters extrusion width = 0.45mm
; infill extrusion width = 0.45mm
; solid infill extrusion width = 0.45mm
; top infill extrusion width = 0.40mm
; first layer extrusion width = 0.42mm

; external perimeters extrusion width = 0.45mm
; perimeters extrusion width = 0.45mm
; infill extrusion width = 0.45mm
; solid infill extrusion width = 0.45mm
; top infill extrusion width = 0.40mm
; first layer extrusion width = 0.42mm

; external perimeters extrusion width = 0.45mm
; perimeters extrusion width = 0.45mm
; infill extrusion width = 0.45mm
; solid infill extrusion width = 0.45mm
; top infill extrusion width = 0.40mm
; first layer extrusion width = 0.42mm

; external perimeters extrusion width = 0.45mm
; perimeters extrusion width = 0.45mm
; infill extrusion width = 0.45mm
; solid infill extrusion width = 0.45mm
; top infill extrusion width = 0.40mm
; first layer extrusion width = 0.42mm

; external perimeters extrusion width = 0.45mm
; perimeters extrusion width = 0.45mm
; infill extrusion width = 0.45mm
; solid infill extrusion width = 0.45mm
; top infill extrusion width = 0.40mm
; first layer extrusion width = 0.42mm

; external perimeters extrusion width = 0.45mm
; perimeters extrusion width = 0.45mm
; infill extrusion width = 0.45mm
; solid infill extrusion width = 0.45mm
; top infill extrusion width = 0.40mm
; first layer extrusion width = 0.42mm

; external perimeters extrusion width = 0.45mm
; perimeters extrusion width = 0.45mm
; infill extrusion width = 0.45mm
; solid infill extrusion width = 0.45mm
; top infill extrusion width = 0.40mm
; first layer extrusion width = 0.42mm

; external perimeters extrusion width = 0.45mm
; perimeters extrusion width = 0.45mm
; infill extrusion width = 0.45mm
; solid infill extrusion width = 0.45mm
; top infill extrusion width = 0.40mm
; first layer extrusion width = 0.42mm

; external perimeters extrusion width = 0.45mm
; perimeters extrusion width = 0.45mm
; infill extrusion width = 0.45mm
; solid infill extrusion width = 0.45mm
; top infill extrusion width = 0.40mm
; first layer extrusion width = 0.42mm

; object:{"name":"actualsize_gummybear","id":"actualsize_gummybear.STL id:0 copy 0","object_center":[111.808296,105.000001,0.000000],"boundingbox_center":[111.808296,105.000001,4.246796],"boundingbox_size":[10.191750,19.024597,8.493591]}
; object:{"name":"actualsize_gummybear","id":"actualsize_gummybear.STL id:1 copy 0","object_center":[125.000001,105.000001,0.000000],"boundingbox_center":[125.000001,105.000001,4.246796],"boundingbox_size":[10.191750,19.024597,8.493591]}
; object:{"name":"actualsize_gummybear","id":"actualsize_gummybear.STL id:2 copy 0","object_center":[111.808296,127.024598,0.000000],"boundingbox_center":[111.808296,127.024598,4.246796],"boundingbox_size":[10.191750,19.024597,8.493591]}
; object:{"name":"actualsize_gummybear","id":"actualsize_gummybear.STL id:3 copy 0","object_center":[125.000001,127.024598,0.000000],"boundingbox_center":[125.000001,127.024598,4.246796],"boundingbox_size":[10.191750,19.024597,8.493591]}
; object:{"name":"actualsize_gummybear","id":"actualsize_gummybear.STL id:4 copy 0","object_center":[138.191706,105.000001,0.000000],"boundingbox_center":[138.191706,105.000001,4.246796],"boundingbox_size":[10.191750,19.024597,8.493591]}
; object:{"name":"actualsize_gummybear","id":"actualsize_gummybear.STL id:5 copy 0","object_center":[138.191706,127.024598,0.000000],"boundingbox_center":[138.191706,127.024598,4.246796],"boundingbox_size":[10.191750,19.024597,8.493591]}
; object:{"name":"actualsize_gummybear","id":"actualsize_gummybear.STL id:6 copy 0","object_center":[111.808296,82.975404,0.000000],"boundingbox_center":[111.808296,82.975404,4.246796],"boundingbox_size":[10.191750,19.024597,8.493591]}
; object:{"name":"actualsize_gummybear","id":"actualsize_gummybear.STL id:7 copy 0","object_center":[125.000001,82.975404,0.000000],"boundingbox_center":[125.000001,82.975404,4.246796],"boundingbox_size":[10.191750,19.024597,8.493591]}
; object:{"name":"actualsize_gummybear","id":"actualsize_gummybear.STL id:8 copy 0","object_center":[138.191706,82.975404,0.000000],"boundingbox_center":[138.191706,82.975404,4.246796],"boundingbox_size":[10.191750,19.024597,8.493591]}
; plater:{"center":[125.000001,105.000001,0.000000],"boundingbox_center":[125.000001,105.000001,4.246796],"boundingbox_size":[36.575160,63.073791,8.493591]}

M73 P0 R42


; Pre-Processed for Cancel-Object support by preprocess_cancellation v0.2.0
; 9 known objects
EXCLUDE_OBJECT_DEFINE NAME=actualsize_gummybear_STL_id_0_copy_0 CENTER=111.787,105.049 POLYGON=[[108.717,95.713],[108.42,95.744],[108.039,95.875],[107.785,96.03],[107.529,96.278],[107.396,96.472],[107.146,97.017],[107.024,97.437],[106.962,97.976],[106.939,112.982],[106.955,113.205],[107.021,113.468],[107.167,113.776],[107.362,114.018],[107.646,114.203],[107.949,114.281],[115.66,114.282],[115.905,114.23],[116.246,114.026],[116.49,113.705],[116.589,113.489],[116.676,113.031],[116.659,98.297],[116.628,97.675],[116.476,97.021],[116.186,96.413],[116.082,96.276],[115.826,96.026],[115.676,95.933],[115.368,95.79],[115.2,95.746],[114.897,95.713],[108.717,95.713]]
EXCLUDE_OBJECT_DEFINE NAME=actualsize_gummybear_STL_id_1_copy_0 CENTER=124.957,105.051 POLYGON=[[121.909,95.713],[121.611,95.744],[121.23,95.875],[120.977,96.03],[120.721,96.278],[120.588,96.472],[120.337,97.017],[120.216,97.437],[120.154,97.976],[120.131,113.011],[120.213,113.469],[120.359,113.776],[120.554,114.018],[120.837,114.203],[121.141,114.281],[128.852,114.282],[129.097,114.23],[129.392,114.067],[129.54,113.92],[129.684,113.702],[129.782,113.487],[129.868,113.031],[129.85,98.297],[129.82,97.675],[129.668,97.021],[129.377,96.413],[129.273,96.276],[129.018,96.026],[128.867,95.933],[128.559,95.79],[128.392,95.746],[128.089,95.713],[121.909,95.713]]
EXCLUDE_OBJECT_DEFINE NAME=actualsize_gummybear_STL_id_4_copy_0 CENTER=138.158,105.036 POLYGON=[[135.1,95.713],[134.803,95.744],[134.422,95.875],[134.169,96.03],[133.912,96.278],[133.78,96.472],[133.529,97.017],[133.407,97.437],[133.345,97.976],[133.322,112.982],[133.339,113.208],[133.405,113.469],[133.551,113.776],[133.746,114.018],[134.029,114.203],[134.332,114.281],[142.044,114.282],[142.288,114.23],[142.584,114.067],[142.73,113.922],[142.876,113.702],[142.973,113.489],[143.06,113.031],[143.042,98.297],[143.012,97.675],[142.859,97.021],[142.569,96.413],[142.465,96.276],[142.209,96.026],[142.059,95.933],[141.751,95.79],[141.583,95.746],[141.281,95.713],[135.1,95.713]]
EXCLUDE_OBJECT_DEFINE NAME=actualsize_gummybear_STL_id_8_copy_0 CENTER=138.164,83.033 POLYGON=[[135.1,73.688],[134.8,73.72],[134.422,73.85],[134.169,74.005],[133.912,74.254],[133.78,74.447],[133.529,74.992],[133.407,75.412],[133.345,75.951],[133.322,90.957],[133.339,91.184],[133.405,91.444],[133.551,91.751],[133.746,91.994],[134.029,92.178],[134.332,92.256],[142.044,92.257],[142.288,92.206],[142.584,92.042],[142.73,91.897],[142.874,91.681],[142.974,91.461],[143.06,91.007],[143.042,76.273],[143.012,75.65],[142.859,74.997],[142.569,74.389],[142.465,74.252],[142.209,74.001],[142.059,73.909],[141.751,73.765],[141.583,73.721],[141.281,73.688],[135.1,73.688]]
EXCLUDE_OBJECT_DEFINE NAME=actualsize_gummybear_STL_id_7_copy_0 CENTER=124.981,83.012 POLYGON=[[121.909,73.688],[121.608,73.72],[121.23,73.85],[120.977,74.005],[120.721,74.254],[120.588,74.447],[120.337,74.992],[120.216,75.412],[120.154,75.951],[120.131,90.987],[120.213,91.444],[120.369,91.767],[120.603,92.036],[120.869,92.191],[121.151,92.257],[128.852,92.257],[129.097,92.206],[129.392,92.042],[129.54,91.895],[129.682,91.681],[129.782,91.462],[129.868,91.007],[129.85,76.273],[129.82,75.65],[129.668,74.997],[129.377,74.389],[129.273,74.252],[129.018,74.001],[128.867,73.909],[128.559,73.765],[128.392,73.721],[128.089,73.688],[121.909,73.688]]
EXCLUDE_OBJECT_DEFINE NAME=actualsize_gummybear_STL_id_6_copy_0 CENTER=111.788,83.008 POLYGON=[[108.717,73.688],[108.416,73.72],[108.039,73.85],[107.785,74.005],[107.529,74.254],[107.396,74.447],[107.146,74.992],[107.024,75.412],[106.962,75.951],[106.939,90.957],[106.955,91.181],[107.021,91.444],[107.167,91.751],[107.363,91.994],[107.646,92.178],[107.959,92.257],[115.661,92.257],[115.905,92.206],[116.246,92.001],[116.49,91.681],[116.591,91.461],[116.672,91.007],[116.659,76.273],[116.628,75.65],[116.476,74.997],[116.186,74.389],[116.082,74.252],[115.826,74.001],[115.676,73.909],[115.368,73.765],[115.2,73.721],[114.897,73.688],[108.717,73.688]]
EXCLUDE_OBJECT_DEFINE NAME=actualsize_gummybear_STL_id_2_copy_0 CENTER=111.774,127.061 POLYGON=[[108.72,117.737],[108.416,117.769],[108.039,117.899],[107.785,118.054],[107.529,118.303],[107.396,118.496],[107.146,119.041],[107.024,119.461],[106.962,120.0],[106.939,135.006],[106.955,135.23],[107.021,135.493],[107.167,135.8],[107.403,136.078],[107.649,136.229],[107.958,136.306],[115.661,136.306],[115.905,136.255],[116.243,136.053],[116.49,135.73],[116.591,135.51],[116.676,135.056],[116.659,120.322],[116.628,119.7],[116.476,119.046],[116.186,118.438],[116.082,118.301],[115.826,118.051],[115.676,117.958],[115.368,117.814],[115.2,117.77],[114.897,117.737],[108.72,117.737]]
EXCLUDE_OBJECT_DEFINE NAME=actualsize_gummybear_STL_id_3_copy_0 CENTER=124.956,127.068 POLYGON=[[121.91,117.737],[121.608,117.769],[121.23,117.899],[120.977,118.054],[120.721,118.303],[120.588,118.496],[120.337,119.041],[120.216,119.461],[120.154,120.0],[120.131,135.036],[120.213,135.493],[120.359,135.8],[120.552,136.041],[120.833,136.226],[121.15,136.306],[128.852,136.306],[129.097,136.255],[129.44,136.048],[129.682,135.73],[129.782,135.512],[129.868,135.056],[129.85,120.322],[129.82,119.7],[129.668,119.046],[129.377,118.438],[129.273,118.301],[129.018,118.051],[128.867,117.958],[128.559,117.814],[128.391,117.77],[128.089,117.737],[121.91,117.737]]
EXCLUDE_OBJECT_DEFINE NAME=actualsize_gummybear_STL_id_5_copy_0 CENTER=138.148,127.070 POLYGON=[[135.102,117.737],[134.8,117.769],[134.422,117.899],[134.169,118.054],[133.912,118.303],[133.78,118.496],[133.529,119.041],[133.407,119.461],[133.345,120.0],[133.322,135.006],[133.339,135.233],[133.405,135.493],[133.561,135.816],[133.786,136.078],[134.025,136.226],[134.342,136.306],[142.044,136.306],[142.288,136.255],[142.632,136.048],[142.874,135.73],[142.974,135.51],[143.06,135.056],[143.042,120.322],[143.012,119.7],[142.859,119.046],[142.569,118.438],[142.465,118.301],[142.209,118.051],[142.059,117.958],[141.751,117.814],[141.583,117.77],[141.281,117.737],[135.102,117.737]]
;TYPE:Custom
Start : M104 S0
M140 S0
PRINT_START EXTRUDER_TEMP=215 BED_TEMP=60
M107
G21 ; set units to millimeters
G90 ; use absolute coordinates
M83 ; use relative distances for extrusion
M900 K0.05 ; Filament gcode LA 1.5
M900 K30 ; Filament gcode LA 1.0
;_TOOLCHANGE 0
M104 S215 ; set temperature
M109 S215 ; set temperature and wait for it to be reached
M107
;LAYER_CHANGE
;Z:0.2
;HEIGHT:0.2
;BEFORE_LAYER_CHANGE
G92 E0.0
;0.2


G1 E-0.8 F2100
G1 Z0.4 F10800
;AFTER_LAYER_CHANGE
;0.2
G1 Z0.6
M204 S1000
G1 X105.686 Y72.617
G1 Z0.2
G1 E0.8 F2100
;TYPE:Skirt
;WIDTH:0.52
G1 F1200
G1 X105.118 Y73.481 E0.04103
G1 X104.649 Y74.755 E0.05385
G1 X104.493 Y76.168 E0.05638
G1 X104.474 Y135.015 E2.33442
G1 X104.63 Y136.097 E0.04339
G1 X105.039 Y137.041 E0.04079
G1 X105.553 Y137.718 E0.03374
G1 X106.496 Y138.409 E0.04636
G1 X107.364 Y138.706 E0.03638
G1 X107.919 Y138.771 E0.02218
G1 X142.068 Y138.771 E1.35465
M73 P1 R42
G1 X142.996 Y138.614 E0.03736
G1 X144.009 Y138.101 E0.04502
G1 X144.576 Y137.577 E0.03063
G1 X145.128 Y136.731 E0.04006
G1 X145.436 Y135.832 E0.03769
G1 X145.526 Y135.008 E0.0329
G1 X145.497 Y75.744 E2.35094
G1 X145.352 Y74.76 E0.03947
G1 X145.132 Y74.045 E0.02967
G1 X144.709 Y73.165 E0.03872
G1 X144.203 Y72.501 E0.03315
G1 X143.522 Y71.916 E0.03562
G1 X142.763 Y71.516 E0.03403
G1 X141.902 Y71.279 E0.03543
G1 X141.285 Y71.225 E0.02457
G1 X108.479 Y71.237 E1.30138
G1 X107.528 Y71.408 E0.03833
G1 X106.477 Y71.916 E0.04633
G1 X105.731 Y72.577 E0.03954
;WIPE_START
G1 F8640
M204 S1250
G1 X105.118 Y73.481 E-0.2522
G1 X104.649 Y74.755 E-0.31344
G1 X104.557 Y75.592 E-0.19436
;WIPE_END
G1 E-0.04 F2100
G1 Z0.6 F10800
; printing object actualsize_gummybear.STL id:0 copy 0
EXCLUDE_OBJECT_START NAME=actualsize_gummybear_STL_id_0_copy_0
; acceleration to travel
M204 S1500
G1 X107.748 Y92.252
; decel to extrusion
M204 S1000
G1 X108.524 Y96.3
; end travel
G1 Z0.2
G1 E0.8 F2100
;TYPE:Internal perimeter
;WIDTH:0.377079
G1 F1200
G1 X108.782 Y96.275 E0.00721
G1 X114.388 Y96.275 E0.15576
G1 X114.92 Y96.281 E0.01478
G1 X115.325 Y96.377 E0.01158
G1 X115.656 Y96.639 E0.01172
G1 X115.855 Y96.986 E0.0111
G1 X116.047 Y97.555 E0.01669
G1 X116.091 Y98.009 E0.01269
G1 X116.082 Y98.486 E0.01325
G1 X115.961 Y98.96 E0.01359
G1 X115.716 Y99.529 E0.01722
G1 X115.44 Y100.066 E0.01676
G1 X115.357 Y100.546 E0.01354
G1 X115.367 Y102.799 E0.06262
G1 X115.369 Y102.976 E0.00492
G1 X115.517 Y103.426 E0.01317
G1 X115.845 Y103.857 E0.01502
G1 X115.933 Y104.077 E0.00661
G1 X116.05 Y104.497 E0.01211
G1 X116.094 Y105.042 E0.0152
G1 X115.995 Y105.334 E0.00855
G1 X115.653 Y105.691 E0.01374
G1 X115.463 Y106.065 E0.01164
G1 X115.364 Y106.417 E0.01017
G1 X115.358 Y107.275 E0.02384
G1 X115.423 Y108.552 E0.03553
G1 X115.428 Y109.606 E0.02928
G1 X115.393 Y110.595 E0.02749
G1 X115.371 Y111.272 E0.01882
G1 X115.513 Y111.732 E0.01338
G1 X115.768 Y112.083 E0.01207
G1 X116.04 Y112.558 E0.01521
G1 X116.093 Y112.885 E0.00919
G1 X116.073 Y113.196 E0.00866
G1 X115.947 Y113.491 E0.00891
G1 X115.812 Y113.646 E0.00574
G1 X115.544 Y113.715 E0.00769
G1 X115.344 Y113.625 E0.0061
G1 X114.903 Y113.327 E0.01478
G1 X114.425 Y113.192 E0.01382
G1 X114.034 Y113.235 E0.01091
G1 X112.98 Y113.583 E0.03085
G1 X112.403 Y113.682 E0.01627
G1 X111.808 Y113.715 E0.01655
G1 X111.215 Y113.682 E0.01651
G1 X110.629 Y113.581 E0.01651
G1 X110.037 Y113.41 E0.01711
G1 X109.473 Y113.217 E0.01657
G1 X109.189 Y113.196 E0.00792
G1 X108.698 Y113.324 E0.0141
G1 X108.467 Y113.501 E0.00809
G1 X108.143 Y113.704 E0.01063
G1 X107.868 Y113.68 E0.00767
G1 X107.689 Y113.52 E0.00668
G1 X107.553 Y113.231 E0.00887
G1 X107.523 Y112.875 E0.00993
G1 X107.625 Y112.468 E0.01165
G1 X107.732 Y112.263 E0.00642
G1 X108.156 Y111.651 E0.02069
G1 X108.248 Y111.154 E0.01405
G1 X108.189 Y109.836 E0.03665
G1 X108.191 Y108.594 E0.0345
G1 X108.259 Y107.275 E0.0367
G1 X108.259 Y107.241 E0.00096
G1 X108.24 Y106.301 E0.02612
G1 X108.027 Y105.784 E0.01553
G1 X107.704 Y105.419 E0.01354
G1 X107.537 Y105.148 E0.00884
G1 X107.52 Y104.9 E0.00692
G1 X107.608 Y104.323 E0.01622
G1 X107.812 Y103.789 E0.01589
G1 X108.026 Y103.537 E0.00918
G1 X108.141 Y103.32 E0.00682
G1 X108.26 Y102.815 E0.01443
G1 X108.26 Y100.564 E0.06255
G1 X108.238 Y100.295 E0.0075
G1 X108.064 Y99.786 E0.01495
G1 X107.808 Y99.331 E0.01451
G1 X107.598 Y98.812 E0.01555
G1 X107.516 Y98.214 E0.01678
G1 X107.559 Y97.719 E0.0138
G1 X107.627 Y97.38 E0.00962
G1 X107.863 Y96.78 E0.01791
G1 X108.109 Y96.502 E0.0103
G1 X108.47 Y96.327 E0.01115
G1 X108.433 Y95.931 F10800
;TYPE:External perimeter
G1 F1200
G1 X108.763 Y95.898 E0.00922
G1 X114.631 Y95.898 E0.16305
G1 X115.182 Y95.93 E0.01532
G1 X115.602 Y96.105 E0.01264
G1 X115.951 Y96.4 E0.01272
G1 X116.26 Y96.975 E0.01811
G1 X116.416 Y97.475 E0.01457
G1 X116.468 Y98.016 E0.0151
G1 X116.462 Y98.338 E0.00894
G1 X116.389 Y98.891 E0.0155
G1 X116.151 Y99.53 E0.01895
G1 X115.832 Y100.079 E0.01764
G1 X115.734 Y100.546 E0.01325
G1 X115.744 Y102.936 E0.06642
G1 X115.86 Y103.269 E0.00979
G1 X116.173 Y103.663 E0.01399
G1 X116.388 Y104.289 E0.01838
G1 X116.473 Y104.869 E0.0163
G1 X116.447 Y105.251 E0.01062
G1 X116.311 Y105.548 E0.00908
G1 X115.927 Y105.952 E0.0155
G1 X115.741 Y106.42 E0.01399
G1 X115.735 Y107.256 E0.02323
G1 X115.8 Y108.542 E0.03577
G1 X115.805 Y109.612 E0.02973
G1 X115.747 Y111.233 E0.04506
G1 X115.867 Y111.602 E0.0108
G1 X116.14 Y111.938 E0.01202
G1 X116.402 Y112.437 E0.01567
G1 X116.491 Y112.984 E0.01538
G1 X116.42 Y113.407 E0.01192
