; generated by SuperSlicer 2.4 on 2022-08-02 at 05:28:31 UTC

; 

; external perimeters extrusion width = 0.45mm
; perimeters extrusion width = 0.45mm
; infill extrusion width = 0.45mm
; solid infill extrusion width = 0.45mm
; top infill extrusion width = 0.40mm
; first layer extrusion width = 0.42mm

; object:{"name":"Body1","id":"Body1.stl id:0 copy 0","object_center":[125.000000,105.000000,0.000000],"boundingbox_center":[125.000000,105.000000,25.000000],"boundingbox_size":[50.000000,19.750000,50.000000]}
; plater:{"center":[125.000000,105.000000,0.000000],"boundingbox_center":[125.000000,105.000000,25.000000],"boundingbox_size":[50.000000,19.750000,50.000000]}

M73 P0 R116
;TYPE:Custom
Start : M104 S0
M140 S0
PRINT_START EXTRUDER_TEMP=230 BED_TEMP=65
M107
G21 ; set units to millimeters
G90 ; use absolute coordinates
M83 ; use relative distances for extrusion
; Filament gcode
SET_PRESSURE_ADVANCE ADVANCE=0.035
M104 S230 ; set temperature
M109 S230 ; set temperature and wait for it to be reached
M107
;LAYER_CHANGE
;Z:0.2
;HEIGHT:0.2
;BEFORE_LAYER_CHANGE
G92 E0.0
;0.2


G1 E-0.8 F2100
G1 Z0.4 F10800
;AFTER_LAYER_CHANGE
;0.2
G1 Z0.6
M204 S1000
G1 X99.495 Y93.861
G1 Z0.2
G1 E0.8 F2100
;TYPE:Skirt
;WIDTH:0.52
G1 F1200
G1 X99.104 Y95.125 E0.05249
G1 X99.104 Y114.875 E0.78347
G1 X99.256 Y115.686 E0.03273
G1 X100.079 Y116.722 E0.05249
G1 X101.343 Y117.114 E0.05249
G1 X148.657 Y117.114 E1.87695
G1 X149.468 Y116.961 E0.03273
G1 X150.505 Y116.139 E0.05249
G1 X150.896 Y114.875 E0.05249
G1 X150.896 Y95.125 E0.78347
G1 X150.744 Y94.314 E0.03273
G1 X149.921 Y93.278 E0.05249
G1 X148.657 Y92.886 E0.05249
G1 X101.343 Y92.886 E1.87695
G1 X100.532 Y93.039 E0.03273
G1 X99.542 Y93.824 E0.05011
; INIT printing object Body1.stl id:0 copy 0
;WIPE_START
G1 F8640
G1 X99.495 Y93.861 E-0.01385
G1 X99.104 Y95.125 E-0.30553
G1 X99.104 Y97.033 E-0.44062
;WIPE_END
G1 E-0.04 F2100
G1 Z0.6 F10800
; printing object Body1.stl id:0 copy 0
; acceleration to travel
M204 S1500
G1 X103.025 Y96.726
; decel to extrusion
M204 S800
G1 X103.787 Y96.666
; end travel
G1 Z0.2
G1 E0.8 F2100
;TYPE:Internal perimeter
;WIDTH:0.42
G1 F1200
G1 X146.213 Y96.666 E1.33025
G1 X146.213 Y113.334 E0.5226
G1 X103.787 Y113.334 E1.33025
G1 X103.787 Y96.726 E0.52072
G1 X103.41 Y96.289 F10800
G1 F1200
G1 X146.59 Y96.289 E1.35389
G1 X146.59 Y113.711 E0.54624
G1 X103.41 Y113.711 E1.35389
G1 X103.41 Y96.349 E0.54436
G1 X103.033 Y95.912 F10800
G1 F1200
G1 X146.967 Y95.912 E1.37754
G1 X146.967 Y114.088 E0.56989
G1 X103.033 Y114.088 E1.37754
M73 P0 R115
G1 X103.033 Y95.972 E0.56801
G1 X102.656 Y95.535 F10800
;TYPE:External perimeter
G1 F1200
G1 X147.344 Y95.535 E1.40118
G1 X147.344 Y114.465 E0.59354
G1 X102.656 Y114.465 E1.40118
G1 X102.656 Y95.595 E0.59166
;WIPE_START
M204 S1000
G1 X103.002 Y95.735 F10800
;WIPE_END
;WIPE_START
G1 F8640
G1 X106.293 Y95.735 E-0.76
;WIPE_END
G1 E-0.04 F2100
G1 Z0.6 F10800
; acceleration to travel
M204 S1500
G1 X137.705 Y96.575
; decel to extrusion
M204 S1000
G1 X145.338 Y96.779
; end travel
G1 Z0.2
G1 E0.8 F2100
;TYPE:Solid infill
;WIDTH:0.420573
G1 F1200
G1 X145.938 Y97.379 E0.02665
G1 X145.938 Y97.913 E0.01674
G1 X144.967 Y96.941 E0.04313
G1 X144.433 Y96.941 E0.01674
G1 X145.938 Y98.446 E0.0668
G1 X145.938 Y98.979 E0.01674
G1 X143.9 Y96.941 E0.09048
G1 X143.367 Y96.941 E0.01674
G1 X145.938 Y99.513 E0.11416
G1 X145.938 Y100.046 E0.01674
G1 X142.834 Y96.941 E0.13784
G1 X142.3 Y96.941 E0.01674
G1 X145.938 Y100.579 E0.16152
G1 X145.938 Y101.112 E0.01674
G1 X141.767 Y96.941 E0.1852
G1 X141.234 Y96.941 E0.01674
G1 X145.938 Y101.646 E0.20887
G1 X145.938 Y102.179 E0.01674
G1 X140.7 Y96.941 E0.23255
G1 X140.167 Y96.941 E0.01674
G1 X145.938 Y102.712 E0.25623
G1 X145.938 Y103.245 E0.01674
G1 X139.634 Y96.941 E0.27991
G1 X139.101 Y96.941 E0.01674
G1 X145.938 Y103.779 E0.30359
G1 X145.938 Y104.312 E0.01674
G1 X138.567 Y96.941 E0.32727
G1 X138.034 Y96.941 E0.01674
G1 X145.938 Y104.845 E0.35094
G1 X145.938 Y105.379 E0.01674
G1 X137.501 Y96.941 E0.37462
G1 X136.968 Y96.941 E0.01674
G1 X145.938 Y105.912 E0.3983
G1 X145.938 Y106.445 E0.01674
G1 X136.434 Y96.941 E0.42198
G1 X135.901 Y96.941 E0.01674
G1 X145.938 Y106.978 E0.44566
G1 X145.938 Y107.512 E0.01674
G1 X135.368 Y96.941 E0.46934
G1 X134.834 Y96.941 E0.01674
G1 X145.938 Y108.045 E0.49301
G1 X145.938 Y108.578 E0.01674
G1 X134.301 Y96.941 E0.51669
G1 X133.768 Y96.941 E0.01674
G1 X145.938 Y109.111 E0.54037
G1 X145.938 Y109.645 E0.01674
G1 X133.235 Y96.941 E0.56405
G1 X132.701 Y96.941 E0.01674
G1 X145.938 Y110.178 E0.58773
G1 X145.938 Y110.711 E0.01674
G1 X132.168 Y96.941 E0.61141
G1 X131.635 Y96.941 E0.01674
G1 X145.938 Y111.244 E0.63508
G1 X145.938 Y111.778 E0.01674
G1 X131.102 Y96.941 E0.65876
G1 X130.568 Y96.941 E0.01674
G1 X145.938 Y112.311 E0.68244
G1 X145.938 Y112.844 E0.01674
G1 X130.035 Y96.941 E0.70612
G1 X129.502 Y96.941 E0.01674
G1 X145.619 Y113.059 E0.71563
G1 X145.086 Y113.059 E0.01674
G1 X128.969 Y96.941 E0.71563
G1 X128.435 Y96.941 E0.01674
G1 X144.552 Y113.059 E0.71563
G1 X144.019 Y113.059 E0.01674
G1 X127.902 Y96.941 E0.71563
G1 X127.369 Y96.941 E0.01674
G1 X143.486 Y113.059 E0.71563
G1 X142.952 Y113.059 E0.01674
G1 X126.835 Y96.941 E0.71563
G1 X126.302 Y96.941 E0.01674
G1 X142.419 Y113.059 E0.71563
G1 X141.886 Y113.059 E0.01674
G1 X125.769 Y96.941 E0.71563
G1 X125.236 Y96.941 E0.01674
G1 X141.353 Y113.059 E0.71563
G1 X140.819 Y113.059 E0.01674
G1 X124.702 Y96.941 E0.71563
G1 X124.169 Y96.941 E0.01674
G1 X140.286 Y113.059 E0.71563
G1 X139.753 Y113.059 E0.01674
G1 X123.636 Y96.941 E0.71563
G1 X123.103 Y96.941 E0.01674
G1 X139.22 Y113.059 E0.71563
G1 X138.686 Y113.059 E0.01674
G1 X122.569 Y96.941 E0.71563
G1 X122.036 Y96.941 E0.01674
G1 X138.153 Y113.059 E0.71563
M73 P1 R115
G1 X137.62 Y113.059 E0.01674
G1 X121.503 Y96.941 E0.71563
G1 X120.969 Y96.941 E0.01674
G1 X137.087 Y113.059 E0.71563
G1 X136.553 Y113.059 E0.01674
G1 X120.436 Y96.941 E0.71563
G1 X119.903 Y96.941 E0.01674
G1 X136.02 Y113.059 E0.71563
G1 X135.487 Y113.059 E0.01674
G1 X119.37 Y96.941 E0.71563
G1 X118.836 Y96.941 E0.01674
G1 X134.953 Y113.059 E0.71563
G1 X134.42 Y113.059 E0.01674
G1 X118.303 Y96.941 E0.71563
G1 X117.77 Y96.941 E0.01674
G1 X133.887 Y113.059 E0.71563
G1 X133.354 Y113.059 E0.01674
G1 X117.237 Y96.941 E0.71563
G1 X116.703 Y96.941 E0.01674
G1 X132.82 Y113.059 E0.71563
G1 X132.287 Y113.059 E0.01674
G1 X116.17 Y96.941 E0.71563
G1 X115.637 Y96.941 E0.01674
G1 X131.754 Y113.059 E0.71563
G1 X131.221 Y113.059 E0.01674
G1 X115.103 Y96.941 E0.71563
M73 P1 R114
G1 X114.57 Y96.941 E0.01674
G1 X130.687 Y113.059 E0.71563
G1 X130.154 Y113.059 E0.01674
G1 X114.037 Y96.941 E0.71563
G1 X113.504 Y96.941 E0.01674
G1 X129.621 Y113.059 E0.71563
G1 X129.087 Y113.059 E0.01674
G1 X112.97 Y96.941 E0.71563
G1 X112.437 Y96.941 E0.01674
G1 X128.554 Y113.059 E0.71563
G1 X128.021 Y113.059 E0.01674
G1 X111.904 Y96.941 E0.71563
G1 X111.371 Y96.941 E0.01674
G1 X127.488 Y113.059 E0.71563
G1 X126.954 Y113.059 E0.01674
G1 X110.837 Y96.941 E0.71563
G1 X110.304 Y96.941 E0.01674
G1 X126.421 Y113.059 E0.71563
G1 X125.888 Y113.059 E0.01674
G1 X109.771 Y96.941 E0.71563
G1 X109.238 Y96.941 E0.01674
G1 X125.355 Y113.059 E0.71563
G1 X124.821 Y113.059 E0.01674
G1 X108.704 Y96.941 E0.71563
G1 X108.171 Y96.941 E0.01674
G1 X124.288 Y113.059 E0.71563
G1 X123.755 Y113.059 E0.01674
G1 X107.638 Y96.941 E0.71563
G1 X107.104 Y96.941 E0.01674
G1 X123.221 Y113.059 E0.71563
G1 X122.688 Y113.059 E0.01674
G1 X106.571 Y96.941 E0.71563
G1 X106.038 Y96.941 E0.01674
G1 X122.155 Y113.059 E0.71563
G1 X121.622 Y113.059 E0.01674
G1 X105.505 Y96.941 E0.71563
G1 X104.971 Y96.941 E0.01674
G1 X121.088 Y113.059 E0.71563
G1 X120.555 Y113.059 E0.01674
G1 X104.438 Y96.941 E0.71563
G1 X104.062 Y96.941 E0.0118
G1 X104.062 Y97.099 E0.00494
G1 X120.022 Y113.059 E0.70865
G1 X119.489 Y113.059 E0.01674
G1 X104.062 Y97.632 E0.68497
G1 X104.062 Y98.165 E0.01674
G1 X118.955 Y113.059 E0.66129
G1 X118.422 Y113.059 E0.01674
G1 X104.062 Y98.699 E0.63761
G1 X104.062 Y99.232 E0.01674
G1 X117.889 Y113.059 E0.61393
G1 X117.356 Y113.059 E0.01674
G1 X104.062 Y99.765 E0.59026
G1 X104.062 Y100.298 E0.01674
G1 X116.822 Y113.059 E0.56658
G1 X116.289 Y113.059 E0.01674
G1 X104.062 Y100.832 E0.5429
G1 X104.062 Y101.365 E0.01674
G1 X115.756 Y113.059 E0.51922
G1 X115.222 Y113.059 E0.01674
G1 X104.062 Y101.898 E0.49554
G1 X104.062 Y102.431 E0.01674
G1 X114.689 Y113.059 E0.47186
G1 X114.156 Y113.059 E0.01674
G1 X104.062 Y102.965 E0.44818
G1 X104.062 Y103.498 E0.01674
G1 X113.623 Y113.059 E0.42451
G1 X113.089 Y113.059 E0.01674
G1 X104.062 Y104.031 E0.40083
G1 X104.062 Y104.565 E0.01674
G1 X112.556 Y113.059 E0.37715
G1 X112.023 Y113.059 E0.01674
G1 X104.062 Y105.098 E0.35347
G1 X104.062 Y105.631 E0.01674
G1 X111.49 Y113.059 E0.32979
G1 X110.956 Y113.059 E0.01674
G1 X104.062 Y106.164 E0.30611
G1 X104.062 Y106.698 E0.01674
G1 X110.423 Y113.059 E0.28244
G1 X109.89 Y113.059 E0.01674
G1 X104.062 Y107.231 E0.25876
G1 X104.062 Y107.764 E0.01674
G1 X109.356 Y113.059 E0.23508
G1 X108.823 Y113.059 E0.01674
G1 X104.062 Y108.297 E0.2114
G1 X104.062 Y108.831 E0.01674
G1 X108.29 Y113.059 E0.18772
G1 X107.757 Y113.059 E0.01674
G1 X104.062 Y109.364 E0.16404
G1 X104.062 Y109.897 E0.01674
G1 X107.223 Y113.059 E0.14037
G1 X106.69 Y113.059 E0.01674
G1 X104.062 Y110.431 E0.11669
G1 X104.062 Y110.964 E0.01674
G1 X106.157 Y113.059 E0.09301
G1 X105.624 Y113.059 E0.01674
G1 X104.062 Y111.497 E0.06933
G1 X104.062 Y112.03 E0.01674
G1 X105.09 Y113.059 E0.04565
G1 X104.557 Y113.059 E0.01674
G1 X103.9 Y112.401 E0.02917
; INIT stop printing object Body1.stl id:0 copy 0
M106 S84.15
;LAYER_CHANGE
;Z:0.4
;HEIGHT:0.2
;BEFORE_LAYER_CHANGE
G92 E0.0
;0.4


;WIPE_START
G1 F8640
G1 X104.557 Y113.059 E-0.21456
G1 X105.09 Y113.059 E-0.12313
G1 X104.062 Y112.03 E-0.33575
G1 X104.062 Y111.655 E-0.08657
;WIPE_END
G1 E-0.04 F2100
G1 Z0.6 F10800
; stop printing object Body1.stl id:0 copy 0
;AFTER_LAYER_CHANGE
;0.4
M104 S225 ; set temperature
M140 S60 ; set bed temperature
G1 Z0.8
; acceleration to travel
M204 S1500
G1 X100.079 Y111.655
; decel to extrusion
M204 S1000
G1 X99.104 Y111.655
; end travel
G1 Z0.4
G1 E0.8 F2100
;TYPE:Skirt
;WIDTH:0.52
G1 F1500
G1 X99.104 Y114.875 E0.12772
G1 X99.256 Y115.686 E0.03273
G1 X100.079 Y116.722 E0.05249
G1 X101.343 Y117.114 E0.05249
G1 X148.657 Y117.114 E1.87695
G1 X149.468 Y116.961 E0.03273
G1 X150.505 Y116.139 E0.05249
G1 X150.896 Y114.875 E0.05249
G1 X150.896 Y95.125 E0.78347
G1 X150.744 Y94.314 E0.03273
G1 X149.921 Y93.278 E0.05249
G1 X148.657 Y92.886 E0.05249
G1 X101.343 Y92.886 E1.87695
G1 X100.532 Y93.039 E0.03273
G1 X99.495 Y93.861 E0.05249
G1 X99.104 Y95.125 E0.05249
G1 X99.104 Y111.595 E0.65337
; INIT printing object Body1.stl id:0 copy 0
;WIPE_START
G1 F8640
G1 X99.104 Y114.875 E-0.75726
G1 X99.106 Y114.887 E-0.00274
;WIPE_END
G1 E-0.04 F2100
G1 Z0.8 F10800
; printing object Body1.stl id:0 copy 0
; acceleration to travel
M204 S1500
G1 X102.46 Y112.155
; decel to extrusion
M204 S800
G1 X103.147 Y111.595
; end travel
G1 Z0.4
G1 E0.8 F2100
;TYPE:Internal perimeter
;WIDTH:0.45
G1 F2700
G1 X103.147 Y96.571 E0.50855
G1 X146.853 Y96.571 E1.47942
G1 X146.853 Y113.429 E0.57061
G1 X103.147 Y113.429 E1.47942
G1 X103.147 Y111.655 E0.06002
G1 X102.74 Y111.595 F10800
G1 F2700
G1 X102.74 Y96.164 E0.52233
G1 X147.26 Y96.164 E1.50697
G1 X147.26 Y113.836 E0.59817
M73 P2 R114
G1 X102.74 Y113.836 E1.50697
G1 X102.74 Y111.655 E0.0738
G1 X102.333 Y111.595 F10800
G1 F2700
G1 X102.333 Y95.757 E0.53611
G1 X147.667 Y95.757 E1.53453
G1 X147.667 Y114.243 E0.62572
G1 X102.333 Y114.243 E1.53453
G1 X102.333 Y111.655 E0.08758
G1 X101.925 Y111.595 F10800
;TYPE:External perimeter
G1 F1500
G1 X101.925 Y95.35 E0.54989
G1 X148.075 Y95.35 E1.56209
M73 P2 R113
G1 X148.075 Y114.65 E0.65328
G1 X101.925 Y114.65 E1.56209
G1 X101.925 Y111.655 E0.10136
;WIPE_START
M204 S1000
G1 X102.272 Y111.395 F10800
;WIPE_END
;WIPE_START
G1 F8640
G1 X102.241 Y108.104 E-0.76
;WIPE_END
G1 E-0.04 F2100
G1 Z0.8 F10800
; acceleration to travel
M204 S1500
G1 X103.442 Y99.32
; decel to extrusion
M204 S1000
G1 X103.801 Y96.693
; end travel
G1 Z0.4
G1 E0.8 F2100
;TYPE:Solid infill
;WIDTH:0.449912
G1 F4800
G1 X103.444 Y97.05 E0.01707
G1 X103.444 Y97.626 E0.01948
G1 X104.201 Y96.868 E0.03624
G1 X104.777 Y96.868 E0.01948
G1 X103.444 Y98.201 E0.0638
G1 X103.444 Y98.777 E0.01948
G1 X105.353 Y96.868 E0.09135
G1 X105.928 Y96.868 E0.01948
G1 X103.444 Y99.353 E0.1189
G1 X103.444 Y99.928 E0.01948
G1 X106.504 Y96.868 E0.14645
G1 X107.08 Y96.868 E0.01948
G1 X103.444 Y100.504 E0.17401
G1 X103.444 Y101.08 E0.01948
G1 X107.655 Y96.868 E0.20156
G1 X108.231 Y96.868 E0.01948
G1 X103.444 Y101.656 E0.22911
G1 X103.444 Y102.231 E0.01948
G1 X108.807 Y96.868 E0.25667
G1 X109.382 Y96.868 E0.01948
G1 X103.444 Y102.807 E0.28422
G1 X103.444 Y103.383 E0.01948
G1 X109.958 Y96.868 E0.31177
G1 X110.534 Y96.868 E0.01948
G1 X103.444 Y103.958 E0.33933
G1 X103.444 Y104.534 E0.01948
G1 X111.11 Y96.868 E0.36688
G1 X111.685 Y96.868 E0.01948
G1 X103.444 Y105.11 E0.39443
G1 X103.444 Y105.685 E0.01948
G1 X112.261 Y96.868 E0.42198
G1 X112.837 Y96.868 E0.01948
G1 X103.444 Y106.261 E0.44954
G1 X103.444 Y106.837 E0.01948
G1 X113.412 Y96.868 E0.47709
G1 X113.988 Y96.868 E0.01948
G1 X103.444 Y107.413 E0.50464
G1 X103.444 Y107.988 E0.01948
G1 X114.564 Y96.868 E0.5322
G1 X115.139 Y96.868 E0.01948
G1 X103.444 Y108.564 E0.55975
G1 X103.444 Y109.14 E0.01948
G1 X115.715 Y96.868 E0.5873
G1 X116.291 Y96.868 E0.01948
G1 X103.444 Y109.715 E0.61485
G1 X103.444 Y110.291 E0.01948
G1 X116.866 Y96.868 E0.64241
G1 X117.442 Y96.868 E0.01948
G1 X103.444 Y110.867 E0.66996
G1 X103.444 Y111.442 E0.01948
G1 X118.018 Y96.868 E0.69751
G1 X118.594 Y96.868 E0.01948
G1 X103.444 Y112.018 E0.72507
G1 X103.444 Y112.594 E0.01948
G1 X119.169 Y96.868 E0.75262
G1 X119.745 Y96.868 E0.01948
G1 X103.482 Y113.132 E0.77836
G1 X104.057 Y113.132 E0.01948
G1 X120.321 Y96.868 E0.77836
G1 X120.896 Y96.868 E0.01948
G1 X104.633 Y113.132 E0.77836
G1 X105.209 Y113.132 E0.01948
G1 X121.472 Y96.868 E0.77836
G1 X122.048 Y96.868 E0.01948
G1 X105.785 Y113.132 E0.77836
G1 X106.36 Y113.132 E0.01948
G1 X122.623 Y96.868 E0.77836
G1 X123.199 Y96.868 E0.01948
G1 X106.936 Y113.132 E0.77836
G1 X107.512 Y113.132 E0.01948
G1 X123.775 Y96.868 E0.77836
G1 X124.351 Y96.868 E0.01948
G1 X108.087 Y113.132 E0.77836
G1 X108.663 Y113.132 E0.01948
G1 X124.926 Y96.868 E0.77836
G1 X125.502 Y96.868 E0.01948
G1 X109.239 Y113.132 E0.77836
G1 X109.814 Y113.132 E0.01948
G1 X126.078 Y96.868 E0.77836
G1 X126.653 Y96.868 E0.01948
G1 X110.39 Y113.132 E0.77836
G1 X110.966 Y113.132 E0.01948
G1 X127.229 Y96.868 E0.77836
G1 X127.805 Y96.868 E0.01948
G1 X111.542 Y113.132 E0.77836
G1 X112.117 Y113.132 E0.01948
G1 X128.38 Y96.868 E0.77836
G1 X128.956 Y96.868 E0.01948
G1 X112.693 Y113.132 E0.77836
G1 X113.269 Y113.132 E0.01948
G1 X129.532 Y96.868 E0.77836
G1 X130.108 Y96.868 E0.01948
G1 X113.844 Y113.132 E0.77836
G1 X114.42 Y113.132 E0.01948
G1 X130.683 Y96.868 E0.77836
G1 X131.259 Y96.868 E0.01948
G1 X114.996 Y113.132 E0.77836
G1 X115.571 Y113.132 E0.01948
G1 X131.835 Y96.868 E0.77836
G1 X132.41 Y96.868 E0.01948
G1 X116.147 Y113.132 E0.77836
G1 X116.723 Y113.132 E0.01948
G1 X132.986 Y96.868 E0.77836
G1 X133.562 Y96.868 E0.01948
G1 X117.298 Y113.132 E0.77836
G1 X117.874 Y113.132 E0.01948
G1 X134.137 Y96.868 E0.77836
G1 X134.713 Y96.868 E0.01948
G1 X118.45 Y113.132 E0.77836
G1 X119.026 Y113.132 E0.01948
G1 X135.289 Y96.868 E0.77836
G1 X135.864 Y96.868 E0.01948
G1 X119.601 Y113.132 E0.77836
G1 X120.177 Y113.132 E0.01948
G1 X136.44 Y96.868 E0.77836
G1 X137.016 Y96.868 E0.01948
G1 X120.753 Y113.132 E0.77836
G1 X121.328 Y113.132 E0.01948
G1 X137.592 Y96.868 E0.77836
G1 X138.167 Y96.868 E0.01948
G1 X121.904 Y113.132 E0.77836
G1 X122.48 Y113.132 E0.01948
G1 X138.743 Y96.868 E0.77836
G1 X139.319 Y96.868 E0.01948
G1 X123.055 Y113.132 E0.77836
G1 X123.631 Y113.132 E0.01948
G1 X139.894 Y96.868 E0.77836
G1 X140.47 Y96.868 E0.01948
G1 X124.207 Y113.132 E0.77836
G1 X124.783 Y113.132 E0.01948
G1 X141.046 Y96.868 E0.77836
G1 X141.621 Y96.868 E0.01948
G1 X125.358 Y113.132 E0.77836
G1 X125.934 Y113.132 E0.01948
