; generated by SuperSlicer 2.5.59 on 2022-11-08 at 05:56:09 UTC

; 

; external perimeters extrusion width = 0.45mm
; perimeters extrusion width = 0.45mm
; infill extrusion width = 0.45mm
; solid infill extrusion width = 0.45mm
; top infill extrusion width = 0.40mm
; first layer extrusion width = 0.42mm

; object:{"name":"Body1","id":"Body1.stl id:0 copy 0","object_center":[125.000000,105.000000,0.000000],"boundingbox_center":[125.000000,105.000000,70.000000],"boundingbox_size":[91.000000,17.000000,140.000000]}
; plater:{"center":[125.000000,105.000000,0.000000],"boundingbox_center":[125.000000,105.000000,70.000000],"boundingbox_size":[91.000000,17.000000,140.000000]}

M73 P0 R325


; Pre-Processed for Cancel-Object support by preprocess_cancellation v0.2.0
; 1 known objects
EXCLUDE_OBJECT_DEFINE NAME=Body1_stl_id_0_copy_0 CENTER=125.545,103.315 POLYGON=[[79.725,96.725],[79.53,113.364],[170.394,113.364],[170.275,96.725],[79.725,96.725]]
;TYPE:Custom
Start : M104 S0
M140 S0
PRINT_START EXTRUDER_TEMP=230 BED_TEMP=70
M107
G21 ; set units to millimeters
G90 ; use absolute coordinates
M83 ; use relative distances for extrusion
M900 K0.05 ; Filament gcode LA 1.5
M900 K30 ; Filament gcode LA 1.0
;_TOOLCHANGE 0
M104 S230 ; set temperature
M109 S230 ; set temperature and wait for it to be reached
M107
;LAYER_CHANGE
;Z:0.2
;HEIGHT:0.2
;BEFORE_LAYER_CHANGE
G92 E0.0
;0.2
TIMELAPSE_TAKE_FRAME

G1 E-0.8 F2100
G1 Z0.4 F10800
;AFTER_LAYER_CHANGE
;0.2
G1 Z0.6
M204 S1000
G1 X79.5 Y95.761
G1 Z0.2
G1 E0.8 F2100
;TYPE:Skirt
;WIDTH:0.52
G1 F900
G1 X78.761 Y96.5 E0.04143
G1 X78.761 Y113.5 E0.67438
G1 X79.5 Y114.239 E0.04143
G1 X170.5 Y114.239 E3.60991
G1 X171.239 Y113.5 E0.04143
G1 X171.239 Y96.5 E0.67438
G1 X170.5 Y95.761 E0.04143
G1 X79.56 Y95.761 E3.60753
;WIPE_START
G1 F8640
G1 X78.761 Y96.5 E-0.25115
G1 X78.761 Y98.704 E-0.50885
;WIPE_END
G1 E-0.04 F2100
G1 Z0.6 F10800
; printing object Body1.stl id:0 copy 0
EXCLUDE_OBJECT_START NAME=Body1_stl_id_0_copy_0
; acceleration to travel
M204 S1500
G1 X80.04 Y97.517
; decel to extrusion
M204 S800
G1 X80.287 Y97.287
; end travel
G1 Z0.2
G1 E0.8 F2100
;TYPE:Internal perimeter
;WIDTH:0.42
G1 F900
G1 X169.713 Y97.287 E2.80388
G1 X169.713 Y112.713 E0.48367
G1 X80.287 Y112.713 E2.80388
G1 X80.287 Y97.347 E0.48179
G1 X79.91 Y96.91 F10800
;TYPE:External perimeter
G1 F900
G1 X170.09 Y96.91 E2.82753
M73 P0 R324
G1 X170.09 Y113.09 E0.50731
G1 X79.91 Y113.09 E2.82753
G1 X79.91 Y96.97 E0.50543
;WIPE_START
M204 S1000
G1 X80.256 Y97.11 F10800
;WIPE_END
;WIPE_START
G1 F8640
G1 X83.548 Y97.11 E-0.76
;WIPE_END
G1 E-0.04 F2100
G1 Z0.6 F10800
; acceleration to travel
M204 S1500
G1 X152.164 Y97.343
; decel to extrusion
M204 S1000
G1 X168.838 Y97.4
; end travel
G1 Z0.2
G1 E0.8 F2100
;TYPE:Solid infill
;WIDTH:0.420419
G1 F1200
G1 X169.438 Y98 E0.02664
G1 X169.438 Y98.534 E0.01674
G1 X168.466 Y97.562 E0.04311
G1 X167.933 Y97.562 E0.01674
G1 X169.438 Y99.067 E0.06678
G1 X169.438 Y99.6 E0.01674
G1 X167.4 Y97.562 E0.09045
G1 X166.867 Y97.562 E0.01674
G1 X169.438 Y100.133 E0.11412
G1 X169.438 Y100.667 E0.01674
G1 X166.333 Y97.562 E0.13779
G1 X165.8 Y97.562 E0.01674
G1 X169.438 Y101.2 E0.16146
G1 X169.438 Y101.733 E0.01674
G1 X165.267 Y97.562 E0.18513
G1 X164.734 Y97.562 E0.01674
G1 X169.438 Y102.266 E0.2088
G1 X169.438 Y102.8 E0.01674
G1 X164.2 Y97.562 E0.23247
G1 X163.667 Y97.562 E0.01674
G1 X169.438 Y103.333 E0.25614
G1 X169.438 Y103.866 E0.01674
G1 X163.134 Y97.562 E0.27981
G1 X162.6 Y97.562 E0.01674
G1 X169.438 Y104.4 E0.30348
G1 X169.438 Y104.933 E0.01674
G1 X162.067 Y97.562 E0.32715
G1 X161.534 Y97.562 E0.01674
G1 X169.438 Y105.466 E0.35082
G1 X169.438 Y105.999 E0.01674
G1 X161.001 Y97.562 E0.37449
G1 X160.467 Y97.562 E0.01674
G1 X169.438 Y106.533 E0.39815
G1 X169.438 Y107.066 E0.01674
G1 X159.934 Y97.562 E0.42182
G1 X159.401 Y97.562 E0.01674
G1 X169.438 Y107.599 E0.44549
G1 X169.438 Y108.132 E0.01674
G1 X158.868 Y97.562 E0.46916
G1 X158.334 Y97.562 E0.01674
G1 X169.438 Y108.666 E0.49283
G1 X169.438 Y109.199 E0.01674
G1 X157.801 Y97.562 E0.5165
G1 X157.268 Y97.562 E0.01674
G1 X169.438 Y109.732 E0.54017
G1 X169.438 Y110.266 E0.01674
G1 X156.734 Y97.562 E0.56384
G1 X156.201 Y97.562 E0.01674
G1 X169.438 Y110.799 E0.58751
G1 X169.438 Y111.332 E0.01674
G1 X155.668 Y97.562 E0.61118
G1 X155.135 Y97.562 E0.01674
G1 X169.438 Y111.865 E0.63485
G1 X169.438 Y112.399 E0.01674
G1 X154.601 Y97.562 E0.65852
G1 X154.068 Y97.562 E0.01674
G1 X168.943 Y112.438 E0.66026
G1 X168.41 Y112.438 E0.01674
G1 X153.535 Y97.562 E0.66026
G1 X153.002 Y97.562 E0.01674
G1 X167.877 Y112.438 E0.66026
G1 X167.344 Y112.438 E0.01674
G1 X152.468 Y97.562 E0.66026
G1 X151.935 Y97.562 E0.01674
G1 X166.81 Y112.438 E0.66026
G1 X166.277 Y112.438 E0.01674
G1 X151.402 Y97.562 E0.66026
G1 X150.869 Y97.562 E0.01674
G1 X165.744 Y112.438 E0.66026
G1 X165.211 Y112.438 E0.01674
G1 X150.335 Y97.562 E0.66026
G1 X149.802 Y97.562 E0.01674
G1 X164.677 Y112.438 E0.66026
G1 X164.144 Y112.438 E0.01674
G1 X149.269 Y97.562 E0.66026
G1 X148.735 Y97.562 E0.01674
G1 X163.611 Y112.438 E0.66026
G1 X163.078 Y112.438 E0.01674
G1 X148.202 Y97.562 E0.66026
G1 X147.669 Y97.562 E0.01674
G1 X162.544 Y112.438 E0.66026
G1 X162.011 Y112.438 E0.01674
G1 X147.136 Y97.562 E0.66026
G1 X146.602 Y97.562 E0.01674
G1 X161.478 Y112.438 E0.66026
G1 X160.944 Y112.438 E0.01674
G1 X146.069 Y97.562 E0.66026
G1 X145.536 Y97.562 E0.01674
G1 X160.411 Y112.438 E0.66026
G1 X159.878 Y112.438 E0.01674
G1 X145.003 Y97.562 E0.66026
G1 X144.469 Y97.562 E0.01674
G1 X159.345 Y112.438 E0.66026
G1 X158.811 Y112.438 E0.01674
G1 X143.936 Y97.562 E0.66026
G1 X143.403 Y97.562 E0.01674
G1 X158.278 Y112.438 E0.66026
G1 X157.745 Y112.438 E0.01674
G1 X142.869 Y97.562 E0.66026
G1 X142.336 Y97.562 E0.01674
G1 X157.212 Y112.438 E0.66026
G1 X156.678 Y112.438 E0.01674
G1 X141.803 Y97.562 E0.66026
G1 X141.27 Y97.562 E0.01674
G1 X156.145 Y112.438 E0.66026
G1 X155.612 Y112.438 E0.01674
G1 X140.736 Y97.562 E0.66026
G1 X140.203 Y97.562 E0.01674
G1 X155.078 Y112.438 E0.66026
G1 X154.545 Y112.438 E0.01674
G1 X139.67 Y97.562 E0.66026
G1 X139.137 Y97.562 E0.01674
G1 X154.012 Y112.438 E0.66026
M73 P0 R323
G1 X153.479 Y112.438 E0.01674
G1 X138.603 Y97.562 E0.66026
G1 X138.07 Y97.562 E0.01674
G1 X152.945 Y112.438 E0.66026
G1 X152.412 Y112.438 E0.01674
G1 X137.537 Y97.562 E0.66026
G1 X137.003 Y97.562 E0.01674
G1 X151.879 Y112.438 E0.66026
G1 X151.346 Y112.438 E0.01674
G1 X136.47 Y97.562 E0.66026
G1 X135.937 Y97.562 E0.01674
G1 X150.812 Y112.438 E0.66026
G1 X150.279 Y112.438 E0.01674
G1 X135.404 Y97.562 E0.66026
G1 X134.87 Y97.562 E0.01674
G1 X149.746 Y112.438 E0.66026
G1 X149.212 Y112.438 E0.01674
G1 X134.337 Y97.562 E0.66026
G1 X133.804 Y97.562 E0.01674
G1 X148.679 Y112.438 E0.66026
G1 X148.146 Y112.438 E0.01674
G1 X133.271 Y97.562 E0.66026
G1 X132.737 Y97.562 E0.01674
G1 X147.613 Y112.438 E0.66026
G1 X147.079 Y112.438 E0.01674
G1 X132.204 Y97.562 E0.66026
G1 X131.671 Y97.562 E0.01674
G1 X146.546 Y112.438 E0.66026
G1 X146.013 Y112.438 E0.01674
G1 X131.138 Y97.562 E0.66026
G1 X130.604 Y97.562 E0.01674
G1 X145.48 Y112.438 E0.66026
G1 X144.946 Y112.438 E0.01674
G1 X130.071 Y97.562 E0.66026
G1 X129.538 Y97.562 E0.01674
G1 X144.413 Y112.438 E0.66026
G1 X143.88 Y112.438 E0.01674
G1 X129.004 Y97.562 E0.66026
G1 X128.471 Y97.562 E0.01674
G1 X143.347 Y112.438 E0.66026
G1 X142.813 Y112.438 E0.01674
G1 X127.938 Y97.562 E0.66026
G1 X127.405 Y97.562 E0.01674
G1 X142.28 Y112.438 E0.66026
G1 X141.747 Y112.438 E0.01674
G1 X126.871 Y97.562 E0.66026
G1 X126.338 Y97.562 E0.01674
G1 X141.213 Y112.438 E0.66026
G1 X140.68 Y112.438 E0.01674
G1 X125.805 Y97.562 E0.66026
G1 X125.272 Y97.562 E0.01674
G1 X140.147 Y112.438 E0.66026
G1 X139.614 Y112.438 E0.01674
G1 X124.738 Y97.562 E0.66026
G1 X124.205 Y97.562 E0.01674
G1 X139.08 Y112.438 E0.66026
G1 X138.547 Y112.438 E0.01674
G1 X123.672 Y97.562 E0.66026
G1 X123.138 Y97.562 E0.01674
G1 X138.014 Y112.438 E0.66026
G1 X137.481 Y112.438 E0.01674
G1 X122.605 Y97.562 E0.66026
G1 X122.072 Y97.562 E0.01674
G1 X136.947 Y112.438 E0.66026
G1 X136.414 Y112.438 E0.01674
G1 X121.539 Y97.562 E0.66026
G1 X121.005 Y97.562 E0.01674
G1 X135.881 Y112.438 E0.66026
G1 X135.347 Y112.438 E0.01674
G1 X120.472 Y97.562 E0.66026
G1 X119.939 Y97.562 E0.01674
G1 X134.814 Y112.438 E0.66026
G1 X134.281 Y112.438 E0.01674
G1 X119.406 Y97.562 E0.66026
G1 X118.872 Y97.562 E0.01674
G1 X133.748 Y112.438 E0.66026
G1 X133.214 Y112.438 E0.01674
G1 X118.339 Y97.562 E0.66026
G1 X117.806 Y97.562 E0.01674
G1 X132.681 Y112.438 E0.66026
G1 X132.148 Y112.438 E0.01674
G1 X117.272 Y97.562 E0.66026
G1 X116.739 Y97.562 E0.01674
G1 X131.615 Y112.438 E0.66026
G1 X131.081 Y112.438 E0.01674
G1 X116.206 Y97.562 E0.66026
G1 X115.673 Y97.562 E0.01674
G1 X130.548 Y112.438 E0.66026
G1 X130.015 Y112.438 E0.01674
G1 X115.139 Y97.562 E0.66026
G1 X114.606 Y97.562 E0.01674
G1 X129.481 Y112.438 E0.66026
G1 X128.948 Y112.438 E0.01674
G1 X114.073 Y97.562 E0.66026
G1 X113.54 Y97.562 E0.01674
G1 X128.415 Y112.438 E0.66026
G1 X127.882 Y112.438 E0.01674
G1 X113.006 Y97.562 E0.66026
G1 X112.473 Y97.562 E0.01674
G1 X127.348 Y112.438 E0.66026
G1 X126.815 Y112.438 E0.01674
G1 X111.94 Y97.562 E0.66026
G1 X111.407 Y97.562 E0.01674
G1 X126.282 Y112.438 E0.66026
G1 X125.749 Y112.438 E0.01674
G1 X110.873 Y97.562 E0.66026
G1 X110.34 Y97.562 E0.01674
G1 X125.215 Y112.438 E0.66026
G1 X124.682 Y112.438 E0.01674
G1 X109.807 Y97.562 E0.66026
M73 P0 R322
G1 X109.273 Y97.562 E0.01674
G1 X124.149 Y112.438 E0.66026
G1 X123.616 Y112.438 E0.01674
G1 X108.74 Y97.562 E0.66026
G1 X108.207 Y97.562 E0.01674
G1 X123.082 Y112.438 E0.66026
G1 X122.549 Y112.438 E0.01674
G1 X107.674 Y97.562 E0.66026
G1 X107.14 Y97.562 E0.01674
G1 X122.016 Y112.438 E0.66026
G1 X121.482 Y112.438 E0.01674
G1 X106.607 Y97.562 E0.66026
G1 X106.074 Y97.562 E0.01674
G1 X120.949 Y112.438 E0.66026
G1 X120.416 Y112.438 E0.01674
G1 X105.541 Y97.562 E0.66026
G1 X105.007 Y97.562 E0.01674
G1 X119.883 Y112.438 E0.66026
G1 X119.349 Y112.438 E0.01674
G1 X104.474 Y97.562 E0.66026
G1 X103.941 Y97.562 E0.01674
G1 X118.816 Y112.438 E0.66026
G1 X118.283 Y112.438 E0.01674
G1 X103.407 Y97.562 E0.66026
G1 X102.874 Y97.562 E0.01674
G1 X117.75 Y112.438 E0.66026
G1 X117.216 Y112.438 E0.01674
G1 X102.341 Y97.562 E0.66026
G1 X101.808 Y97.562 E0.01674
G1 X116.683 Y112.438 E0.66026
G1 X116.15 Y112.438 E0.01674
G1 X101.274 Y97.562 E0.66026
G1 X100.741 Y97.562 E0.01674
G1 X115.616 Y112.438 E0.66026
G1 X115.083 Y112.438 E0.01674
G1 X100.208 Y97.562 E0.66026
G1 X99.675 Y97.562 E0.01674
G1 X114.55 Y112.438 E0.66026
G1 X114.017 Y112.438 E0.01674
G1 X99.141 Y97.562 E0.66026
G1 X98.608 Y97.562 E0.01674
G1 X113.483 Y112.438 E0.66026
M73 P1 R322
G1 X112.95 Y112.438 E0.01674
G1 X98.075 Y97.562 E0.66026
G1 X97.541 Y97.562 E0.01674
G1 X112.417 Y112.438 E0.66026
G1 X111.884 Y112.438 E0.01674
G1 X97.008 Y97.562 E0.66026
G1 X96.475 Y97.562 E0.01674
G1 X111.35 Y112.438 E0.66026
G1 X110.817 Y112.438 E0.01674
G1 X95.942 Y97.562 E0.66026
G1 X95.408 Y97.562 E0.01674
G1 X110.284 Y112.438 E0.66026
G1 X109.75 Y112.438 E0.01674
G1 X94.875 Y97.562 E0.66026
G1 X94.342 Y97.562 E0.01674
G1 X109.217 Y112.438 E0.66026
G1 X108.684 Y112.438 E0.01674
G1 X93.809 Y97.562 E0.66026
G1 X93.275 Y97.562 E0.01674
G1 X108.151 Y112.438 E0.66026
G1 X107.617 Y112.438 E0.01674
G1 X92.742 Y97.562 E0.66026
G1 X92.209 Y97.562 E0.01674
G1 X107.084 Y112.438 E0.66026
G1 X106.551 Y112.438 E0.01674
G1 X91.676 Y97.562 E0.66026
G1 X91.142 Y97.562 E0.01674
G1 X106.018 Y112.438 E0.66026
G1 X105.484 Y112.438 E0.01674
G1 X90.609 Y97.562 E0.66026
G1 X90.076 Y97.562 E0.01674
G1 X104.951 Y112.438 E0.66026
G1 X104.418 Y112.438 E0.01674
G1 X89.542 Y97.562 E0.66026
G1 X89.009 Y97.562 E0.01674
G1 X103.885 Y112.438 E0.66026
G1 X103.351 Y112.438 E0.01674
G1 X88.476 Y97.562 E0.66026
G1 X87.943 Y97.562 E0.01674
G1 X102.818 Y112.438 E0.66026
G1 X102.285 Y112.438 E0.01674
G1 X87.409 Y97.562 E0.66026
G1 X86.876 Y97.562 E0.01674
G1 X101.751 Y112.438 E0.66026
G1 X101.218 Y112.438 E0.01674
G1 X86.343 Y97.562 E0.66026
G1 X85.81 Y97.562 E0.01674
G1 X100.685 Y112.438 E0.66026
G1 X100.152 Y112.438 E0.01674
G1 X85.276 Y97.562 E0.66026
G1 X84.743 Y97.562 E0.01674
G1 X99.618 Y112.438 E0.66026
G1 X99.085 Y112.438 E0.01674
G1 X84.21 Y97.562 E0.66026
G1 X83.676 Y97.562 E0.01674
G1 X98.552 Y112.438 E0.66026
G1 X98.019 Y112.438 E0.01674
G1 X83.143 Y97.562 E0.66026
G1 X82.61 Y97.562 E0.01674
G1 X97.485 Y112.438 E0.66026
G1 X96.952 Y112.438 E0.01674
G1 X82.077 Y97.562 E0.66026
G1 X81.543 Y97.562 E0.01674
G1 X96.419 Y112.438 E0.66026
G1 X95.885 Y112.438 E0.01674
G1 X81.01 Y97.562 E0.66026
G1 X80.562 Y97.562 E0.01405
G1 X80.562 Y97.648 E0.00268
G1 X95.352 Y112.438 E0.65646
G1 X94.819 Y112.438 E0.01674
M73 P1 R321
G1 X80.562 Y98.181 E0.63279
G1 X80.562 Y98.714 E0.01674
G1 X94.286 Y112.438 E0.60912
G1 X93.752 Y112.438 E0.01674
G1 X80.562 Y99.248 E0.58545
G1 X80.562 Y99.781 E0.01674
G1 X93.219 Y112.438 E0.56178
G1 X92.686 Y112.438 E0.01674
G1 X80.562 Y100.314 E0.53811
G1 X80.562 Y100.847 E0.01674
G1 X92.153 Y112.438 E0.51444
G1 X91.619 Y112.438 E0.01674
G1 X80.562 Y101.381 E0.49077
G1 X80.562 Y101.914 E0.01674
G1 X91.086 Y112.438 E0.4671
G1 X90.553 Y112.438 E0.01674
G1 X80.562 Y102.447 E0.44343
G1 X80.562 Y102.981 E0.01674
G1 X90.019 Y112.438 E0.41976
G1 X89.486 Y112.438 E0.01674
G1 X80.562 Y103.514 E0.39609
G1 X80.562 Y104.047 E0.01674
G1 X88.953 Y112.438 E0.37243
G1 X88.42 Y112.438 E0.01674
G1 X80.562 Y104.58 E0.34876
G1 X80.562 Y105.114 E0.01674
G1 X87.886 Y112.438 E0.32509
G1 X87.353 Y112.438 E0.01674
G1 X80.562 Y105.647 E0.30142
G1 X80.562 Y106.18 E0.01674
G1 X86.82 Y112.438 E0.27775
G1 X86.287 Y112.438 E0.01674
G1 X80.562 Y106.713 E0.25408
G1 X80.562 Y107.247 E0.01674
G1 X85.753 Y112.438 E0.23041
G1 X85.22 Y112.438 E0.01674
G1 X80.562 Y107.78 E0.20674
G1 X80.562 Y108.313 E0.01674
G1 X84.687 Y112.438 E0.18307
G1 X84.154 Y112.438 E0.01674
G1 X80.562 Y108.846 E0.1594
G1 X80.562 Y109.38 E0.01674
G1 X83.62 Y112.438 E0.13573
G1 X83.087 Y112.438 E0.01674
G1 X80.562 Y109.913 E0.11206
G1 X80.562 Y110.446 E0.01674
G1 X82.554 Y112.438 E0.08839
G1 X82.02 Y112.438 E0.01674
G1 X80.562 Y110.98 E0.06472
G1 X80.562 Y111.513 E0.01674
G1 X81.487 Y112.438 E0.04105
G1 X80.954 Y112.438 E0.01674
G1 X80.4 Y111.884 E0.02458
M106 S84.15
;LAYER_CHANGE
;Z:0.4
;HEIGHT:0.2
;BEFORE_LAYER_CHANGE
G92 E0.0
;0.4
TIMELAPSE_TAKE_FRAME

;WIPE_START
G1 F8640
G1 X80.954 Y112.438 E-0.18081
G1 X81.487 Y112.438 E-0.12313
G1 X80.562 Y111.513 E-0.302
G1 X80.562 Y110.98 E-0.12313
G1 X80.657 Y111.074 E-0.03092
;WIPE_END
G1 E-0.04 F2100
G1 Z0.6 F10800
; stop printing object Body1.stl id:0 copy 0
EXCLUDE_OBJECT_END NAME=Body1_stl_id_0_copy_0
;AFTER_LAYER_CHANGE
;0.4
M104 S225 ; set temperature
M140 S65 ; set bed temperature
G1 Z0.8
; acceleration to travel
M204 S1500
G1 X79.134 Y111.074
; decel to extrusion
M204 S1000
G1 X78.761 Y111.074
; end travel
G1 Z0.4
G1 E0.8 F2100
;TYPE:Skirt
;WIDTH:0.52
G1 F1500
G1 X78.761 Y113.5 E0.09623
G1 X79.5 Y114.239 E0.04143
G1 X170.5 Y114.239 E3.60991
G1 X171.239 Y113.5 E0.04143
G1 X171.239 Y96.5 E0.67438
G1 X170.5 Y95.761 E0.04143
G1 X79.5 Y95.761 E3.60991
G1 X78.761 Y96.5 E0.04143
G1 X78.761 Y111.014 E0.57577
;WIPE_START
G1 F8640
G1 X78.761 Y113.5 E-0.57397
G1 X79.331 Y114.07 E-0.18603
;WIPE_END
G1 E-0.04 F2100
G1 Z0.8 F10800
; printing object Body1.stl id:0 copy 0
EXCLUDE_OBJECT_START NAME=Body1_stl_id_0_copy_0
; acceleration to travel
M204 S1500
G1 X79.996 Y111.534
; decel to extrusion
M204 S800
G1 X80.132 Y111.014
; end travel
G1 Z0.4
G1 E0.8 F2100
;TYPE:Internal perimeter
;WIDTH:0.45
G1 F2700
G1 X80.132 Y97.132 E0.4699
G1 X169.868 Y97.132 E3.03745
G1 X169.868 Y112.868 E0.53264
G1 X80.132 Y112.868 E3.03745
G1 X80.132 Y111.074 E0.06071
G1 X79.725 Y111.014 F10800
;TYPE:External perimeter
G1 F1500
G1 X79.725 Y96.725 E0.48367
G1 X170.275 Y96.725 E3.06501
G1 X170.275 Y113.275 E0.5602
G1 X79.725 Y113.275 E3.06501
G1 X79.725 Y111.074 E0.07449
;WIPE_START
M204 S1000
G1 X80.071 Y110.814 F10800
;WIPE_END
;WIPE_START
G1 F8640
G1 X80.037 Y107.523 E-0.76
;WIPE_END
G1 E-0.04 F2100
G1 Z0.8 F10800
; acceleration to travel
M204 S1500
G1 X80.616 Y99.618
