; generated by SuperSlicer 2.5.59 on 2022-10-29 at 06:40:25 UTC

; 

; external perimeters extrusion width = 0.45mm
; perimeters extrusion width = 0.45mm
; infill extrusion width = 0.45mm
; solid infill extrusion width = 0.45mm
; top infill extrusion width = 0.40mm
; first layer extrusion width = 0.42mm

; object:{"name":"braidaid final","id":"braidaid final.stl id:0 copy 0","object_center":[125.000000,105.000000,0.000000],"boundingbox_center":[125.000000,105.000000,23.499999],"boundingbox_size":[16.426594,24.056160,46.999998]}
; plater:{"center":[125.000000,105.000000,0.000000],"boundingbox_center":[125.000000,105.000000,23.499999],"boundingbox_size":[16.426594,24.056160,46.999998]}

M73 P0 R38


; Pre-Processed for Cancel-Object support by preprocess_cancellation v0.2.0
; 1 known objects
EXCLUDE_OBJECT_DEFINE NAME=braidaid_final_stl_id_0_copy_0 CENTER=124.850,106.738 POLYGON=[[123.667,93.199],[123.448,93.26],[123.314,93.393],[117.087,105.028],[117.018,105.277],[117.022,105.598],[117.763,110.694],[117.881,111.271],[118.127,112.068],[118.404,112.715],[118.739,113.327],[119.117,113.884],[119.59,114.454],[120.182,115.029],[120.634,115.39],[121.096,115.703],[121.852,116.114],[122.615,116.421],[123.164,116.583],[123.718,116.7],[124.563,116.794],[125.397,116.79],[125.96,116.733],[126.441,116.646],[127.067,116.487],[127.99,116.136],[128.599,115.819],[130.917,113.682],[131.279,113.106],[131.58,112.512],[131.834,111.866],[132.017,111.234],[132.974,105.485],[132.951,105.318],[132.889,105.195],[126.743,93.393],[126.61,93.26],[126.453,93.205],[123.667,93.199]]
;TYPE:Custom
Start : M104 S0
M140 S0
PRINT_START EXTRUDER_TEMP=230 BED_TEMP=70
M107
G21 ; set units to millimeters
G90 ; use absolute coordinates
M83 ; use relative distances for extrusion
M900 K0.05 ; Filament gcode LA 1.5
M900 K30 ; Filament gcode LA 1.0
;_TOOLCHANGE 0
M104 S230 ; set temperature
M109 S230 ; set temperature and wait for it to be reached
M107
;LAYER_CHANGE
;Z:0.2
;HEIGHT:0.2
;BEFORE_LAYER_CHANGE
G92 E0.0
;0.2
TIMELAPSE_TAKE_FRAME

G1 E-0.8 F2100
M73 P0 R37
G1 Z0.4 F10800
;AFTER_LAYER_CHANGE
;0.2
G1 Z0.6
M204 S1000
G1 X122.196 Y92.692
G1 Z0.2
G1 E0.8 F2100
;TYPE:Skirt
;WIDTH:0.52
G1 F900
G1 X116.693 Y106.725 E0.59793
G1 X116.435 Y107.65 E0.0381
G1 X116.236 Y109.204 E0.06216
G1 X116.336 Y110.885 E0.0668
G1 X116.758 Y112.515 E0.0668
G1 X117.485 Y114.034 E0.0668
G1 X118.49 Y115.384 E0.0668
M73 P1 R37
G1 X119.737 Y116.516 E0.0668
G1 X121.178 Y117.388 E0.0668
G1 X122.76 Y117.965 E0.0668
G1 X124.423 Y118.228 E0.0668
G1 X126.106 Y118.166 E0.0668
G1 X127.049 Y117.985 E0.0381
G1 X128.53 Y117.472 E0.06216
G1 X129.645 Y116.825 E0.05114
G1 X131.912 Y114.729 E0.12246
G1 X132.5 Y113.871 E0.0413
G1 X133.215 Y112.274 E0.06941
G1 X133.567 Y110.793 E0.06039
G1 X133.647 Y109.978 E0.03249
G1 X133.578 Y108.343 E0.0649
G1 X133.204 Y106.75 E0.0649
G1 X127.99 Y92.941 E0.58557
G1 X127.784 Y92.576 E0.01663
G1 X127.434 Y92.221 E0.01976
G1 X127.048 Y92.008 E0.01748
G1 X126.482 Y91.884 E0.023
G1 X123.381 Y91.899 E0.12302
G1 X122.626 Y92.219 E0.03251
G1 X122.237 Y92.648 E0.02298
G1 X122.592 Y92.958 F10800
G1 F900
G1 X117.138 Y106.897 E0.59377
G1 X116.905 Y107.733 E0.03444
G1 X116.712 Y109.241 E0.06033
G1 X116.81 Y110.83 E0.06315
G1 X117.212 Y112.37 E0.06315
G1 X117.903 Y113.804 E0.06315
G1 X118.857 Y115.079 E0.06315
G1 X120.038 Y116.146 E0.06315
G1 X121.402 Y116.966 E0.06315
G1 X122.899 Y117.509 E0.06315
G1 X124.472 Y117.753 E0.06315
G1 X126.062 Y117.69 E0.06315
G1 X126.915 Y117.527 E0.03444
G1 X128.352 Y117.029 E0.06033
G1 X129.322 Y116.474 E0.04433
G1 X131.558 Y114.409 E0.12076
G1 X132.096 Y113.617 E0.03801
G1 X132.757 Y112.142 E0.06409
G1 X133.098 Y110.704 E0.05861
G1 X133.172 Y109.934 E0.03071
G1 X133.103 Y108.389 E0.06135
G1 X132.728 Y106.83 E0.0636
G1 X127.544 Y93.109 E0.58185
G1 X127.131 Y92.59 E0.02631
G1 X126.481 Y92.361 E0.02736
G1 X123.439 Y92.373 E0.12068
G1 X122.928 Y92.588 E0.02198
G1 X122.633 Y92.914 E0.01743
;WIPE_START
G1 F8640
G1 X121.429 Y95.977 E-0.76
;WIPE_END
G1 E-0.04 F2100
G1 Z0.6 F10800
; printing object braidaid final.stl id:0 copy 0
EXCLUDE_OBJECT_START NAME=braidaid_final_stl_id_0_copy_0
; acceleration to travel
M204 S1500
G1 X123.189 Y94.417
; decel to extrusion
M204 S800
G1 X123.53 Y94.116
; end travel
G1 Z0.2
G1 E0.8 F2100
;TYPE:Thin wall
;WIDTH:0.016345
G1 F900
G1 X123.613 Y94.108 E0.00008
;WIDTH:0.04
G1 X123.585 Y94.112 E0.00008
G1 X123.682 Y94.1 E0.00029
G1 X123.786 Y94.099 E0.0003
G1 X124.356 Y94.101 E0.00168
G1 X124.532 Y94.097 E0.00052
;WIDTH:0.028406
G1 X124.566 Y94.107 E0.00007
;WIDTH:0.013274
G1 X124.666 Y94.138 E0.00008
G1 X124.676 Y94.141 F10800
;TYPE:External perimeter
;WIDTH:0.42
G1 F900
G1 X125.384 Y94.141 E0.02222
G1 X125.394 Y94.137 F10800
;TYPE:Thin wall
;WIDTH:0.119277
G1 F900
G1 X125.494 Y94.107 E0.0007
;WIDTH:0.254833
G1 X125.528 Y94.097 E0.00064
;WIDTH:0.36
G1 X125.704 Y94.101 E0.0047
G1 X126.288 Y94.101 E0.01561
G1 X126.368 Y94.076 E0.00224
;WIDTH:0.260461
G1 X126.441 Y94.068 E0.00135
;WIDTH:0.11524
G1 X126.489 Y94.064 E0.00031
;WIDTH:0.012804
G1 X126.441 Y94.068 E0.00003
;WIDTH:0.02894
G1 X126.368 Y94.076 E0.00015
;WIDTH:0.04
G1 X126.288 Y94.101 E0.00025
G1 X125.704 Y94.101 E0.00173
G1 X125.528 Y94.097 E0.00052
;WIDTH:0.028315
G1 X125.494 Y94.107 E0.00007
;WIDTH:0.013253
G1 X125.394 Y94.137 E0.00008
G1 X125.384 Y94.141 F10800
;TYPE:External perimeter
;WIDTH:0.42
G1 F900
G1 X125.268 Y94.742 E0.0192
G1 X125.226 Y95.26 E0.01629
G1 X125.219 Y95.768 E0.01592
G1 X125.219 Y102.576 E0.21347
G1 X125.942 Y102.664 E0.02283
G1 X126.606 Y102.793 E0.02119
G1 X127.249 Y102.985 E0.02107
G1 X127.872 Y103.239 E0.02107
G1 X128.467 Y103.552 E0.02107
G1 X129.029 Y103.92 E0.02107
G1 X129.552 Y104.342 E0.02107
G1 X130.032 Y104.812 E0.02107
G1 X130.465 Y105.326 E0.02107
G1 X130.846 Y105.88 E0.02107
G1 X131.172 Y106.468 E0.02107
G1 X131.439 Y107.084 E0.02107
G1 X131.645 Y107.724 E0.02107
G1 X131.788 Y108.381 E0.02107
G1 X131.866 Y109.048 E0.02107
G1 X131.88 Y109.72 E0.02107
G1 X131.829 Y110.39 E0.02107
G1 X131.713 Y111.053 E0.02109
G1 X131.534 Y111.7 E0.02104
G1 X131.293 Y112.327 E0.02108
G1 X130.996 Y112.92 E0.02078
G1 X130.678 Y113.365 E0.01716
G1 X130.46 Y113.135 E0.00991
G1 X131.004 Y112.037 E0.03842
G1 X131.225 Y111.416 E0.02067
G1 X131.382 Y110.779 E0.02058
G1 X131.475 Y110.127 E0.02066
G1 X131.502 Y109.471 E0.02058
G1 X131.463 Y108.815 E0.02061
G1 X131.359 Y108.166 E0.02061
G1 X131.19 Y107.531 E0.02061
G1 X130.959 Y106.916 E0.02061
G1 X130.667 Y106.327 E0.02061
G1 X130.318 Y105.77 E0.02061
G1 X129.915 Y105.251 E0.02061
G1 X129.462 Y104.775 E0.02061
G1 X128.963 Y104.346 E0.02061
G1 X128.424 Y103.97 E0.02061
G1 X127.851 Y103.649 E0.02061
G1 X127.248 Y103.388 E0.02061
G1 X126.622 Y103.188 E0.02059
G1 X125.98 Y103.052 E0.02058
G1 X125.332 Y102.968 E0.02048
G1 X124.995 Y102.952 E0.01058
G1 X124.66 Y102.967 E0.01052
G1 X124.012 Y103.037 E0.02043
G1 X123.367 Y103.163 E0.02061
G1 X122.739 Y103.353 E0.02058
G1 X122.133 Y103.604 E0.02058
G1 X121.552 Y103.917 E0.02067
G1 X121.008 Y104.284 E0.02058
G1 X120.503 Y104.704 E0.02061
G1 X120.042 Y105.173 E0.02061
G1 X119.631 Y105.685 E0.02061
G1 X119.273 Y106.236 E0.02061
G1 X118.971 Y106.821 E0.02061
G1 X118.73 Y107.432 E0.02061
G1 X118.551 Y108.064 E0.02059
G1 X118.436 Y108.712 E0.02064
G1 X118.387 Y109.367 E0.0206
G1 X118.403 Y110.024 E0.02061
G1 X118.485 Y110.676 E0.02061
G1 X118.632 Y111.318 E0.02062
G1 X118.843 Y111.94 E0.02062
G1 X119.115 Y112.539 E0.02061
G1 X119.446 Y113.107 E0.02061
G1 X119.832 Y113.639 E0.02061
G1 X120.27 Y114.129 E0.02061
G1 X120.753 Y114.574 E0.02058
G1 X121.281 Y114.968 E0.02065
G1 X121.843 Y115.307 E0.02058
G1 X122.437 Y115.588 E0.02061
G1 X123.056 Y115.809 E0.02061
G1 X123.694 Y115.966 E0.02061
G1 X124.345 Y116.059 E0.02061
G1 X125.001 Y116.087 E0.02061
G1 X125.657 Y116.048 E0.02061
G1 X126.306 Y115.944 E0.02061
G1 X126.942 Y115.776 E0.02061
G1 X127.556 Y115.545 E0.02057
G1 X127.859 Y115.399 E0.01055
G1 X128.074 Y115.321 E0.00719
G1 X128.287 Y115.558 E0.01
G1 X127.833 Y115.834 E0.01666
G1 X127.229 Y116.08 E0.02044
G1 X126.592 Y116.269 E0.02085
G1 X125.938 Y116.396 E0.02086
G1 X125.276 Y116.46 E0.02086
G1 X124.61 Y116.46 E0.02089
G1 X123.949 Y116.396 E0.0208
G1 X123.295 Y116.269 E0.02089
G1 X122.657 Y116.08 E0.02086
G1 X122.04 Y115.831 E0.02086
G1 X121.45 Y115.523 E0.02086
G1 X120.892 Y115.161 E0.02086
G1 X120.371 Y114.747 E0.02086
G1 X119.893 Y114.284 E0.02086
G1 X119.46 Y113.779 E0.02086
G1 X119.078 Y113.234 E0.02086
G1 X118.75 Y112.655 E0.02086
G1 X118.479 Y112.047 E0.02086
G1 X118.268 Y111.416 E0.02086
G1 X118.118 Y110.768 E0.02086
G1 X118.03 Y110.109 E0.02086
G1 X118.007 Y109.444 E0.02086
G1 X118.047 Y108.779 E0.02086
G1 X118.151 Y108.122 E0.02086
G1 X118.317 Y107.478 E0.02086
G1 X118.544 Y106.852 E0.02088
G1 X118.829 Y106.252 E0.02082
G1 X119.171 Y105.68 E0.02088
G1 X119.566 Y105.145 E0.02086
G1 X120.01 Y104.65 E0.02086
G1 X120.5 Y104.2 E0.02086
G1 X121.031 Y103.799 E0.02086
G1 X121.598 Y103.45 E0.02086
G1 X122.196 Y103.158 E0.02086
G1 X122.819 Y102.924 E0.02086
G1 X123.461 Y102.751 E0.02086
G1 X124.122 Y102.641 E0.02098
G1 X124.841 Y102.571 E0.02266
G1 X124.834 Y95.258 E0.22928
G1 X124.792 Y94.742 E0.01626
G1 X124.676 Y94.141 E0.01917
G1 X124.666 Y94.138 F10800
;TYPE:Thin wall
;WIDTH:0.119464
G1 F900
G1 X124.566 Y94.107 E0.0007
;WIDTH:0.255658
G1 X124.532 Y94.097 E0.00065
;WIDTH:0.36
G1 X124.356 Y94.101 E0.00468
G1 X123.786 Y94.099 E0.01524
G1 X123.682 Y94.1 E0.00276
G1 X123.585 Y94.112 E0.00262
;WIDTH:0.147109
G1 X123.613 Y94.108 E0.0004
G1 X123.59 Y94.11 E0.00033
M106 S84.15
;LAYER_CHANGE
;Z:0.4
;HEIGHT:0.2
;BEFORE_LAYER_CHANGE
G92 E0.0
;0.4
TIMELAPSE_TAKE_FRAME

;WIPE_START
G1 F8640
M204 S1000
G1 X123.613 Y94.108 E-0.00542
;WIPE_END
G1 E-0.79458 F2100
G1 Z0.6 F10800
; stop printing object braidaid final.stl id:0 copy 0
EXCLUDE_OBJECT_END NAME=braidaid_final_stl_id_0_copy_0
;AFTER_LAYER_CHANGE
;0.4
M104 S225 ; set temperature
M140 S65 ; set bed temperature
G1 Z0.8
; acceleration to travel
M204 S1500
G1 X122.24 Y93.57
; decel to extrusion
M204 S1000
G1 X121.904 Y93.438
; end travel
G1 Z0.4
G1 E0.8 F2100
;TYPE:Skirt
;WIDTH:0.52
G1 F1480
G1 X116.693 Y106.725 E0.56615
G1 X116.435 Y107.65 E0.0381
G1 X116.236 Y109.204 E0.06216
G1 X116.336 Y110.885 E0.0668
G1 X116.758 Y112.515 E0.0668
G1 X117.485 Y114.034 E0.0668
G1 X118.49 Y115.384 E0.0668
G1 X119.737 Y116.516 E0.0668
G1 X121.178 Y117.388 E0.0668
G1 X122.76 Y117.965 E0.0668
G1 X124.423 Y118.228 E0.0668
G1 X126.106 Y118.166 E0.0668
G1 X127.049 Y117.985 E0.0381
G1 X128.53 Y117.472 E0.06216
G1 X129.645 Y116.825 E0.05114
G1 X131.912 Y114.729 E0.12246
G1 X132.5 Y113.871 E0.0413
G1 X133.215 Y112.274 E0.06941
G1 X133.567 Y110.793 E0.06039
G1 X133.647 Y109.978 E0.03249
G1 X133.578 Y108.343 E0.0649
G1 X133.204 Y106.75 E0.0649
G1 X127.99 Y92.941 E0.58557
G1 X127.784 Y92.576 E0.01663
G1 X127.434 Y92.221 E0.01976
G1 X127.048 Y92.008 E0.01748
G1 X126.482 Y91.884 E0.023
G1 X123.381 Y91.899 E0.12302
G1 X122.626 Y92.219 E0.03251
G1 X122.196 Y92.692 E0.02536
G1 X121.926 Y93.382 E0.02941
G1 X122.36 Y93.552 F10800
G1 F1480
G1 X117.138 Y106.897 E0.56846
G1 X116.905 Y107.733 E0.03444
G1 X116.712 Y109.241 E0.06033
G1 X116.81 Y110.83 E0.06315
G1 X117.212 Y112.37 E0.06315
G1 X117.903 Y113.804 E0.06315
G1 X118.857 Y115.079 E0.06315
G1 X120.038 Y116.146 E0.06315
G1 X121.402 Y116.966 E0.06315
G1 X122.899 Y117.509 E0.06315
G1 X124.472 Y117.753 E0.06315
G1 X126.062 Y117.69 E0.06315
G1 X126.915 Y117.527 E0.03444
G1 X128.352 Y117.029 E0.06033
G1 X129.322 Y116.474 E0.04433
G1 X131.558 Y114.409 E0.12076
G1 X132.096 Y113.617 E0.03801
G1 X132.757 Y112.142 E0.06409
G1 X133.098 Y110.704 E0.05861
G1 X133.172 Y109.934 E0.03071
G1 X133.103 Y108.389 E0.06135
G1 X132.728 Y106.83 E0.0636
G1 X127.544 Y93.109 E0.58185
G1 X127.131 Y92.59 E0.02631
G1 X126.481 Y92.361 E0.02736
G1 X123.439 Y92.373 E0.12068
G1 X122.928 Y92.588 E0.02198
G1 X122.592 Y92.958 E0.01981
G1 X122.382 Y93.496 E0.02293
;WIPE_START
G1 F8640
G1 X121.182 Y96.561 E-0.76
;WIPE_END
G1 E-0.04 F2100
G1 Z0.8 F10800
; printing object braidaid final.stl id:0 copy 0
EXCLUDE_OBJECT_START NAME=braidaid_final_stl_id_0_copy_0
; acceleration to travel
M204 S1500
G1 X123.073 Y94.371
; decel to extrusion
M204 S800
G1 X123.444 Y93.943
; end travel
G1 Z0.4
G1 E0.8 F2100
;TYPE:External perimeter
;WIDTH:0.45
G1 F1480
G1 X123.57 Y93.642 E0.01104
G1 X123.629 Y93.575 E0.00301
G1 X123.663 Y93.565 E0.00121
G1 X126.394 Y93.566 E0.09244
G1 X126.427 Y93.575 E0.00114
G1 X126.501 Y93.662 E0.00388
G1 X126.595 Y93.867 E0.00764
G1 X126.63 Y93.981 E0.00404
G1 X126.544 Y94.058 E0.00388
G1 X126.42 Y94.104 E0.00447
G1 X125.509 Y94.114 E0.03086
G1 X125.513 Y102.302 E0.27715
G1 X126.677 Y102.511 E0.04003
G1 X127.346 Y102.711 E0.02364
G1 X127.994 Y102.975 E0.0237
G1 X128.614 Y103.301 E0.0237
G1 X129.199 Y103.686 E0.0237
G1 X129.745 Y104.125 E0.0237
G1 X130.245 Y104.614 E0.0237
G1 X130.696 Y105.15 E0.0237
G1 X131.092 Y105.727 E0.0237
G1 X131.431 Y106.34 E0.0237
G1 X131.709 Y106.983 E0.0237
G1 X131.924 Y107.649 E0.0237
G1 X132.073 Y108.333 E0.0237
G1 X132.155 Y109.028 E0.0237
G1 X132.17 Y109.728 E0.0237
G1 X132.117 Y110.427 E0.0237
G1 X131.996 Y111.116 E0.0237
G1 X131.81 Y111.791 E0.0237
G1 X131.559 Y112.445 E0.0237
G1 X131.245 Y113.071 E0.0237
G1 X130.869 Y113.671 E0.02398
G1 X130.763 Y113.747 E0.00441
G1 X130.702 Y113.759 E0.00211
G1 X130.581 Y113.737 E0.00417
G1 X130.521 Y113.693 E0.00252
G1 X130.144 Y113.285 E0.01881
G1 X130.11 Y113.18 E0.00371
G1 X130.112 Y113.123 E0.00195
G1 X130.127 Y113.069 E0.00187
G1 X130.471 Y112.493 E0.02271
G1 X130.74 Y111.926 E0.02126
G1 X130.951 Y111.334 E0.02127
G1 X131.101 Y110.723 E0.02127
G1 X131.19 Y110.101 E0.02127
G1 X131.216 Y109.473 E0.02127
G1 X131.179 Y108.846 E0.02127
G1 X131.079 Y108.225 E0.02127
G1 X130.918 Y107.618 E0.02127
G1 X130.696 Y107.03 E0.02127
G1 X130.417 Y106.466 E0.02127
G1 X130.083 Y105.934 E0.02127
G1 X129.698 Y105.438 E0.02127
G1 X129.264 Y104.982 E0.02127
G1 X128.787 Y104.573 E0.02127
G1 X128.272 Y104.213 E0.02127
G1 X127.723 Y103.907 E0.02127
G1 X127.147 Y103.657 E0.02127
G1 X126.548 Y103.466 E0.02127
G1 X125.933 Y103.336 E0.02127
G1 X125.308 Y103.268 E0.02127
G1 X124.68 Y103.263 E0.02127
G1 X124.054 Y103.321 E0.02127
G1 X123.437 Y103.441 E0.02127
G1 X122.835 Y103.623 E0.02127
M73 P2 R37
G1 X122.255 Y103.863 E0.02127
G1 X121.701 Y104.161 E0.02127
G1 X121.18 Y104.513 E0.02127
G1 X120.697 Y104.915 E0.02127
G1 X120.256 Y105.363 E0.02127
G1 X119.863 Y105.853 E0.02127
G1 X119.52 Y106.38 E0.02127
G1 X119.233 Y106.939 E0.02128
G1 X119.002 Y107.524 E0.02127
G1 X118.831 Y108.129 E0.02128
G1 X118.722 Y108.747 E0.02127
G1 X118.675 Y109.374 E0.02127
G1 X118.691 Y110.002 E0.02127
G1 X118.769 Y110.626 E0.02127
G1 X118.91 Y111.239 E0.02127
G1 X119.112 Y111.834 E0.02127
G1 X119.372 Y112.406 E0.02127
G1 X119.688 Y112.949 E0.02127
G1 X120.056 Y113.458 E0.02127
G1 X120.474 Y113.928 E0.02127
G1 X120.937 Y114.353 E0.02127
G1 X121.44 Y114.73 E0.02127
G1 X121.978 Y115.055 E0.02127
G1 X122.546 Y115.324 E0.02127
G1 X123.138 Y115.535 E0.02127
G1 X123.749 Y115.685 E0.02127
G1 X124.371 Y115.774 E0.02127
G1 X124.999 Y115.8 E0.02127
G1 X125.626 Y115.763 E0.02127
G1 X126.247 Y115.664 E0.02127
G1 X126.854 Y115.503 E0.02127
G1 X127.443 Y115.281 E0.02128
G1 X128.021 Y114.993 E0.02185
G1 X128.089 Y114.977 E0.00239
G1 X128.211 Y114.995 E0.00417
G1 X128.278 Y115.038 E0.00269
G1 X128.653 Y115.445 E0.01875
G1 X128.687 Y115.52 E0.0028
G1 X128.684 Y115.647 E0.00429
G1 X128.616 Y115.751 E0.0042
G1 X127.963 Y116.097 E0.02501
G1 X127.325 Y116.354 E0.02328
G1 X126.661 Y116.551 E0.02347
G1 X125.98 Y116.683 E0.02346
G1 X125.29 Y116.749 E0.02346
G1 X124.597 Y116.749 E0.02346
G1 X123.907 Y116.683 E0.02346
G1 X123.226 Y116.55 E0.02347
G1 X122.562 Y116.353 E0.02346
G1 X121.919 Y116.094 E0.02347
G1 X121.304 Y115.774 E0.02346
G1 X120.722 Y115.396 E0.02347
G1 X120.18 Y114.965 E0.02346
G1 X119.681 Y114.484 E0.02346
G1 X119.231 Y113.957 E0.02346
G1 X118.833 Y113.389 E0.02347
G1 X118.491 Y112.786 E0.02346
G1 X118.209 Y112.153 E0.02346
G1 X117.988 Y111.495 E0.02347
G1 X117.832 Y110.82 E0.02346
