; generated by SuperSlicer 2.5.59 on 2022-09-22 at 17:22:07 UTC

; 

; external perimeters extrusion width = 0.45mm
; perimeters extrusion width = 0.45mm
; infill extrusion width = 0.45mm
; solid infill extrusion width = 0.45mm
; top infill extrusion width = 0.40mm
; first layer extrusion width = 0.42mm

; external perimeters extrusion width = 0.45mm
; perimeters extrusion width = 0.45mm
; infill extrusion width = 0.45mm
; solid infill extrusion width = 0.45mm
; top infill extrusion width = 0.40mm
; first layer extrusion width = 0.42mm

; object:{"name":"Bridging Directional Test v5","id":"Bridging Directional Test v5.stl id:0 copy 0","object_center":[156.309582,105.000000,0.000000],"boundingbox_center":[156.309582,105.000000,2.750000],"boundingbox_size":[50.000000,50.000000,5.500000]}
; object:{"name":"Overhang Directional Test v4","id":"Overhang Directional Test v4.stl id:1 copy 0","object_center":[98.500000,105.000000,0.000000],"boundingbox_center":[98.500000,105.000000,11.597674],"boundingbox_size":[59.619164,59.619164,23.195349]}
; plater:{"center":[125.000000,105.000000,0.000000],"boundingbox_center":[125.000000,105.000000,11.597674],"boundingbox_size":[112.619164,59.619164,23.195349]}

M73 P0 R74


; Pre-Processed for Cancel-Object support by preprocess_cancellation v0.2.0
; 2 known objects
EXCLUDE_OBJECT_DEFINE NAME=Bridging_Directional_Test_v5_stl_id_0_copy_0 CENTER=156.783,105.230 POLYGON=[[132.822,80.225],[132.534,80.256],[132.274,80.344],[132.029,80.493],[131.838,80.676],[131.652,80.973],[131.568,81.214],[131.535,81.47],[131.535,128.488],[131.566,128.777],[131.656,129.041],[131.796,129.272],[131.953,129.438],[132.265,129.651],[132.522,129.741],[132.814,129.775],[179.798,129.775],[180.081,129.745],[180.352,129.653],[180.582,129.513],[180.748,129.357],[180.967,129.027],[181.051,128.786],[181.085,128.492],[181.085,81.513],[181.054,81.225],[180.965,80.963],[180.763,80.661],[180.609,80.508],[180.364,80.353],[180.106,80.261],[179.814,80.225],[132.822,80.225]]
EXCLUDE_OBJECT_DEFINE NAME=Overhang_Directional_Test_v4_stl_id_1_copy_0 CENTER=98.514,105.043 POLYGON=[[82.725,75.423],[68.923,105.225],[68.923,120.775],[98.725,134.577],[114.275,134.577],[128.077,104.775],[128.077,89.225],[98.275,75.423],[82.725,75.423]]
;TYPE:Custom
Start : M104 S0
M140 S0
PRINT_START EXTRUDER_TEMP=215 BED_TEMP=60
M107
G21 ; set units to millimeters
G90 ; use absolute coordinates
M83 ; use relative distances for extrusion
M900 K0.05 ; Filament gcode LA 1.5
M900 K30 ; Filament gcode LA 1.0
;_TOOLCHANGE 0
M104 S215 ; set temperature
M109 S215 ; set temperature and wait for it to be reached
M107
;LAYER_CHANGE
;Z:0.2
;HEIGHT:0.2
;BEFORE_LAYER_CHANGE
G92 E0.0
;0.2


G1 E-0.8 F2100
G1 Z0.4 F10800
;AFTER_LAYER_CHANGE
;0.2
G1 Z0.6
M204 S1000
G1 X89.286 Y79.378
G1 Z0.2
G1 E0.8 F2100
;TYPE:Skirt
;WIDTH:0.52
G1 F1200
G1 X72.17 Y101.378 E1.10576
G1 X71.803 Y101.941 E0.02665
G1 X71.437 Y102.816 E0.03759
G1 X71.261 Y104 E0.0475
G1 X71.261 Y110.883 E0.27305
G1 X71.437 Y112.067 E0.0475
G1 X72.041 Y113.321 E0.05519
G1 X72.878 Y114.214 E0.04855
G1 X94.878 Y131.33 E1.10576
G1 X95.893 Y131.915 E0.04644
G1 X96.804 Y132.174 E0.03759
G1 X97.5 Y132.239 E0.02771
G1 X179.81 Y132.239 E3.26517
G1 X180.847 Y132.086 E0.04159
G1 X181.876 Y131.609 E0.04499
G1 X182.783 Y130.754 E0.04945
G1 X183.338 Y129.719 E0.04659
G1 X183.546 Y128.584 E0.0458
G1 X183.546 Y81.41 E1.87136
G1 X183.291 Y80.152 E0.05089
G1 X182.919 Y79.434 E0.0321
G1 X182.418 Y78.83 E0.03111
G1 X181.78 Y78.331 E0.03214
G1 X181.331 Y78.091 E0.02019
G1 X180.568 Y77.844 E0.03183
G1 X179.893 Y77.764 E0.02695
G1 X92.617 Y77.761 E3.46219
G1 X91.433 Y77.937 E0.0475
G1 X90.179 Y78.541 E0.05519
G1 X89.33 Y79.337 E0.04617
;WIPE_START
G1 F8640
M204 S1250
G1 X87.308 Y81.934 E-0.76
;WIPE_END
G1 E-0.04 F2100
G1 Z0.6 F10800
; printing object Bridging Directional Test v5.stl id:0 copy 0
EXCLUDE_OBJECT_START NAME=Bridging_Directional_Test_v5_stl_id_0_copy_0
; acceleration to travel
M204 S1500
G1 X123.409 Y81.321
; decel to extrusion
M204 S1000
G1 X132.181 Y81.172
; end travel
G1 Z0.2
G1 E0.8 F2100
;TYPE:Internal perimeter
;WIDTH:0.42
G1 F1200
G1 X132.27 Y81.041 E0.00497
G1 X132.381 Y80.936 E0.0048
G1 X132.512 Y80.857 E0.0048
G1 X132.657 Y80.808 E0.0048
G1 X132.852 Y80.787 E0.00615
G1 X138.523 Y80.787 E0.17779
M73 P0 R73
G1 X138.523 Y86.912 E0.19204
G1 X154.906 Y103.295 E0.72645
G1 X155.288 Y103.588 E0.0151
G1 X155.781 Y103.792 E0.01673
G1 X156.31 Y103.862 E0.01673
G1 X156.839 Y103.792 E0.01673
G1 X157.332 Y103.588 E0.01673
G1 X157.714 Y103.295 E0.0151
G1 X180.137 Y80.872 E0.99429
G1 X180.271 Y80.964 E0.00511
G1 X180.373 Y81.071 E0.00465
G1 X180.452 Y81.203 E0.00481
G1 X180.502 Y81.349 E0.00483
G1 X180.522 Y81.535 E0.00587
G1 X180.522 Y87.213 E0.17803
G1 X174.398 Y87.213 E0.19204
G1 X158.015 Y103.596 E0.72645
G1 X157.722 Y103.978 E0.0151
G1 X157.517 Y104.471 E0.01673
G1 X157.448 Y105 E0.01673
G1 X157.517 Y105.529 E0.01673
G1 X157.722 Y106.022 E0.01673
G1 X158.015 Y106.404 E0.0151
G1 X180.438 Y128.827 E0.99429
G1 X180.346 Y128.962 E0.00511
G1 X180.238 Y129.064 E0.00465
G1 X180.107 Y129.143 E0.00481
G1 X179.962 Y129.192 E0.00481
G1 X179.767 Y129.213 E0.00614
G1 X174.097 Y129.213 E0.17779
G1 X174.097 Y123.088 E0.19204
M73 P1 R73
G1 X157.714 Y106.705 E0.72645
G1 X157.332 Y106.412 E0.0151
G1 X156.839 Y106.208 E0.01673
G1 X156.31 Y106.138 E0.01673
G1 X155.781 Y106.208 E0.01673
G1 X155.288 Y106.412 E0.01673
G1 X154.906 Y106.705 E0.0151
G1 X132.482 Y129.128 E0.99429
G1 X132.348 Y129.036 E0.00511
G1 X132.246 Y128.929 E0.00465
G1 X132.167 Y128.797 E0.00481
G1 X132.118 Y128.652 E0.0048
G1 X132.097 Y128.457 E0.00615
G1 X132.097 Y122.787 E0.17779
G1 X138.221 Y122.787 E0.19204
G1 X154.605 Y106.404 E0.72645
G1 X154.898 Y106.022 E0.0151
G1 X155.102 Y105.529 E0.01673
G1 X155.171 Y105 E0.01673
G1 X155.102 Y104.471 E0.01673
G1 X154.898 Y103.978 E0.01673
G1 X154.605 Y103.596 E0.0151
G1 X132.223 Y81.215 E0.99242
G1 X131.751 Y81.276 F10800
;TYPE:External perimeter
G1 F1200
G1 X131.849 Y80.99 E0.00947
G1 X131.981 Y80.796 E0.00738
G1 X132.152 Y80.634 E0.00737
G1 X132.353 Y80.513 E0.00737
G1 X132.576 Y80.438 E0.00737
G1 X132.832 Y80.41 E0.00807
G1 X138.9 Y80.41 E0.19025
G1 X138.9 Y86.756 E0.19896
G1 X155.155 Y103.011 E0.72078
G1 X155.478 Y103.259 E0.01277
G1 X155.879 Y103.425 E0.01362
G1 X156.31 Y103.482 E0.01362
G1 X156.74 Y103.425 E0.01362
G1 X157.141 Y103.259 E0.01362
G1 X157.464 Y103.011 E0.01277
G1 X180.034 Y80.441 E1.00078
G1 X180.319 Y80.539 E0.00944
G1 X180.518 Y80.675 E0.00756
G1 X180.675 Y80.842 E0.0072
G1 X180.797 Y81.043 E0.00737
G1 X180.872 Y81.267 E0.00739
G1 X180.899 Y81.514 E0.0078
G1 X180.9 Y87.59 E0.19051
G1 X174.554 Y87.59 E0.19896
G1 X158.299 Y103.845 E0.72078
G1 X158.051 Y104.168 E0.01277
G1 X157.885 Y104.569 E0.01362
G1 X157.828 Y105 E0.01362
G1 X157.885 Y105.431 E0.01362
G1 X158.051 Y105.832 E0.01362
G1 X158.299 Y106.155 E0.01277
G1 X180.868 Y128.724 E1.00078
G1 X180.771 Y129.009 E0.00944
G1 X180.635 Y129.208 E0.00756
G1 X180.468 Y129.366 E0.0072
G1 X180.266 Y129.487 E0.00737
G1 X180.043 Y129.562 E0.00738
G1 X179.787 Y129.59 E0.00806
G1 X173.72 Y129.59 E0.19025
G1 X173.72 Y123.244 E0.19896
G1 X157.464 Y106.989 E0.72078
G1 X157.141 Y106.741 E0.01277
G1 X156.74 Y106.575 E0.01362
G1 X156.31 Y106.518 E0.01362
G1 X155.879 Y106.575 E0.01362
G1 X155.478 Y106.741 E0.01362
G1 X155.155 Y106.989 E0.01277
G1 X132.585 Y129.559 E1.00078
G1 X132.3 Y129.461 E0.00944
G1 X132.102 Y129.325 E0.00756
G1 X131.944 Y129.158 E0.0072
G1 X131.822 Y128.957 E0.00737
G1 X131.747 Y128.734 E0.00737
G1 X131.72 Y128.478 E0.00807
G1 X131.72 Y122.41 E0.19025
G1 X138.065 Y122.41 E0.19896
G1 X154.32 Y106.155 E0.72078
G1 X154.568 Y105.832 E0.01277
G1 X154.734 Y105.431 E0.01362
G1 X154.791 Y105 E0.01362
G1 X154.734 Y104.569 E0.01362
G1 X154.568 Y104.168 E0.01362
G1 X154.32 Y103.845 E0.01277
G1 X131.794 Y81.319 E0.99887
;WIPE_START
M204 S1250
G1 X132.089 Y81.062 F10800
;WIPE_END
;WIPE_START
G1 F8640
G1 X132.134 Y80.926 E-0.033
G1 X132.273 Y80.794 E-0.04424
G1 X132.438 Y80.695 E-0.04424
G1 X132.619 Y80.634 E-0.04425
G1 X132.843 Y80.61 E-0.05192
G1 X135.191 Y80.61 E-0.54234
;WIPE_END
G1 E-0.04 F2100
G1 Z0.6 F10800
; acceleration to travel
M204 S1500
G1 X171.223 Y119.583
; decel to extrusion
M204 S1000
G1 X179.979 Y129.054
; end travel
G1 Z0.2
G1 E0.8 F2100
;TYPE:Solid infill
;WIDTH:0.546
G1 F1200
G1 X174.372 Y123.447 E0.32322
G1 X174.372 Y123.98 E0.02174
G1 X179.33 Y128.938 E0.28579
G1 X178.796 Y128.938 E0.02174
G1 X174.372 Y124.513 E0.25505
G1 X174.372 Y125.046 E0.02174
G1 X178.263 Y128.938 E0.22431
G1 X177.73 Y128.938 E0.02174
G1 X174.372 Y125.58 E0.19357
G1 X174.372 Y126.113 E0.02174
G1 X177.197 Y128.938 E0.16283
G1 X176.663 Y128.938 E0.02174
G1 X174.372 Y126.646 E0.13209
G1 X174.372 Y127.18 E0.02174
G1 X176.13 Y128.938 E0.10135
G1 X175.597 Y128.938 E0.02174
G1 X174.372 Y127.713 E0.07061
G1 X174.372 Y128.246 E0.02174
G1 X175.064 Y128.938 E0.03987
G1 X174.53 Y128.938 E0.02174
G1 X174.21 Y128.617 E0.01847
;WIPE_START
G1 F8640
M204 S1250
G1 X174.53 Y128.938 E-0.10465
G1 X175.064 Y128.938 E-0.12313
G1 X174.372 Y128.246 E-0.22584
G1 X174.372 Y127.713 E-0.12313
G1 X174.933 Y128.274 E-0.18324
;WIPE_END
G1 E-0.04 F2100
G1 Z0.6 F10800
; acceleration to travel
M204 S1500
G1 X160.981 Y108.745
; decel to extrusion
M204 S1000
G1 X157.59 Y103.999
; end travel
G1 Z0.2
G1 E0.8 F2100
G1 F1200
G1 X157.435 Y103.843 E0.00897
G1 X157.058 Y103.999 E0.01664
G1 X157.31 Y104.252 E0.01455
G1 X157.249 Y104.399 E0.0065
G1 X157.211 Y104.686 E0.0118
G1 X156.623 Y104.098 E0.0339
G1 X156.31 Y104.14 E0.0129
G1 X156.104 Y104.112 E0.00844
G1 X157.197 Y105.205 E0.06299
G1 X157.249 Y105.601 E0.01626
G1 X157.383 Y105.925 E0.01429
G1 X155.385 Y103.926 E0.11521
G1 X155.149 Y103.828 E0.01041
G1 X155.103 Y103.793 E0.00238
G1 X155.138 Y103.839 E0.00238
G1 X155.37 Y104.399 E0.0247
G1 X155.377 Y104.452 E0.00216
G1 X156.858 Y105.933 E0.08537
G1 X156.31 Y105.86 E0.02254
G1 X156.259 Y105.867 E0.00207
G1 X155.442 Y105.05 E0.04708
G1 X155.38 Y105.522 E0.01937
G1 X155.788 Y105.929 E0.02349
G1 X155.709 Y105.94 E0.00325
G1 X155.395 Y106.07 E0.01384
G1 X155.116 Y105.79 E0.01609
;WIPE_START
G1 F8640
M204 S1250
G1 X155.395 Y106.07 E-0.09113
G1 X155.709 Y105.94 E-0.07841
G1 X155.788 Y105.929 E-0.01844
G1 X155.38 Y105.522 E-0.13306
G1 X155.442 Y105.05 E-0.10975
G1 X156.259 Y105.867 E-0.26668
G1 X156.31 Y105.86 E-0.01175
G1 X156.528 Y105.889 E-0.05078
;WIPE_END
G1 E-0.04 F2100
G1 Z0.6 F10800
; acceleration to travel
M204 S1500
G1 X175.232 Y86.18
; decel to extrusion
M204 S1000
G1 X179.777 Y81.391
; end travel
G1 Z0.2
G1 E0.8 F2100
G1 F1200
G1 X180.247 Y81.861 E0.02707
G1 X180.247 Y82.394 E0.02174
G1 X179.625 Y81.772 E0.03583
G1 X179.359 Y82.039 E0.01537
G1 X180.247 Y82.927 E0.05121
G1 X180.247 Y83.461 E0.02174
G1 X179.092 Y82.306 E0.06658
G1 X178.825 Y82.572 E0.01537
G1 X180.247 Y83.994 E0.08195
G1 X180.247 Y84.527 E0.02174
G1 X178.559 Y82.839 E0.09732
G1 X178.292 Y83.106 E0.01537
G1 X180.247 Y85.06 E0.11269
G1 X180.247 Y85.594 E0.02174
G1 X178.026 Y83.372 E0.12806
G1 X177.759 Y83.639 E0.01537
G1 X180.247 Y86.127 E0.14343
G1 X180.247 Y86.66 E0.02174
G1 X177.492 Y83.905 E0.1588
G1 X177.226 Y84.172 E0.01537
G1 X179.991 Y86.938 E0.15942
G1 X179.458 Y86.938 E0.02174
G1 X176.959 Y84.439 E0.14405
G1 X176.692 Y84.705 E0.01537
G1 X178.925 Y86.938 E0.12868
G1 X178.391 Y86.938 E0.02174
G1 X176.426 Y84.972 E0.11331
G1 X176.159 Y85.239 E0.01537
G1 X177.858 Y86.938 E0.09794
G1 X177.325 Y86.938 E0.02174
G1 X175.892 Y85.505 E0.08257
G1 X175.626 Y85.772 E0.01537
G1 X176.792 Y86.938 E0.0672
G1 X176.258 Y86.938 E0.02174
G1 X175.359 Y86.038 E0.05183
G1 X175.093 Y86.305 E0.01537
G1 X175.725 Y86.938 E0.03646
G1 X175.192 Y86.938 E0.02174
G1 X174.826 Y86.572 E0.02109
G1 X174.559 Y86.838 E0.01537
G1 X174.821 Y87.1 E0.01507
;WIPE_START
G1 F8640
M204 S1250
G1 X174.559 Y86.838 E-0.08536
G1 X174.826 Y86.572 E-0.08707
G1 X175.192 Y86.938 E-0.11949
G1 X175.725 Y86.938 E-0.12313
G1 X175.093 Y86.305 E-0.20655
G1 X175.359 Y86.038 E-0.08707
G1 X175.516 Y86.196 E-0.05133
;WIPE_END
G1 E-0.04 F2100
G1 Z0.6 F10800
; acceleration to travel
M204 S1500
G1 X145.086 Y81.935
; decel to extrusion
M204 S1000
G1 X137.691 Y80.9
; end travel
G1 Z0.2
G1 E0.8 F2100
G1 F1200
G1 X138.247 Y81.456 E0.03204
G1 X138.247 Y81.989 E0.02174
G1 X137.32 Y81.062 E0.05343
G1 X136.787 Y81.062 E0.02174
G1 X138.247 Y82.523 E0.08417
G1 X138.247 Y83.056 E0.02174
G1 X136.254 Y81.062 E0.11491
G1 X135.72 Y81.062 E0.02174
G1 X138.247 Y83.589 E0.14565
G1 X138.247 Y84.122 E0.02174
G1 X135.187 Y81.062 E0.17639
G1 X134.654 Y81.062 E0.02174
G1 X138.247 Y84.656 E0.20713
G1 X138.247 Y85.189 E0.02174
G1 X134.121 Y81.062 E0.23787
G1 X133.587 Y81.062 E0.02174
G1 X138.247 Y85.722 E0.26861
G1 X138.247 Y86.255 E0.02174
G1 X133.054 Y81.062 E0.29935
G1 X132.88 Y81.062 E0.00709
G1 X132.629 Y81.114 E0.01046
G1 X132.597 Y81.138 E0.00164
G1 X138.409 Y86.951 E0.33505
;WIPE_START
G1 F8640
M204 S1250
G1 X136.082 Y84.623 E-0.76
;WIPE_END
G1 E-0.04 F2100
G1 Z0.6 F10800
; acceleration to travel
M204 S1500
G1 X137.274 Y115.417
; decel to extrusion
M204 S1000
G1 X137.563 Y122.9
; end travel
G1 Z0.2
G1 E0.8 F2100
G1 F1200
G1 X137.942 Y123.279 E0.02185
G1 X137.676 Y123.546 E0.01537
G1 X137.192 Y123.062 E0.02788
G1 X136.659 Y123.062 E0.02174
G1 X137.409 Y123.813 E0.04325
G1 X137.142 Y124.079 E0.01537
G1 X136.125 Y123.062 E0.05862
G1 X135.592 Y123.062 E0.02174
G1 X136.876 Y124.346 E0.07399
G1 X136.609 Y124.612 E0.01537
G1 X135.059 Y123.062 E0.08936
G1 X134.526 Y123.062 E0.02174
G1 X136.342 Y124.879 E0.10473
G1 X136.076 Y125.146 E0.01537
G1 X133.992 Y123.062 E0.1201
G1 X133.459 Y123.062 E0.02174
G1 X135.809 Y125.412 E0.13547
G1 X135.542 Y125.679 E0.01537
G1 X132.926 Y123.062 E0.15084
G1 X132.393 Y123.062 E0.02174
G1 X135.276 Y125.946 E0.16621
G1 X135.009 Y126.212 E0.01537
G1 X132.372 Y123.575 E0.15202
G1 X132.372 Y124.108 E0.02174
G1 X134.743 Y126.479 E0.13665
G1 X134.476 Y126.746 E0.01537
G1 X132.372 Y124.642 E0.12128
G1 X132.372 Y125.175 E0.02174
G1 X134.209 Y127.012 E0.10591
G1 X133.943 Y127.279 E0.01537
G1 X132.372 Y125.708 E0.09054
G1 X132.372 Y126.241 E0.02174
G1 X133.676 Y127.545 E0.07517
G1 X133.409 Y127.812 E0.01537
G1 X132.372 Y126.775 E0.0598
G1 X132.372 Y127.308 E0.02174
G1 X133.143 Y128.079 E0.04443
G1 X132.876 Y128.345 E0.01537
G1 X132.372 Y127.841 E0.02906
G1 X132.372 Y128.374 E0.02174
G1 X132.724 Y128.727 E0.0203
;WIPE_START
G1 F8640
M204 S1250
G1 X132.372 Y128.374 E-0.11501
G1 X132.372 Y127.841 E-0.12313
G1 X132.876 Y128.345 E-0.16464
G1 X133.143 Y128.079 E-0.08707
G1 X132.372 Y127.308 E-0.25171
G1 X132.372 Y127.228 E-0.01843
;WIPE_END
G1 E-0.04 F2100
G1 Z0.6 F10800
; stop printing object Bridging Directional Test v5.stl id:0 copy 0
EXCLUDE_OBJECT_END NAME=Bridging_Directional_Test_v5_stl_id_0_copy_0
; printing object Overhang Directional Test v4.stl id:1 copy 0
EXCLUDE_OBJECT_START NAME=Overhang_Directional_Test_v4_stl_id_1_copy_0
; acceleration to travel
M204 S1500
G1 X124.047 Y111.026
; decel to extrusion
M204 S1000
G1 X122.024 Y107.088
; end travel
G1 Z0.2
G1 E0.8 F2100
;TYPE:Internal perimeter
;WIDTH:0.42
G1 F1200
G1 X121.769 Y107.178 E0.00848
G1 X121.456 Y107.213 E0.00988
G1 X111.355 Y107.213 E0.3167
G1 X110.559 Y107.27 E0.02501
G1 X109.752 Y107.445 E0.0259
G1 X109.365 Y107.59 E0.01295
G1 X108.978 Y107.734 E0.01295
G1 X108.253 Y108.13 E0.0259
G1 X107.592 Y108.625 E0.0259
G1 X107.008 Y109.209 E0.0259
G1 X106.513 Y109.87 E0.0259
G1 X106.117 Y110.595 E0.0259
G1 X105.829 Y111.369 E0.0259
G1 X105.653 Y112.176 E0.0259
G1 X105.596 Y112.972 E0.02501
G1 X105.596 Y127.956 E0.46981
G1 X105.561 Y128.269 E0.00988
G1 X105.471 Y128.524 E0.00848
G1 X105.328 Y128.753 E0.00848
G1 X105.136 Y128.944 E0.00848
G1 X104.907 Y129.088 E0.00848
G1 X104.652 Y129.178 E0.00848
G1 X104.339 Y129.213 E0.00988
G1 X97.544 Y129.213 E0.21304
G1 X97.231 Y129.178 E0.00988
G1 X96.976 Y129.088 E0.00848
G1 X96.747 Y128.944 E0.00848
G1 X96.556 Y128.753 E0.00848
G1 X96.412 Y128.524 E0.00848
G1 X96.322 Y128.269 E0.00848
G1 X96.287 Y127.956 E0.00988
G1 X96.287 Y117.855 E0.3167
G1 X96.23 Y117.059 E0.02501
