; generated by SuperSlicer 2.5.59 on 2022-09-13 at 04:54:05 UTC

; 

; external perimeters extrusion width = 0.45mm
; perimeters extrusion width = 0.45mm
; infill extrusion width = 0.45mm
; solid infill extrusion width = 0.45mm
; top infill extrusion width = 0.40mm
; first layer extrusion width = 0.42mm

; external perimeters extrusion width = 0.45mm
; perimeters extrusion width = 0.45mm
; infill extrusion width = 0.45mm
; solid infill extrusion width = 0.45mm
; top infill extrusion width = 0.40mm
; first layer extrusion width = 0.42mm

; external perimeters extrusion width = 0.45mm
; perimeters extrusion width = 0.45mm
; infill extrusion width = 0.45mm
; solid infill extrusion width = 0.45mm
; top infill extrusion width = 0.40mm
; first layer extrusion width = 0.42mm

; object:{"name":"build_helper_y_rod","id":"build_helper_y_rod.stl id:0 copy 0","object_center":[108.772804,126.100000,0.000000],"boundingbox_center":[108.772804,126.100000,7.500000],"boundingbox_size":[102.349998,52.174999,15.000000]}
; object:{"name":"build_helper_y","id":"build_helper_y.stl id:1 copy 0","object_center":[152.727196,123.012500,0.000000],"boundingbox_center":[152.727196,123.012500,6.000000],"boundingbox_size":[83.000000,46.000000,12.000000]}
; object:{"name":"build_helper_z","id":"build_helper_z.stl id:2 copy 0","object_center":[108.772804,77.412500,0.000000],"boundingbox_center":[108.772804,77.412500,6.000000],"boundingbox_size":[106.000000,39.200001,12.000000]}
; plater:{"center":[125.000000,105.000000,0.000000],"boundingbox_center":[125.000000,105.000000,7.500000],"boundingbox_size":[138.454392,94.375000,15.000000]}

M73 P0 R119
;TYPE:Custom
M104 S0
M140 S0
START_PRINT BED=60 NOZZLE=215 PA=0.05896 INITIAL_TOOL=0 BED_MESH=Y PRINT_MIN_X=53.3987 PRINT_MIN_Y=55.4384 PRINT_MAX_X=196.601 PRINT_MAX_Y=154.903 PROBE_COUNT=3
;SET_FILAMENT_SENSOR SENSOR=encoder_sensor ENABLE=1
;PURGE_LINE
M107
G21 ; set units to millimeters
G90 ; use absolute coordinates
M83 ; use relative distances for extrusion
M900 K0.05 ; Filament gcode LA 1.5
M900 K30 ; Filament gcode LA 1.0
;_TOOLCHANGE 0
M107
;LAYER_CHANGE
;Z:0.2
;HEIGHT:0.2
;BEFORE_LAYER_CHANGE
G92 E0.0
;0.2


G1 E-0.8 F2100
G1 Z0.4 F10800
;AFTER_LAYER_CHANGE
;0.2
G1 Z0.6
M204 S1000
G1 X54.961 Y57.002
G1 Z0.2
G1 E0.8 F2100
;TYPE:Skirt
;WIDTH:0.52
G1 F1200
G1 X54.265 Y57.967 E0.04719
G1 X53.904 Y59.183 E0.05034
G1 X53.877 Y95.273 E1.43166
G1 X55.36 Y150.248 E2.18162
G1 X55.491 Y151.227 E0.03918
G1 X55.814 Y152.091 E0.0366
G1 X56.503 Y153.08 E0.04783
G1 X57.175 Y153.662 E0.03525
G1 X58.252 Y154.204 E0.04783
G1 X58.837 Y154.355 E0.02397
G1 X59.598 Y154.426 E0.0303
G1 X158.107 Y154.42 E3.90781
M73 P0 R118
G1 X192.983 Y147.838 E1.40793
G1 X193.675 Y147.631 E0.02865
G1 X194.348 Y147.282 E0.03007
G1 X194.774 Y146.963 E0.0211
G1 X195.345 Y146.352 E0.03318
G1 X195.936 Y145.21 E0.051
G1 X196.124 Y144.013 E0.0481
G1 X196.124 Y132.012 E0.47603
G1 X196.018 Y131.109 E0.03609
G1 X195.738 Y130.321 E0.03318
G1 X163.157 Y77.438 E2.46402
G1 X162.7 Y76.827 E0.03025
G1 X162.113 Y76.302 E0.03126
G1 X161.36 Y75.889 E0.03406
G1 X160.715 Y75.692 E0.02676
G1 X74.715 Y55.992 E3.49993
G1 X74.074 Y55.923 E0.02559
G1 X57.143 Y55.944 E0.67161
G1 X56.108 Y56.226 E0.04257
G1 X55.432 Y56.604 E0.03073
G1 X55.007 Y56.963 E0.02208
M104 S215 ; set temperature
;WIPE_START
G1 F8640
M204 S1250
G1 X54.265 Y57.967 E-0.28813
G1 X53.904 Y59.183 E-0.29302
G1 X53.903 Y59.958 E-0.17885
;WIPE_END
G1 E-0.04 F2100
G1 Z0.6 F10800
; printing object build_helper_y_rod.stl id:0 copy 0
; acceleration to travel
M204 S1500
G1 X58.699 Y94.487
; decel to extrusion
M204 S800
G1 X59.631 Y101.2
; end travel
G1 Z0.2
G1 E0.8 F2100
;TYPE:Internal perimeter
;WIDTH:0.377079
G1 F1200
G1 X63.161 Y101.2 E0.09808
G1 X63.161 Y105.009 E0.10585
G1 X63.169 Y105.107 E0.00273
G1 X63.276 Y105.351 E0.00739
G1 X63.39 Y105.464 E0.00447
G1 X63.578 Y105.555 E0.0058
G1 X63.847 Y105.575 E0.00749
G1 X64.561 Y106.289 E0.02805
G1 X64.561 Y111.736 E0.15137
G1 X63.847 Y112.45 E0.02805
G1 X63.578 Y112.47 E0.00749
G1 X63.39 Y112.561 E0.0058
G1 X63.276 Y112.674 E0.00447
G1 X63.192 Y112.831 E0.00494
G1 X63.161 Y113.016 E0.00521
G1 X63.161 Y118.461 E0.1513
G1 X62.932 Y119.338 E0.02519
G1 X62.922 Y119.579 E0.00669
G1 X63.027 Y119.822 E0.00736
G1 X63.263 Y120.004 E0.00826
G1 X63.446 Y120.046 E0.00523
G1 X63.622 Y120.029 E0.00491
G1 X64.499 Y119.8 E0.02519
G1 X89.147 Y119.8 E0.68487
G1 X90.094 Y119.779 E0.02631
G1 X90.341 Y119.637 E0.00792
G1 X90.49 Y119.382 E0.00821
G1 X90.51 Y119.114 E0.00749
G1 X91.224 Y118.4 E0.02805
G1 X96.672 Y118.4 E0.15137
G1 X97.386 Y119.114 E0.02805
G1 X97.406 Y119.382 E0.00749
G1 X97.497 Y119.57 E0.0058
G1 X97.61 Y119.685 E0.00447
G1 X97.766 Y119.769 E0.00494
G1 X97.951 Y119.8 E0.00521
G1 X103.056 Y119.8 E0.14184
G1 X130.115 Y146.859 E1.06328
G1 X130.225 Y146.944 E0.00386
G1 X130.515 Y147.025 E0.00837
G1 X157.796 Y147.025 E0.75801
G1 X158.107 Y147.066 E0.0087
G1 X158.358 Y147.159 E0.00744
G1 X158.554 Y147.326 E0.00716
G1 X158.701 Y147.589 E0.00837
G1 X158.761 Y147.927 E0.00953
G1 X158.761 Y150.051 E0.059
G1 X158.708 Y150.444 E0.01103
G1 X158.637 Y150.57 E0.00402
G1 X158.459 Y150.793 E0.00793
G1 X158.246 Y150.918 E0.00687
G1 X157.915 Y151 E0.00948
G1 X59.735 Y151 E2.72798
G1 X59.341 Y150.948 E0.01103
G1 X59.215 Y150.876 E0.00402
G1 X58.992 Y150.699 E0.00793
G1 X58.868 Y150.486 E0.00686
G1 X58.785 Y150.154 E0.00948
G1 X58.785 Y102.148 E1.33389
G1 X58.837 Y101.756 E0.01097
G1 X58.925 Y101.6 E0.00497
G1 X59.086 Y101.407 E0.00698
G1 X59.3 Y101.282 E0.0069
G1 X59.573 Y101.214 E0.00779
G1 X59.615 Y100.822 F10800
;TYPE:External perimeter
G1 F1200
G1 X63.538 Y100.822 E0.109
G1 X63.538 Y105.009 E0.11632
G1 X63.576 Y105.123 E0.00334
G1 X63.677 Y105.191 E0.00338
G1 X64.003 Y105.197 E0.00906
G1 X64.938 Y106.132 E0.03673
G1 X64.938 Y111.893 E0.16005
G1 X64.003 Y112.828 E0.03673
G1 X63.726 Y112.828 E0.00769
G1 X63.614 Y112.864 E0.00328
G1 X63.538 Y113.016 E0.00472
G1 X63.538 Y118.51 E0.15265
G1 X63.455 Y118.829 E0.00915
G1 X63.29 Y119.481 E0.0187
G1 X63.363 Y119.63 E0.00461
G1 X63.527 Y119.664 E0.00463
G1 X64.45 Y119.422 E0.02653
G1 X89.147 Y119.422 E0.68621
G1 X90.024 Y119.405 E0.02436
G1 X90.126 Y119.283 E0.00441
G1 X90.133 Y118.957 E0.00906
G1 X91.068 Y118.022 E0.03673
G1 X96.828 Y118.022 E0.16005
G1 X97.763 Y118.957 E0.03673
G1 X97.763 Y119.234 E0.00769
G1 X97.8 Y119.346 E0.00328
G1 X97.951 Y119.422 E0.00472
G1 X103.212 Y119.422 E0.14618
G1 X130.382 Y146.592 E1.06762
G1 X130.515 Y146.648 E0.00401
G1 X157.796 Y146.648 E0.75801
G1 X158.379 Y146.733 E0.01636
G1 X158.714 Y146.932 E0.01083
G1 X158.968 Y147.232 E0.01091
G1 X159.11 Y147.604 E0.01108
G1 X159.138 Y147.927 E0.00901
G1 X159.138 Y150.051 E0.059
G1 X159.069 Y150.572 E0.01462
G1 X158.851 Y150.957 E0.01228
G1 X158.556 Y151.205 E0.01071
G1 X158.282 Y151.306 E0.00813
G1 X157.931 Y151.377 E0.00995
G1 X59.735 Y151.378 E2.72842
G1 X59.213 Y151.309 E0.01462
G1 X58.829 Y151.09 E0.01228
G1 X58.58 Y150.796 E0.01071
G1 X58.479 Y150.521 E0.00813
G1 X58.408 Y150.17 E0.00995
G1 X58.408 Y102.148 E1.33433
M73 P1 R118
G1 X58.476 Y101.628 E0.01456
G1 X58.693 Y101.245 E0.01224
G1 X58.989 Y100.995 E0.01077
G1 X59.264 Y100.894 E0.00813
G1 X59.556 Y100.834 E0.00828
;WIPE_START
M204 S1250
G1 X59.838 Y101.155 F10800
;WIPE_END
;WIPE_START
G1 F8640
G1 X63.127 Y101.03 E-0.76
;WIPE_END
G1 E-0.04 F2100
G1 Z0.6 F10800
; acceleration to travel
M204 S1500
G1 X83.901 Y124.571
; decel to extrusion
M204 S800
G1 X87.94 Y129.147
; end travel
G1 Z0.2
G1 E0.8 F2100
;TYPE:Internal perimeter
G1 F1200
G1 X71.301 Y145.786 E0.6538
G1 X71.238 Y145.861 E0.00273
G1 X71.141 Y146.106 E0.00734
G1 X71.141 Y146.267 E0.00445
G1 X71.292 Y146.675 E0.01211
G1 X71.474 Y146.911 E0.00828
G1 X71.631 Y146.994 E0.00491
G1 X71.814 Y147.025 E0.00518
G1 X122.906 Y147.025 E1.41961
G1 X123.004 Y147.016 E0.00273
G1 X123.246 Y146.911 E0.00734
G1 X123.359 Y146.798 E0.00445
G1 X123.542 Y146.402 E0.01211
G1 X123.58 Y146.106 E0.00828
G1 X123.528 Y145.937 E0.00491
G1 X123.419 Y145.786 E0.00518
G1 X101.975 Y124.341 E0.84265
G1 X101.84 Y124.242 E0.00465
G1 X101.575 Y124.175 E0.0076
G1 X93.146 Y124.175 E0.23421
G1 X92.991 Y124.197 E0.00433
G1 X92.746 Y124.341 E0.00792
G1 X87.982 Y129.105 E0.18718
G1 X88.206 Y129.414 F10800
;TYPE:External perimeter
G1 F1200
G1 X71.568 Y146.052 E0.6538
G1 X71.515 Y146.213 E0.00469
G1 X71.663 Y146.572 E0.0108
G1 X71.814 Y146.648 E0.00469
G1 X122.906 Y146.648 E1.41961
G1 X123.057 Y146.572 E0.00469
G1 X123.206 Y146.213 E0.0108
G1 X123.153 Y146.052 E0.00469
G1 X101.708 Y124.608 E0.84265
G1 X101.575 Y124.553 E0.00401
G1 X93.146 Y124.553 E0.23421
G1 X93.094 Y124.56 E0.00144
G1 X93.012 Y124.608 E0.00264
G1 X88.249 Y129.371 E0.18718
;WIPE_START
M204 S1250
G1 X88.31 Y129.8 F10800
;WIPE_END
;WIPE_START
G1 F8640
G1 X85.929 Y132.073 E-0.76
;WIPE_END
G1 E-0.04 F2100
G1 Z0.6 F10800
; acceleration to travel
M204 S1500
G1 X85.259 Y127.269
; decel to extrusion
M204 S800
G1 X85.128 Y126.336
; end travel
G1 Z0.2
G1 E0.8 F2100
;TYPE:Internal perimeter
G1 F1200
G1 X86.05 Y125.414 E0.0362
G1 X86.113 Y125.339 E0.00273
G1 X86.21 Y125.094 E0.00734
G1 X86.21 Y124.933 E0.00445
G1 X86.002 Y124.42 E0.0154
G1 X85.814 Y124.248 E0.00706
G1 X85.536 Y124.175 E0.00797
G1 X63.937 Y124.175 E0.60016
G1 X63.141 Y124.207 E0.02213
G1 X62.885 Y124.388 E0.00872
G1 X62.794 Y124.549 E0.00512
G1 X62.761 Y124.741 E0.00543
G1 X62.761 Y146.951 E0.61712
G1 X62.793 Y147.14 E0.00533
G1 X62.979 Y147.398 E0.00881
G1 X63.383 Y147.587 E0.01241
G1 X63.6 Y147.63 E0.00613
G1 X63.827 Y147.582 E0.00646
G1 X64 Y147.464 E0.00581
G1 X85.086 Y126.378 E0.82857
G1 X84.862 Y126.069 F10800
;TYPE:External perimeter
G1 F1200
G1 X85.783 Y125.148 E0.0362
G1 X85.836 Y124.987 E0.00469
G1 X85.665 Y124.603 E0.01169
G1 X85.536 Y124.553 E0.00384
G1 X63.326 Y124.553 E0.61712
M73 P1 R117
G1 X63.179 Y124.623 E0.00454
G1 X63.138 Y124.741 E0.00347
G1 X63.138 Y146.951 E0.61712
G1 X63.178 Y147.067 E0.00341
G1 X63.528 Y147.239 E0.01082
G1 X63.6 Y147.253 E0.00204
G1 X63.733 Y147.198 E0.00401
G1 X84.819 Y126.112 E0.82857
;WIPE_START
M204 S1250
G1 X84.758 Y125.683 F10800
;WIPE_END
;WIPE_START
G1 F8640
G1 X85.958 Y125.256 E-0.29405
G1 X86.051 Y124.977 E-0.06785
G1 X85.814 Y124.447 E-0.134
G1 X85.574 Y124.353 E-0.05952
G1 X84.688 Y124.353 E-0.20458
;WIPE_END
G1 E-0.04 F2100
G1 Z0.6 F10800
; acceleration to travel
M204 S1500
G1 X143.671 Y142.703
; decel to extrusion
M204 S1000
G1 X158.004 Y147.162
; end travel
G1 Z0.2
G1 E0.8 F2100
;TYPE:Solid infill
;WIDTH:0.419238
G1 F1200
G1 X158.331 Y147.489 E0.01447
G1 X158.398 Y147.568 E0.00326
G1 X158.471 Y147.758 E0.00636
G1 X158.485 Y147.894 E0.00429
G1 X158.485 Y148.177 E0.00884
G1 X157.609 Y147.3 E0.03881
G1 X157.075 Y147.3 E0.01669
G1 X158.485 Y148.71 E0.06241
G1 X158.485 Y149.243 E0.01669
G1 X156.542 Y147.3 E0.08601
G1 X156.009 Y147.3 E0.01669
G1 X158.485 Y149.776 E0.10962
G1 X158.485 Y150.106 E0.01032
G1 X158.457 Y150.281 E0.00553
G1 X155.476 Y147.3 E0.13194
G1 X154.942 Y147.3 E0.01669
G1 X158.251 Y150.609 E0.14646
G1 X158.223 Y150.633 E0.00116
G1 X157.992 Y150.718 E0.00769
G1 X157.903 Y150.725 E0.0028
G1 X157.834 Y150.725 E0.00215
G1 X154.409 Y147.3 E0.15161
G1 X153.876 Y147.3 E0.01669
G1 X157.301 Y150.725 E0.15161
G1 X156.768 Y150.725 E0.01669
G1 X153.343 Y147.3 E0.15161
G1 X152.809 Y147.3 E0.01669
G1 X156.235 Y150.725 E0.15161
G1 X155.701 Y150.725 E0.01669
G1 X152.276 Y147.3 E0.15161
G1 X151.743 Y147.3 E0.01669
G1 X155.168 Y150.725 E0.15161
G1 X154.635 Y150.725 E0.01669
G1 X151.209 Y147.3 E0.15161
G1 X150.676 Y147.3 E0.01669
G1 X154.101 Y150.725 E0.15161
G1 X153.568 Y150.725 E0.01669
G1 X150.143 Y147.3 E0.15161
G1 X149.61 Y147.3 E0.01669
G1 X153.035 Y150.725 E0.15161
G1 X152.502 Y150.725 E0.01669
G1 X149.076 Y147.3 E0.15161
G1 X148.543 Y147.3 E0.01669
G1 X151.968 Y150.725 E0.15161
G1 X151.435 Y150.725 E0.01669
G1 X148.01 Y147.3 E0.15161
G1 X147.477 Y147.3 E0.01669
G1 X150.902 Y150.725 E0.15161
G1 X150.369 Y150.725 E0.01669
G1 X146.943 Y147.3 E0.15161
G1 X146.41 Y147.3 E0.01669
G1 X149.835 Y150.725 E0.15161
G1 X149.302 Y150.725 E0.01669
G1 X145.877 Y147.3 E0.15161
G1 X145.343 Y147.3 E0.01669
G1 X148.769 Y150.725 E0.15161
G1 X148.236 Y150.725 E0.01669
G1 X144.81 Y147.3 E0.15161
G1 X144.277 Y147.3 E0.01669
G1 X147.702 Y150.725 E0.15161
G1 X147.169 Y150.725 E0.01669
G1 X143.744 Y147.3 E0.15161
G1 X143.21 Y147.3 E0.01669
G1 X146.636 Y150.725 E0.15161
G1 X146.102 Y150.725 E0.01669
G1 X142.677 Y147.3 E0.15161
G1 X142.144 Y147.3 E0.01669
G1 X145.569 Y150.725 E0.15161
G1 X145.036 Y150.725 E0.01669
G1 X141.611 Y147.3 E0.15161
G1 X141.077 Y147.3 E0.01669
G1 X144.503 Y150.725 E0.15161
G1 X143.969 Y150.725 E0.01669
G1 X140.544 Y147.3 E0.15161
G1 X140.011 Y147.3 E0.01669
G1 X143.436 Y150.725 E0.15161
G1 X142.903 Y150.725 E0.01669
G1 X139.477 Y147.3 E0.15161
G1 X138.944 Y147.3 E0.01669
G1 X142.37 Y150.725 E0.15161
G1 X141.836 Y150.725 E0.01669
G1 X138.411 Y147.3 E0.15161
G1 X137.878 Y147.3 E0.01669
G1 X141.303 Y150.725 E0.15161
G1 X140.77 Y150.725 E0.01669
G1 X137.344 Y147.3 E0.15161
G1 X136.811 Y147.3 E0.01669
G1 X140.236 Y150.725 E0.15161
G1 X139.703 Y150.725 E0.01669
G1 X136.278 Y147.3 E0.15161
G1 X135.745 Y147.3 E0.01669
G1 X139.17 Y150.725 E0.15161
G1 X138.637 Y150.725 E0.01669
G1 X135.211 Y147.3 E0.15161
G1 X134.678 Y147.3 E0.01669
G1 X138.103 Y150.725 E0.15161
G1 X137.57 Y150.725 E0.01669
G1 X134.145 Y147.3 E0.15161
G1 X133.612 Y147.3 E0.01669
G1 X137.037 Y150.725 E0.15161
G1 X136.504 Y150.725 E0.01669
G1 X133.078 Y147.3 E0.15161
G1 X132.545 Y147.3 E0.01669
G1 X135.97 Y150.725 E0.15161
G1 X135.437 Y150.725 E0.01669
G1 X132.012 Y147.3 E0.15161
G1 X131.478 Y147.3 E0.01669
G1 X134.904 Y150.725 E0.15161
G1 X134.371 Y150.725 E0.01669
G1 X130.945 Y147.3 E0.15161
G1 X130.509 Y147.3 E0.01364
G1 X130.396 Y147.284 E0.00358
G1 X133.837 Y150.725 E0.1523
G1 X133.304 Y150.725 E0.01669
G1 X102.654 Y120.075 E1.35662
G1 X102.12 Y120.075 E0.01669
G1 X132.771 Y150.725 E1.35662
G1 X132.237 Y150.725 E0.01669
G1 X101.587 Y120.075 E1.35662
G1 X101.054 Y120.075 E0.01669
G1 X131.704 Y150.725 E1.35662
G1 X131.171 Y150.725 E0.01669
G1 X100.521 Y120.075 E1.35662
G1 X99.987 Y120.075 E0.01669
G1 X130.638 Y150.725 E1.35662
G1 X130.104 Y150.725 E0.01669
G1 X99.454 Y120.075 E1.35662
G1 X98.921 Y120.075 E0.01669
G1 X129.571 Y150.725 E1.35662
G1 X129.038 Y150.725 E0.01669
G1 X98.225 Y119.913 E1.3638
;WIPE_START
G1 F8640
M204 S1250
G1 X100.553 Y122.24 E-0.76
;WIPE_END
G1 E-0.04 F2100
G1 Z0.6 F10800
; acceleration to travel
M204 S1500
G1 X97.125 Y119.241
; decel to extrusion
M204 S1000
G1 X96.292 Y118.513
; end travel
G1 Z0.2
G1 E0.8 F2100
G1 F1200
G1 X97.127 Y119.348 E0.03696
G1 X97.139 Y119.456 E0.00341
G1 X97.273 Y119.733 E0.00963
G1 X97.443 Y119.905 E0.00758
G1 X97.676 Y120.03 E0.00827
G1 X97.836 Y120.057 E0.00506
G1 X101.691 Y123.912 E0.17062
G1 X101.747 Y123.917 E0.00176
G1 X101.97 Y123.998 E0.00742
G1 X102.165 Y124.142 E0.00759
G1 X123.619 Y145.596 E0.94959
G1 X123.776 Y145.816 E0.00844
G1 X123.853 Y146.074 E0.00842
G1 X128.505 Y150.725 E0.20589
G1 X127.971 Y150.725 E0.01669
G1 X123.784 Y146.538 E0.18534
G1 X123.681 Y146.786 E0.0084
G1 X123.615 Y146.902 E0.00419
G1 X127.438 Y150.725 E0.16922
G1 X126.905 Y150.725 E0.01669
G1 X123.346 Y147.167 E0.1575
G1 X123.18 Y147.255 E0.00591
G1 X122.941 Y147.295 E0.00756
G1 X126.371 Y150.725 E0.15182
G1 X125.838 Y150.725 E0.01669
G1 X122.413 Y147.3 E0.15161
G1 X121.88 Y147.3 E0.01669
G1 X125.305 Y150.725 E0.15161
G1 X124.772 Y150.725 E0.01669
G1 X121.346 Y147.3 E0.15161
G1 X120.813 Y147.3 E0.01669
G1 X124.238 Y150.725 E0.15161
G1 X123.705 Y150.725 E0.01669
G1 X120.28 Y147.3 E0.15161
G1 X119.746 Y147.3 E0.01669
G1 X123.172 Y150.725 E0.15161
G1 X122.639 Y150.725 E0.01669
G1 X119.213 Y147.3 E0.15161
G1 X118.68 Y147.3 E0.01669
G1 X122.105 Y150.725 E0.15161
G1 X121.572 Y150.725 E0.01669
G1 X118.147 Y147.3 E0.15161
G1 X117.613 Y147.3 E0.01669
G1 X121.039 Y150.725 E0.15161
G1 X120.505 Y150.725 E0.01669
G1 X117.08 Y147.3 E0.15161
G1 X116.547 Y147.3 E0.01669
G1 X119.972 Y150.725 E0.15161
G1 X119.439 Y150.725 E0.01669
G1 X116.014 Y147.3 E0.15161
G1 X115.48 Y147.3 E0.01669
