; generated by SuperSlicer 2.5.59 on 2022-09-22 at 02:24:35 UTC

; 

; external perimeters extrusion width = 0.45mm
; perimeters extrusion width = 0.45mm
; infill extrusion width = 0.45mm
; solid infill extrusion width = 0.45mm
; top infill extrusion width = 0.40mm
; first layer extrusion width = 0.42mm

; external perimeters extrusion width = 0.45mm
; perimeters extrusion width = 0.45mm
; infill extrusion width = 0.45mm
; solid infill extrusion width = 0.45mm
; top infill extrusion width = 0.40mm
; first layer extrusion width = 0.42mm

; external perimeters extrusion width = 0.45mm
; perimeters extrusion width = 0.45mm
; infill extrusion width = 0.45mm
; solid infill extrusion width = 0.45mm
; top infill extrusion width = 0.40mm
; first layer extrusion width = 0.42mm

; external perimeters extrusion width = 0.45mm
; perimeters extrusion width = 0.45mm
; infill extrusion width = 0.45mm
; solid infill extrusion width = 0.45mm
; top infill extrusion width = 0.40mm
; first layer extrusion width = 0.42mm

; external perimeters extrusion width = 0.45mm
; perimeters extrusion width = 0.45mm
; infill extrusion width = 0.45mm
; solid infill extrusion width = 0.45mm
; top infill extrusion width = 0.40mm
; first layer extrusion width = 0.42mm

; external perimeters extrusion width = 0.45mm
; perimeters extrusion width = 0.45mm
; infill extrusion width = 0.45mm
; solid infill extrusion width = 0.45mm
; top infill extrusion width = 0.40mm
; first layer extrusion width = 0.42mm

; external perimeters extrusion width = 0.45mm
; perimeters extrusion width = 0.45mm
; infill extrusion width = 0.45mm
; solid infill extrusion width = 0.45mm
; top infill extrusion width = 0.40mm
; first layer extrusion width = 0.42mm

; external perimeters extrusion width = 0.45mm
; perimeters extrusion width = 0.45mm
; infill extrusion width = 0.45mm
; solid infill extrusion width = 0.45mm
; top infill extrusion width = 0.40mm
; first layer extrusion width = 0.42mm

; external perimeters extrusion width = 0.45mm
; perimeters extrusion width = 0.45mm
; infill extrusion width = 0.45mm
; solid infill extrusion width = 0.45mm
; top infill extrusion width = 0.40mm
; first layer extrusion width = 0.42mm

; object:{"name":"cable_clip_vertical","id":"cable_clip_vertical.stl id:0 copy 0","object_center":[125.000000,105.000000,0.000000],"boundingbox_center":[125.000000,105.000000,2.700000],"boundingbox_size":[15.050000,12.887112,5.400000]}
; object:{"name":"cable_clip_vertical","id":"cable_clip_vertical.stl id:1 copy 0","object_center":[125.000000,120.887112,0.000000],"boundingbox_center":[125.000000,120.887112,2.700000],"boundingbox_size":[15.050000,12.887112,5.400000]}
; object:{"name":"cable_clip_vertical","id":"cable_clip_vertical.stl id:2 copy 0","object_center":[143.050000,105.000000,0.000000],"boundingbox_center":[143.050000,105.000000,2.700000],"boundingbox_size":[15.050000,12.887112,5.400000]}
; object:{"name":"cable_clip_vertical","id":"cable_clip_vertical.stl id:3 copy 0","object_center":[143.050000,120.887112,0.000000],"boundingbox_center":[143.050000,120.887112,2.700000],"boundingbox_size":[15.050000,12.887112,5.400000]}
; object:{"name":"cable_clip_vertical","id":"cable_clip_vertical.stl id:4 copy 0","object_center":[125.000000,89.112888,0.000000],"boundingbox_center":[125.000000,89.112888,2.700000],"boundingbox_size":[15.050000,12.887112,5.400000]}
; object:{"name":"cable_clip_vertical","id":"cable_clip_vertical.stl id:5 copy 0","object_center":[143.050000,89.112888,0.000000],"boundingbox_center":[143.050000,89.112888,2.700000],"boundingbox_size":[15.050000,12.887112,5.400000]}
; object:{"name":"cable_clip_vertical","id":"cable_clip_vertical.stl id:6 copy 0","object_center":[106.950000,105.000000,0.000000],"boundingbox_center":[106.950000,105.000000,2.700000],"boundingbox_size":[15.050000,12.887112,5.400000]}
; object:{"name":"cable_clip_vertical","id":"cable_clip_vertical.stl id:7 copy 0","object_center":[106.950000,120.887112,0.000000],"boundingbox_center":[106.950000,120.887112,2.700000],"boundingbox_size":[15.050000,12.887112,5.400000]}
; object:{"name":"cable_clip_vertical","id":"cable_clip_vertical.stl id:8 copy 0","object_center":[106.950000,89.112888,0.000000],"boundingbox_center":[106.950000,89.112888,2.700000],"boundingbox_size":[15.050000,12.887112,5.400000]}
; plater:{"center":[125.000000,105.000000,0.000000],"boundingbox_center":[125.000000,105.000000,2.700000],"boundingbox_size":[51.150000,44.661336,5.400000]}

M73 P0 R42


; Pre-Processed for Cancel-Object support by preprocess_cancellation v0.2.0
; 9 known objects
EXCLUDE_OBJECT_DEFINE NAME=cable_clip_vertical_stl_id_0_copy_0 CENTER=125.098,106.202 POLYGON=[[121.693,98.782],[119.825,100.65],[117.7,104.181],[117.702,105.889],[117.731,106.064],[117.825,106.277],[120.627,110.842],[120.749,110.988],[120.979,111.151],[121.21,111.21],[128.716,111.216],[129.06,111.133],[129.256,110.988],[129.434,110.745],[132.229,106.172],[132.298,105.763],[132.3,104.181],[130.175,100.65],[128.307,98.782],[121.693,98.782]]
EXCLUDE_OBJECT_DEFINE NAME=cable_clip_vertical_stl_id_4_copy_0 CENTER=125.014,90.357 POLYGON=[[121.693,82.895],[119.825,84.763],[117.7,88.294],[117.702,90.002],[117.825,90.39],[120.627,94.955],[120.749,95.101],[120.979,95.264],[121.21,95.323],[128.716,95.329],[129.06,95.246],[129.256,95.101],[129.434,94.858],[132.229,90.285],[132.298,89.876],[132.3,88.294],[130.175,84.763],[128.307,82.895],[121.693,82.895]]
EXCLUDE_OBJECT_DEFINE NAME=cable_clip_vertical_stl_id_8_copy_0 CENTER=107.042,90.349 POLYGON=[[103.643,82.895],[101.775,84.763],[99.65,88.294],[99.652,90.002],[99.775,90.39],[102.577,94.955],[102.699,95.101],[102.929,95.264],[103.16,95.323],[110.666,95.329],[111.01,95.246],[111.206,95.101],[111.384,94.858],[114.179,90.285],[114.248,89.876],[114.25,88.294],[112.125,84.763],[110.257,82.895],[103.643,82.895]]
EXCLUDE_OBJECT_DEFINE NAME=cable_clip_vertical_stl_id_6_copy_0 CENTER=107.021,106.192 POLYGON=[[103.643,98.782],[101.775,100.65],[99.65,104.181],[99.652,105.889],[99.775,106.277],[102.577,110.842],[102.699,110.988],[102.929,111.151],[103.16,111.21],[110.666,111.216],[111.01,111.133],[111.206,110.988],[111.384,110.745],[114.179,106.172],[114.248,105.763],[114.25,104.181],[112.125,100.65],[110.257,98.782],[103.643,98.782]]
EXCLUDE_OBJECT_DEFINE NAME=cable_clip_vertical_stl_id_7_copy_0 CENTER=107.005,122.098 POLYGON=[[103.643,114.669],[101.775,116.537],[99.65,120.069],[99.652,121.776],[99.775,122.164],[102.577,126.729],[102.699,126.875],[102.929,127.038],[103.16,127.097],[110.666,127.103],[111.01,127.02],[111.206,126.876],[111.384,126.632],[114.179,122.059],[114.248,121.65],[114.25,120.069],[112.125,116.537],[110.257,114.669],[103.643,114.669]]
EXCLUDE_OBJECT_DEFINE NAME=cable_clip_vertical_stl_id_1_copy_0 CENTER=125.001,122.137 POLYGON=[[121.693,114.669],[119.825,116.537],[117.7,120.069],[117.7,121.732],[117.771,122.059],[117.825,122.164],[120.627,126.729],[120.749,126.875],[120.979,127.038],[121.21,127.097],[128.716,127.103],[129.06,127.02],[129.256,126.876],[129.434,126.632],[132.229,122.059],[132.298,121.65],[132.3,120.069],[130.175,116.537],[128.307,114.669],[121.693,114.669]]
EXCLUDE_OBJECT_DEFINE NAME=cable_clip_vertical_stl_id_3_copy_0 CENTER=143.051,122.108 POLYGON=[[139.743,114.669],[137.875,116.537],[135.75,120.069],[135.75,121.732],[135.76,121.857],[135.875,122.164],[138.677,126.729],[138.799,126.875],[139.029,127.038],[139.26,127.097],[146.766,127.103],[147.11,127.02],[147.306,126.876],[147.484,126.632],[150.279,122.059],[150.348,121.65],[150.35,120.069],[148.225,116.537],[146.357,114.669],[139.743,114.669]]
EXCLUDE_OBJECT_DEFINE NAME=cable_clip_vertical_stl_id_2_copy_0 CENTER=143.140,106.258 POLYGON=[[139.743,98.782],[137.875,100.65],[135.75,104.181],[135.752,105.889],[135.875,106.277],[138.677,110.842],[138.799,110.988],[139.029,111.151],[139.26,111.21],[146.766,111.216],[147.11,111.133],[147.306,110.988],[147.484,110.745],[150.279,106.172],[150.348,105.763],[150.35,104.181],[148.225,100.65],[146.357,98.782],[139.743,98.782]]
EXCLUDE_OBJECT_DEFINE NAME=cable_clip_vertical_stl_id_5_copy_0 CENTER=143.072,90.354 POLYGON=[[139.743,82.895],[137.875,84.763],[135.75,88.294],[135.752,90.002],[135.875,90.39],[138.677,94.955],[138.799,95.101],[139.029,95.264],[139.26,95.323],[146.766,95.329],[147.11,95.246],[147.306,95.101],[147.484,94.858],[150.279,90.285],[150.348,89.876],[150.35,88.294],[148.225,84.763],[146.357,82.895],[139.743,82.895]]
;TYPE:Custom
Start : M104 S0
M140 S0
PRINT_START EXTRUDER_TEMP=215 BED_TEMP=60
M107
G21 ; set units to millimeters
G90 ; use absolute coordinates
M83 ; use relative distances for extrusion
M900 K0.05 ; Filament gcode LA 1.5
M900 K30 ; Filament gcode LA 1.0
;_TOOLCHANGE 0
M104 S215 ; set temperature
M109 S215 ; set temperature and wait for it to be reached
M107
;LAYER_CHANGE
;Z:0.2
;HEIGHT:0.2
;BEFORE_LAYER_CHANGE
G92 E0.0
;0.2


G1 E-0.8 F2100
M73 P0 R41
G1 Z0.4 F10800
;AFTER_LAYER_CHANGE
;0.2
G1 Z0.6
M204 S1000
G1 X100.193 Y82.919
G1 Z0.2
G1 E0.8 F2100
;TYPE:Skirt
;WIDTH:0.52
G1 F1200
G1 X97.568 Y86.819 E0.18649
G1 X97.186 Y88.069 E0.05184
G1 X97.186 Y121.62 E1.33093
G1 X97.517 Y122.79 E0.04824
G1 X100.79 Y128.127 E0.24837
G1 X101.691 Y128.957 E0.04857
G1 X102.331 Y129.207 E0.02726
G1 X102.999 Y129.321 E0.0269
G1 X110.592 Y129.327 E0.30119
G1 X146.773 Y129.326 E1.43529
M73 P1 R41
G1 X147.74 Y129.188 E0.03876
G1 X148.31 Y128.957 E0.02438
G1 X149.21 Y128.127 E0.04854
G1 X152.483 Y122.79 E0.24837
G1 X152.814 Y121.62 E0.04824
G1 X152.814 Y88.069 E1.33093
G1 X152.432 Y86.819 E0.05184
G1 X149.807 Y82.919 E0.18649
G1 X148.033 Y81.086 E0.10119
G1 X146.45 Y80.431 E0.06797
G1 X103.55 Y80.431 E1.70181
G1 X101.967 Y81.086 E0.06797
G1 X100.235 Y82.876 E0.09881
;WIPE_START
G1 F8640
M204 S1250
G1 X98.391 Y85.603 E-0.76
;WIPE_END
G1 E-0.04 F2100
G1 Z0.6 F10800
; printing object cable_clip_vertical.stl id:0 copy 0
EXCLUDE_OBJECT_START NAME=cable_clip_vertical_stl_id_0_copy_0
; acceleration to travel
M204 S1500
G1 X118.383 Y100.008
; decel to extrusion
M204 S1000
G1 X123.241 Y103.509
; end travel
G1 Z0.2
G1 E0.8 F2100
;TYPE:Internal perimeter
;WIDTH:0.377079
G1 F1200
G1 X123.216 Y104.018 E0.01415
G1 X123.234 Y104.832 E0.02262
G1 X123.366 Y105.065 E0.00744
G1 X123.539 Y105.19 E0.00594
G1 X123.779 Y105.243 E0.00681
G1 X126.221 Y105.243 E0.06787
G1 X126.455 Y105.193 E0.00666
G1 X126.634 Y105.065 E0.00609
G1 X126.766 Y104.832 E0.00744
G1 X126.787 Y104.675 E0.0044
G1 X126.784 Y104.018 E0.01826
G1 X126.759 Y103.509 E0.01415
G1 X127.083 Y103.894 E0.01398
G1 X127.759 Y104.576 E0.02668
G1 X127.987 Y104.716 E0.00744
G1 X128.16 Y104.744 E0.00489
G1 X131.72 Y104.744 E0.0989
G1 X131.738 Y104.767 E0.00082
G1 X128.541 Y109.979 E0.16991
G1 X127.99 Y109.812 E0.01598
G1 X127.082 Y109.604 E0.0259
G1 X126.06 Y109.464 E0.02866
G1 X125.527 Y109.425 E0.01484
G1 X124.163 Y109.444 E0.0379
G1 X124.038 Y109.456 E0.00348
G1 X123.026 Y109.586 E0.02835
G1 X122.264 Y109.746 E0.02164
G1 X121.461 Y109.982 E0.02326
G1 X118.265 Y104.771 E0.16985
G1 X118.262 Y104.744 E0.00077
G1 X121.84 Y104.744 E0.0994
G1 X122.013 Y104.716 E0.00489
G1 X122.241 Y104.576 E0.00744
G1 X122.917 Y103.894 E0.02668
G1 X123.203 Y103.555 E0.01231
;WIPE_START
G1 F8640
M204 S1250
G1 X123.216 Y104.018 E-0.10693
G1 X123.234 Y104.832 E-0.18802
G1 X123.366 Y105.065 E-0.06183
G1 X123.539 Y105.19 E-0.04933
G1 X123.779 Y105.243 E-0.05659
G1 X125.066 Y105.243 E-0.29729
;WIPE_END
G1 E-0.04 F2100
G1 Z0.6 F10800
; acceleration to travel
M204 S1500
G1 X126.449 Y101.241
; decel to extrusion
M204 S1000
G1 X126.785 Y100.268
; end travel
G1 Z0.2
G1 E0.8 F2100
G1 F1200
G1 X126.787 Y99.663 E0.0168
G1 X126.842 Y99.434 E0.00656
G1 X127.009 Y99.347 E0.00524
G1 X127.651 Y99.345 E0.01784
G1 X128.713 Y100.407 E0.04173
G1 X128.713 Y101.371 E0.02681
G1 X127.703 Y101.396 E0.02808
G1 X126.763 Y101.478 E0.02621
G1 X126.783 Y101.029 E0.01249
G1 X126.785 Y100.328 E0.01947
;WIPE_START
G1 F8640
M204 S1250
G1 X126.787 Y99.663 E-0.15347
G1 X126.842 Y99.434 E-0.0545
G1 X127.009 Y99.347 E-0.04355
G1 X127.651 Y99.345 E-0.14822
G1 X128.713 Y100.407 E-0.3468
G1 X128.713 Y100.465 E-0.01345
;WIPE_END
G1 E-0.04 F2100
G1 Z0.6 F10800
; acceleration to travel
M204 S1500
G1 X122.739 Y100.418
; decel to extrusion
M204 S1000
G1 X121.287 Y100.407
; end travel
G1 Z0.2
G1 E0.8 F2100
G1 F1200
G1 X122.349 Y99.345 E0.04173
G1 X122.959 Y99.347 E0.01694
G1 X123.131 Y99.404 E0.00505
G1 X123.213 Y99.616 E0.0063
G1 X123.217 Y101.029 E0.03926
G1 X123.257 Y101.554 E0.01465
G1 X123.164 Y101.46 E0.00368
G1 X122.509 Y101.399 E0.01827
G1 X121.988 Y101.374 E0.0145
G1 X121.287 Y101.371 E0.01946
G1 X121.287 Y100.467 E0.02514
G1 X120.91 Y100.251 F10800
;TYPE:External perimeter
G1 F1200
G1 X122.193 Y98.967 E0.05043
G1 X122.605 Y98.969 E0.01144
G1 X123.159 Y99.002 E0.01541
G1 X123.408 Y99.137 E0.00789
G1 X123.552 Y99.36 E0.00736
G1 X123.59 Y99.583 E0.00627
G1 X123.594 Y100.777 E0.03319
G1 X123.619 Y101.352 E0.016
G1 X123.644 Y101.666 E0.00874
G1 X123.669 Y101.979 E0.00874
G1 X123.676 Y102.498 E0.01441
G1 X123.661 Y102.778 E0.0078
G1 X123.646 Y103.059 E0.0078
G1 X123.62 Y103.511 E0.01259
G1 X123.594 Y103.963 E0.01259
G1 X123.59 Y104.677 E0.01983
G1 X123.641 Y104.807 E0.00388
G1 X123.779 Y104.866 E0.00416
G1 X126.221 Y104.866 E0.06787
G1 X126.331 Y104.831 E0.00321
G1 X126.41 Y104.677 E0.00481
G1 X126.406 Y103.955 E0.02005
G1 X126.38 Y103.507 E0.01248
G1 X126.354 Y103.059 E0.01248
G1 X126.339 Y102.772 E0.00797
G1 X126.325 Y102.485 E0.00797
G1 X126.354 Y102.007 E0.01331
G1 X126.383 Y101.53 E0.01331
G1 X126.406 Y101.028 E0.01396
G1 X126.41 Y99.662 E0.03794
G1 X126.473 Y99.302 E0.01016
G1 X126.672 Y99.082 E0.00824
G1 X126.959 Y98.97 E0.00855
G1 X127.807 Y98.967 E0.02356
G1 X129.09 Y100.251 E0.05043
G1 X129.09 Y101.747 E0.04159
G1 X128.033 Y101.751 E0.02937
G1 X127.73 Y101.772 E0.00842
G1 X126.823 Y101.846 E0.02529
G1 X126.708 Y102.023 E0.00585
G1 X126.707 Y102.403 E0.01057
G1 X126.705 Y102.784 E0.01057
G1 X126.726 Y102.844 E0.00176
G1 X126.746 Y102.904 E0.00176
G1 X127.351 Y103.628 E0.02622
G1 X128.026 Y104.311 E0.02668
G1 X128.16 Y104.366 E0.00403
G1 X132.115 Y104.366 E0.10988
G1 X132.115 Y104.873 E0.01408
G1 X128.709 Y110.425 E0.18098
G1 X127.905 Y110.179 E0.02336
G1 X127.027 Y109.977 E0.02504
G1 X126.139 Y109.848 E0.02494
G1 X125.535 Y109.802 E0.01684
G1 X124.168 Y109.821 E0.03797
G1 X124.085 Y109.83 E0.00233
G1 X123.103 Y109.955 E0.0275
G1 X122.37 Y110.108 E0.02079
G1 X121.29 Y110.425 E0.03127
G1 X117.885 Y104.873 E0.18096
G1 X117.885 Y104.366 E0.01408
G1 X121.84 Y104.366 E0.10988
G1 X121.898 Y104.357 E0.00163
G1 X122.187 Y104.095 E0.01085
G1 X122.679 Y103.594 E0.01952
G1 X122.966 Y103.249 E0.01248
G1 X123.254 Y102.904 E0.01248
G1 X123.295 Y102.784 E0.00352
G1 X123.298 Y102.024 E0.0211
G1 X123.213 Y101.93 E0.00353
G1 X123.128 Y101.835 E0.00353
G1 X122.491 Y101.775 E0.01779
G1 X121.986 Y101.751 E0.01403
G1 X120.91 Y101.747 E0.0299
G1 X120.91 Y100.311 E0.03992
;WIPE_START
M204 S1250
G1 X121.31 Y100.251 F10800
;WIPE_END
;WIPE_START
G1 F8640
G1 X122.276 Y99.167 E-0.33513
G1 X122.599 Y99.169 E-0.07458
G1 X123.102 Y99.199 E-0.11642
G1 X123.268 Y99.289 E-0.04349
G1 X123.361 Y99.434 E-0.04
G1 X123.39 Y99.6 E-0.03884
G1 X123.392 Y100.083 E-0.11154
;WIPE_END
G1 E-0.04 F2100
G1 Z0.6 F10800
M204 S1000
G1 X123.101 Y100.237
G1 Z0.2
G1 E0.8 F2100
;TYPE:Solid infill
;WIDTH:0.44664
G1 F1200
G1 X122.485 Y99.62 E0.02909
G1 X122.463 Y99.62 E0.00073
G1 X122.207 Y99.876 E0.01206
G1 X122.946 Y100.615 E0.03485
G1 X122.956 Y101.158 E0.01811
G1 X121.94 Y100.143 E0.04789
G1 X121.674 Y100.409 E0.01257
G1 X122.39 Y101.126 E0.03378
G1 X122.025 Y101.1 E0.01219
G1 X121.83 Y101.099 E0.00652
G1 X121.4 Y100.669 E0.02026
;WIPE_START
G1 F8640
M204 S1250
G1 X121.83 Y101.099 E-0.14028
G1 X122.025 Y101.1 E-0.04514
G1 X122.39 Y101.126 E-0.08444
G1 X121.674 Y100.409 E-0.23391
G1 X121.94 Y100.143 E-0.08707
G1 X122.458 Y100.661 E-0.16917
;WIPE_END
G1 E-0.04 F2100
G1 Z0.6 F10800
; acceleration to travel
M204 S1500
G1 X126.408 Y99.696
; decel to extrusion
M204 S1000
G1 X127.368 Y99.462
; end travel
G1 Z0.2
