; generated by SuperSlicer 2.3.57 on 2022-05-24 at 20:00:25 UTC

; 

; external perimeters extrusion width = 0.45mm
; perimeters extrusion width = 0.45mm
; infill extrusion width = 0.45mm
; solid infill extrusion width = 0.45mm
; top infill extrusion width = 0.40mm
; first layer extrusion width = 0.42mm

; object:{"name":"Calibration Flower v7","id":"Calibration Flower v7.stl id:0 copy 0","object_center":[125.000000,105.000000,0.000000],"boundingbox_center":[125.000000,105.000000,2.500000],"boundingbox_size":[110.000000,110.000000,5.000000]}
; Total objects to print: 1
M486 T1
; plater:{"center":[125.000000,105.000000,0.000000],"boundingbox_center":[125.000000,105.000000,2.500000],"boundingbox_size":[110.000000,110.000000,5.000000]}

M73 P0 R100
M73 Q0 S101
;TYPE:Custom
M104 S0
M140 S0
PRINT_START EXTRUDER_TEMP=245 BED_TEMP=85
M107
G21 ; set units to millimeters
G90 ; use absolute coordinates
M83 ; use relative distances for extrusion
M900 K0.08 ; Filament gcode LA 1.5
M900 K45 ; Filament gcode LA 1.0
M107
;LAYER_CHANGE
;Z:0.2
;HEIGHT:0.2
;BEFORE_LAYER_CHANGE
G92 E0.0
;0.2


G1 E-1 F2100
G1 Z0.2 F10800
G1 Z0.2
;AFTER_LAYER_CHANGE
;0.2
G1 Z0.4
M204 P1500
G1 X76.859 Y76.859
G1 Z0.2
G1 E1 F2100
;TYPE:Skirt
;WIDTH:0.52
G1 F1200
G1 X73.688 Y80.03 E0.1779
G1 X73.226 Y80.707 E0.03251
G1 X68.037 Y104.432 E0.96342
G1 X68.025 Y128.403 E0.95088
G1 X68.157 Y129.152 E0.03021
G1 X68.594 Y129.884 E0.03381
G1 X70.583 Y131.868 E0.11145
G1 X100.18 Y156.449 E1.5262
G1 X100.707 Y156.774 E0.02456
G1 X124.432 Y161.963 E0.96342
G1 X148.403 Y161.975 E0.95088
G1 X149.11 Y161.857 E0.02847
G1 X149.571 Y161.64 E0.02019
G1 X149.973 Y161.322 E0.02034
G1 X181.324 Y129.971 E1.75882
G1 X181.787 Y129.291 E0.03266
G1 X181.975 Y128.408 E0.03582
G1 X181.964 Y104.437 E0.95088
G1 X176.795 Y80.758 E0.96147
G1 X176.451 Y80.183 E0.02659
G1 X151.854 Y50.567 E1.5272
G1 X149.719 Y48.46 E0.11899
G1 X149.094 Y48.137 E0.02789
G1 X148.396 Y48.025 E0.02804
G1 X124.423 Y48.038 E0.95102
G1 X100.714 Y53.223 E0.96275
G1 X100.024 Y53.693 E0.03309
G1 X76.901 Y76.816 E1.29724
; INIT printing object Calibration Flower v7.stl id:0 copy 0
M104 S245 ; set temperature
;WIPE_START
G1 F8640
M204 P1000
G1 X73.992 Y79.725 E-0.95
;WIPE_END
G1 E-0.05 F2100
G1 Z0.4 F10800
; printing object Calibration Flower v7.stl id:0 copy 0
M486 S0
M204 P1500
G1 X100.075 Y96.701
M204 P1000
G1 X126.158 Y113.677
G1 Z0.2
G1 E1 F2100
;TYPE:Internal perimeter
;WIDTH:0.42
G1 F1200
G1 X126.158 Y131.411 E0.55605
G1 X147.812 Y131.411 E0.67896
G1 X148.84 Y131.378 E0.03225
G1 X149.304 Y131.322 E0.01464
G1 X149.249 Y131.78 E0.01445
G1 X149.216 Y132.797 E0.03191
G1 X149.215 Y145.116 E0.38626
G1 X150.187 Y145.519 E0.03298
G1 X165.519 Y130.187 E0.67984
G1 X165.116 Y129.215 E0.03298
G1 X153.296 Y129.215 E0.37061
G1 X152.298 Y129.221 E0.03129
G1 X151.774 Y129.249 E0.01648
G1 X151.322 Y129.304 E0.01425
G1 X151.378 Y128.84 E0.01464
G1 X151.411 Y127.812 E0.03225
G1 X151.411 Y106.158 E0.67896
G1 X133.677 Y106.158 E0.55605
G1 X133.677 Y112.461 E0.19765
G1 X132.461 Y113.677 E0.05388
G1 X126.218 Y113.677 E0.19577
M204 P1500
G1 X126.376 Y113.865 F10800
M204 P1000
G1 X126.535 Y114.054
;TYPE:External perimeter
G1 F1200
G1 X126.535 Y131.034 E0.53241
M73 P0 R99
G1 X147.806 Y131.034 E0.66695
G1 X148.812 Y131.002 E0.03155
G1 X149.433 Y130.927 E0.0196
G1 X150.927 Y129.433 E0.06628
G1 X151.002 Y128.812 E0.0196
G1 X151.034 Y127.806 E0.03155
G1 X151.034 Y106.535 E0.66695
G1 X134.054 Y106.535 E0.53241
G1 X134.054 Y112.618 E0.19072
G1 X132.618 Y114.054 E0.06367
G1 X126.595 Y114.054 E0.18884
;WIPE_START
G1 X126.135 Y114.054 F10800
;WIPE_END
;WIPE_START
G1 F8640
G1 X126.183 Y118.168 E-0.95
;WIPE_END
G1 E-0.05 F2100
G1 Z0.4 F10800
M204 P1500
G1 X137.941 Y124.681
M204 P1000
G1 X149.699 Y131.194
G1 Z0.2
G1 E1 F2100
G1 F1200
G1 X149.625 Y131.809 E0.01942
G1 X149.593 Y132.803 E0.0312
G1 X149.593 Y144.864 E0.37817
G1 X150.099 Y145.074 E0.01718
G1 X165.074 Y130.099 E0.66404
G1 X164.864 Y129.593 E0.01718
G1 X153.297 Y129.593 E0.36268
G1 X152.31 Y129.598 E0.03097
G1 X151.807 Y129.625 E0.0158
G1 X151.194 Y129.699 E0.01935
G1 X149.742 Y131.151 E0.06439
;WIPE_START
G1 X149.306 Y131.266 F10800
;WIPE_END
;WIPE_START
G1 F8640
G1 X149.425 Y131.794 E-0.12488
G1 X149.393 Y132.8 E-0.23256
G1 X149.393 Y135.366 E-0.59256
;WIPE_END
G1 E-0.05 F2100
G1 Z0.4 F10800
M204 P1500
G1 X151.56 Y131.133
M204 P1000
G1 X153.727 Y126.9
G1 Z0.2
G1 E1 F2100
;TYPE:Internal perimeter
G1 F1200
G1 X176.474 Y126.9 E0.71322
G1 X176.474 Y106.158 E0.65035
G1 X153.727 Y106.158 E0.71322
G1 X153.727 Y126.84 E0.64847
M204 P1500
G1 X153.915 Y126.681 F10800
M204 P1000
G1 X154.104 Y126.523
;TYPE:External perimeter
G1 F1200
G1 X176.097 Y126.523 E0.68957
G1 X176.097 Y106.535 E0.62671
G1 X154.104 Y106.535 E0.68957
G1 X154.104 Y126.463 E0.62483
;WIPE_START
G1 X154.104 Y126.923 F10800
;WIPE_END
;WIPE_START
G1 F8640
G1 X158.218 Y126.886 E-0.95
;WIPE_END
G1 E-0.05 F2100
G1 Z0.4 F10800
M204 P1500
G1 X156.161 Y115.364
M204 P1000
G1 X154.104 Y103.842
G1 Z0.2
G1 E1 F2100
;TYPE:Internal perimeter
G1 F1200
G1 X171.461 Y103.842 E0.54423
G1 X171.461 Y83.1 E0.65035
G1 X148.714 Y83.1 E0.71322
G1 X148.714 Y103.842 E0.65035
G1 X154.044 Y103.842 E0.16711
M204 P1500
G1 X154.044 Y103.654 F10800
M204 P1000
G1 X154.044 Y103.465
;TYPE:External perimeter
G1 F1200
G1 X171.084 Y103.465 E0.53429
M73 Q0 S100
G1 X171.084 Y83.477 E0.62671
G1 X149.091 Y83.477 E0.68957
G1 X149.091 Y103.465 E0.62671
G1 X153.984 Y103.465 E0.1534
;WIPE_START
G1 X154.244 Y103.812 F10800
;WIPE_END
;WIPE_START
G1 F8640
G1 X158.358 Y103.776 E-0.95
;WIPE_END
G1 E-0.05 F2100
G1 Z0.4 F10800
M204 P1500
G1 X156.301 Y92.28
M204 P1000
G1 X154.244 Y80.785
G1 Z0.2
G1 E1 F2100
;TYPE:Internal perimeter
G1 F1200
G1 X165.116 Y80.785 E0.3409
G1 X165.519 Y79.813 E0.03298
G1 X150.187 Y64.481 E0.67984
G1 X149.215 Y64.884 E0.03298
G1 X149.215 Y80.785 E0.49857
G1 X154.184 Y80.785 E0.15578
M204 P1500
G1 X154.184 Y80.596 F10800
M204 P1000
G1 X154.184 Y80.407
;TYPE:External perimeter
G1 F1200
G1 X164.864 Y80.407 E0.33489
G1 X165.074 Y79.901 E0.01718
G1 X150.099 Y64.926 E0.66404
G1 X149.593 Y65.136 E0.01718
G1 X149.593 Y80.407 E0.47884
G1 X154.124 Y80.407 E0.14208
;WIPE_START
M73 P1 R99
M73 Q1 S100
G1 X154.384 Y80.754 F10800
;WIPE_END
;WIPE_START
G1 F8640
G1 X158.498 Y80.697 E-0.95
;WIPE_END
G1 E-0.05 F2100
G1 Z0.4 F10800
M204 P1500
G1 X152.699 Y78.485
M204 P1000
G1 X146.9 Y76.273
G1 Z0.2
G1 E1 F2100
;TYPE:Internal perimeter
G1 F1200
G1 X146.9 Y53.526 E0.71322
G1 X126.158 Y53.526 E0.65035
G1 X126.158 Y76.273 E0.71322
G1 X146.84 Y76.273 E0.64847
M204 P1500
G1 X146.681 Y76.085 F10800
M204 P1000
G1 X146.523 Y75.896
;TYPE:External perimeter
G1 F1200
G1 X146.523 Y53.903 E0.68957
G1 X126.535 Y53.903 E0.62671
G1 X126.535 Y75.896 E0.68957
G1 X146.463 Y75.896 E0.62483
;WIPE_START
G1 X146.923 Y75.896 F10800
;WIPE_END
;WIPE_START
G1 F8640
G1 X146.886 Y71.782 E-0.95
;WIPE_END
G1 E-0.05 F2100
G1 Z0.4 F10800
M204 P1500
G1 X135.364 Y73.839
M204 P1000
G1 X123.842 Y75.896
G1 Z0.2
G1 E1 F2100
;TYPE:Internal perimeter
G1 F1200
G1 X123.842 Y58.539 E0.54423
G1 X103.1 Y58.539 E0.65035
G1 X103.1 Y79.995 E0.67274
G1 X104.391 Y81.286 E0.05725
G1 X123.842 Y81.286 E0.60987
G1 X123.842 Y75.956 E0.16711
M204 P1500
G1 X123.654 Y75.956 F10800
M204 P1000
G1 X123.465 Y75.956
;TYPE:External perimeter
G1 F1200
G1 X123.465 Y58.916 E0.53429
G1 X103.477 Y58.916 E0.62671
G1 X103.477 Y79.838 E0.65601
G1 X104.548 Y80.909 E0.04746
G1 X123.465 Y80.909 E0.59315
G1 X123.465 Y76.016 E0.1534
;WIPE_START
G1 X123.812 Y75.756 F10800
;WIPE_END
;WIPE_START
G1 F8640
G1 X123.776 Y71.642 E-0.95
;WIPE_END
G1 E-0.05 F2100
G1 Z0.4 F10800
M204 P1500
G1 X112.28 Y73.699
M204 P1000
G1 X100.785 Y75.756
G1 Z0.2
G1 E1 F2100
;TYPE:Internal perimeter
G1 F1200
G1 X100.785 Y64.884 E0.3409
G1 X99.813 Y64.481 E0.03298
G1 X99.094 Y65.2 E0.03189
G1 X84.481 Y79.813 E0.64795
G1 X84.884 Y80.785 E0.03298
G1 X100.785 Y80.785 E0.49857
G1 X100.785 Y75.816 E0.15578
M204 P1500
G1 X100.596 Y75.816 F10800
M204 P1000
G1 X100.407 Y75.816
;TYPE:External perimeter
G1 F1200
G1 X100.407 Y65.136 E0.33489
G1 X99.901 Y64.926 E0.01718
G1 X99.36 Y65.467 E0.02399
G1 X84.926 Y79.901 E0.64005
G1 X85.136 Y80.407 E0.01718
G1 X100.407 Y80.407 E0.47884
G1 X100.407 Y75.876 E0.14208
;WIPE_START
G1 X100.754 Y75.616 F10800
;WIPE_END
;WIPE_START
G1 F8640
G1 X100.697 Y71.502 E-0.95
;WIPE_END
G1 E-0.05 F2100
G1 Z0.4 F10800
M204 P1500
G1 X102.149 Y77.552
M204 P1000
G1 X103.601 Y83.601
G1 Z0.2
G1 E1 F2100
;TYPE:Internal perimeter
G1 F1200
G1 X103.601 Y103.842 E0.63464
G1 X116.323 Y103.842 E0.39889
G1 X116.323 Y97.539 E0.19765
G1 X117.539 Y96.323 E0.05388
G1 X123.842 Y96.323 E0.19765
G1 X123.842 Y83.601 E0.39889
G1 X103.661 Y83.601 E0.63276
M204 P1500
M73 P1 R98
G1 X103.82 Y83.79 F10800
M204 P1000
G1 X103.978 Y83.978
;TYPE:External perimeter
G1 F1200
G1 X103.978 Y103.465 E0.61099
G1 X115.946 Y103.465 E0.37524
G1 X115.946 Y97.382 E0.19072
G1 X117.382 Y95.946 E0.06367
G1 X123.465 Y95.946 E0.19072
G1 X123.465 Y83.978 E0.37524
G1 X104.038 Y83.978 E0.60911
;WIPE_START
G1 X103.578 Y83.978 F10800
;WIPE_END
;WIPE_START
G1 F8640
G1 X103.62 Y88.093 E-0.95
;WIPE_END
G1 E-0.05 F2100
G1 Z0.4 F10800
M204 P1500
G1 X103.599 Y97.125
M204 P1000
G1 X103.578 Y106.158
G1 Z0.2
G1 E1 F2100
;TYPE:Internal perimeter
G1 F1200
G1 X98.589 Y106.158 E0.15645
G1 X98.589 Y126.399 E0.63464
G1 X123.842 Y126.399 E0.7918
G1 X123.842 Y113.677 E0.39889
G1 X116.323 Y113.677 E0.23575
G1 X116.323 Y106.158 E0.23575
G1 X103.638 Y106.158 E0.39773
M204 P1500
G1 X103.638 Y106.346 F10800
M204 P1000
G1 X103.638 Y106.535
;TYPE:External perimeter
G1 F1200
G1 X98.966 Y106.535 E0.1465
G1 X98.966 Y126.022 E0.61099
G1 X123.465 Y126.022 E0.76816
G1 X123.465 Y114.054 E0.37524
G1 X115.946 Y114.054 E0.23575
G1 X115.946 Y106.535 E0.23575
G1 X103.698 Y106.535 E0.38402
;WIPE_START
G1 X103.438 Y106.188 F10800
;WIPE_END
;WIPE_START
G1 F8640
G1 X99.326 Y106.317 E-0.95
;WIPE_END
G1 E-0.05 F2100
G1 Z0.4 F10800
M204 P1500
G1 X101.382 Y117.516
M204 P1000
G1 X103.438 Y128.714
G1 Z0.2
G1 E1 F2100
;TYPE:Internal perimeter
G1 F1200
G1 X103.1 Y128.714 E0.01061
G1 X103.1 Y151.461 E0.71322
G1 X123.842 Y151.461 E0.65035
G1 X123.842 Y128.714 E0.71322
G1 X103.498 Y128.714 E0.63786
M204 P1500
G1 X103.498 Y128.903 F10800
M204 P1000
G1 X103.498 Y129.091
;TYPE:External perimeter
G1 F1200
G1 X103.477 Y129.091 E0.00067
G1 X103.477 Y151.084 E0.68957
G1 X123.465 Y151.084 E0.62671
M73 Q1 S99
G1 X123.465 Y129.091 E0.68957
G1 X103.558 Y129.091 E0.62416
;WIPE_START
G1 X103.488 Y129.073 F10800
;WIPE_END
;WIPE_START
G1 F8640
G1 X103.449 Y133.187 E-0.95
;WIPE_END
G1 E-0.05 F2100
G1 Z0.4 F10800
M204 P1500
G1 X102.117 Y131.201
M204 P1000
G1 X100.785 Y129.215
G1 Z0.2
G1 E1 F2100
;TYPE:Internal perimeter
G1 F1200
G1 X84.884 Y129.215 E0.49857
G1 X84.481 Y130.187 E0.03298
G1 X99.813 Y145.519 E0.67984
G1 X100.785 Y145.116 E0.03298
G1 X100.785 Y129.275 E0.49668
M204 P1500
G1 X100.596 Y129.434 F10800
M204 P1000
G1 X100.407 Y129.593
;TYPE:External perimeter
G1 F1200
G1 X85.136 Y129.593 E0.47884
G1 X84.926 Y130.099 E0.01718
G1 X99.901 Y145.074 E0.66404
G1 X100.407 Y144.864 E0.01718
G1 X100.407 Y129.653 E0.47696
;WIPE_START
G1 X100.407 Y129.193 F10800
;WIPE_END
;WIPE_START
G1 F8640
G1 X96.294 Y129.246 E-0.95
;WIPE_END
G1 E-0.05 F2100
G1 Z0.4 F10800
M204 P1500
G1 X96.283 Y128.073
M204 P1000
G1 X96.273 Y126.9
G1 Z0.2
G1 E1 F2100
;TYPE:Internal perimeter
G1 F1200
G1 X96.273 Y106.158 E0.65035
G1 X73.526 Y106.158 E0.71322
M73 P2 R98
G1 X73.526 Y126.9 E0.65035
M73 Q2 S99
G1 X96.213 Y126.9 E0.71134
M204 P1500
G1 X96.055 Y126.711 F10800
M204 P1000
G1 X95.896 Y126.523
;TYPE:External perimeter
G1 F1200
G1 X95.896 Y106.535 E0.62671
G1 X73.903 Y106.535 E0.68957
G1 X73.903 Y126.523 E0.62671
G1 X95.836 Y126.523 E0.68769
;WIPE_START
G1 X96.296 Y126.523 F10800
;WIPE_END
;WIPE_START
G1 F8640
G1 X96.255 Y122.409 E-0.95
;WIPE_END
G1 E-0.05 F2100
G1 Z0.4 F10800
M204 P1500
G1 X96.276 Y113.125
M204 P1000
G1 X96.296 Y103.842
G1 Z0.2
G1 E1 F2100
;TYPE:Internal perimeter
G1 F1200
G1 X101.286 Y103.842 E0.15645
G1 X101.286 Y84.391 E0.60987
G1 X99.995 Y83.1 E0.05725
G1 X78.539 Y83.1 E0.67274
G1 X78.539 Y103.842 E0.65035
G1 X96.236 Y103.842 E0.55489
M204 P1500
G1 X96.236 Y103.654 F10800
M204 P1000
G1 X96.236 Y103.465
;TYPE:External perimeter
G1 F1200
G1 X100.909 Y103.465 E0.1465
G1 X100.909 Y84.548 E0.59315
G1 X99.838 Y83.477 E0.04746
G1 X78.916 Y83.477 E0.65601
G1 X78.916 Y103.465 E0.62671
G1 X96.176 Y103.465 E0.54119
;WIPE_START
G1 X96.436 Y103.812 F10800
;WIPE_END
;WIPE_START
G1 F8640
G1 X100.548 Y103.683 E-0.95
;WIPE_END
G1 E-0.05 F2100
G1 Z0.4 F10800
M204 P1500
G1 X113.353 Y100.003
M204 P1000
G1 X126.158 Y96.323
G1 Z0.2
G1 E1 F2100
;TYPE:Internal perimeter
G1 F1200
G1 X133.677 Y96.323 E0.23575
G1 X133.677 Y103.842 E0.23575
G1 X146.399 Y103.842 E0.39889
G1 X146.399 Y78.589 E0.7918
G1 X126.158 Y78.589 E0.63464
G1 X126.158 Y96.263 E0.55417
M204 P1500
G1 X126.346 Y96.105 F10800
M204 P1000
G1 X126.535 Y95.946
;TYPE:External perimeter
G1 F1200
G1 X134.054 Y95.946 E0.23575
G1 X134.054 Y103.465 E0.23575
G1 X146.022 Y103.465 E0.37524
G1 X146.022 Y78.966 E0.76816
G1 X126.535 Y78.966 E0.61099
G1 X126.535 Y95.886 E0.53053
;WIPE_START
G1 X126.535 Y96.346 F10800
;WIPE_END
;WIPE_START
G1 F8640
G1 X130.648 Y96.234 E-0.95
;WIPE_END
G1 E-0.05 F2100
G1 Z0.4 F10800
M204 P1500
G1 X128.591 Y114.98
M204 P1000
G1 X126.535 Y133.727
G1 Z0.2
G1 E1 F2100
;TYPE:Internal perimeter
G1 F1200
G1 X126.158 Y133.727 E0.01182
G1 X126.158 Y156.474 E0.71322
G1 X146.9 Y156.474 E0.65035
M73 P2 R97
G1 X146.9 Y133.727 E0.71322
G1 X126.595 Y133.727 E0.63665
M204 P1500
G1 X126.595 Y133.915 F10800
M204 P1000
G1 X126.595 Y134.104
;TYPE:External perimeter
G1 F1200
G1 X126.535 Y134.104 E0.00188
G1 X126.535 Y156.097 E0.68957
G1 X146.523 Y156.097 E0.62671
G1 X146.523 Y134.104 E0.68957
G1 X126.655 Y134.104 E0.62294
;WIPE_START
G1 X126.565 Y134.052 F10800
;WIPE_END
;WIPE_START
G1 F8640
G1 X126.522 Y138.166 E-0.95
;WIPE_END
G1 E-0.05 F2100
G1 Z0.4 F10800
M204 P1500
G1 X125.182 Y145.971
M204 P1000
G1 X123.842 Y153.777
G1 Z0.2
G1 E1 F2100
;TYPE:Internal perimeter
G1 F1200
G1 X102 Y153.777 E0.68486
G1 X100.785 Y152.562 E0.05388
G1 X100.785 Y149.765 E0.08768
G1 X80.235 Y129.215 E0.91122
G1 X72.426 Y129.215 E0.24484
G1 X71.211 Y128 E0.05388
G1 X71.211 Y105.057 E0.71936
G1 X72.426 Y103.842 E0.05388
G1 X76.223 Y103.842 E0.11907
G1 X76.223 Y82 E0.68486
G1 X77.438 Y80.785 E0.05388
G1 X80.235 Y80.785 E0.08768
G1 X80.818 Y80.202 E0.02585
G1 X100.785 Y60.235 E0.88537
G1 X100.785 Y57.438 E0.08768
G1 X102 Y56.223 E0.05388
G1 X123.842 Y56.223 E0.68486
G1 X123.842 Y52.426 E0.11907
G1 X125.057 Y51.211 E0.05388
G1 X148 Y51.211 E0.71936
G1 X149.215 Y52.426 E0.05388
G1 X149.215 Y60.235 E0.24484
G1 X169.765 Y80.785 E0.91122
G1 X172.562 Y80.785 E0.08768
G1 X173.777 Y82 E0.05388
G1 X173.777 Y103.842 E0.68486
M73 Q2 S98
G1 X177.574 Y103.842 E0.11907
G1 X178.789 Y105.057 E0.05388
G1 X178.789 Y128 E0.71936
G1 X177.574 Y129.215 E0.05388
G1 X169.765 Y129.215 E0.24484
G1 X169.182 Y129.798 E0.02585
G1 X149.215 Y149.765 E0.88537
G1 X149.215 Y157.574 E0.24484
G1 X148 Y158.789 E0.05388
G1 X125.057 Y158.789 E0.71936
G1 X123.842 Y157.574 E0.05388
G1 X123.842 Y153.837 E0.11718
M204 P1500
G1 X123.654 Y153.995 F10800
M204 P1000
G1 X123.465 Y154.154
;TYPE:External perimeter
G1 F1200
G1 X101.843 Y154.154 E0.67793
G1 X100.407 Y152.718 E0.06367
G1 X100.407 Y149.922 E0.08768
G1 X80.078 Y129.593 E0.90143
G1 X72.27 Y129.593 E0.24484
G1 X70.834 Y128.157 E0.06367
G1 X70.834 Y104.901 E0.72916
G1 X72.27 Y103.465 E0.06367
G1 X75.846 Y103.465 E0.11214
G1 X75.846 Y81.843 E0.67793
M73 P3 R97
G1 X77.282 Y80.407 E0.06367
G1 X80.078 Y80.407 E0.08768
G1 X80.551 Y79.935 E0.02095
G1 X100.407 Y60.078 E0.88047
M73 Q3 S98
G1 X100.407 Y57.282 E0.08768
G1 X101.843 Y55.846 E0.06367
G1 X123.465 Y55.846 E0.67793
G1 X123.465 Y52.27 E0.11214
G1 X124.901 Y50.834 E0.06367
G1 X148.157 Y50.834 E0.72916
G1 X149.593 Y52.27 E0.06367
G1 X149.593 Y60.078 E0.24484
G1 X169.922 Y80.407 E0.90143
G1 X172.718 Y80.407 E0.08768
G1 X174.154 Y81.843 E0.06367
G1 X174.154 Y103.465 E0.67793
G1 X177.73 Y103.465 E0.11214
