; generated by SuperSlicer 2.5.59 on 2022-09-22 at 05:25:41 UTC

; 

; external perimeters extrusion width = 0.45mm
; perimeters extrusion width = 0.45mm
; infill extrusion width = 0.45mm
; solid infill extrusion width = 0.45mm
; top infill extrusion width = 0.40mm
; first layer extrusion width = 0.42mm

; object:{"name":"Calibration Flower v7","id":"Calibration Flower v7.stl id:0 copy 0","object_center":[125.000000,105.000000,0.000000],"boundingbox_center":[125.000000,105.000000,2.500000],"boundingbox_size":[110.000000,110.000000,5.000000]}
; plater:{"center":[125.000000,105.000000,0.000000],"boundingbox_center":[125.000000,105.000000,2.500000],"boundingbox_size":[110.000000,110.000000,5.000000]}

M73 P0 R79


; Pre-Processed for Cancel-Object support by preprocess_cancellation v0.2.0
; 1 known objects
EXCLUDE_OBJECT_DEFINE NAME=Calibration_Flower_v7_stl_id_0_copy_0 CENTER=125.051,105.139 POLYGON=[[124.593,50.225],[101.593,55.225],[75.225,81.593],[70.225,104.593],[70.225,128.407],[72.093,130.275],[101.593,154.775],[124.593,159.775],[148.407,159.775],[179.775,128.407],[179.775,104.593],[174.775,81.593],[150.275,52.093],[148.407,50.225],[124.593,50.225]]
;TYPE:Custom
Start : M104 S0
M140 S0
PRINT_START EXTRUDER_TEMP=215 BED_TEMP=60
M107
G21 ; set units to millimeters
G90 ; use absolute coordinates
M83 ; use relative distances for extrusion
M900 K0.05 ; Filament gcode LA 1.5
M900 K30 ; Filament gcode LA 1.0
;_TOOLCHANGE 0
M104 S215 ; set temperature
M109 S215 ; set temperature and wait for it to be reached
M107
;LAYER_CHANGE
;Z:0.2
;HEIGHT:0.2
;BEFORE_LAYER_CHANGE
G92 E0.0
;0.2


G1 E-0.8 F2100
M73 P0 R78
G1 Z0.4 F10800
;AFTER_LAYER_CHANGE
;0.2
G1 Z0.6
M204 S1000
G1 X76.95 Y76.95
G1 Z0.2
G1 E0.8 F2100
;TYPE:Skirt
;WIDTH:0.52
G1 F1200
G1 X73.817 Y80.083 E0.17576
G1 X73.213 Y81.19 E0.05005
G1 X68.161 Y104.666 E0.95257
G1 X68.161 Y128.334 E0.93892
G1 X68.817 Y129.917 E0.06797
G1 X70.735 Y131.822 E0.10724
G1 X100.235 Y156.322 E1.5212
G1 X101.19 Y156.787 E0.04213
G1 X124.666 Y161.839 E0.95257
G1 X148.334 Y161.839 E0.93892
G1 X149.917 Y161.183 E0.06797
G1 X181.183 Y129.917 E1.75403
G1 X181.839 Y128.334 E0.06797
G1 X181.839 Y104.666 E0.93892
G1 X176.787 Y81.19 E0.95257
G1 X176.322 Y80.235 E0.04213
G1 X151.822 Y50.735 E1.5212
G1 X149.917 Y48.817 E0.10724
G1 X148.334 Y48.161 E0.06797
G1 X124.666 Y48.161 E0.93892
G1 X101.19 Y53.213 E0.95257
G1 X100.083 Y53.817 E0.05005
G1 X76.992 Y76.908 E1.29539
;WIPE_START
G1 F8640
M204 S1250
G1 X74.665 Y79.235 E-0.76
;WIPE_END
G1 E-0.04 F2100
G1 Z0.6 F10800
; printing object Calibration Flower v7.stl id:0 copy 0
EXCLUDE_OBJECT_START NAME=Calibration_Flower_v7_stl_id_0_copy_0
; acceleration to travel
M204 S1500
G1 X76.992 Y80.532
; decel to extrusion
M204 S1000
G1 X77.558 Y80.847
; end travel
G1 Z0.2
G1 E0.8 F2100
;TYPE:Internal perimeter
;WIDTH:0.377079
G1 F1200
G1 X79.219 Y80.847 E0.04614
G1 X80.211 Y80.839 E0.02757
G1 X80.513 Y80.681 E0.00946
G1 X100.681 Y60.513 E0.79251
G1 X100.801 Y60.338 E0.00589
G1 X100.847 Y60.113 E0.00637
G1 X100.847 Y57.558 E0.07099
G1 X102.058 Y56.347 E0.04758
G1 X123.281 Y56.347 E0.5897
G1 X123.48 Y56.311 E0.00561
G1 X123.621 Y56.234 E0.00446
G1 X123.781 Y56.048 E0.00682
G1 X123.847 Y55.781 E0.00762
G1 X123.847 Y52.558 E0.08957
G1 X125.058 Y51.347 E0.04758
G1 X147.942 Y51.347 E0.63584
G1 X149.153 Y52.558 E0.04758
G1 X149.153 Y60.113 E0.20992
G1 X149.161 Y60.211 E0.00273
G1 X149.319 Y60.513 E0.00946
G1 X169.487 Y80.681 E0.79251
G1 X169.662 Y80.801 E0.00589
G1 X169.887 Y80.847 E0.00637
G1 X172.442 Y80.847 E0.07099
G1 X173.653 Y82.058 E0.04758
G1 X173.653 Y103.281 E0.5897
G1 X173.655 Y103.331 E0.00137
G1 X173.766 Y103.621 E0.00863
G1 X173.952 Y103.781 E0.00682
G1 X174.219 Y103.847 E0.00762
G1 X177.442 Y103.847 E0.08957
M73 P1 R78
G1 X178.653 Y105.058 E0.04758
G1 X178.653 Y127.942 E0.63584
G1 X177.442 Y129.153 E0.04758
G1 X169.887 Y129.153 E0.20992
G1 X169.789 Y129.161 E0.00273
G1 X169.487 Y129.319 E0.00946
G1 X149.319 Y149.487 E0.79251
G1 X149.199 Y149.662 E0.00589
G1 X149.153 Y149.887 E0.00637
G1 X149.153 Y157.442 E0.20992
G1 X147.942 Y158.653 E0.04758
G1 X125.058 Y158.653 E0.63584
G1 X123.847 Y157.442 E0.04758
G1 X123.847 Y154.219 E0.08957
G1 X123.781 Y153.952 E0.00762
G1 X123.621 Y153.766 E0.00682
G1 X123.48 Y153.689 E0.00446
G1 X123.281 Y153.653 E0.00561
G1 X102.058 Y153.653 E0.5897
G1 X100.847 Y152.442 E0.04758
G1 X100.847 Y149.887 E0.07099
G1 X100.801 Y149.662 E0.00637
G1 X100.681 Y149.487 E0.00589
G1 X80.513 Y129.319 E0.79251
G1 X80.338 Y129.199 E0.00589
G1 X80.113 Y129.153 E0.00637
G1 X72.558 Y129.153 E0.20992
G1 X71.347 Y127.942 E0.04758
G1 X71.347 Y105.058 E0.63584
G1 X72.558 Y103.847 E0.04758
G1 X75.781 Y103.847 E0.08957
G1 X76.048 Y103.781 E0.00762
G1 X76.234 Y103.621 E0.00682
G1 X76.311 Y103.48 E0.00446
G1 X76.347 Y103.281 E0.00561
G1 X76.347 Y82.058 E0.5897
G1 X77.516 Y80.89 E0.04591
G1 X77.402 Y80.47 F10800
;TYPE:External perimeter
G1 F1200
G1 X80.113 Y80.47 E0.07533
G1 X80.246 Y80.415 E0.00401
G1 X100.415 Y60.246 E0.79251
G1 X100.47 Y60.113 E0.00401
G1 X100.47 Y57.402 E0.07533
G1 X101.902 Y55.97 E0.05626
G1 X123.281 Y55.97 E0.59404
G1 X123.395 Y55.932 E0.00331
G1 X123.47 Y55.781 E0.00469
G1 X123.47 Y52.402 E0.09391
G1 X124.902 Y50.97 E0.05626
G1 X148.098 Y50.97 E0.64452
G1 X149.53 Y52.402 E0.05626
G1 X149.53 Y60.113 E0.21426
G1 X149.585 Y60.246 E0.00401
G1 X169.754 Y80.415 E0.79251
G1 X169.887 Y80.47 E0.00401
G1 X172.598 Y80.47 E0.07533
G1 X174.03 Y81.902 E0.05626
G1 X174.03 Y103.281 E0.59404
M73 P1 R77
G1 X174.068 Y103.395 E0.00331
G1 X174.219 Y103.47 E0.00469
G1 X177.598 Y103.47 E0.09391
G1 X179.03 Y104.902 E0.05626
G1 X179.03 Y128.098 E0.64452
G1 X177.598 Y129.53 E0.05626
G1 X169.887 Y129.53 E0.21426
G1 X169.754 Y129.585 E0.00401
G1 X149.585 Y149.754 E0.79251
G1 X149.53 Y149.887 E0.00401
G1 X149.53 Y157.598 E0.21426
G1 X148.098 Y159.03 E0.05626
G1 X124.902 Y159.03 E0.64452
G1 X123.47 Y157.598 E0.05626
G1 X123.47 Y154.219 E0.09391
G1 X123.395 Y154.068 E0.00469
G1 X123.281 Y154.03 E0.00331
G1 X101.902 Y154.03 E0.59404
G1 X100.47 Y152.598 E0.05626
G1 X100.47 Y149.887 E0.07533
G1 X100.415 Y149.754 E0.00401
G1 X80.246 Y129.585 E0.79251
G1 X80.113 Y129.53 E0.00401
G1 X72.402 Y129.53 E0.21426
G1 X70.97 Y128.098 E0.05626
G1 X70.97 Y104.902 E0.64452
G1 X72.402 Y103.47 E0.05626
G1 X75.781 Y103.47 E0.09391
G1 X75.932 Y103.395 E0.00469
G1 X75.97 Y103.281 E0.00331
G1 X75.97 Y81.902 E0.59404
G1 X77.359 Y80.512 E0.05459
;WIPE_START
M204 S1250
G1 X77.685 Y80.753 F10800
;WIPE_END
;WIPE_START
G1 F8640
G1 X80.153 Y80.67 E-0.57023
G1 X80.36 Y80.584 E-0.05169
G1 X80.782 Y80.161 E-0.13808
;WIPE_END
G1 E-0.04 F2100
G1 Z0.6 F10800
; acceleration to travel
M204 S1500
G1 X135.407 Y82.944
; decel to extrusion
M204 S1000
G1 X148.68 Y83.621
; end travel
G1 Z0.2
G1 E0.8 F2100
;TYPE:Internal perimeter
G1 F1200
G1 X148.653 Y83.719 E0.00283
G1 X148.653 Y103.281 E0.54356
G1 X148.655 Y103.331 E0.00137
G1 X148.766 Y103.621 E0.00863
G1 X148.952 Y103.781 E0.00682
G1 X149.219 Y103.847 E0.00762
G1 X170.781 Y103.847 E0.59913
G1 X170.879 Y103.839 E0.00273
G1 X171.048 Y103.781 E0.00495
G1 X171.234 Y103.621 E0.00682
G1 X171.311 Y103.48 E0.00446
G1 X171.347 Y103.281 E0.00561
G1 X171.347 Y83.719 E0.54356
G1 X171.24 Y83.388 E0.00965
G1 X171.112 Y83.26 E0.00505
G1 X170.781 Y83.153 E0.00965
G1 X149.219 Y83.153 E0.59913
G1 X148.923 Y83.236 E0.00852
G1 X148.735 Y83.425 E0.0074
G1 X148.697 Y83.563 E0.00399
G1 X149.03 Y83.719 F10800
;TYPE:External perimeter
G1 F1200
G1 X149.03 Y103.281 E0.54356
G1 X149.068 Y103.395 E0.00331
G1 X149.219 Y103.47 E0.00469
G1 X170.781 Y103.47 E0.59913
G1 X170.814 Y103.467 E0.00091
G1 X170.932 Y103.395 E0.00386
G1 X170.97 Y103.281 E0.00331
G1 X170.97 Y83.719 E0.54356
G1 X170.934 Y83.608 E0.00322
G1 X170.781 Y83.53 E0.00478
G1 X149.719 Y83.53 E0.58524
G1 X149.12 Y83.558 E0.01664
G1 X149.059 Y83.666 E0.00346
;WIPE_START
M204 S1250
G1 X149.338 Y83.974 F10800
;WIPE_END
;WIPE_START
G1 F8640
G1 X149.251 Y87.265 E-0.76
;WIPE_END
G1 E-0.04 F2100
G1 Z0.6 F10800
; acceleration to travel
M204 S1500
G1 X153.176 Y102.478
; decel to extrusion
M204 S1000
G1 X154.13 Y106.175
; end travel
G1 Z0.2
G1 E0.8 F2100
;TYPE:Internal perimeter
G1 F1200
G1 X153.952 Y106.219 E0.00508
G1 X153.766 Y106.379 E0.00682
G1 X153.689 Y106.52 E0.00446
G1 X153.653 Y106.719 E0.00561
G1 X153.653 Y126.281 E0.54356
G1 X153.661 Y126.379 E0.00273
G1 X153.819 Y126.682 E0.00949
G1 X153.994 Y126.801 E0.00588
G1 X154.219 Y126.847 E0.00636
G1 X175.781 Y126.847 E0.59913
G1 X175.879 Y126.839 E0.00273
G1 X176.112 Y126.74 E0.00702
G1 X176.24 Y126.612 E0.00505
G1 X176.347 Y126.281 E0.00965
G1 X176.347 Y106.719 E0.54356
G1 X176.24 Y106.388 E0.00965
G1 X176.112 Y106.26 E0.00505
G1 X175.781 Y106.153 E0.00965
G1 X154.219 Y106.153 E0.59913
G1 X154.188 Y106.161 E0.00087
G1 X154.219 Y106.53 F10800
;TYPE:External perimeter
G1 F1200
G1 X154.068 Y106.605 E0.00469
G1 X154.03 Y106.719 E0.00331
G1 X154.03 Y126.281 E0.54356
G1 X154.085 Y126.415 E0.00402
G1 X154.219 Y126.47 E0.004
G1 X175.781 Y126.47 E0.59913
G1 X175.814 Y126.467 E0.00091
G1 X175.892 Y126.434 E0.00234
G1 X175.97 Y126.281 E0.00478
G1 X175.97 Y106.719 E0.54356
G1 X175.934 Y106.608 E0.00322
G1 X175.781 Y106.53 E0.00478
G1 X154.279 Y106.53 E0.59747
;WIPE_START
M204 S1250
M73 P2 R77
G1 X154.133 Y106.921 F10800
;WIPE_END
;WIPE_START
G1 F8640
G1 X154.082 Y110.212 E-0.76
;WIPE_END
G1 E-0.04 F2100
G1 Z0.6 F10800
; acceleration to travel
M204 S1500
G1 X154.2 Y125.454
; decel to extrusion
M204 S1000
G1 X154.228 Y129.157
; end travel
G1 Z0.2
G1 E0.8 F2100
;TYPE:Internal perimeter
G1 F1200
G1 X152.696 Y129.158 E0.04257
G1 X152.196 Y129.161 E0.0139
G1 X151.257 Y129.246 E0.02619
G1 X151.328 Y128.342 E0.0252
G1 X151.347 Y127.746 E0.01655
G1 X151.347 Y106.719 E0.58426
G1 X151.311 Y106.52 E0.00561
G1 X151.234 Y106.379 E0.00446
G1 X151.048 Y106.219 E0.00682
G1 X150.781 Y106.153 E0.00762
G1 X134.219 Y106.153 E0.46021
G1 X133.988 Y106.202 E0.00656
G1 X133.842 Y106.297 E0.00484
G1 X133.725 Y106.442 E0.00518
G1 X133.653 Y106.719 E0.00793
G1 X133.653 Y112.442 E0.15903
G1 X132.442 Y113.653 E0.04758
G1 X126.719 Y113.653 E0.15903
G1 X126.636 Y113.659 E0.00229
G1 X126.38 Y113.765 E0.0077
G1 X126.202 Y113.988 E0.00792
G1 X126.153 Y114.219 E0.00656
G1 X126.153 Y130.781 E0.46021
G1 X126.219 Y131.048 E0.00762
G1 X126.379 Y131.234 E0.00682
G1 X126.52 Y131.311 E0.00446
G1 X126.719 Y131.347 E0.00561
G1 X146.993 Y131.347 E0.56334
G1 X147.765 Y131.346 E0.02143
G1 X148.757 Y131.314 E0.02758
G1 X149.242 Y131.257 E0.01359
G1 X149.186 Y131.743 E0.0136
G1 X149.153 Y132.737 E0.02762
G1 X149.153 Y144.64 E0.33072
G1 X149.206 Y144.88 E0.00683
G1 X149.34 Y145.06 E0.00624
G1 X149.502 Y145.162 E0.00532
G1 X149.962 Y145.318 E0.01349
G1 X150.184 Y145.285 E0.00624
G1 X150.392 Y145.153 E0.00683
G1 X165.153 Y130.392 E0.58002
G1 X165.285 Y130.184 E0.00683
G1 X165.318 Y129.962 E0.00624
G1 X165.275 Y129.776 E0.00532
G1 X165.06 Y129.34 E0.0135
G1 X164.879 Y129.206 E0.00624
G1 X164.64 Y129.153 E0.00683
G1 X154.288 Y129.157 E0.28762
G1 X154.228 Y129.534 F10800
;TYPE:External perimeter
G1 F1200
G1 X152.759 Y129.535 E0.04082
G1 X152.23 Y129.536 E0.01471
G1 X151.199 Y129.63 E0.02877
G1 X151.082 Y129.684 E0.00357
G1 X149.684 Y131.082 E0.05495
G1 X149.63 Y131.193 E0.00343
G1 X149.562 Y131.756 E0.01574
G1 X149.53 Y132.737 E0.02728
G1 X149.53 Y144.64 E0.33072
G1 X149.592 Y144.78 E0.00426
G1 X149.982 Y144.941 E0.01172
G1 X150.125 Y144.886 E0.00426
G1 X164.886 Y130.125 E0.58002
G1 X164.941 Y129.982 E0.00426
G1 X164.78 Y129.592 E0.01172
G1 X164.64 Y129.53 E0.00426
G1 X154.288 Y129.534 E0.28761
;WIPE_START
M204 S1250
G1 X154.029 Y129.881 F10800
;WIPE_END
;WIPE_START
G1 F8640
G1 X152.759 Y129.335 E-0.31907
G1 X152.221 Y129.336 E-0.12433
G1 X151.696 Y129.384 E-0.12158
G1 X151.146 Y129.434 E-0.12764
G1 X150.966 Y129.518 E-0.04585
G1 X150.9 Y129.584 E-0.02153
;WIPE_END
G1 E-0.04 F2100
G1 Z0.6 F10800
M204 S1000
G1 X150.871 Y129.292
G1 Z0.2
G1 E0.8 F2100
G1 F1200
G1 X150.951 Y128.329 E0.02685
G1 X150.97 Y127.746 E0.01621
G1 X150.97 Y106.719 E0.58426
G1 X150.958 Y106.652 E0.00187
G1 X150.932 Y106.605 E0.00149
G1 X150.781 Y106.53 E0.00469
G1 X134.219 Y106.53 E0.46021
G1 X134.093 Y106.578 E0.00374
G1 X134.03 Y106.719 E0.00428
G1 X134.03 Y112.598 E0.16337
G1 X132.598 Y114.03 E0.05626
G1 X126.719 Y114.03 E0.16337
G1 X126.606 Y114.067 E0.0033
G1 X126.53 Y114.219 E0.0047
G1 X126.53 Y130.781 E0.46021
G1 X126.605 Y130.932 E0.00469
G1 X126.719 Y130.97 E0.00331
G1 X146.993 Y130.97 E0.56334
G1 X147.769 Y130.969 E0.02156
G1 X148.767 Y130.935 E0.02774
G1 X149.307 Y130.87 E0.01511
G1 X149.418 Y130.816 E0.00342
G1 X150.816 Y129.418 E0.05495
G1 X150.847 Y129.347 E0.00214
;WIPE_START
M204 S1250
G1 X150.57 Y129.029 F10800
;WIPE_END
;WIPE_START
G1 F8640
G1 X151.11 Y128.827 E-0.13319
G1 X151.151 Y128.341 E-0.11271
G1 X151.17 Y127.749 E-0.13662
G1 X151.17 Y126.115 E-0.37748
;WIPE_END
G1 E-0.04 F2100
G1 Z0.6 F10800
; acceleration to travel
M204 S1500
G1 X146.906 Y108.182
; decel to extrusion
M204 S1000
G1 X145.87 Y103.825
; end travel
G1 Z0.2
G1 E0.8 F2100
;TYPE:Internal perimeter
G1 F1200
G1 X146.048 Y103.781 E0.00508
G1 X146.234 Y103.621 E0.00682
G1 X146.311 Y103.48 E0.00446
G1 X146.347 Y103.281 E0.00561
G1 X146.347 Y79.219 E0.6686
G1 X146.307 Y79.009 E0.00592
G1 X146.202 Y78.84 E0.00553
G1 X145.943 Y78.676 E0.00852
G1 X145.781 Y78.653 E0.00452
G1 X126.719 Y78.653 E0.52967
G1 X126.669 Y78.655 E0.00137
G1 X126.379 Y78.766 E0.00863
G1 X126.219 Y78.952 E0.00682
G1 X126.153 Y79.219 E0.00762
G1 X126.153 Y95.781 E0.46021
G1 X126.202 Y96.012 E0.00656
G1 X126.38 Y96.235 E0.00792
G1 X126.442 Y96.275 E0.00205
G1 X126.719 Y96.347 E0.00793
G1 X133.653 Y96.347 E0.19267
G1 X133.653 Y103.281 E0.19267
G1 X133.659 Y103.364 E0.00229
G1 X133.765 Y103.62 E0.0077
G1 X133.988 Y103.798 E0.00792
G1 X134.219 Y103.847 E0.00656
G1 X145.781 Y103.847 E0.32128
G1 X145.812 Y103.839 E0.00087
G1 X145.781 Y103.47 F10800
;TYPE:External perimeter
G1 F1200
G1 X145.932 Y103.395 E0.00469
G1 X145.97 Y103.281 E0.00331
G1 X145.97 Y79.219 E0.6686
G1 X145.922 Y79.092 E0.00375
G1 X145.781 Y79.03 E0.00426
G1 X126.719 Y79.03 E0.52967
G1 X126.605 Y79.068 E0.00331
G1 X126.53 Y79.219 E0.00469
G1 X126.53 Y95.781 E0.46021
G1 X126.606 Y95.933 E0.0047
G1 X126.719 Y95.97 E0.0033
G1 X134.03 Y95.97 E0.20315
G1 X134.03 Y103.281 E0.20315
G1 X134.067 Y103.394 E0.0033
G1 X134.219 Y103.47 E0.0047
G1 X145.721 Y103.47 E0.31961
;WIPE_START
M204 S1250
G1 X145.867 Y103.079 F10800
;WIPE_END
;WIPE_START
G1 F8640
G1 X145.908 Y99.788 E-0.76
;WIPE_END
G1 E-0.04 F2100
G1 Z0.6 F10800
; acceleration to travel
M204 S1500
G1 X128.147 Y96.627
; decel to extrusion
M204 S1000
G1 X123.831 Y95.858
; end travel
G1 Z0.2
G1 E0.8 F2100
;TYPE:Internal perimeter
G1 F1200
G1 X123.847 Y95.781 E0.00219
G1 X123.847 Y84.219 E0.32128
G1 X123.781 Y83.952 E0.00762
G1 X123.621 Y83.766 E0.00682
G1 X123.48 Y83.689 E0.00446
G1 X123.281 Y83.653 E0.00561
G1 X104.219 Y83.653 E0.52967
G1 X103.937 Y83.728 E0.00809
G1 X103.728 Y83.937 E0.00823
G1 X103.653 Y84.219 E0.00809
G1 X103.653 Y103.281 E0.52967
G1 X103.655 Y103.331 E0.00137
G1 X103.766 Y103.621 E0.00863
G1 X103.952 Y103.781 E0.00682
G1 X104.219 Y103.847 E0.00762
G1 X115.781 Y103.847 E0.32128
G1 X116.012 Y103.798 E0.00656
G1 X116.158 Y103.703 E0.00484
G1 X116.275 Y103.558 E0.00518
G1 X116.347 Y103.281 E0.00793
G1 X116.347 Y97.558 E0.15903
G1 X117.558 Y96.347 E0.04758
G1 X123.281 Y96.347 E0.15903
G1 X123.364 Y96.341 E0.00229
G1 X123.62 Y96.235 E0.0077
G1 X123.798 Y96.012 E0.00792
G1 X123.818 Y95.917 E0.0027
G1 X123.47 Y95.781 F10800
;TYPE:External perimeter
G1 F1200
G1 X123.47 Y84.219 E0.32128
M73 P2 R76
G1 X123.395 Y84.068 E0.00469
G1 X123.281 Y84.03 E0.00331
G1 X104.219 Y84.03 E0.52967
G1 X104.085 Y84.085 E0.00401
G1 X104.03 Y84.219 E0.00401
G1 X104.03 Y103.281 E0.52967
G1 X104.068 Y103.395 E0.00331
G1 X104.219 Y103.47 E0.00469
G1 X115.781 Y103.47 E0.32128
G1 X115.907 Y103.422 E0.00374
G1 X115.97 Y103.281 E0.00428
G1 X115.97 Y97.402 E0.16337
G1 X117.402 Y95.97 E0.05626
G1 X123.281 Y95.97 E0.16337
G1 X123.394 Y95.933 E0.0033
G1 X123.443 Y95.835 E0.00303
;WIPE_START
M204 S1250
