; generated by SuperSlicer 2.4 on 2022-06-07 at 05:52:00 UTC

; 

; external perimeters extrusion width = 0.45mm
; perimeters extrusion width = 0.45mm
; infill extrusion width = 0.45mm
; solid infill extrusion width = 0.45mm
; top infill extrusion width = 0.40mm
; support material extrusion width = 0.35mm
; first layer extrusion width = 0.42mm

; external perimeters extrusion width = 0.45mm
; perimeters extrusion width = 0.45mm
; infill extrusion width = 0.45mm
; solid infill extrusion width = 0.45mm
; top infill extrusion width = 0.40mm
; support material extrusion width = 0.35mm
; first layer extrusion width = 0.42mm

; external perimeters extrusion width = 0.45mm
; perimeters extrusion width = 0.45mm
; infill extrusion width = 0.45mm
; solid infill extrusion width = 0.45mm
; top infill extrusion width = 0.40mm
; support material extrusion width = 0.35mm
; first layer extrusion width = 0.42mm

; external perimeters extrusion width = 0.45mm
; perimeters extrusion width = 0.45mm
; infill extrusion width = 0.45mm
; solid infill extrusion width = 0.45mm
; top infill extrusion width = 0.40mm
; support material extrusion width = 0.35mm
; first layer extrusion width = 0.42mm

; object:{"name":"camera joint","id":"camera joint.stl id:0 copy 0","object_center":[141.625641,135.000000,0.000000],"boundingbox_center":[141.625641,135.000000,6.500000],"boundingbox_size":[34.945045,17.000000,13.000000]}
; object:{"name":"camera 2020","id":"camera 2020.stl id:1 copy 0","object_center":[102.701787,113.558603,0.000000],"boundingbox_center":[102.701787,113.558603,15.451328],"boundingbox_size":[19.500000,38.000000,30.902657]}
; object:{"name":"camera arm","id":"camera arm.stl id:2 copy 0","object_center":[119.334056,75.500000,0.000000],"boundingbox_center":[119.334056,75.500000,8.000000],"boundingbox_size":[82.974348,18.000000,16.000000]}
; object:{"name":"top camera","id":"top camera.stl id:3 copy 0","object_center":[148.153121,105.500000,0.000000],"boundingbox_center":[148.153121,105.500000,11.500000],"boundingbox_size":[48.000001,30.000000,23.000000]}
; plater:{"center":[125.000002,105.000000,0.000000],"boundingbox_center":[125.000002,105.000000,15.451328],"boundingbox_size":[94.306240,77.000000,30.902657]}

M73 P0 R129
;TYPE:Custom
Start : M104 S0
M140 S0
PRINT_START EXTRUDER_TEMP=230 BED_TEMP=60
M107
G21 ; set units to millimeters
G90 ; use absolute coordinates
M83 ; use relative distances for extrusion
M900 K0.05 ; Filament gcode LA 1.5
M900 K30 ; Filament gcode LA 1.0
M104 S230 ; set temperature
M109 S230 ; set temperature and wait for it to be reached
M107
;LAYER_CHANGE
;Z:0.2
;HEIGHT:0.2
;BEFORE_LAYER_CHANGE
G92 E0.0
;0.2


G1 E-0.8 F2100
G1 Z0.4 F10800
;AFTER_LAYER_CHANGE
;0.2
G1 Z0.6
M204 S1000
G1 X80.001 Y69.936
G1 Z0.2
G1 E0.8 F2100
;TYPE:Skirt
;WIDTH:0.52
G1 F1200
G1 X79.61 Y71.2 E0.05249
G1 X79.661 Y80.274 E0.35996
G1 X90.764 Y131.533 E2.08055
G1 X91.829 Y132.995 E0.07177
G1 X119.291 Y148.92 E1.25932
G1 X120.414 Y149.222 E0.04613
G1 X160.53 Y149.222 E1.59137
G1 X161.617 Y148.94 E0.04455
G1 X162.532 Y147.984 E0.05249
G1 X164.928 Y143.168 E0.21338
G1 X174.244 Y118.799 E1.03493
G1 X174.392 Y118 E0.03225
G1 X174.392 Y93 E0.99173
G1 X174.091 Y91.879 E0.04605
G1 X158.757 Y65.379 E1.21454
G1 X158.083 Y64.653 E0.03929
G1 X156.819 Y64.261 E0.05249
G1 X143.689 Y64.268 E0.52087
G1 X81.68 Y68.968 E2.46694
G1 X80.053 Y69.906 E0.07448
; INIT printing object camera joint.stl id:0 copy 0
;WIPE_START
G1 F8640
G1 X80.001 Y69.936 E-0.01385
G1 X79.61 Y71.2 E-0.30553
G1 X79.621 Y73.108 E-0.44062
;WIPE_END
G1 E-0.04 F2100
G1 Z0.6 F10800
; printing object camera joint.stl id:0 copy 0
; acceleration to travel
M204 S1500
G1 X116.54 Y124.785
; decel to extrusion
M204 S1000
G1 X125.511 Y137.342
; end travel
G1 Z0.2
G1 E0.8 F2100
;TYPE:Support material interface
;WIDTH:0.42
G1 F1200
G1 X127.63 Y137.342 E0.06643
G1 X130.055 Y137.342 E0.07605
G1 X130.055 Y139.086 E0.0547
G1 X128.55 Y139.086 E0.04718
G1 X128.308 Y139.329 E0.01074
G1 X128.308 Y143.671 E0.13616
G1 X128.55 Y143.914 E0.01074
G1 X128.83 Y144.193 E0.01241
G1 X127.63 Y144.193 E0.03765
G1 X125.511 Y144.193 E0.06643
G1 X125.511 Y137.402 E0.21294
;WIPE_START
G1 F8640
G1 X125.511 Y137.342 E-0.01385
G1 X127.63 Y137.342 E-0.48919
G1 X128.742 Y137.342 E-0.25696
;WIPE_END
G1 E-0.04 F2100
G1 Z0.6 F10800
G1 X129.961 Y137.933
G1 Z0.2
G1 E0.8 F2100
G1 F1200
G1 X125.767 Y137.933 E0.13149
G1 X125.767 Y138.352 E0.01314
G1 X129.799 Y138.352 E0.1264
G1 X129.799 Y138.771 E0.01314
G1 X125.767 Y138.771 E0.1264
G1 X125.767 Y139.19 E0.01314
G1 X128.085 Y139.19 E0.07265
G1 X128.052 Y139.223 E0.00145
G1 X128.052 Y139.609 E0.01211
G1 X125.767 Y139.609 E0.07162
G1 X125.767 Y140.028 E0.01314
G1 X128.052 Y140.028 E0.07162
G1 X128.052 Y140.447 E0.01314
G1 X125.767 Y140.447 E0.07162
G1 X125.767 Y140.866 E0.01314
G1 X128.052 Y140.866 E0.07162
G1 X128.052 Y141.285 E0.01314
G1 X125.767 Y141.285 E0.07162
G1 X125.767 Y141.704 E0.01314
G1 X128.052 Y141.704 E0.07162
G1 X128.052 Y142.123 E0.01314
G1 X125.767 Y142.123 E0.07162
G1 X125.767 Y142.542 E0.01314
G1 X128.052 Y142.542 E0.07162
G1 X128.052 Y142.961 E0.01314
G1 X125.767 Y142.961 E0.07162
G1 X125.767 Y143.38 E0.01314
G1 X128.052 Y143.38 E0.07162
G1 X128.052 Y143.777 E0.01248
G1 X128.073 Y143.799 E0.00093
G1 X125.605 Y143.799 E0.07737
;WIPE_START
G1 F8640
G1 X128.073 Y143.799 E-0.56976
G1 X128.052 Y143.777 E-0.00687
G1 X128.052 Y143.38 E-0.09189
G1 X127.656 Y143.38 E-0.09149
;WIPE_END
G1 E-0.04 F2100
G1 Z0.6 F10800
; acceleration to travel
M204 S1500
G1 X126.006 Y134.754
; decel to extrusion
M204 S1000
G1 X125.605 Y132.658
; end travel
G1 Z0.2
G1 E0.8 F2100
G1 F1200
G1 X125.511 Y132.658 E0.00296
G1 X125.511 Y125.807 E0.21482
G1 X127.63 Y125.807 E0.06643
G1 X128.83 Y125.807 E0.03765
G1 X128.55 Y126.086 E0.01241
G1 X128.308 Y126.329 E0.01074
G1 X128.308 Y130.671 E0.13616
G1 X128.55 Y130.914 E0.01074
G1 X130.055 Y130.914 E0.04718
G1 X130.055 Y132.658 E0.05469
G1 X127.63 Y132.658 E0.07605
G1 X125.665 Y132.658 E0.06159
;WIPE_START
G1 F8640
G1 X125.511 Y132.658 E-0.03563
G1 X125.511 Y129.521 E-0.72437
;WIPE_END
G1 E-0.04 F2100
G1 Z0.6 F10800
; acceleration to travel
M204 S1500
G1 X127.757 Y126.85
; decel to extrusion
M204 S1000
G1 X128.302 Y126.201
; end travel
G1 Z0.2
G1 E0.8 F2100
G1 F1200
G1 X125.767 Y126.201 E0.07947
G1 X125.767 Y126.62 E0.01314
G1 X128.052 Y126.62 E0.07162
G1 X128.052 Y127.039 E0.01314
G1 X125.767 Y127.039 E0.07162
G1 X125.767 Y127.458 E0.01314
G1 X128.052 Y127.458 E0.07162
G1 X128.052 Y127.877 E0.01314
G1 X125.767 Y127.877 E0.07162
M73 P0 R128
G1 X125.767 Y128.296 E0.01314
G1 X128.052 Y128.296 E0.07162
G1 X128.052 Y128.715 E0.01314
G1 X125.767 Y128.715 E0.07162
G1 X125.767 Y129.134 E0.01314
G1 X128.052 Y129.134 E0.07162
G1 X128.052 Y129.553 E0.01314
G1 X125.767 Y129.553 E0.07162
G1 X125.767 Y129.972 E0.01314
G1 X128.052 Y129.972 E0.07162
G1 X128.052 Y130.391 E0.01314
G1 X125.767 Y130.391 E0.07162
G1 X125.767 Y130.81 E0.01314
G1 X128.085 Y130.81 E0.07265
G1 X128.444 Y131.17 E0.01595
G1 X129.799 Y131.17 E0.04247
G1 X129.799 Y131.229 E0.00186
G1 X125.767 Y131.229 E0.1264
G1 X125.767 Y131.648 E0.01314
G1 X129.799 Y131.648 E0.1264
G1 X129.799 Y132.067 E0.01314
G1 X125.605 Y132.067 E0.13149
;WIPE_START
G1 F8640
G1 X128.897 Y132.067 E-0.76
;WIPE_END
G1 E-0.04 F2100
G1 Z0.6 F10800
; acceleration to travel
M204 S1500
G1 X136.921 Y127.248
; decel to extrusion
M204 S1000
G1 X138.871 Y126.076
; end travel
G1 Z0.2
G1 E0.8 F2100
;TYPE:Support material
G1 F1200
G1 X138.871 Y123.017 E0.09593
G1 X160.53 Y123.017 E0.67911
G1 X160.53 Y127.631 E0.14467
G1 X162.837 Y127.631 E0.07234
G1 X162.837 Y142.369 E0.4621
G1 X160.53 Y142.369 E0.07234
G1 X160.53 Y146.983 E0.14467
G1 X138.871 Y146.983 E0.67911
G1 X138.871 Y143.924 E0.09593
G1 X142.787 Y143.924 E0.12279
G1 X143.152 Y143.558 E0.0162
G1 X143.152 Y126.442 E0.53668
G1 X142.787 Y126.076 E0.0162
G1 X138.931 Y126.076 E0.12091
;WIPE_START
G1 F8640
G1 X138.871 Y126.076 E-0.01385
G1 X138.871 Y123.017 E-0.70649
G1 X139.042 Y123.017 E-0.03965
;WIPE_END
G1 E-0.04 F2100
G1 Z0.6 F10800
; acceleration to travel
M204 S1500
G1 X157.974 Y138.51
; decel to extrusion
M204 S1000
G1 X162.574 Y142.275
; end travel
G1 Z0.2
G1 E0.8 F2100
G1 F1200
G1 X162.574 Y127.887 E0.45111
G1 X162.156 Y127.887 E0.01314
G1 X162.156 Y142.113 E0.44602
G1 X161.737 Y142.113 E0.01314
G1 X161.737 Y127.887 E0.44602
G1 X161.318 Y127.887 E0.01314
G1 X161.318 Y142.113 E0.44602
G1 X160.899 Y142.113 E0.01314
G1 X160.899 Y127.887 E0.44602
G1 X160.48 Y127.887 E0.01314
G1 X160.48 Y142.113 E0.44602
G1 X160.274 Y142.113 E0.00646
G1 X160.274 Y146.727 E0.14467
G1 X160.061 Y146.727 E0.00668
G1 X160.061 Y123.273 E0.73537
G1 X159.642 Y123.273 E0.01314
G1 X159.642 Y146.727 E0.73537
G1 X159.223 Y146.727 E0.01314
G1 X159.223 Y123.273 E0.73537
G1 X158.804 Y123.273 E0.01314
G1 X158.804 Y146.727 E0.73537
G1 X158.385 Y146.727 E0.01314
G1 X158.385 Y123.273 E0.73537
G1 X157.966 Y123.273 E0.01314
G1 X157.966 Y146.727 E0.73537
G1 X157.547 Y146.727 E0.01314
G1 X157.547 Y123.273 E0.73537
G1 X157.128 Y123.273 E0.01314
G1 X157.128 Y146.727 E0.73537
G1 X156.709 Y146.727 E0.01314
G1 X156.709 Y123.273 E0.73537
G1 X156.29 Y123.273 E0.01314
G1 X156.29 Y146.727 E0.73537
G1 X155.871 Y146.727 E0.01314
G1 X155.871 Y123.273 E0.73537
G1 X155.452 Y123.273 E0.01314
G1 X155.452 Y146.727 E0.73537
G1 X155.033 Y146.727 E0.01314
G1 X155.033 Y123.273 E0.73537
G1 X154.614 Y123.273 E0.01314
G1 X154.614 Y146.727 E0.73537
G1 X154.195 Y146.727 E0.01314
G1 X154.195 Y123.273 E0.73537
G1 X153.776 Y123.273 E0.01314
G1 X153.776 Y146.727 E0.73537
G1 X153.357 Y146.727 E0.01314
G1 X153.357 Y123.273 E0.73537
G1 X152.938 Y123.273 E0.01314
G1 X152.938 Y146.727 E0.73537
G1 X152.519 Y146.727 E0.01314
G1 X152.519 Y123.273 E0.73537
G1 X152.1 Y123.273 E0.01314
G1 X152.1 Y146.727 E0.73537
G1 X151.681 Y146.727 E0.01314
G1 X151.681 Y123.273 E0.73537
G1 X151.262 Y123.273 E0.01314
G1 X151.262 Y146.727 E0.73537
G1 X150.843 Y146.727 E0.01314
G1 X150.843 Y123.273 E0.73537
G1 X150.424 Y123.273 E0.01314
G1 X150.424 Y146.727 E0.73537
G1 X150.005 Y146.727 E0.01314
G1 X150.005 Y123.273 E0.73537
G1 X149.586 Y123.273 E0.01314
G1 X149.586 Y146.727 E0.73537
G1 X149.167 Y146.727 E0.01314
G1 X149.167 Y123.273 E0.73537
G1 X148.748 Y123.273 E0.01314
G1 X148.748 Y146.727 E0.73537
G1 X148.329 Y146.727 E0.01314
G1 X148.329 Y123.273 E0.73537
G1 X147.91 Y123.273 E0.01314
G1 X147.91 Y146.727 E0.73537
G1 X147.491 Y146.727 E0.01314
G1 X147.491 Y123.273 E0.73537
G1 X147.072 Y123.273 E0.01314
G1 X147.072 Y146.727 E0.73537
G1 X146.653 Y146.727 E0.01314
G1 X146.653 Y123.273 E0.73537
G1 X146.234 Y123.273 E0.01314
G1 X146.234 Y146.727 E0.73537
M73 P1 R128
G1 X145.815 Y146.727 E0.01314
G1 X145.815 Y123.273 E0.73537
G1 X145.396 Y123.273 E0.01314
G1 X145.396 Y146.727 E0.73537
G1 X144.977 Y146.727 E0.01314
G1 X144.977 Y123.273 E0.73537
G1 X144.558 Y123.273 E0.01314
G1 X144.558 Y146.727 E0.73537
G1 X144.14 Y146.727 E0.01314
G1 X144.14 Y123.273 E0.73537
M73 P1 R127
G1 X143.721 Y123.273 E0.01314
G1 X143.721 Y146.727 E0.73537
G1 X143.302 Y146.727 E0.01314
G1 X143.302 Y123.273 E0.73537
G1 X142.883 Y123.273 E0.01314
G1 X142.883 Y125.82 E0.07986
G1 X142.464 Y125.82 E0.01314
G1 X142.464 Y123.273 E0.07986
G1 X142.045 Y123.273 E0.01314
G1 X142.045 Y125.82 E0.07986
G1 X141.626 Y125.82 E0.01314
G1 X141.626 Y123.273 E0.07986
G1 X141.207 Y123.273 E0.01314
G1 X141.207 Y125.82 E0.07986
G1 X140.788 Y125.82 E0.01314
G1 X140.788 Y123.273 E0.07986
G1 X140.369 Y123.273 E0.01314
G1 X140.369 Y125.82 E0.07986
G1 X139.95 Y125.82 E0.01314
G1 X139.95 Y123.273 E0.07986
G1 X139.531 Y123.273 E0.01314
G1 X139.531 Y125.982 E0.08494
;WIPE_START
G1 F8640
G1 X139.531 Y123.273 E-0.62552
G1 X139.95 Y123.273 E-0.09674
G1 X139.95 Y123.437 E-0.03774
;WIPE_END
G1 E-0.04 F2100
G1 Z0.6 F10800
; acceleration to travel
M204 S1500
G1 X142.309 Y142.304
; decel to extrusion
M204 S1000
G1 X142.883 Y146.889
; end travel
G1 Z0.2
G1 E0.8 F2100
G1 F1200
G1 X142.883 Y144.18 E0.08494
G1 X142.464 Y144.18 E0.01314
G1 X142.464 Y146.727 E0.07985
G1 X142.045 Y146.727 E0.01314
G1 X142.045 Y144.18 E0.07985
G1 X141.626 Y144.18 E0.01314
G1 X141.626 Y146.727 E0.07985
G1 X141.207 Y146.727 E0.01314
G1 X141.207 Y144.18 E0.07985
G1 X140.788 Y144.18 E0.01314
G1 X140.788 Y146.727 E0.07985
G1 X140.369 Y146.727 E0.01314
G1 X140.369 Y144.18 E0.07985
G1 X139.95 Y144.18 E0.01314
G1 X139.95 Y146.727 E0.07985
G1 X139.531 Y146.727 E0.01314
G1 X139.531 Y144.018 E0.08494
;WIPE_START
G1 F8640
G1 X139.531 Y146.727 E-0.62551
G1 X139.95 Y146.727 E-0.09674
G1 X139.95 Y146.563 E-0.03775
;WIPE_END
G1 E-0.04 F2100
G1 Z0.6 F10800
; acceleration to travel
M204 S1500
G1 X130.275 Y145.129
; decel to extrusion
M204 S1000
G1 X127.924 Y144.78
; end travel
G1 Z0.2
G1 E0.8 F2100
G1 F1200
G1 X127.924 Y146.983 E0.06906
G1 X120.414 Y146.983 E0.23546
G1 X120.414 Y123.017 E0.75145
G1 X127.924 Y123.017 E0.23546
G1 X127.924 Y125.219 E0.06907
G1 X127.63 Y125.219 E0.00923
G1 X124.924 Y125.219 E0.08484
G1 X124.924 Y133.245 E0.25164
G1 X127.63 Y133.245 E0.08484
G1 X127.924 Y133.245 E0.00923
G1 X127.924 Y136.755 E0.11005
G1 X127.63 Y136.755 E0.00923
G1 X124.924 Y136.755 E0.08484
G1 X124.924 Y144.78 E0.25164
G1 X127.63 Y144.78 E0.08484
G1 X127.864 Y144.78 E0.00735
; acceleration to travel
M204 S1500
G1 X127.574 Y146.046 F10800
; decel to extrusion
M204 S1000
G1 X127.38 Y146.889
; end travel
G1 F1200
G1 X127.38 Y145.037 E0.05807
G1 X126.961 Y145.037 E0.01314
G1 X126.961 Y146.727 E0.05299
G1 X126.542 Y146.727 E0.01314
G1 X126.542 Y145.037 E0.05299
G1 X126.123 Y145.037 E0.01314
G1 X126.123 Y146.727 E0.05299
G1 X125.705 Y146.727 E0.01314
G1 X125.705 Y145.037 E0.05299
G1 X125.286 Y145.037 E0.01314
G1 X125.286 Y146.727 E0.05299
G1 X124.867 Y146.727 E0.01314
G1 X124.867 Y145.037 E0.05299
G1 X124.667 Y145.037 E0.00624
G1 X124.667 Y136.498 E0.26772
G1 X124.867 Y136.498 E0.00624
G1 X124.867 Y133.501 E0.09397
G1 X125.286 Y133.501 E0.01314
G1 X125.286 Y136.498 E0.09397
G1 X125.705 Y136.498 E0.01314
G1 X125.705 Y133.501 E0.09397
G1 X126.123 Y133.501 E0.01314
G1 X126.123 Y136.498 E0.09397
G1 X126.542 Y136.498 E0.01314
G1 X126.542 Y133.501 E0.09397
G1 X126.961 Y133.501 E0.01314
G1 X126.961 Y136.498 E0.09397
G1 X127.38 Y136.498 E0.01314
G1 X127.38 Y133.339 E0.09905
;WIPE_START
G1 F8640
G1 X127.38 Y136.498 E-0.72945
G1 X127.248 Y136.498 E-0.03055
;WIPE_END
G1 E-0.04 F2100
G1 Z0.6 F10800
; acceleration to travel
M204 S1500
G1 X127.355 Y127.349
; decel to extrusion
M204 S1000
G1 X127.38 Y125.125
; end travel
G1 Z0.2
G1 E0.8 F2100
G1 F1200
G1 X127.38 Y123.273 E0.05807
G1 X126.961 Y123.273 E0.01314
G1 X126.961 Y124.963 E0.05299
G1 X126.542 Y124.963 E0.01314
G1 X126.542 Y123.273 E0.05299
G1 X126.123 Y123.273 E0.01314
G1 X126.123 Y124.963 E0.05299
G1 X125.705 Y124.963 E0.01314
G1 X125.705 Y123.273 E0.05299
G1 X125.286 Y123.273 E0.01314
G1 X125.286 Y124.963 E0.05299
G1 X124.867 Y124.963 E0.01314
G1 X124.867 Y123.273 E0.05299
G1 X124.448 Y123.273 E0.01314
G1 X124.448 Y146.727 E0.73537
G1 X124.029 Y146.727 E0.01314
G1 X124.029 Y123.273 E0.73537
G1 X123.61 Y123.273 E0.01314
G1 X123.61 Y146.727 E0.73537
G1 X123.191 Y146.727 E0.01314
G1 X123.191 Y123.273 E0.73537
G1 X122.772 Y123.273 E0.01314
G1 X122.772 Y146.727 E0.73537
G1 X122.353 Y146.727 E0.01314
G1 X122.353 Y123.273 E0.73537
G1 X121.934 Y123.273 E0.01314
G1 X121.934 Y146.727 E0.73537
G1 X121.515 Y146.727 E0.01314
G1 X121.515 Y123.273 E0.73537
G1 X121.096 Y123.273 E0.01314
G1 X121.096 Y146.727 E0.73537
G1 X120.677 Y146.727 E0.01314
G1 X120.677 Y123.111 E0.74045
;WIPE_START
G1 F8640
G1 X120.677 Y126.402 E-0.76
;WIPE_END
G1 E-0.04 F2100
G1 Z0.6 F10800
; acceleration to travel
M204 S1500
G1 X128.739 Y127.143
; decel to extrusion
M204 S800
G1 X130.306 Y127.287
; end travel
G1 Z0.2
G1 E0.8 F2100
;TYPE:Internal perimeter
G1 F1200
G1 X141.942 Y127.287 E0.36483
G1 X141.942 Y142.713 E0.48367
G1 X130.306 Y142.713 E0.36483
G1 X130.306 Y140.287 E0.07606
G1 X138.416 Y140.287 E0.25428
G1 X138.416 Y129.713 E0.33155
G1 X130.306 Y129.713 E0.25428
G1 X130.306 Y127.347 E0.07418
G1 X129.929 Y126.91 F10800
;TYPE:External perimeter
G1 F1200
