; generated by SuperSlicer 2.5.59 on 2022-10-02 at 18:43:57 UTC

; 

; external perimeters extrusion width = 0.45mm
; perimeters extrusion width = 0.45mm
; infill extrusion width = 0.45mm
; solid infill extrusion width = 0.45mm
; top infill extrusion width = 0.40mm
; first layer extrusion width = 0.42mm

; object:{"name":"Circle and Points Cross Loop","id":"Circle and Points Cross Loop.stl id:0 copy 0","object_center":[125.000000,105.000000,0.000000],"boundingbox_center":[125.000000,105.000000,82.015659],"boundingbox_size":[142.541046,142.629578,164.031319]}
; plater:{"center":[125.000000,105.000000,0.000000],"boundingbox_center":[125.000000,105.000000,82.015659],"boundingbox_size":[142.541046,142.629578,164.031319]}

M73 P0 R233


; Pre-Processed for Cancel-Object support by preprocess_cancellation v0.2.0
; 1 known objects
EXCLUDE_OBJECT_DEFINE NAME=Circle_and_Points_Cross_Loop_stl_id_0_copy_0 CENTER=124.457,107.937 POLYGON=[[130.326,34.695],[115.25,36.423],[112.043,36.929],[109.04,37.55],[104.853,38.649],[99.562,40.451],[97.557,41.265],[95.578,42.142],[91.708,44.081],[87.968,46.261],[81.924,50.518],[80.245,51.883],[77.809,54.03],[76.113,55.648],[72.42,59.601],[71.146,61.122],[69.916,62.679],[65.557,69.091],[63.868,72.072],[62.958,73.836],[57.506,89.088],[56.858,92.269],[54.395,105.902],[54.896,112.876],[54.99,113.607],[55.782,118.326],[56.752,122.446],[57.628,125.45],[58.449,127.893],[59.091,129.618],[59.921,131.665],[60.892,133.852],[62.273,136.66],[62.878,137.798],[63.872,139.562],[65.208,141.766],[66.315,143.461],[68.786,146.898],[70.156,148.631],[71.822,150.597],[73.942,152.899],[74.584,153.557],[76.162,155.104],[78.062,156.844],[82.051,160.107],[83.084,160.877],[85.805,162.766],[95.465,168.098],[96.643,168.62],[105.843,171.845],[111.04,173.059],[125.556,175.666],[132.666,175.189],[133.783,175.049],[136.934,174.555],[140.242,173.88],[141.338,173.621],[142.61,173.296],[144.777,172.685],[147.988,171.641],[150.798,170.585],[153.903,169.258],[156.273,168.126],[161.84,165.018],[163.736,163.804],[165.899,162.313],[168.3,160.512],[173.548,155.973],[174.223,155.321],[175.936,153.585],[178.085,151.229],[179.06,150.088],[181.049,147.595],[183.767,143.774],[186.689,138.965],[187.227,137.976],[188.586,135.3],[189.144,134.111],[190.409,131.184],[191.287,128.908],[192.43,125.532],[193.308,122.466],[193.585,121.375],[194.348,117.894],[194.855,114.935],[195.153,112.704],[195.596,106.906],[191.686,89.172],[191.127,86.877],[190.542,84.777],[189.54,81.665],[188.79,79.618],[187.69,76.928],[186.637,74.613],[185.159,71.697],[184.097,69.793],[182.393,67.003],[181.184,65.189],[179.918,63.414],[172.749,53.903],[171.132,52.399],[169.468,50.948],[167.9,49.668],[165.115,47.556],[154.847,41.449],[152.845,40.517],[148.588,38.777],[140.31,36.291],[133.618,35.057],[130.326,34.695]]
;TYPE:Custom
Start : M104 S0
M140 S0
PRINT_START EXTRUDER_TEMP=230 BED_TEMP=70
M107
G21 ; set units to millimeters
G90 ; use absolute coordinates
M83 ; use relative distances for extrusion
M900 K0.05 ; Filament gcode LA 1.5
M900 K30 ; Filament gcode LA 1.0
;_TOOLCHANGE 0
M104 S230 ; set temperature
M109 S230 ; set temperature and wait for it to be reached
M107
;LAYER_CHANGE
;Z:0.2
;HEIGHT:0.2
;BEFORE_LAYER_CHANGE
G92 E0.0
;0.2
TIMELAPSE_TAKE_FRAME

G1 Z0.2 F10800
;AFTER_LAYER_CHANGE
;0.2
G1 E-0.8 F2100
G1 Z0.6 F10800
M204 S1000
G1 X92.709 Y77.777
G1 Z0.2
G1 E0.8 F2100
;TYPE:Skirt
;WIDTH:0.52
G1 F900
G1 X94.594 Y75.696 E0.11136
G1 X96.325 Y73.988 E0.09647
G1 X99.611 Y71.242 E0.16987
G1 X103.052 Y68.915 E0.16482
G1 X106.33 Y67.114 E0.14834
G1 X109.646 Y65.649 E0.14381
G1 X113.101 Y64.468 E0.14484
G1 X116.872 Y63.549 E0.154
G1 X120.982 Y62.954 E0.16474
G1 X122.903 Y62.812 E0.0764
G1 X125.598 Y62.762 E0.10693
G1 X129.23 Y62.97 E0.14432
G1 X131.258 Y63.224 E0.08106
G1 X134.044 Y63.737 E0.11239
G1 X137.973 Y64.805 E0.1615
G1 X141.793 Y66.24 E0.16187
G1 X143.536 Y67.052 E0.07628
G1 X147.661 Y69.39 E0.18811
G1 X150.067 Y71.002 E0.11488
G1 X152.386 Y72.842 E0.11742
G1 X154.244 Y74.532 E0.09964
G1 X155.812 Y76.108 E0.0882
G1 X157.888 Y78.5 E0.12564
G1 X159.156 Y80.151 E0.08259
G1 X160.26 Y81.747 E0.07699
G1 X161.815 Y84.298 E0.11852
G1 X164.264 Y89.46 E0.22663
G1 X164.952 Y91.294 E0.07773
G1 X166.075 Y95.153 E0.1594
G1 X166.479 Y97.03 E0.07618
G1 X166.932 Y99.935 E0.11663
G1 X167.205 Y103.359 E0.13625
G1 X167.124 Y108.04 E0.18574
G1 X166.695 Y111.752 E0.14821
G1 X165.515 Y116.91 E0.20991
G1 X164.552 Y119.79 E0.12047
G1 X163.266 Y122.868 E0.13232
G1 X161.298 Y126.598 E0.1673
G1 X159.216 Y129.751 E0.14988
G1 X156.09 Y133.584 E0.19624
G1 X153.165 Y136.477 E0.1632
G1 X150.849 Y138.404 E0.1195
G1 X148.385 Y140.172 E0.12031
G1 X144.426 Y142.504 E0.18226
G1 X141.245 Y143.98 E0.13909
G1 X138.394 Y145.051 E0.12084
G1 X132.734 Y146.518 E0.23196
G1 X131.031 Y146.807 E0.0685
G1 X127.755 Y147.146 E0.13067
G1 X123.073 Y147.186 E0.18574
G1 X118.56 Y146.747 E0.17986
G1 X114.475 Y145.902 E0.16547
G1 X111.072 Y144.87 E0.14109
G1 X108.498 Y143.882 E0.10938
G1 X106.895 Y143.162 E0.06968
G1 X104.384 Y141.864 E0.11213
G1 X100.991 Y139.75 E0.15858
G1 X99.285 Y138.504 E0.08384
G1 X97.267 Y136.856 E0.10333
G1 X94.517 Y134.233 E0.15074
G1 X93.388 Y133.012 E0.06596
G1 X91.637 Y130.899 E0.1089
G1 X89.694 Y128.167 E0.13296
G1 X88.155 Y125.642 E0.11733
G1 X87.024 Y123.47 E0.09712
G1 X86.008 Y121.226 E0.09771
G1 X85.298 Y119.401 E0.07771
G1 X84.45 Y116.81 E0.10815
G1 X83.52 Y112.921 E0.15862
G1 X83.112 Y110.396 E0.10144
G1 X82.926 Y108.678 E0.06856
G1 X82.765 Y104.797 E0.15409
G1 X82.863 Y102.126 E0.10604
G1 X83.259 Y98.642 E0.1391
G1 X83.594 Y96.661 E0.07971
G1 X83.869 Y95.422 E0.05034
G1 X85.04 Y91.332 E0.16876
G1 X86.067 Y88.652 E0.11385
G1 X87.524 Y85.548 E0.13601
G1 X88.892 Y83.088 E0.11167
G1 X90.183 Y81.089 E0.0944
G1 X92.672 Y77.824 E0.16286
;WIPE_START
G1 F8640
G1 X94.594 Y75.696 E-0.66201
G1 X94.896 Y75.398 E-0.09799
;WIPE_END
G1 E-0.04 F2100
G1 Z0.6 F10800
; printing object Circle and Points Cross Loop.stl id:0 copy 0
EXCLUDE_OBJECT_START NAME=Circle_and_Points_Cross_Loop_stl_id_0_copy_0
; acceleration to travel
M204 S1500
G1 X94.952 Y79.083
; decel to extrusion
M204 S800
G1 X94.963 Y79.795
; end travel
G1 Z0.2
G1 E0.8 F2100
;TYPE:Internal perimeter
;WIDTH:0.42
G1 F900
G1 X96.831 Y77.733 E0.08724
G1 X98.429 Y76.163 E0.07023
G1 X100.493 Y74.389 E0.08534
G1 X101.455 Y73.641 E0.03822
G1 X102.86 Y72.634 E0.05419
G1 X104.675 Y71.468 E0.06764
G1 X105.892 Y70.756 E0.04421
G1 X107.712 Y69.806 E0.06436
G1 X109.457 Y68.998 E0.0603
G1 X110.681 Y68.492 E0.04153
G1 X112.768 Y67.74 E0.06955
G1 X114.646 Y67.176 E0.06151
G1 X116.329 Y66.754 E0.05439
G1 X117.409 Y66.527 E0.03461
G1 X118.927 Y66.259 E0.04832
G1 X121.238 Y65.968 E0.07303
G1 X123.031 Y65.834 E0.05638
G1 X124.387 Y65.788 E0.04252
G1 X126.245 Y65.806 E0.05826
G1 X127.775 Y65.883 E0.04805
G1 X128.872 Y65.974 E0.03449
G1 X130.772 Y66.21 E0.06006
G1 X132.075 Y66.428 E0.04142
G1 X133.433 Y66.701 E0.04342
M73 P0 R232
G1 X134.868 Y67.048 E0.0463
G1 X137.104 Y67.704 E0.07305
G1 X139.124 Y68.418 E0.0672
G1 X140.544 Y68.996 E0.04805
G1 X142.073 Y69.701 E0.05281
G1 X146.155 Y72.016 E0.14713
G1 X148.351 Y73.494 E0.08299
G1 X150.373 Y75.101 E0.08098
G1 X152.208 Y76.771 E0.07779
G1 X153.589 Y78.16 E0.06142
G1 X154.328 Y78.968 E0.03434
G1 X155.561 Y80.434 E0.06005
G1 X156.742 Y81.976 E0.06089
G1 X157.685 Y83.338 E0.05195
G1 X159.218 Y85.851 E0.09231
G1 X161.52 Y90.737 E0.16933
G1 X162.108 Y92.325 E0.05309
G1 X162.711 Y94.271 E0.0639
G1 X163.13 Y95.848 E0.05115
G1 X163.336 Y96.747 E0.02892
G1 X163.5 Y97.557 E0.02592
G1 X163.767 Y99.11 E0.04941
G1 X163.932 Y100.328 E0.03852
G1 X164.08 Y101.799 E0.04636
G1 X164.183 Y103.508 E0.05367
G1 X164.099 Y107.966 E0.13981
G1 X163.976 Y109.301 E0.04206
G1 X163.702 Y111.305 E0.0634
G1 X162.574 Y116.197 E0.15743
G1 X161.693 Y118.799 E0.08613
G1 X160.553 Y121.529 E0.09275
G1 X159.528 Y123.581 E0.07192
G1 X158.677 Y125.087 E0.05423
G1 X156.848 Y127.866 E0.10432
G1 X153.768 Y131.644 E0.15283
G1 X151.203 Y134.173 E0.11295
G1 X149.059 Y135.965 E0.08759
G1 X146.636 Y137.703 E0.09349
G1 X142.91 Y139.885 E0.1354
G1 X140.074 Y141.189 E0.09787
G1 X137.359 Y142.207 E0.09092
G1 X131.998 Y143.582 E0.17353
G1 X130.563 Y143.818 E0.04561
G1 X127.688 Y144.121 E0.09064
G1 X123.078 Y144.16 E0.14456
G1 X119.987 Y143.89 E0.09729
G1 X119.003 Y143.754 E0.03113
G1 X115.129 Y142.947 E0.12407
G1 X112.13 Y142.035 E0.09829
G1 X109.595 Y141.062 E0.08512
G1 X108.141 Y140.405 E0.05004
G1 X107.533 Y140.11 E0.02118
G1 X105.899 Y139.245 E0.05797
G1 X104.386 Y138.354 E0.05507
G1 X102.759 Y137.294 E0.06088
G1 X101.15 Y136.122 E0.06241
G1 X100.101 Y135.293 E0.04191
G1 X99.233 Y134.557 E0.03568
G1 X98.43 Y133.839 E0.0338
G1 X97.65 Y133.097 E0.03374
G1 X96.727 Y132.167 E0.04108
G1 X95.668 Y131.023 E0.04887
G1 X94.968 Y130.211 E0.03364
G1 X94 Y129.009 E0.04836
G1 X93.209 Y127.953 E0.04139
G1 X92.203 Y126.477 E0.05599
G1 X90.82 Y124.21 E0.08326
G1 X89.766 Y122.192 E0.07137
G1 X88.818 Y120.105 E0.0719
G1 X88.152 Y118.397 E0.05745
G1 X87.67 Y116.998 E0.0464
G1 X87.349 Y115.944 E0.03458
G1 X86.896 Y114.244 E0.05516
G1 X86.482 Y112.302 E0.06224
G1 X86.103 Y109.94 E0.07501
G1 X85.937 Y108.385 E0.04903
G1 X85.844 Y107.061 E0.04163
G1 X85.803 Y106.05 E0.03171
G1 X85.789 Y104.883 E0.03658
G1 X85.873 Y102.426 E0.07709
G1 X86.264 Y99.001 E0.10809
G1 X86.555 Y97.284 E0.0546
G1 X86.783 Y96.235 E0.03367
G1 X87.938 Y92.202 E0.13152
G1 X88.82 Y89.908 E0.07709
G1 X90.189 Y86.981 E0.1013
G1 X91.52 Y84.586 E0.08593
G1 X92.639 Y82.856 E0.06457
G1 X94.018 Y80.966 E0.07337
G1 X94.925 Y79.842 E0.04529
G1 X94.676 Y79.55 F10800
;TYPE:External perimeter
G1 F900
G1 X96.559 Y77.472 E0.08792
G1 X98.173 Y75.885 E0.07097
G1 X100.254 Y74.097 E0.08603
G1 X101.229 Y73.338 E0.03874
G1 X102.648 Y72.322 E0.05472
G1 X104.478 Y71.147 E0.06819
G1 X105.71 Y70.426 E0.04474
G1 X107.545 Y69.468 E0.06492
G1 X109.306 Y68.653 E0.06082
G1 X110.545 Y68.14 E0.04205
G1 X112.65 Y67.382 E0.07015
G1 X114.546 Y66.812 E0.0621
G1 X116.244 Y66.387 E0.05489
G1 X117.338 Y66.156 E0.03503
G1 X118.871 Y65.886 E0.04881
G1 X121.201 Y65.593 E0.07362
G1 X123.011 Y65.458 E0.05692
G1 X124.382 Y65.411 E0.04302
G1 X126.256 Y65.429 E0.05876
G1 X127.8 Y65.506 E0.04849
G1 X128.91 Y65.599 E0.03493
G1 X130.827 Y65.837 E0.06055
G1 X132.144 Y66.057 E0.04186
G1 X133.515 Y66.332 E0.04384
G1 X134.966 Y66.684 E0.04681
G1 X137.22 Y67.345 E0.07365
G1 X139.258 Y68.066 E0.06779
G1 X140.694 Y68.65 E0.04859
G1 X142.246 Y69.365 E0.05357
G1 X146.354 Y71.695 E0.14809
G1 X148.574 Y73.189 E0.08391
G1 X150.618 Y74.814 E0.08185
G1 X152.469 Y76.498 E0.07849
G1 X153.862 Y77.9 E0.06196
G1 X154.612 Y78.72 E0.03483
G1 X155.855 Y80.198 E0.06056
G1 X157.047 Y81.754 E0.06144
G1 X158.002 Y83.132 E0.05258
G1 X159.55 Y85.672 E0.09329
G1 X161.868 Y90.591 E0.17047
G1 X162.465 Y92.203 E0.05392
G1 X163.073 Y94.167 E0.06446
G1 X163.496 Y95.758 E0.0516
G1 X163.704 Y96.668 E0.02928
G1 X163.87 Y97.488 E0.02623
G1 X164.14 Y99.053 E0.04979
G1 X164.307 Y100.283 E0.03893
G1 X164.456 Y101.769 E0.0468
G1 X164.56 Y103.5 E0.05438
G1 X164.476 Y107.987 E0.1407
G1 X164.35 Y109.344 E0.04275
G1 X164.074 Y111.373 E0.0642
G1 X162.937 Y116.301 E0.15856
G1 X162.046 Y118.933 E0.08713
G1 X160.896 Y121.686 E0.09356
G1 X159.861 Y123.758 E0.07262
G1 X158.999 Y125.283 E0.05493
G1 X157.153 Y128.09 E0.10533
G1 X154.047 Y131.898 E0.15408
G1 X151.456 Y134.453 E0.11408
G1 X149.29 Y136.263 E0.08851
G1 X146.842 Y138.019 E0.09447
G1 X143.085 Y140.22 E0.13653
G1 X140.219 Y141.537 E0.09888
G1 X137.472 Y142.567 E0.09198
G1 X132.076 Y143.952 E0.17469
G1 X130.613 Y144.192 E0.04647
G1 X127.709 Y144.498 E0.09155
G1 X123.063 Y144.537 E0.14569
G1 X119.945 Y144.265 E0.09815
G1 X118.939 Y144.126 E0.03183
G1 X115.036 Y143.313 E0.12501
G1 X112.007 Y142.392 E0.09924
G1 X109.45 Y141.41 E0.08589
G1 X107.981 Y140.746 E0.05054
G1 X107.363 Y140.446 E0.02155
G1 X105.715 Y139.575 E0.05844
G1 X104.187 Y138.674 E0.05561
G1 X102.545 Y137.605 E0.06145
G1 X100.922 Y136.422 E0.06295
G1 X99.862 Y135.585 E0.04235
G1 X98.986 Y134.841 E0.03604
G1 X98.174 Y134.116 E0.03413
G1 X97.386 Y133.367 E0.03409
G1 X96.455 Y132.428 E0.04146
G1 X95.387 Y131.275 E0.04929
G1 X94.678 Y130.452 E0.03405
G1 X93.702 Y129.241 E0.04877
G1 X92.902 Y128.172 E0.04186
G1 X91.886 Y126.681 E0.05655
G1 X90.492 Y124.396 E0.08395
G1 X89.427 Y122.358 E0.07209
G1 X88.47 Y120.251 E0.07255
G1 X87.798 Y118.527 E0.05801
G1 X87.312 Y117.115 E0.04684
G1 X86.986 Y116.047 E0.035
G1 X86.529 Y114.331 E0.05567
G1 X86.111 Y112.371 E0.06284
G1 X85.729 Y109.99 E0.07562
G1 X85.562 Y108.418 E0.04955
G1 X85.467 Y107.082 E0.04202
G1 X85.426 Y106.06 E0.03206
G1 X85.412 Y104.879 E0.03702
G1 X85.497 Y102.398 E0.07783
G1 X85.89 Y98.948 E0.10888
G1 X86.185 Y97.212 E0.0552
G1 X86.417 Y96.143 E0.03432
G1 X87.58 Y92.082 E0.13243
G1 X88.473 Y89.76 E0.07802
G1 X89.853 Y86.809 E0.10212
G1 X91.197 Y84.391 E0.08674
G1 X92.328 Y82.642 E0.0653
G1 X93.719 Y80.736 E0.07399
G1 X94.639 Y79.597 E0.04592
;WIPE_START
M204 S1000
G1 X95.069 Y79.627 F10800
;WIPE_END
;WIPE_START
G1 F8640
G1 X96.704 Y77.611 E-0.59936
G1 X97.2 Y77.123 E-0.16064
;WIPE_END
G1 E-0.04 F2100
G1 Z0.6 F10800
; acceleration to travel
M204 S1500
G1 X139.626 Y75.333
; decel to extrusion
M204 S1000
G1 X149.936 Y74.898
; end travel
G1 Z0.2
G1 E0.8 F2100
;TYPE:Solid infill
;WIDTH:0.42013
G1 F1200
G1 X153.409 Y78.372 E0.15408
G1 X154.121 Y79.15 E0.03308
G1 X155.346 Y80.606 E0.05969
G1 X156.116 Y81.612 E0.03973
G1 X148.346 Y73.841 E0.34466
G1 X148.188 Y73.716 E0.00632
G1 X146.656 Y72.684 E0.05795
G1 X157.444 Y83.473 E0.47853
G1 X157.455 Y83.488 E0.00057
G1 X158.281 Y84.843 E0.04976
G1 X145.266 Y71.828 E0.57728
G1 X144.034 Y71.129 E0.04442
G1 X159.054 Y86.149 E0.66623
G1 X159.529 Y87.158 E0.03496
G1 X142.802 Y70.431 E0.74194
G1 X141.948 Y69.946 E0.03081
G1 X141.645 Y69.807 E0.01046
G1 X160.004 Y88.166 E0.81435
G1 X160.48 Y89.175 E0.03496
G1 X140.656 Y69.351 E0.87928
G1 X140.434 Y69.249 E0.00767
G1 X139.736 Y68.965 E0.02362
G1 X160.955 Y90.183 E0.94114
G1 X161.266 Y90.843 E0.02289
G1 X161.374 Y91.136 E0.00977
G1 X138.853 Y68.614 E0.99894
G1 X138.028 Y68.322 E0.02745
G1 X161.687 Y91.982 E1.04943
G1 X161.847 Y92.413 E0.01442
G1 X161.964 Y92.793 E0.01245
G1 X137.203 Y68.031 E1.09832
G1 X137.019 Y67.966 E0.00611
G1 X136.432 Y67.794 E0.01917
G1 X162.204 Y93.565 E1.1431
G1 X162.443 Y94.338 E0.02537
G1 X135.678 Y67.573 E1.18719
G1 X134.923 Y67.351 E0.02466
G1 X162.624 Y95.052 E1.22867
G1 X162.804 Y95.765 E0.02307
G1 X134.211 Y67.172 E1.26825
G1 X133.507 Y67.002 E0.02271
G1 X162.984 Y96.479 E1.30745
G1 X163.067 Y96.806 E0.01058
G1 X163.131 Y97.159 E0.01126
G1 X132.844 Y66.872 E1.34338
G1 X132.19 Y66.751 E0.02085
G1 X163.25 Y97.811 E1.37766
M73 P0 R231
G1 X163.369 Y98.463 E0.0208
G1 X131.537 Y66.631 E1.41194
G1 X130.883 Y66.51 E0.02085
G1 X163.488 Y99.116 E1.44622
G1 X163.495 Y99.154 E0.00121
G1 X163.574 Y99.735 E0.0184
G1 X130.264 Y66.424 E1.4775
G1 X129.655 Y66.349 E0.01924
G1 X163.658 Y100.352 E1.50822
G1 X163.718 Y100.945 E0.0187
G1 X129.046 Y66.273 E1.53789
G1 X128.846 Y66.248 E0.00632
G1 X128.463 Y66.224 E0.01202
G1 X163.777 Y101.538 E1.56638
G1 X163.806 Y101.821 E0.00891
G1 X163.824 Y102.118 E0.00933
G1 X127.894 Y66.187 E1.59369
G1 X127.324 Y66.151 E0.0179
G1 X163.858 Y102.685 E1.62047
G1 X163.891 Y103.252 E0.01782
G1 X126.754 Y66.115 E1.64724
G1 X126.234 Y66.081 E0.01633
G1 X126.187 Y66.081 E0.00148
G1 X163.902 Y103.796 E1.67284
G1 X163.892 Y104.319 E0.01642
G1 X125.649 Y66.076 E1.69629
G1 X125.11 Y66.07 E0.01689
G1 X163.882 Y104.842 E1.71974
G1 X163.872 Y105.366 E0.01642
G1 X124.572 Y66.065 E1.74319
G1 X124.39 Y66.064 E0.0057
G1 X124.048 Y66.075 E0.01072
G1 X163.862 Y105.889 E1.76597
G1 X163.853 Y106.413 E0.01642
G1 X123.533 Y66.093 E1.78841
M73 P1 R231
G1 X123.046 Y66.109 E0.01526
G1 X123.018 Y66.111 E0.00089
G1 X163.843 Y106.936 E1.8108
G1 X163.833 Y107.46 E0.01642
G1 X122.522 Y66.148 E1.83237
G1 X122.026 Y66.185 E0.01561
G1 X163.821 Y107.981 E1.85385
G1 X163.776 Y108.469 E0.01538
G1 X121.529 Y66.223 E1.87386
G1 X121.266 Y66.242 E0.0083
G1 X121.044 Y66.27 E0.00701
G1 X163.731 Y108.957 E1.8934
G1 X163.702 Y109.27 E0.00985
