; generated by SuperSlicer 2.4 on 2022-08-06 at 07:57:53 UTC

; 

; external perimeters extrusion width = 0.60mm
; perimeters extrusion width = 0.50mm
; infill extrusion width = 0.50mm
; solid infill extrusion width = 0.50mm
; top infill extrusion width = 0.45mm
; first layer extrusion width = 0.42mm

; external perimeters extrusion width = 0.60mm
; perimeters extrusion width = 0.50mm
; infill extrusion width = 0.50mm
; solid infill extrusion width = 0.50mm
; top infill extrusion width = 0.45mm
; first layer extrusion width = 0.42mm

; object:{"name":"Component85","id":"Component85.stl id:0 copy 0","object_center":[126.984233,99.221578,0.000000],"boundingbox_center":[126.984233,99.221578,10.999999],"boundingbox_size":[6.221590,6.219223,21.999998]}
; object:{"name":"Component85","id":"Component85.stl id:1 copy 0","object_center":[123.015766,110.778423,0.000000],"boundingbox_center":[123.015766,110.778423,10.999999],"boundingbox_size":[6.221590,6.219223,21.999998]}
; plater:{"center":[124.999999,105.000000,0.000000],"boundingbox_center":[124.999999,105.000000,10.999999],"boundingbox_size":[10.190057,17.776068,21.999998]}

M73 P0 R4
;TYPE:Custom
Start : M104 S0
M140 S0
PRINT_START EXTRUDER_TEMP=230 BED_TEMP=65
M107
G21 ; set units to millimeters
G90 ; use absolute coordinates
M83 ; use relative distances for extrusion
; Filament gcode
SET_PRESSURE_ADVANCE ADVANCE=0.035
M104 S230 ; set temperature
M109 S230 ; set temperature and wait for it to be reached
M107
;LAYER_CHANGE
;Z:0.2
;HEIGHT:0.2
;BEFORE_LAYER_CHANGE
G92 E0.0
;0.2


G1 E-0.8 F2100
G1 Z0.4 F10800
;AFTER_LAYER_CHANGE
;0.2
G1 Z0.6
M204 S1000
G1 X122.114 Y96.027
G1 Z0.2
G1 E0.8 F2100
;TYPE:Skirt
;WIDTH:0.52
G1 F1200
G1 X121.474 Y97.33 E0.05759
G1 X117.367 Y109.359 E0.50425
G1 X117.193 Y110.629 E0.05083
G1 X117.245 Y111.568 E0.0373
G1 X117.46 Y112.527 E0.03902
G1 X117.966 Y113.681 E0.04997
G1 X118.527 Y114.489 E0.03902
G1 X119.447 Y115.381 E0.05083
G1 X120.52 Y116.041 E0.04997
G1 X121.441 Y116.386 E0.03902
G1 X122.312 Y116.557 E0.03519
G1 X123.273 Y116.594 E0.03814
G1 X123.985 Y116.521 E0.02841
G1 X124.897 Y116.291 E0.03729
G1 X125.797 Y115.895 E0.03902
G1 X126.541 Y115.411 E0.0352
G1 X127.255 Y114.768 E0.03814
G1 X127.715 Y114.219 E0.02841
G1 X128.065 Y113.681 E0.02546
G1 X128.526 Y112.67 E0.04407
M73 P1 R4
G1 X132.633 Y100.641 E0.50425
G1 X132.807 Y99.371 E0.05083
G1 X132.643 Y97.855 E0.06051
G1 X132.322 Y96.892 E0.04024
G1 X131.684 Y95.781 E0.05083
G1 X130.818 Y94.837 E0.05083
G1 X129.811 Y94.132 E0.04873
G1 X128.58 Y93.62 E0.05291
G1 X127.614 Y93.432 E0.03902
G1 X126.015 Y93.479 E0.06347
G1 X124.508 Y93.95 E0.06261
G1 X123.881 Y94.296 E0.02841
G1 X123.113 Y94.874 E0.03814
G1 X122.154 Y95.982 E0.05814
G1 X122.521 Y96.277 F10800
G1 F1200
G1 X121.925 Y97.484 E0.05343
G1 X117.826 Y109.489 E0.5032
G1 X117.67 Y110.655 E0.04667
G1 X117.716 Y111.489 E0.03313
G1 X117.919 Y112.398 E0.03693
G1 X118.373 Y113.431 E0.04477
G1 X118.903 Y114.196 E0.03694
G1 X119.75 Y115.013 E0.04667
G1 X120.712 Y115.604 E0.04478
G1 X121.584 Y115.93 E0.03693
G1 X122.39 Y116.087 E0.03259
G1 X123.273 Y116.117 E0.03502
G1 X124.162 Y116.002 E0.03557
G1 X125.05 Y115.724 E0.03693
G1 X126.269 Y115.019 E0.05584
M73 P2 R4
G1 X126.923 Y114.426 E0.03502
G1 X127.479 Y113.723 E0.03556
G1 X128.075 Y112.516 E0.05343
G1 X132.174 Y100.511 E0.5032
G1 X132.33 Y99.345 E0.04667
G1 X132.175 Y97.946 E0.05584
G1 X131.891 Y97.096 E0.03556
G1 X131.307 Y96.074 E0.04667
G1 X130.514 Y95.205 E0.04667
G1 X129.561 Y94.539 E0.04613
G1 X128.462 Y94.083 E0.0472
G1 X127.549 Y93.904 E0.03693
G1 X126.08 Y93.951 E0.05827
G1 X124.724 Y94.375 E0.05638
G1 X124.153 Y94.688 E0.02581
G1 X123.446 Y95.216 E0.03502
G1 X122.56 Y96.232 E0.05346
; INIT printing object Component85.stl id:0 copy 0
;WIPE_START
G1 F8640
G1 X122.521 Y96.277 E-0.01385
G1 X121.925 Y97.484 E-0.31097
G1 X121.316 Y99.268 E-0.43517
;WIPE_END
G1 E-0.04 F2100
G1 Z0.6 F10800
; printing object Component85.stl id:0 copy 0
; acceleration to travel
M204 S1500
G1 X124.298 Y98.081
; decel to extrusion
M204 S800
G1 X124.877 Y97.85
; end travel
G1 Z0.2
G1 E0.8 F2100
;TYPE:External perimeter
;WIDTH:0.42
G1 F1200
G1 X124.655 Y98.278 E0.01513
G1 X124.515 Y98.74 E0.01512
G1 X124.468 Y99.218 E0.01506
G1 X124.49 Y99.544 E0.01023
G1 X124.553 Y99.864 E0.01022
G1 X124.72 Y100.312 E0.01501
G1 X124.968 Y100.726 E0.01512
G1 X125.294 Y101.084 E0.01518
G1 X125.682 Y101.37 E0.01513
G1 X126.116 Y101.581 E0.01513
G1 X126.583 Y101.702 E0.01514
G1 X127.064 Y101.733 E0.01511
G1 X127.543 Y101.674 E0.01514
G1 X128.003 Y101.521 E0.01518
G1 X128.422 Y101.282 E0.01513
G1 X128.789 Y100.97 E0.0151
G1 X129.091 Y100.593 E0.01515
G1 X129.313 Y100.165 E0.01513
G1 X129.453 Y99.703 E0.01513
G1 X129.5 Y99.225 E0.01507
G1 X129.478 Y98.9 E0.01022
G1 X129.416 Y98.581 E0.0102
G1 X129.251 Y98.13 E0.01503
G1 X129 Y97.717 E0.01516
G1 X128.675 Y97.359 E0.01517
G1 X128.286 Y97.073 E0.01513
G1 X127.853 Y96.863 E0.01511
G1 X127.385 Y96.74 E0.01515
G1 X126.904 Y96.71 E0.01513
G1 X126.425 Y96.769 E0.01513
G1 X125.966 Y96.922 E0.01518
G1 X125.546 Y97.161 E0.01513
G1 X125.179 Y97.473 E0.0151
G1 X124.915 Y97.803 E0.01326
;WIPE_START
M204 S1000
G1 X124.477 Y97.842 F10800
;WIPE_END
M204 S800
G1 X124.558 Y97.655
G1 F1200
G1 X124.608 Y97.574 E0.00298
G1 X124.802 Y97.325 E0.00989
G1 X125.146 Y96.99 E0.01507
G1 X125.541 Y96.716 E0.01508
G1 X125.822 Y96.572 E0.00988
M73 P3 R4
G1 X126.121 Y96.463 E0.00998
G1 X126.43 Y96.384 E0.01001
G1 X126.742 Y96.341 E0.00989
G1 X127.226 Y96.341 E0.01516
G1 X127.539 Y96.384 E0.0099
G1 X127.845 Y96.461 E0.00989
G1 X128.29 Y96.642 E0.01507
G1 X128.699 Y96.894 E0.01508
G1 X128.944 Y97.093 E0.00988
G1 X129.164 Y97.322 E0.00998
G1 X129.36 Y97.574 E0.01001
G1 X129.526 Y97.846 E0.00999
G1 X129.663 Y98.134 E0.01001
G1 X129.767 Y98.432 E0.0099
G1 X129.86 Y98.906 E0.01515
G1 X129.878 Y99.221 E0.00987
G1 X129.858 Y99.539 E0.01
G1 X129.806 Y99.854 E0.01001
G1 X129.72 Y100.157 E0.00989
G1 X129.525 Y100.6 E0.01517
G1 X129.361 Y100.869 E0.00989
G1 X129.167 Y101.118 E0.00989
G1 X128.822 Y101.454 E0.01507
G1 X128.427 Y101.728 E0.01508
G1 X128.147 Y101.871 E0.00988
G1 X127.848 Y101.981 E0.00998
G1 X127.538 Y102.06 E0.01001
G1 X127.226 Y102.103 E0.00989
G1 X126.745 Y102.103 E0.01507
G1 X126.271 Y102.024 E0.01508
G1 X125.97 Y101.931 E0.00989
G1 X125.682 Y101.803 E0.00988
G1 X125.269 Y101.549 E0.01519
G1 X125.025 Y101.351 E0.00988
G1 X124.805 Y101.121 E0.00998
G1 X124.608 Y100.869 E0.01001
G1 X124.443 Y100.6 E0.00989
G1 X124.249 Y100.157 E0.01516
G1 X124.162 Y99.854 E0.00991
G1 X124.109 Y99.539 E0.00999
G1 X124.091 Y99.222 E0.00996
G1 X124.111 Y98.904 E0.00999
G1 X124.162 Y98.589 E0.01001
G1 X124.249 Y98.286 E0.00989
G1 X124.443 Y97.843 E0.01517
G1 X124.527 Y97.706 E0.00503
;WIPE_START
M204 S1000
G1 X124.653 Y97.657 F10800
;WIPE_END
; INIT stop printing object Component85.stl id:0 copy 0
; INIT printing object Component85.stl id:1 copy 0
;WIPE_START
G1 F8640
G1 X124.951 Y97.459 E-0.08268
G1 X125.274 Y97.144 E-0.10398
G1 X125.644 Y96.888 E-0.10413
G1 X125.902 Y96.755 E-0.06683
G1 X126.18 Y96.654 E-0.0683
G1 X126.469 Y96.58 E-0.06881
G1 X126.756 Y96.541 E-0.06703
G1 X127.212 Y96.541 E-0.10534
G1 X127.5 Y96.58 E-0.06713
G1 X127.609 Y96.608 E-0.02576
;WIPE_END
G1 E-0.04 F2100
G1 Z0.6 F10800
; stop printing object Component85.stl id:0 copy 0
; printing object Component85.stl id:1 copy 0
; acceleration to travel
M204 S1500
G1 X124.099 Y106.394
; decel to extrusion
M204 S800
G1 X123.417 Y108.297
; end travel
G1 Z0.2
G1 E0.8 F2100
G1 F1200
G1 X122.935 Y108.267 E0.01513
G1 X122.457 Y108.326 E0.01513
G1 X121.997 Y108.479 E0.01518
G1 X121.578 Y108.718 E0.01513
G1 X121.211 Y109.03 E0.0151
G1 X120.909 Y109.407 E0.01515
G1 X120.687 Y109.835 E0.01513
G1 X120.547 Y110.297 E0.01512
G1 X120.5 Y110.775 E0.01506
G1 X120.521 Y111.1 E0.01023
G1 X120.584 Y111.42 E0.01022
G1 X120.751 Y111.869 E0.01501
G1 X121 Y112.282 E0.01512
G1 X121.325 Y112.641 E0.01518
G1 X121.714 Y112.927 E0.01513
G1 X122.147 Y113.138 E0.01513
G1 X122.615 Y113.259 E0.01514
G1 X123.096 Y113.29 E0.01511
G1 X123.575 Y113.231 E0.01514
G1 X124.034 Y113.078 E0.01518
G1 X124.454 Y112.839 E0.01513
G1 X124.821 Y112.527 E0.0151
G1 X125.123 Y112.15 E0.01515
G1 X125.345 Y111.722 E0.01513
G1 X125.484 Y111.26 E0.01513
G1 X125.531 Y110.782 E0.01507
G1 X125.509 Y110.457 E0.01022
G1 X125.447 Y110.137 E0.0102
G1 X125.282 Y109.687 E0.01503
G1 X125.032 Y109.274 E0.01516
G1 X124.706 Y108.916 E0.01517
G1 X124.318 Y108.63 E0.01513
G1 X123.884 Y108.42 E0.01511
G1 X123.475 Y108.312 E0.01327
;WIPE_START
M204 S1000
G1 X123.263 Y107.928 F10800
;WIPE_END
M204 S800
G1 X123.468 Y107.926
G1 F1200
G1 X123.57 Y107.94 E0.00325
G1 X123.876 Y108.018 E0.00989
G1 X124.321 Y108.199 E0.01507
G1 X124.731 Y108.451 E0.01508
G1 X124.975 Y108.649 E0.00988
G1 X125.195 Y108.879 E0.00998
G1 X125.392 Y109.131 E0.01001
G1 X125.558 Y109.403 E0.00999
G1 X125.695 Y109.691 E0.01001
G1 X125.799 Y109.989 E0.0099
G1 X125.892 Y110.463 E0.01515
G1 X125.909 Y110.778 E0.00987
G1 X125.89 Y111.096 E0.01
G1 X125.838 Y111.411 E0.01001
G1 X125.751 Y111.714 E0.00989
G1 X125.557 Y112.157 E0.01517
G1 X125.392 Y112.426 E0.00989
G1 X125.198 Y112.675 E0.00989
G1 X124.854 Y113.01 E0.01507
G1 X124.459 Y113.284 E0.01508
G1 X124.178 Y113.428 E0.00988
G1 X123.879 Y113.537 E0.00998
G1 X123.57 Y113.616 E0.01001
G1 X123.257 Y113.66 E0.00989
G1 X122.777 Y113.66 E0.01507
G1 X122.303 Y113.581 E0.01508
G1 X122.001 Y113.488 E0.00989
G1 X121.713 Y113.36 E0.00988
G1 X121.301 Y113.106 E0.01519
G1 X121.056 Y112.907 E0.00988
G1 X120.836 Y112.678 E0.00998
G1 X120.64 Y112.426 E0.01001
G1 X120.474 Y112.157 E0.00989
G1 X120.28 Y111.714 E0.01516
G1 X120.194 Y111.41 E0.00991
G1 X120.14 Y111.096 E0.00999
G1 X120.122 Y110.779 E0.00996
G1 X120.142 Y110.461 E0.00999
G1 X120.194 Y110.146 E0.01001
M73 P4 R4
G1 X120.28 Y109.843 E0.00989
G1 X120.475 Y109.4 E0.01517
G1 X120.639 Y109.131 E0.00989
G1 X120.834 Y108.882 E0.00989
G1 X121.178 Y108.546 E0.01507
G1 X121.573 Y108.273 E0.01508
G1 X121.853 Y108.129 E0.00988
G1 X122.152 Y108.019 E0.00998
G1 X122.462 Y107.94 E0.01001
G1 X122.774 Y107.897 E0.00989
G1 X123.258 Y107.898 E0.01516
G1 X123.408 Y107.918 E0.00477
;WIPE_START
M204 S1000
G1 X123.507 Y108.022 F10800
;WIPE_END
; INIT stop printing object Component85.stl id:1 copy 0
M106 S84.15
;LAYER_CHANGE
;Z:0.5
;HEIGHT:0.3
;BEFORE_LAYER_CHANGE
G92 E0.0
;0.5


;WIPE_START
G1 F8640
G1 X123.814 Y108.209 E-0.0829
G1 X124.231 Y108.378 E-0.10395
G1 X124.615 Y108.614 E-0.10411
G1 X124.839 Y108.797 E-0.06683
G1 X125.044 Y109.01 E-0.06827
G1 X125.227 Y109.245 E-0.06874
G1 X125.382 Y109.498 E-0.06846
G1 X125.509 Y109.767 E-0.06879
G1 X125.605 Y110.042 E-0.06714
G1 X125.656 Y110.3 E-0.0608
;WIPE_END
G1 E-0.04 F2100
G1 Z0.6 F10800
; stop printing object Component85.stl id:1 copy 0
;AFTER_LAYER_CHANGE
;0.5
M104 S225 ; set temperature
M140 S60 ; set bed temperature
G1 Z0.9
; acceleration to travel
M204 S1500
G1 X128.306 Y111.205
; decel to extrusion
M204 S1000
G1 X128.952 Y111.425
; end travel
G1 Z0.5
G1 E0.8 F2100
;TYPE:Skirt
;WIDTH:0.52
G1 F1350
G1 X132.633 Y100.641 E0.64757
G1 X132.807 Y99.371 E0.07282
G1 X132.643 Y97.855 E0.08669
G1 X132.322 Y96.892 E0.05765
G1 X131.684 Y95.781 E0.07282
G1 X130.818 Y94.837 E0.07282
G1 X129.811 Y94.132 E0.06981
G1 X128.58 Y93.62 E0.0758
G1 X127.614 Y93.432 E0.0559
G1 X126.015 Y93.479 E0.09092
G1 X124.508 Y93.95 E0.0897
G1 X123.881 Y94.296 E0.0407
G1 X123.113 Y94.874 E0.05464
G1 X122.114 Y96.027 E0.08669
G1 X121.474 Y97.33 E0.0825
G1 X117.367 Y109.359 E0.72235
G1 X117.193 Y110.629 E0.07282
G1 X117.245 Y111.568 E0.05343
G1 X117.46 Y112.527 E0.0559
G1 X117.966 Y113.681 E0.07159
G1 X118.527 Y114.489 E0.0559
G1 X119.447 Y115.381 E0.07282
G1 X120.52 Y116.041 E0.07159
M73 P5 R4
G1 X121.441 Y116.386 E0.05589
G1 X122.312 Y116.557 E0.05041
G1 X123.273 Y116.594 E0.05464
G1 X123.985 Y116.521 E0.0407
G1 X124.897 Y116.291 E0.05342
G1 X125.797 Y115.895 E0.0559
G1 X126.541 Y115.411 E0.05042
G1 X127.255 Y114.768 E0.05463
G1 X127.715 Y114.219 E0.0407
G1 X128.065 Y113.681 E0.03647
G1 X128.526 Y112.67 E0.06313
G1 X128.932 Y111.482 E0.07137
G1 X128.481 Y111.328 F10800
G1 F1350
G1 X132.174 Y100.511 E0.64953
G1 X132.33 Y99.345 E0.06686
G1 X132.175 Y97.946 E0.07999
G1 X131.891 Y97.096 E0.05094
G1 X131.307 Y96.074 E0.06686
G1 X130.514 Y95.205 E0.06686
G1 X129.561 Y94.539 E0.06608
G1 X128.462 Y94.083 E0.06761
G1 X127.549 Y93.904 E0.05291
G1 X126.08 Y93.951 E0.08347
G1 X124.724 Y94.375 E0.08077
G1 X124.153 Y94.688 E0.03697
G1 X123.446 Y95.216 E0.05016
G1 X122.521 Y96.277 E0.07999
G1 X121.925 Y97.484 E0.07653
G1 X117.826 Y109.489 E0.72085
G1 X117.67 Y110.655 E0.06686
G1 X117.716 Y111.489 E0.04747
G1 X117.919 Y112.398 E0.05291
G1 X118.373 Y113.431 E0.06414
G1 X118.903 Y114.196 E0.05291
G1 X119.75 Y115.013 E0.06686
G1 X120.712 Y115.604 E0.06414
G1 X121.584 Y115.93 E0.05291
G1 X122.39 Y116.087 E0.04669
G1 X123.273 Y116.117 E0.05017
G1 X124.162 Y116.002 E0.05095
G1 X125.05 Y115.724 E0.0529
M73 P6 R4
G1 X126.269 Y115.019 E0.07999
G1 X126.923 Y114.426 E0.05016
G1 X127.479 Y113.723 E0.05095
G1 X128.075 Y112.516 E0.07653
G1 X128.461 Y111.384 E0.06792
; INIT printing object Component85.stl id:0 copy 0
;WIPE_START
G1 F8640
G1 X129.525 Y108.27 E-0.76
;WIPE_END
G1 E-0.04 F2100
G1 Z0.9 F10800
; printing object Component85.stl id:0 copy 0
; acceleration to travel
M204 S1500
G1 X127.607 Y102.875
; decel to extrusion
M204 S800
G1 X127.226 Y101.801
; end travel
G1 Z0.5
G1 E0.8 F2100
;TYPE:External perimeter
;WIDTH:0.6
G1 F2021.1546
G1 X127.563 Y101.758 E0.02273
G1 X128.037 Y101.6 E0.03337
G1 X128.473 Y101.355 E0.03338
G1 X128.853 Y101.031 E0.03338
G1 X129.164 Y100.641 E0.03338
G1 X129.396 Y100.198 E0.03338
G1 X129.538 Y99.719 E0.03337
G1 X129.585 Y99.226 E0.03305
G1 X129.563 Y98.889 E0.02259
G1 X129.499 Y98.557 E0.02259
G1 X129.328 Y98.093 E0.03305
G1 X129.069 Y97.666 E0.03338
G1 X128.733 Y97.296 E0.03337
G1 X128.333 Y96.997 E0.03337
G1 X127.883 Y96.78 E0.03338
G1 X127.399 Y96.654 E0.03337
G1 X126.901 Y96.622 E0.03338
G1 X126.405 Y96.685 E0.03338
G1 X125.931 Y96.843 E0.03337
G1 X125.496 Y97.088 E0.03338
G1 X125.116 Y97.412 E0.03338
G1 X124.804 Y97.802 E0.03337
G1 X124.573 Y98.245 E0.03338
G1 X124.431 Y98.724 E0.03338
G1 X124.383 Y99.217 E0.03305
G1 X124.405 Y99.554 E0.02259
G1 X124.47 Y99.886 E0.02259
G1 X124.64 Y100.35 E0.03305
G1 X124.899 Y100.777 E0.03338
G1 X125.235 Y101.147 E0.03338
G1 X125.636 Y101.446 E0.03337
G1 X126.086 Y101.663 E0.03337
G1 X126.569 Y101.79 E0.03337
G1 X127.068 Y101.822 E0.03338
G1 X127.166 Y101.809 E0.00664
;WIPE_START
M204 S1000
G1 X127.432 Y102.072 F10800
;WIPE_END
M204 S800
G1 X127.256 Y102.017
G1 F2049.507
G1 X127.22 Y102.022 E0.00237
G1 X126.752 Y102.022 E0.03128
G1 X126.29 Y101.945 E0.03128
G1 X125.999 Y101.853 E0.02041
G1 X125.719 Y101.731 E0.02041
G1 X125.317 Y101.483 E0.03156
G1 X125.081 Y101.289 E0.02041
G1 X124.865 Y101.067 E0.02069
G1 X124.675 Y100.823 E0.02069
G1 X124.515 Y100.563 E0.02041
G1 X124.325 Y100.13 E0.03156
G1 X124.242 Y99.836 E0.02041
G1 X124.191 Y99.531 E0.02069
G1 X124.174 Y99.222 E0.02068
G1 X124.191 Y98.912 E0.02068
G1 X124.242 Y98.607 E0.02068
G1 X124.325 Y98.313 E0.02041
G1 X124.515 Y97.88 E0.03156
G1 X124.675 Y97.62 E0.02041
G1 X124.862 Y97.379 E0.02041
G1 X125.198 Y97.053 E0.03128
G1 X125.583 Y96.786 E0.03128
G1 X125.855 Y96.648 E0.02041
G1 X126.145 Y96.539 E0.02068
G1 X126.445 Y96.463 E0.02069
G1 X126.748 Y96.421 E0.02041
G1 X127.22 Y96.421 E0.03156
G1 X127.523 Y96.463 E0.02041
G1 X127.819 Y96.538 E0.02041
G1 X128.253 Y96.715 E0.03128
G1 X128.652 Y96.96 E0.03128
G1 X128.888 Y97.154 E0.02041
G1 X129.104 Y97.376 E0.02068
G1 X129.294 Y97.62 E0.02069
G1 X129.456 Y97.884 E0.02069
G1 X129.588 Y98.164 E0.02068
G1 X129.687 Y98.453 E0.02041
G1 X129.778 Y98.917 E0.03156
G1 X129.795 Y99.222 E0.02041
G1 X129.778 Y99.531 E0.02069
G1 X129.727 Y99.836 E0.02068
G1 X129.643 Y100.13 E0.02041
G1 X129.454 Y100.563 E0.03156
G1 X129.294 Y100.823 E0.02041
G1 X129.106 Y101.064 E0.02041
G1 X128.77 Y101.39 E0.03128
G1 X128.386 Y101.657 E0.03128
G1 X128.113 Y101.795 E0.02041
G1 X127.823 Y101.904 E0.02068
G1 X127.523 Y101.98 E0.02069
