; generated by SuperSlicer 2.5.59 on 2022-09-16 at 03:45:54 UTC

; 

; external perimeters extrusion width = 0.45mm
; perimeters extrusion width = 0.45mm
; infill extrusion width = 0.45mm
; solid infill extrusion width = 0.45mm
; top infill extrusion width = 0.40mm
; first layer extrusion width = 0.42mm

; object:{"name":"Engineering_Stick_Case_Lid","id":"Engineering_Stick_Case_Lid.stl id:0 copy 0","object_center":[125.000000,105.000000,0.000000],"boundingbox_center":[125.000000,105.000000,2.312500],"boundingbox_size":[185.000000,35.000000,4.625000]}
; plater:{"center":[125.000000,105.000000,0.000000],"boundingbox_center":[125.000000,105.000000,2.312500],"boundingbox_size":[185.000000,35.000000,4.625000]}

M73 P0 R63


; Pre-Processed for Cancel-Object support by preprocess_cancellation v0.2.0
; 1 known objects
EXCLUDE_OBJECT_DEFINE NAME=Engineering_Stick_Case_Lid_stl_id_0_copy_0 CENTER=124.882,105.031 POLYGON=[[37.507,87.725],[36.924,87.76],[36.357,87.864],[35.807,88.036],[35.281,88.272],[34.788,88.571],[34.334,88.926],[33.926,89.334],[33.571,89.788],[33.272,90.281],[33.036,90.807],[32.864,91.357],[32.76,91.924],[32.725,92.507],[32.725,117.493],[32.76,118.076],[32.864,118.643],[33.036,119.193],[33.272,119.719],[33.571,120.212],[33.926,120.666],[34.334,121.074],[34.788,121.429],[35.281,121.728],[35.807,121.964],[36.357,122.136],[36.924,122.24],[37.507,122.275],[212.493,122.275],[213.076,122.24],[213.643,122.136],[214.193,121.964],[214.719,121.728],[215.212,121.429],[215.666,121.074],[216.074,120.666],[216.429,120.212],[216.728,119.719],[216.964,119.193],[217.136,118.643],[217.24,118.076],[217.275,117.493],[217.275,92.656],[217.24,91.924],[217.136,91.357],[216.964,90.807],[216.728,90.281],[216.429,89.788],[216.074,89.334],[215.666,88.926],[215.212,88.571],[214.719,88.272],[214.193,88.036],[213.643,87.864],[213.076,87.76],[212.493,87.725],[37.507,87.725]]
;TYPE:Custom
M104 S0
M140 S0
START_PRINT BED=60 NOZZLE=215 PA=0.05896 INITIAL_TOOL=0 BED_MESH=Y PRINT_MIN_X=29.7844 PRINT_MIN_Y=84.7844 PRINT_MAX_X=220.216 PRINT_MAX_Y=125.216 PROBE_COUNT=3
;SET_FILAMENT_SENSOR SENSOR=encoder_sensor ENABLE=1
;PURGE_LINE
M107
G21 ; set units to millimeters
G90 ; use absolute coordinates
M83 ; use relative distances for extrusion
M900 K0.05 ; Filament gcode LA 1.5
M900 K30 ; Filament gcode LA 1.0
;_TOOLCHANGE 0
M107
;LAYER_CHANGE
;Z:0.2
;HEIGHT:0.2
;BEFORE_LAYER_CHANGE
G92 E0.0
;0.2


G1 E-0.8 F2100
M73 P0 R62
G1 Z0.4 F10800
;AFTER_LAYER_CHANGE
;0.2
G1 Z0.6
M204 S1000
G1 X35.061 Y85.688
G1 Z0.2
G1 E0.8 F2100
;TYPE:Skirt
;WIDTH:0.52
G1 F1200
G1 X34.018 Y86.157 E0.04536
G1 X32.804 Y86.995 E0.05854
G1 X32.175 Y87.602 E0.03466
G1 X31.623 Y88.279 E0.03466
G1 X31.031 Y89.258 E0.04536
G1 X30.688 Y90.061 E0.03466
G1 X30.335 Y91.494 E0.05854
G1 X30.261 Y92.5 E0.04002
G1 X30.261 Y117.5 E0.99173
G1 X30.443 Y119.1 E0.06388
G1 X30.784 Y120.192 E0.04536
G1 X31.157 Y120.982 E0.03466
G1 X31.995 Y122.196 E0.05854
G1 X32.804 Y123.005 E0.04536
G1 X34.018 Y123.843 E0.05854
G1 X35.061 Y124.312 E0.04536
G1 X36.494 Y124.665 E0.05854
G1 X37.5 Y124.739 E0.04002
G1 X212.5 Y124.739 E6.94213
G1 X214.1 Y124.557 E0.06388
G1 X215.192 Y124.216 E0.04536
G1 X215.982 Y123.843 E0.03466
G1 X216.721 Y123.377 E0.03466
G1 X217.825 Y122.398 E0.05854
G1 X218.531 Y121.498 E0.04536
G1 X218.969 Y120.742 E0.03466
G1 X219.312 Y119.939 E0.03466
G1 X219.665 Y118.506 E0.05854
G1 X219.739 Y117.5 E0.04002
G1 X219.734 Y92.365 E0.99709
G1 X219.557 Y90.9 E0.05854
G1 X219.216 Y89.808 E0.04536
G1 X218.531 Y88.502 E0.05854
G1 X218.005 Y87.804 E0.03466
G1 X217.399 Y87.175 E0.03466
G1 X216.498 Y86.469 E0.04536
G1 X215.192 Y85.784 E0.05854
G1 X214.1 Y85.443 E0.04536
G1 X212.635 Y85.266 E0.05854
G1 X37.5 Y85.261 E6.94749
M73 P1 R62
G1 X35.9 Y85.443 E0.06388
G1 X35.119 Y85.671 E0.03228
M104 S215 ; set temperature
;WIPE_START
G1 F8640
M204 S1250
G1 X34.018 Y86.157 E-0.27775
G1 X32.804 Y86.995 E-0.34074
G1 X32.362 Y87.42 E-0.14151
;WIPE_END
G1 E-0.04 F2100
G1 Z0.6 F10800
; printing object Engineering_Stick_Case_Lid.stl id:0 copy 0
EXCLUDE_OBJECT_START NAME=Engineering_Stick_Case_Lid_stl_id_0_copy_0
; acceleration to travel
M204 S1500
G1 X35.553 Y89.02
; decel to extrusion
M204 S1000
G1 X36.328 Y89.409
; end travel
G1 Z0.2
G1 E0.8 F2100
;TYPE:Internal perimeter
;WIDTH:0.377079
G1 F1200
G1 X36.905 Y89.254 E0.01661
G1 X37.547 Y89.191 E0.01791
G1 X212.349 Y89.191 E4.85695
G1 X212.558 Y89.198 E0.00581
G1 X213.095 Y89.254 E0.015
G1 X213.672 Y89.409 E0.01661
G1 X214.207 Y89.676 E0.01661
G1 X214.692 Y90.025 E0.01661
G1 X215.098 Y90.465 E0.01661
G1 X215.427 Y90.964 E0.01661
G1 X215.651 Y91.518 E0.01661
G1 X215.782 Y92.102 E0.01661
G1 X215.809 Y92.651 E0.01529
G1 X215.809 Y117.349 E0.68624
G1 X215.782 Y117.898 E0.01529
G1 X215.65 Y118.482 E0.01661
G1 X215.427 Y119.036 E0.01661
G1 X215.098 Y119.535 E0.01661
G1 X214.692 Y119.975 E0.01661
G1 X214.207 Y120.324 E0.01661
G1 X213.672 Y120.591 E0.01661
G1 X213.095 Y120.746 E0.01661
G1 X212.453 Y120.809 E0.01791
G1 X37.651 Y120.809 E4.85695
G1 X37.102 Y120.782 E0.01529
G1 X36.518 Y120.65 E0.01661
G1 X35.964 Y120.427 E0.01661
G1 X35.465 Y120.098 E0.01661
G1 X35.025 Y119.692 E0.01661
G1 X34.676 Y119.207 E0.01661
G1 X34.409 Y118.672 E0.01661
G1 X34.254 Y118.095 E0.01661
G1 X34.191 Y117.453 E0.01791
G1 X34.191 Y92.651 E0.68914
G1 X34.218 Y92.102 E0.01529
G1 X34.35 Y91.518 E0.01661
G1 X34.573 Y90.964 E0.01661
G1 X34.902 Y90.465 E0.01661
G1 X35.308 Y90.025 E0.01661
G1 X35.793 Y89.676 E0.01661
G1 X36.274 Y89.436 E0.01494
G1 X36.194 Y89.056 F10800
G1 F1200
G1 X36.837 Y88.883 E0.01851
G1 X37.535 Y88.814 E0.01949
G1 X212.349 Y88.814 E4.85727
M73 P1 R61
G1 X212.581 Y88.821 E0.00644
G1 X213.163 Y88.883 E0.01627
G1 X213.806 Y89.056 E0.01851
G1 X214.402 Y89.353 E0.01851
G1 X214.943 Y89.743 E0.01851
G1 X215.394 Y90.232 E0.01851
G1 X215.762 Y90.788 E0.01851
G1 X216.011 Y91.406 E0.01851
G1 X216.157 Y92.056 E0.01851
G1 X216.186 Y92.651 E0.01656
G1 X216.186 Y117.349 E0.68624
G1 X216.157 Y117.944 E0.01656
G1 X216.011 Y118.594 E0.01851
G1 X215.762 Y119.212 E0.01851
G1 X215.394 Y119.768 E0.01851
G1 X214.943 Y120.257 E0.01851
G1 X214.402 Y120.647 E0.01851
G1 X213.806 Y120.944 E0.01851
G1 X213.163 Y121.117 E0.01851
G1 X212.465 Y121.186 E0.01949
G1 X37.651 Y121.186 E4.85727
M73 P2 R61
G1 X37.056 Y121.157 E0.01656
G1 X36.406 Y121.011 E0.01851
G1 X35.788 Y120.762 E0.01851
G1 X35.232 Y120.394 E0.01851
G1 X34.743 Y119.943 E0.01851
G1 X34.353 Y119.402 E0.01851
G1 X34.056 Y118.806 E0.01851
G1 X33.883 Y118.163 E0.01851
G1 X33.814 Y117.465 E0.01949
G1 X33.814 Y92.651 E0.68946
G1 X33.843 Y92.056 E0.01656
G1 X33.99 Y91.406 E0.01851
G1 X34.238 Y90.788 E0.01851
G1 X34.606 Y90.232 E0.01851
G1 X35.057 Y89.743 E0.01851
G1 X35.598 Y89.353 E0.01851
G1 X36.14 Y89.082 E0.01684
G1 X36.098 Y88.708 F10800
G1 F1200
G1 X36.294 Y88.629 E0.00586
G1 X37.01 Y88.468 E0.02041
G1 X37.524 Y88.437 E0.01429
G1 X212.349 Y88.437 E4.85759
G1 X212.603 Y88.445 E0.00707
G1 X213.231 Y88.512 E0.01754
G1 X213.94 Y88.702 E0.02041
G1 X214.597 Y89.031 E0.02041
G1 X215.193 Y89.46 E0.02041
G1 X215.691 Y90 E0.02041
G1 X216.096 Y90.613 E0.02041
G1 X216.371 Y91.294 E0.02041
G1 X216.532 Y92.01 E0.02041
G1 X216.563 Y92.651 E0.01782
G1 X216.563 Y117.349 E0.68624
G1 X216.555 Y117.603 E0.00707
G1 X216.488 Y118.231 E0.01754
G1 X216.298 Y118.94 E0.02041
G1 X215.969 Y119.597 E0.02041
G1 X215.54 Y120.193 E0.02041
G1 X215 Y120.691 E0.02041
G1 X214.387 Y121.096 E0.02041
G1 X213.706 Y121.371 E0.02041
G1 X212.99 Y121.532 E0.02041
G1 X212.476 Y121.563 E0.01429
G1 X37.651 Y121.563 E4.85759
G1 X37.397 Y121.555 E0.00707
G1 X36.769 Y121.488 E0.01753
G1 X36.06 Y121.298 E0.02041
G1 X35.403 Y120.969 E0.02041
G1 X34.807 Y120.54 E0.02041
G1 X34.309 Y120 E0.02041
G1 X33.904 Y119.387 E0.02041
G1 X33.629 Y118.706 E0.02041
G1 X33.468 Y117.99 E0.02041
G1 X33.437 Y117.476 E0.01429
G1 X33.437 Y92.651 E0.68977
G1 X33.445 Y92.397 E0.00707
G1 X33.512 Y91.769 E0.01754
G1 X33.702 Y91.06 E0.02041
G1 X34.031 Y90.403 E0.02041
G1 X34.46 Y89.807 E0.02041
G1 X35 Y89.309 E0.02041
G1 X35.613 Y88.904 E0.02041
G1 X36.043 Y88.731 E0.01288
G1 X35.951 Y88.341 F10800
;TYPE:External perimeter
G1 F1200
G1 X36.438 Y88.19 E0.01417
G1 X36.965 Y88.093 E0.01489
G1 X37.512 Y88.06 E0.01524
G1 X212.488 Y88.06 E4.86176
M73 P3 R61
G1 X213.035 Y88.093 E0.01524
G1 X213.562 Y88.19 E0.01489
G1 X214.074 Y88.349 E0.01489
G1 X214.563 Y88.569 E0.0149
G1 X215.022 Y88.847 E0.01489
G1 X215.444 Y89.177 E0.01489
G1 X215.823 Y89.556 E0.01489
G1 X216.153 Y89.978 E0.0149
G1 X216.431 Y90.437 E0.01489
G1 X216.651 Y90.926 E0.0149
G1 X216.81 Y91.438 E0.01489
G1 X216.907 Y91.965 E0.01489
G1 X216.94 Y92.651 E0.01909
G1 X216.94 Y117.488 E0.69009
G1 X216.907 Y118.035 E0.01524
G1 X216.81 Y118.562 E0.01489
G1 X216.651 Y119.074 E0.01489
G1 X216.431 Y119.563 E0.0149
G1 X216.153 Y120.022 E0.01489
G1 X215.823 Y120.444 E0.0149
G1 X215.444 Y120.823 E0.01489
G1 X215.022 Y121.153 E0.0149
G1 X214.563 Y121.431 E0.01489
G1 X214.074 Y121.651 E0.0149
G1 X213.562 Y121.81 E0.01489
G1 X213.035 Y121.907 E0.01489
G1 X212.488 Y121.94 E0.01524
G1 X37.512 Y121.94 E4.86176
G1 X36.965 Y121.907 E0.01524
G1 X36.438 Y121.81 E0.01489
G1 X35.926 Y121.651 E0.01489
G1 X35.437 Y121.431 E0.0149
G1 X34.978 Y121.153 E0.01489
G1 X34.556 Y120.823 E0.0149
G1 X34.177 Y120.444 E0.0149
G1 X33.847 Y120.022 E0.0149
G1 X33.569 Y119.563 E0.01489
G1 X33.349 Y119.074 E0.0149
G1 X33.19 Y118.562 E0.0149
G1 X33.093 Y118.035 E0.01489
G1 X33.06 Y117.488 E0.01524
G1 X33.06 Y92.512 E0.69395
G1 X33.093 Y91.965 E0.01524
G1 X33.19 Y91.438 E0.01489
G1 X33.349 Y90.926 E0.0149
G1 X33.569 Y90.437 E0.0149
G1 X33.847 Y89.978 E0.01489
G1 X34.177 Y89.556 E0.0149
G1 X34.556 Y89.177 E0.01489
G1 X34.978 Y88.847 E0.0149
G1 X35.437 Y88.569 E0.01489
G1 X35.895 Y88.363 E0.01395
;WIPE_START
M204 S1250
G1 X36.255 Y88.601 F10800
;WIPE_END
;WIPE_START
G1 F8640
G1 X36.486 Y88.384 E-0.0731
G1 X36.989 Y88.292 E-0.11819
G1 X37.518 Y88.26 E-0.12246
G1 X39.451 Y88.26 E-0.44625
;WIPE_END
G1 E-0.04 F2100
G1 Z0.6 F10800
; acceleration to travel
M204 S1500
G1 X180.973 Y90.542
; decel to extrusion
M204 S1000
G1 X215.363 Y91.096
; end travel
G1 Z0.2
G1 E0.8 F2100
;TYPE:Solid infill
;WIDTH:0.419757
G1 F1200
G1 X214.46 Y90.193 E0.04002
G1 X214.365 Y90.119 E0.00376
G1 X214.221 Y90.006 E0.00573
G1 X213.908 Y89.817 E0.01147
G1 X213.574 Y89.667 E0.01147
G1 X213.321 Y89.588 E0.00831
G1 X215.412 Y91.679 E0.09266
G1 X215.442 Y91.775 E0.00316
G1 X215.508 Y92.135 E0.01147
G1 X215.519 Y92.319 E0.00578
G1 X212.681 Y89.481 E0.12578
G1 X212.544 Y89.472 E0.00431
G1 X212.139 Y89.472 E0.01267
G1 X215.534 Y92.867 E0.15041
G1 X215.534 Y93.4 E0.01671
G1 X211.606 Y89.472 E0.17405
G1 X211.073 Y89.472 E0.01671
G1 X215.534 Y93.933 E0.19768
G1 X215.534 Y94.466 E0.01671
G1 X210.54 Y89.472 E0.22131
G1 X210.006 Y89.472 E0.01671
G1 X215.534 Y95 E0.24495
G1 X215.534 Y95.533 E0.01671
G1 X209.473 Y89.472 E0.26858
M73 P3 R60
G1 X208.94 Y89.472 E0.01671
G1 X215.534 Y96.066 E0.29221
G1 X215.534 Y96.599 E0.01671
G1 X208.406 Y89.472 E0.31585
G1 X207.873 Y89.472 E0.01671
G1 X215.534 Y97.133 E0.33948
G1 X215.534 Y97.666 E0.01671
G1 X207.34 Y89.472 E0.36311
G1 X206.807 Y89.472 E0.01671
G1 X215.534 Y98.199 E0.38674
G1 X215.534 Y98.733 E0.01671
G1 X206.273 Y89.472 E0.41038
G1 X205.74 Y89.472 E0.01671
G1 X215.534 Y99.266 E0.43401
G1 X215.534 Y99.799 E0.01671
G1 X205.207 Y89.472 E0.45764
G1 X204.673 Y89.472 E0.01671
G1 X215.534 Y100.332 E0.48128
G1 X215.534 Y100.866 E0.01671
G1 X204.14 Y89.472 E0.50491
G1 X203.607 Y89.472 E0.01671
G1 X215.534 Y101.399 E0.52854
G1 X215.534 Y101.932 E0.01671
G1 X203.074 Y89.472 E0.55218
G1 X202.54 Y89.472 E0.01671
G1 X215.534 Y102.465 E0.57581
G1 X215.534 Y102.999 E0.01671
G1 X202.007 Y89.472 E0.59944
G1 X201.474 Y89.472 E0.01671
G1 X215.534 Y103.532 E0.62308
G1 X215.534 Y104.065 E0.01671
G1 X200.94 Y89.472 E0.64671
G1 X200.407 Y89.472 E0.01671
G1 X215.534 Y104.598 E0.67034
G1 X215.534 Y105.132 E0.01671
G1 X199.874 Y89.472 E0.69398
G1 X199.34 Y89.472 E0.01671
G1 X215.534 Y105.665 E0.71761
G1 X215.534 Y106.198 E0.01671
G1 X198.807 Y89.472 E0.74124
G1 X198.274 Y89.472 E0.01671
G1 X215.534 Y106.732 E0.76488
G1 X215.534 Y107.265 E0.01671
G1 X197.741 Y89.472 E0.78851
M73 P4 R60
G1 X197.207 Y89.472 E0.01671
G1 X215.534 Y107.798 E0.81214
G1 X215.534 Y108.331 E0.01671
G1 X196.674 Y89.472 E0.83578
G1 X196.141 Y89.472 E0.01671
G1 X215.534 Y108.865 E0.85941
G1 X215.534 Y109.398 E0.01671
G1 X195.607 Y89.472 E0.88304
G1 X195.074 Y89.472 E0.01671
G1 X215.534 Y109.931 E0.90668
G1 X215.534 Y110.464 E0.01671
G1 X194.541 Y89.472 E0.93031
G1 X194.008 Y89.472 E0.01671
G1 X215.534 Y110.998 E0.95394
G1 X215.534 Y111.531 E0.01671
G1 X193.474 Y89.472 E0.97757
G1 X192.941 Y89.472 E0.01671
G1 X215.534 Y112.064 E1.00121
G1 X215.534 Y112.598 E0.01671
G1 X192.408 Y89.472 E1.02484
G1 X191.874 Y89.472 E0.01671
G1 X215.534 Y113.131 E1.04847
G1 X215.534 Y113.664 E0.01671
G1 X191.341 Y89.472 E1.07211
G1 X190.808 Y89.472 E0.01671
G1 X215.534 Y114.197 E1.09574
G1 X215.534 Y114.731 E0.01671
G1 X190.275 Y89.472 E1.11937
G1 X189.741 Y89.472 E0.01671
G1 X215.534 Y115.264 E1.14301
G1 X215.534 Y115.797 E0.01671
G1 X189.208 Y89.472 E1.16664
G1 X188.675 Y89.472 E0.01671
G1 X215.534 Y116.33 E1.19027
G1 X215.534 Y116.864 E0.01671
G1 X188.141 Y89.472 E1.21391
G1 X187.608 Y89.472 E0.01671
G1 X215.534 Y117.397 E1.23754
G1 X215.534 Y117.445 E0.00151
G1 X215.508 Y117.865 E0.01319
G1 X215.502 Y117.899 E0.00107
G1 X187.075 Y89.472 E1.25978
G1 X186.542 Y89.472 E0.01671
G1 X215.407 Y118.337 E1.27921
G1 X215.333 Y118.575 E0.00779
G1 X215.264 Y118.728 E0.00526
G1 X186.008 Y89.472 E1.29651
M73 P5 R60
G1 X185.475 Y89.472 E0.01671
G1 X215.081 Y119.077 E1.31201
M73 P5 R59
G1 X214.994 Y119.221 E0.00527
G1 X214.861 Y119.391 E0.00675
G1 X184.942 Y89.472 E1.3259
G1 X184.408 Y89.471 E0.01671
G1 X214.607 Y119.67 E1.33829
G1 X214.509 Y119.768 E0.00434
G1 X214.32 Y119.916 E0.00754
G1 X183.875 Y89.471 E1.3492
G1 X183.342 Y89.471 E0.01671
G1 X213.999 Y120.128 E1.35859
G1 X213.908 Y120.183 E0.00332
G1 X213.641 Y120.304 E0.00919
G1 X182.809 Y89.471 E1.36635
G1 X182.275 Y89.471 E0.01671
G1 X213.241 Y120.437 E1.37228
G1 X212.865 Y120.508 E0.01198
G1 X212.784 Y120.513 E0.00256
G1 X181.742 Y89.471 E1.37564
G1 X181.209 Y89.471 E0.01671
G1 X212.271 Y120.534 E1.37655
G1 X211.738 Y120.534 E0.01671
G1 X180.675 Y89.471 E1.37655
G1 X180.142 Y89.471 E0.01671
G1 X211.204 Y120.534 E1.37655
G1 X210.671 Y120.534 E0.01671
G1 X179.609 Y89.471 E1.37655
G1 X179.076 Y89.471 E0.01671
G1 X210.138 Y120.534 E1.37655
G1 X209.604 Y120.534 E0.01671
G1 X178.542 Y89.471 E1.37655
G1 X178.009 Y89.471 E0.01671
G1 X209.071 Y120.534 E1.37655
G1 X208.538 Y120.534 E0.01671
G1 X177.476 Y89.471 E1.37655
G1 X176.942 Y89.471 E0.01671
G1 X208.005 Y120.534 E1.37656
M73 P6 R59
G1 X207.471 Y120.534 E0.01671
G1 X176.409 Y89.471 E1.37656
G1 X175.876 Y89.471 E0.01671
G1 X206.938 Y120.534 E1.37656
G1 X206.405 Y120.534 E0.01671
G1 X175.343 Y89.471 E1.37656
G1 X174.809 Y89.471 E0.01671
G1 X205.872 Y120.534 E1.37656
G1 X205.338 Y120.534 E0.01671
G1 X174.276 Y89.471 E1.37656
G1 X173.743 Y89.471 E0.01671
G1 X204.805 Y120.534 E1.37656
G1 X204.272 Y120.534 E0.01671
G1 X173.209 Y89.471 E1.37656
G1 X172.676 Y89.471 E0.01671
G1 X203.738 Y120.534 E1.37656
G1 X203.205 Y120.534 E0.01671
G1 X172.143 Y89.471 E1.37656
G1 X171.609 Y89.471 E0.01671
G1 X202.672 Y120.534 E1.37656
G1 X202.139 Y120.534 E0.01671
G1 X171.076 Y89.471 E1.37656
M73 P6 R58
G1 X170.543 Y89.471 E0.01671
G1 X201.605 Y120.534 E1.37656
G1 X201.072 Y120.534 E0.01671
G1 X170.01 Y89.471 E1.37657
G1 X169.476 Y89.471 E0.01671
G1 X200.539 Y120.534 E1.37657
G1 X200.006 Y120.534 E0.01671
G1 X168.943 Y89.471 E1.37657
G1 X168.41 Y89.471 E0.01671
G1 X199.472 Y120.534 E1.37657
G1 X198.939 Y120.534 E0.01671
G1 X167.876 Y89.471 E1.37657
M73 P7 R58
G1 X167.343 Y89.471 E0.01671
G1 X198.406 Y120.534 E1.37657
G1 X197.873 Y120.534 E0.01671
G1 X166.81 Y89.471 E1.37657
G1 X166.277 Y89.471 E0.01671
G1 X197.339 Y120.534 E1.37657
G1 X196.806 Y120.534 E0.01671
G1 X165.743 Y89.471 E1.37657
G1 X165.21 Y89.471 E0.01671
G1 X196.273 Y120.534 E1.37657
G1 X195.739 Y120.534 E0.01671
