; generated by SuperSlicer 2.5.59 on 2022-09-21 at 06:18:20 UTC

; 

; external perimeters extrusion width = 0.40mm
; perimeters extrusion width = 0.40mm
; infill extrusion width = 0.50mm
; solid infill extrusion width = 0.56mm
; top infill extrusion width = 0.40mm
; first layer extrusion width = 0.80mm

; object:{"name":"Filament_Sensor_Mount","id":"Filament_Sensor_Mount.STL id:0 copy 0","object_center":[125.000000,105.000000,0.000000],"boundingbox_center":[125.000000,105.000000,24.249598],"boundingbox_size":[60.000000,58.878681,48.499195]}
; plater:{"center":[125.000000,105.000000,0.000000],"boundingbox_center":[125.000000,105.000000,24.249598],"boundingbox_size":[60.000000,58.878681,48.499195]}

M73 P0 R66


; Pre-Processed for Cancel-Object support by preprocess_cancellation v0.2.0
; 1 known objects
EXCLUDE_OBJECT_DEFINE NAME=Filament_Sensor_Mount_STL_id_0_copy_0 CENTER=124.995,103.858 POLYGON=[[105.007,75.761],[103.453,75.886],[102.485,76.09],[101.26,76.503],[100.1,77.074],[98.993,77.819],[98.056,78.648],[97.368,79.417],[96.513,80.661],[95.943,81.82],[95.53,83.045],[95.292,84.228],[95.2,85.561],[95.313,87.023],[95.497,87.947],[95.844,89.055],[113.7,132.973],[114.961,134.235],[135.039,134.235],[136.3,132.973],[154.184,88.98],[154.515,87.905],[154.725,86.763],[154.8,85.561],[154.714,84.271],[154.47,83.046],[154.304,82.511],[154.039,81.781],[153.487,80.661],[152.741,79.554],[151.913,78.616],[150.974,77.793],[149.9,77.074],[148.497,76.409],[147.557,76.102],[146.247,75.843],[144.993,75.761],[105.007,75.761]]
;TYPE:Custom
Start : M104 S0
M140 S0
PRINT_START EXTRUDER_TEMP=225 BED_TEMP=70
M107
G21 ; set units to millimeters
G90 ; use absolute coordinates
M83 ; use relative distances for extrusion
; Filament gcode
SET_PRESSURE_ADVANCE ADVANCE=0.02
SET_PRESSURE_ADVANCE EXTRUDER=extruder SMOOTH_TIME=0.04
;_TOOLCHANGE 0
M104 S225 ; set temperature
M109 S225 ; set temperature and wait for it to be reached
M107
;LAYER_CHANGE
;Z:0.25
;HEIGHT:0.25
;BEFORE_LAYER_CHANGE
G92 E0.0
;0.25


G1 E-0.8 F2100
M73 P0 R65
G1 Z0.4 F36000
;AFTER_LAYER_CHANGE
;0.25
G1 Z0.65
M204 S1250
G1 X94.295 Y76.927
G1 Z0.25
G1 E0.8 F2100
;TYPE:Skirt
;WIDTH:0.4
G1 F1800
G1 X93.269 Y78.381 E0.06406
G1 X92.925 Y78.974 E0.02466
G1 X92.205 Y80.512 E0.06113
G1 X91.973 Y81.149 E0.0244
G1 X91.513 Y82.868 E0.06407
G1 X91.395 Y83.536 E0.0244
G1 X91.249 Y85.228 E0.06114
G1 X91.249 Y85.893 E0.02395
G1 X91.394 Y87.58 E0.06094
G1 X91.51 Y88.242 E0.0242
G1 X91.965 Y89.951 E0.06366
G1 X92.196 Y90.588 E0.02441
G1 X93.138 Y92.54 E0.078
G1 X112.096 Y122.864 E1.28743
G1 X112.504 Y123.41 E0.02451
G1 X113.266 Y124.121 E0.03752
G1 X114.433 Y124.762 E0.04795
G1 X115.441 Y125.014 E0.03739
G1 X116.006 Y125.053 E0.02038
G1 X133.992 Y125.053 E0.64748
G1 X134.839 Y124.965 E0.03066
G1 X135.816 Y124.665 E0.0368
G1 X136.732 Y124.123 E0.0383
G1 X137.494 Y123.412 E0.03754
G1 X137.903 Y122.865 E0.02458
G1 X156.862 Y92.54 E1.28747
G1 X157.804 Y90.588 E0.07801
G1 X158.031 Y89.963 E0.02393
G1 X158.473 Y88.329 E0.06094
G1 X158.591 Y87.67 E0.02411
G1 X158.75 Y85.909 E0.06365
G1 X158.749 Y85.209 E0.02521
G1 X158.587 Y83.437 E0.06406
G1 X158.468 Y82.777 E0.02414
G1 X158.024 Y81.137 E0.06114
G1 X157.796 Y80.516 E0.02383
G1 X156.956 Y78.747 E0.07049
G1 X155.767 Y77.001 E0.07603
G1 X155.334 Y76.485 E0.02426
G1 X154.076 Y75.226 E0.06407
G1 X153.559 Y74.793 E0.02426
G1 X151.947 Y73.682 E0.07049
G1 X150.045 Y72.764 E0.07603
G1 X149.423 Y72.537 E0.02383
G1 X147.784 Y72.092 E0.06114
G1 X147.129 Y71.974 E0.02397
G1 X145.077 Y71.8 E0.07411
G1 X105.005 Y71.795 E1.44257
G1 X102.975 Y71.956 E0.0733
G1 X102.307 Y72.073 E0.0244
G1 X100.588 Y72.534 E0.06407
G1 X99.955 Y72.764 E0.02426
G1 X98.486 Y73.449 E0.05836
G1 X97.768 Y73.863 E0.02982
G1 X96.44 Y74.793 E0.05836
G1 X95.933 Y75.218 E0.02383
G1 X94.728 Y76.415 E0.06114
G1 X94.334 Y76.882 E0.02198
G1 X94.641 Y77.109 F36000
G1 F1800
G1 X93.552 Y78.581 E0.06593
G1 X93.238 Y79.12 E0.02245
G1 X92.308 Y81.239 E0.08329
G1 X91.847 Y82.958 E0.06407
G1 X91.74 Y83.565 E0.02222
G1 X91.594 Y85.258 E0.06114
G1 X91.739 Y87.55 E0.08268
G1 X92.3 Y89.862 E0.08563
G1 X92.51 Y90.442 E0.02222
G1 X93.431 Y92.356 E0.07647
G1 X112.39 Y122.68 E1.28743
G1 X112.771 Y123.189 E0.02286
G1 X113.481 Y123.85 E0.03491
G1 X114.562 Y124.44 E0.04435
G1 X115.479 Y124.67 E0.03404
G1 X116.006 Y124.707 E0.019
G1 X133.992 Y124.707 E0.64748
G1 X134.782 Y124.624 E0.0286
G1 X135.672 Y124.35 E0.0335
G1 X136.516 Y123.852 E0.03532
G1 X137.227 Y123.191 E0.03494
G1 X137.609 Y122.681 E0.02292
G1 X156.569 Y92.356 E1.28747
G1 X157.49 Y90.442 E0.07648
G1 X157.697 Y89.873 E0.02179
G1 X158.246 Y87.639 E0.08283
G1 X158.405 Y85.878 E0.06365
G1 X158.404 Y85.24 E0.02295
G1 X158.134 Y82.867 E0.08597
G1 X157.483 Y80.662 E0.08277
G1 X156.656 Y78.921 E0.0694
G1 X155.484 Y77.2 E0.07495
G1 X155.089 Y76.73 E0.02209
G1 X153.361 Y75.077 E0.08609
G1 X151.774 Y73.982 E0.0694
G1 X149.899 Y73.078 E0.07494
G1 X149.333 Y72.871 E0.02169
G1 X147.097 Y72.319 E0.08291
G1 X145.077 Y72.146 E0.07296
G1 X105.005 Y72.141 E1.44257
G1 X103.005 Y72.301 E0.07223
G1 X102.397 Y72.408 E0.02222
G1 X100.101 Y73.078 E0.08609
G1 X98.632 Y73.763 E0.05836
G1 X97.967 Y74.147 E0.02764
G1 X96.177 Y75.464 E0.08
G1 X94.972 Y76.661 E0.06114
G1 X94.676 Y77.061 E0.01789
G1 X94.953 Y77.264 F36000
G1 F1800
G1 X93.834 Y78.781 E0.06783
G1 X93.552 Y79.267 E0.02024
G1 X92.642 Y81.328 E0.08111
G1 X92.085 Y83.595 E0.08404
G1 X91.939 Y85.287 E0.06114
G1 X92.085 Y87.52 E0.08054
G1 X92.635 Y89.772 E0.08347
G1 X92.824 Y90.296 E0.02004
G1 X93.725 Y92.172 E0.07494
G1 X112.684 Y122.497 E1.28743
G1 X113.038 Y122.968 E0.02121
G1 X113.696 Y123.578 E0.03231
G1 X114.69 Y124.118 E0.04074
G1 X115.517 Y124.326 E0.03069
G1 X116.006 Y124.36 E0.01762
G1 X133.992 Y124.36 E0.64748
G1 X134.725 Y124.282 E0.02654
G1 X135.527 Y124.036 E0.03021
G1 X136.301 Y123.58 E0.03234
G1 X136.961 Y122.97 E0.03235
G1 X137.316 Y122.498 E0.02126
G1 X156.275 Y92.173 E1.28747
G1 X157.176 Y90.295 E0.07495
G1 X157.363 Y89.783 E0.01964
G1 X157.901 Y87.607 E0.08067
G1 X158.06 Y85.847 E0.06365
G1 X158.06 Y85.272 E0.02069
G1 X157.8 Y82.958 E0.08381
G1 X157.169 Y80.808 E0.08064
G1 X156.356 Y79.094 E0.06832
G1 X155.2 Y77.399 E0.07386
G1 X154.844 Y76.975 E0.01991
G1 X153.162 Y75.361 E0.08393
G1 X151.601 Y74.282 E0.06832
G1 X149.752 Y73.392 E0.07386
G1 X149.242 Y73.205 E0.01956
G1 X147.065 Y72.664 E0.08077
G1 X145.077 Y72.493 E0.07181
G1 X105.005 Y72.487 E1.44257
M73 P1 R65
G1 X103.035 Y72.646 E0.07115
G1 X102.487 Y72.742 E0.02003
G1 X100.248 Y73.392 E0.08392
G1 X98.779 Y74.077 E0.05836
G1 X98.166 Y74.431 E0.02547
G1 X96.421 Y75.709 E0.07787
G1 X95.216 Y76.907 E0.06114
G1 X94.988 Y77.216 E0.01383
;WIPE_START
G1 F28800
G1 X93.834 Y78.781 E-0.13468
G1 X93.552 Y79.267 E-0.03895
G1 X92.642 Y81.328 E-0.15607
G1 X92.085 Y83.595 E-0.16171
G1 X91.939 Y85.287 E-0.11765
G1 X92.081 Y87.462 E-0.15093
;WIPE_END
G1 E-0.04 F2100
G1 Z0.65 F36000
; printing object Filament_Sensor_Mount.STL id:0 copy 0
EXCLUDE_OBJECT_START NAME=Filament_Sensor_Mount_STL_id_0_copy_0
G1 X99.476 Y80.867
G1 Z0.25
G1 E0.8 F2100
;TYPE:Internal perimeter
;WIDTH:0.746349
G1 F1800
G1 X100.357 Y79.992 E0.08942
G1 X101.319 Y79.319 E0.0845
G1 X102.505 Y78.755 E0.09454
G1 X103.767 Y78.417 E0.09407
G1 X105.118 Y78.3 E0.09767
G1 X144.955 Y78.305 E2.86815
G1 X146.301 Y78.43 E0.09736
G1 X147.501 Y78.755 E0.08954
G1 X148.565 Y79.251 E0.0845
G1 X149.646 Y79.997 E0.09455
G1 X150.571 Y80.921 E0.09417
G1 X151.242 Y81.879 E0.08419
G1 X151.808 Y83.069 E0.09485
G1 X152.11 Y84.182 E0.08303
G1 X152.169 Y84.683 E0.03629
G1 X152.242 Y85.644 E0.06941
G1 X152.133 Y86.855 E0.08757
G1 X151.811 Y88.048 E0.08895
G1 X151.288 Y89.17 E0.08909
G1 X150.582 Y90.185 E0.08903
G1 X149.666 Y91.109 E0.09366
G1 X148.601 Y91.853 E0.09359
G1 X147.503 Y92.365 E0.08722
G1 X146.237 Y92.705 E0.09435
G1 X144.912 Y92.821 E0.09579
G1 X140.753 Y92.821 E0.29942
G1 X139.755 Y92.833 E0.07183
G1 X138.842 Y92.917 E0.06605
G1 X138.386 Y93 E0.03338
G1 X137.842 Y93.15 E0.04056
G1 X137.108 Y93.39 E0.05561
G1 X136.441 Y93.701 E0.05305
G1 X135.957 Y93.969 E0.03984
G1 X135.24 Y94.468 E0.06284
G1 X134.895 Y94.755 E0.03235
G1 X134.233 Y95.411 E0.06706
G1 X133.932 Y95.767 E0.03359
G1 X133.425 Y96.492 E0.06369
G1 X133.192 Y96.893 E0.0334
G1 X132.815 Y97.703 E0.06428
G1 X132.658 Y98.132 E0.03292
G1 X132.427 Y98.999 E0.06457
G1 X132.339 Y99.551 E0.04029
G1 X132.261 Y100.546 E0.0718
G1 X132.261 Y118.548 E1.29614
G1 X117.75 Y118.548 E1.04473
G1 X117.739 Y100.848 E1.27435
G1 X117.729 Y100.322 E0.03786
G1 X117.661 Y99.556 E0.05542
G1 X117.57 Y98.982 E0.0418
G1 X117.35 Y98.163 E0.06106
G1 X117.186 Y97.703 E0.03517
G1 X116.808 Y96.894 E0.06427
G1 X116.581 Y96.5 E0.03279
G1 X116.074 Y95.776 E0.0636
G1 X115.769 Y95.411 E0.03424
G1 X115.132 Y94.777 E0.06472
G1 X114.785 Y94.486 E0.03258
G1 X114.063 Y93.981 E0.06344
G1 X113.667 Y93.753 E0.03289
G1 X113.119 Y93.498 E0.0435
G1 X112.418 Y93.215 E0.05443
G1 X111.576 Y92.99 E0.06279
G1 X111.131 Y92.911 E0.03255
G1 X110.008 Y92.822 E0.08108
G1 X105.12 Y92.822 E0.35196
G1 X103.74 Y92.701 E0.09967
G1 X102.525 Y92.376 E0.0906
G1 X101.398 Y91.852 E0.08947
G1 X100.328 Y91.105 E0.09395
G1 X99.459 Y90.236 E0.08849
G1 X98.71 Y89.166 E0.094
G1 X98.191 Y88.052 E0.08849
G1 X97.855 Y86.791 E0.094
G1 X97.749 Y85.561 E0.08888
G1 X97.856 Y84.327 E0.08915
G1 X98.196 Y83.057 E0.09469
G1 X98.718 Y81.942 E0.08864
G1 X99.442 Y80.916 E0.09036
G1 X98.904 Y80.384 F36000
G1 F1800
G1 X99.877 Y79.417 E0.09871
G1 X100.942 Y78.671 E0.09362
G1 X102.246 Y78.051 E0.10395
G1 X103.637 Y77.679 E0.1037
G1 X105.086 Y77.553 E0.10472
G1 X144.989 Y77.559 E2.87295
G1 X146.434 Y77.693 E0.10448
G1 X147.759 Y78.052 E0.0988
G1 X148.937 Y78.601 E0.09361
G1 X150.126 Y79.421 E0.10395
G1 X151.145 Y80.44 E0.10378
G1 X151.889 Y81.502 E0.09339
G1 X152.511 Y82.809 E0.10417
G1 X152.868 Y84.125 E0.09819
G1 X152.957 Y85.105 E0.07086
G1 X152.986 Y85.711 E0.04366
G1 X152.87 Y86.987 E0.09224
G1 X152.514 Y88.305 E0.09826
G1 X151.938 Y89.543 E0.09836
G1 X151.158 Y90.664 E0.09832
G1 X150.149 Y91.682 E0.10317
G1 X148.975 Y92.502 E0.10312
G1 X147.759 Y93.069 E0.09659
G1 X146.367 Y93.442 E0.10374
G1 X144.944 Y93.567 E0.10284
G1 X140.753 Y93.568 E0.30177
G1 X139.749 Y93.583 E0.07231
G1 X138.584 Y93.719 E0.08442
G1 X137.674 Y93.971 E0.06801
G1 X137.203 Y94.17 E0.0368
G1 X136.371 Y94.59 E0.06711
G1 X135.42 Y95.286 E0.08484
G1 X134.541 Y96.198 E0.09116
G1 X133.868 Y97.209 E0.08746
G1 X133.379 Y98.325 E0.08773
G1 X133.148 Y99.192 E0.06457
G1 X133.082 Y99.617 E0.03096
G1 X133.008 Y100.546 E0.06711
G1 X133.007 Y119.294 E1.34987
G1 X117.004 Y119.294 E1.15217
G1 X116.994 Y101.847 E1.25615
G1 X116.985 Y100.389 E0.10503
G1 X116.875 Y99.287 E0.07974
G1 X116.747 Y98.795 E0.03657
G1 X116.509 Y98.018 E0.05848
G1 X115.968 Y96.926 E0.08774
G1 X115.242 Y95.94 E0.0882
G1 X114.357 Y95.098 E0.08793
G1 X113.353 Y94.43 E0.08687
G1 X112.529 Y94.047 E0.06539
G1 X111.989 Y93.873 E0.04083
G1 X111.065 Y93.655 E0.0684
G1 X110.007 Y93.568 E0.07639
G1 X105.087 Y93.568 E0.35426
G1 X103.611 Y93.439 E0.10671
G1 X102.269 Y93.08 E0.09996
G1 X101.024 Y92.502 E0.09885
G1 X99.847 Y91.679 E0.10338
G1 X98.885 Y90.718 E0.09792
G1 X98.061 Y89.541 E0.10342
G1 X97.487 Y88.308 E0.09792
G1 X97.117 Y86.92 E0.10342
G1 X97 Y85.561 E0.09821
G1 X97.118 Y84.197 E0.09852
G1 X97.492 Y82.8 E0.10415
G1 X98.07 Y81.565 E0.09815
G1 X98.869 Y80.433 E0.09982
G1 X98.332 Y79.9 F36000
G1 F1800
G1 X99.396 Y78.843 E0.10801
G1 X100.565 Y78.024 E0.10273
G1 X101.987 Y77.348 E0.11335
G1 X103.507 Y76.941 E0.11334
G1 X105.054 Y76.807 E0.11177
G1 X145.024 Y76.812 E2.87775
G1 X146.567 Y76.955 E0.11161
G1 X148.016 Y77.348 E0.10806
G1 X149.309 Y77.951 E0.10272
G1 X150.606 Y78.845 E0.11335
G1 X151.719 Y79.958 E0.11339
G1 X152.536 Y81.125 E0.10259
G1 X153.213 Y82.549 E0.11349
G1 X153.605 Y83.993 E0.10769
G1 X153.729 Y85.344 E0.09773
G1 X153.729 Y85.778 E0.03125
G1 X153.608 Y87.119 E0.09692
G1 X153.218 Y88.561 E0.10758
G1 X152.587 Y89.917 E0.10764
G1 X151.733 Y91.143 E0.10761
G1 X150.632 Y92.255 E0.11268
G1 X149.349 Y93.151 E0.11266
G1 X148.015 Y93.773 E0.10595
G1 X146.498 Y94.18 E0.11313
G1 X144.977 Y94.313 E0.10989
G1 X140.753 Y94.314 E0.30412
G1 X139.817 Y94.326 E0.0674
G1 X138.783 Y94.439 E0.07491
G1 X137.914 Y94.678 E0.06486
G1 X137.518 Y94.846 E0.03098
G1 X136.797 Y95.203 E0.05791
G1 X135.945 Y95.816 E0.07562
G1 X135.153 Y96.626 E0.08151
G1 X134.545 Y97.524 E0.07813
G1 X134.114 Y98.47 E0.07479
G1 X133.977 Y98.979 E0.03797
G1 X133.825 Y99.682 E0.05176
G1 X133.754 Y100.546 E0.06241
G1 X133.754 Y119.79 E1.38555
G1 X133.712 Y120.041 E0.0183
G1 X116.278 Y120.041 E1.25519
G1 X116.259 Y119.956 E0.0063
G1 X116.247 Y101.848 E1.30371
G1 X116.242 Y100.455 E0.1003
G1 X116.157 Y99.513 E0.0681
G1 X116.026 Y98.989 E0.03887
G1 X115.833 Y98.334 E0.04917
G1 X115.357 Y97.355 E0.07838
G1 X114.715 Y96.468 E0.07879
G1 X113.93 Y95.709 E0.07864
G1 X113.038 Y95.107 E0.07749
G1 X112.215 Y94.724 E0.06539
G1 X111.796 Y94.594 E0.03153
G1 X110.999 Y94.398 E0.05912
G1 X110.007 Y94.314 E0.07169
G1 X105.054 Y94.314 E0.35655
G1 X103.481 Y94.177 E0.11375
G1 X102.014 Y93.784 E0.10932
G1 X100.65 Y93.151 E0.10823
G1 X99.366 Y92.254 E0.11282
G1 X98.311 Y91.199 E0.10736
G1 X97.412 Y89.915 E0.11285
G1 X96.783 Y88.563 E0.10736
G1 X96.379 Y87.049 E0.11284
G1 X96.251 Y85.561 E0.10754
G1 X96.38 Y84.068 E0.10789
G1 X96.788 Y82.544 E0.11361
G1 X97.422 Y81.189 E0.10766
G1 X98.297 Y79.949 E0.10928
G1 X97.76 Y79.417 F36000
;TYPE:External perimeter
G1 F1800
G1 X98.915 Y78.268 E0.1173
G1 X100.188 Y77.377 E0.11184
G1 X101.728 Y76.645 E0.12275
G1 X103.377 Y76.203 E0.12297
G1 X105.022 Y76.061 E0.11882
G1 X145.058 Y76.066 E2.88256
G1 X146.701 Y76.218 E0.11874
G1 X148.273 Y76.645 E0.11733
G1 X149.681 Y77.301 E0.11184
G1 X151.085 Y78.269 E0.12275
G1 X152.293 Y79.477 E0.12299
G1 X153.184 Y80.749 E0.11179
G1 X153.916 Y82.289 E0.12281
G1 X154.342 Y83.86 E0.11719
G1 X154.498 Y85.561 E0.12299
G1 X154.472 Y85.846 E0.02058
G1 X154.345 Y87.251 E0.10159
G1 X153.922 Y88.818 E0.11689
G1 X153.236 Y90.29 E0.11691
G1 X152.309 Y91.623 E0.11689
G1 X151.114 Y92.829 E0.12219
G1 X149.723 Y93.8 E0.12219
G1 X148.271 Y94.477 E0.11532
G1 X146.628 Y94.918 E0.12252
G1 X145.01 Y95.06 E0.11694
G1 X140.753 Y95.061 E0.30647
G1 X139.885 Y95.069 E0.06249
G1 X138.981 Y95.158 E0.0654
G1 X138.113 Y95.398 E0.06486
G1 X137.833 Y95.522 E0.02203
G1 X137.224 Y95.816 E0.04872
G1 X136.47 Y96.347 E0.06641
G1 X135.764 Y97.053 E0.07188
G1 X135.221 Y97.84 E0.06881
G1 X134.831 Y98.681 E0.06675
G1 X134.698 Y99.172 E0.03664
G1 X134.569 Y99.747 E0.04244
G1 X134.5 Y100.546 E0.05771
G1 X134.5 Y119.79 E1.38555
M73 P1 R64
G1 X134.462 Y120.187 E0.02875
G1 X134.291 Y120.581 E0.0309
G1 X134.128 Y120.735 E0.01613
G1 X133.939 Y120.787 E0.01413
G1 X116.223 Y120.787 E1.27548
G1 X115.87 Y120.734 E0.0257
G1 X115.78 Y120.648 E0.00901
G1 X115.621 Y120.419 E0.02006
G1 X115.512 Y120.041 E0.02835
G1 X115.501 Y101.848 E1.3098
G1 X115.499 Y100.521 E0.09558
G1 X115.43 Y99.754 E0.05542
G1 X115.305 Y99.183 E0.04211
G1 X115.156 Y98.649 E0.03987
G1 X114.746 Y97.783 E0.06902
G1 X114.188 Y96.997 E0.06939
G1 X113.502 Y96.321 E0.06935
G1 X112.723 Y95.783 E0.06812
G1 X111.9 Y95.4 E0.06539
G1 X111.603 Y95.315 E0.02223
G1 X110.933 Y95.141 E0.04984
G1 X110.006 Y95.061 E0.067
G1 X105.022 Y95.061 E0.35885
G1 X103.351 Y94.914 E0.12078
G1 X101.758 Y94.488 E0.11869
G1 X100.277 Y93.8 E0.11761
G1 X98.884 Y92.828 E0.12226
G1 X97.737 Y91.681 E0.1168
G1 X96.763 Y90.29 E0.12227
G1 X96.078 Y88.819 E0.1168
G1 X95.641 Y87.178 E0.12226
G1 X95.502 Y85.561 E0.11688
G1 X95.642 Y83.938 E0.11726
G1 X96.085 Y82.287 E0.12307
G1 X96.774 Y80.813 E0.11717
G1 X97.725 Y79.466 E0.11874
;WIPE_START
G1 X98.151 Y79.499 F36000
;WIPE_END
;WIPE_START
G1 F28800
G1 X99.044 Y78.422 E-0.0969
G1 X100.289 Y77.551 E-0.10526
G1 X101.797 Y76.833 E-0.11568
G1 X103.412 Y76.401 E-0.11583
G1 X105.03 Y76.261 E-0.1125
G1 X108.117 Y76.261 E-0.21383
;WIPE_END
G1 E-0.04 F2100
G1 Z0.65 F36000
; acceleration to travel
M204 S1500
G1 X132.357 Y82.71
; decel to extrusion
M204 S1250
G1 X139.647 Y84.65
; end travel
G1 Z0.25
G1 E0.8 F2100
;TYPE:Internal perimeter
G1 F1800
G1 X139.613 Y84.842 E0.01405
