; generated by SuperSlicer 2.5.59 on 2022-10-22 at 18:17:56 UTC

; 

; external perimeters extrusion width = 0.45mm
; perimeters extrusion width = 0.45mm
; infill extrusion width = 0.45mm
; solid infill extrusion width = 0.45mm
; top infill extrusion width = 0.40mm
; first layer extrusion width = 0.42mm

; object:{"name":"Floating_Base_LOWPOLY","id":"Floating_Base_LOWPOLY.STL id:0 copy 0","object_center":[125.000000,105.000000,0.000000],"boundingbox_center":[125.000000,105.000000,11.700000],"boundingbox_size":[68.400000,70.159028,23.400000]}
; plater:{"center":[125.000000,105.000000,0.000000],"boundingbox_center":[125.000000,105.000000,11.700000],"boundingbox_size":[68.400000,70.159028,23.400000]}

M73 P0 R183


; Pre-Processed for Cancel-Object support by preprocess_cancellation v0.2.0
; 1 known objects
EXCLUDE_OBJECT_DEFINE NAME=Floating_Base_LOWPOLY_STL_id_0_copy_0 CENTER=125.030,104.846 POLYGON=[[125.0,70.151],[109.88,73.602],[97.754,83.272],[91.025,97.245],[91.025,112.755],[97.754,126.728],[109.88,136.398],[125.0,139.849],[140.12,136.398],[152.246,126.728],[158.975,112.755],[158.975,97.245],[152.246,83.272],[140.12,73.602],[125.0,70.151]]
;TYPE:Custom
Start : M104 S0
M140 S0
PRINT_START EXTRUDER_TEMP=220 BED_TEMP=50
M107
G21 ; set units to millimeters
G90 ; use absolute coordinates
M83 ; use relative distances for extrusion
M900 K0
;_TOOLCHANGE 0
M109 S220 ; set temperature and wait for it to be reached
M107
;LAYER_CHANGE
;Z:0.2
;HEIGHT:0.2
;BEFORE_LAYER_CHANGE
G92 E0.0
;0.2
TIMELAPSE_TAKE_FRAME

G1 Z0.4 F10800
;AFTER_LAYER_CHANGE
;0.2
G1 Z0.6
M204 S1000
G1 X104.05 Y88.083
M73 P0 R182
G1 Z0.2
;TYPE:Skirt
;WIDTH:0.52
G1 F754.591
G1 X103.845 Y88.34 E0.01499
G1 X98.784 Y98.848 E0.53208
G1 X98.711 Y99.168 E0.01499
G1 X98.711 Y110.832 E0.53208
G1 X98.784 Y111.152 E0.01499
G1 X103.845 Y121.66 E0.53208
G1 X104.05 Y121.917 E0.01499
G1 X113.169 Y129.189 E0.53208
G1 X113.465 Y129.332 E0.01499
G1 X121.694 Y131.198 E0.38494
G1 X128.305 Y131.199 E0.30158
G1 X136.535 Y129.332 E0.38502
G1 X136.831 Y129.189 E0.01499
G1 X145.95 Y121.917 E0.53208
G1 X146.155 Y121.66 E0.01499
G1 X151.216 Y111.152 E0.53208
G1 X151.289 Y110.832 E0.01499
G1 X151.289 Y99.168 E0.53208
G1 X151.216 Y98.848 E0.01499
G1 X146.155 Y88.34 E0.53208
G1 X145.95 Y88.083 E0.01499
G1 X136.831 Y80.811 E0.53208
G1 X136.535 Y80.668 E0.01499
G1 X128.089 Y78.793 E0.39471
G1 X121.695 Y78.801 E0.29166
G1 X113.465 Y80.668 E0.38502
G1 X113.169 Y80.811 E0.01499
G1 X104.097 Y88.045 E0.52934
G1 Z0.6 F10800
; printing object Floating_Base_LOWPOLY.STL id:0 copy 0
EXCLUDE_OBJECT_START NAME=Floating_Base_LOWPOLY_STL_id_0_copy_0
; acceleration to travel
M204 S1500
G1 X114.898 Y94.173
; decel to extrusion
M204 S800
G1 X120.671 Y97.448
; end travel
G1 Z0.2
;TYPE:Internal perimeter
;WIDTH:0.42
G1 F900
G1 X120.671 Y112.929 E0.55821
G1 X129.329 Y112.929 E0.31219
G1 X129.329 Y97.071 E0.5718
G1 X120.671 Y97.071 E0.31219
G1 X120.671 Y97.388 E0.01143
G1 X121.048 Y97.448 F10800
;TYPE:External perimeter
G1 F900
G1 X121.048 Y112.552 E0.54461
G1 X128.952 Y112.552 E0.285
G1 X128.952 Y97.448 E0.54461
G1 X121.108 Y97.448 E0.28283
;WIPE_START
M204 S1000
G1 X120.648 Y97.448 F10800
;WIPE_END
G1 Z0.6
M204 S800
G1 X119.123 Y97.448
G1 Z0.2
;TYPE:Internal perimeter
G1 F900
G1 X119.123 Y91.302 E0.22161
G1 X114.677 Y91.302 E0.16032
G1 X114.677 Y118.698 E0.98784
G1 X119.123 Y118.698 E0.16032
G1 X119.123 Y97.508 E0.76406
G1 X118.746 Y97.448 F10800
;TYPE:External perimeter
G1 F900
G1 X118.746 Y91.679 E0.20802
G1 X115.054 Y91.679 E0.13313
G1 X115.054 Y118.321 E0.96064
G1 X118.746 Y118.321 E0.13313
G1 X118.746 Y97.508 E0.75046
;WIPE_START
M204 S1000
G1 X119.092 Y97.248 F10800
;WIPE_END
G1 Z0.6
; acceleration to travel
M204 S1500
G1 X126.778 Y97.378
; decel to extrusion
M204 S800
G1 X130.877 Y97.448
; end travel
G1 Z0.2
;TYPE:Internal perimeter
G1 F900
G1 X130.877 Y118.698 E0.76622
G1 X135.323 Y118.698 E0.16032
G1 X135.323 Y91.302 E0.98784
G1 X130.877 Y91.302 E0.16032
G1 X130.877 Y97.388 E0.21945
G1 X131.254 Y97.448 F10800
;TYPE:External perimeter
G1 F900
G1 X131.254 Y118.321 E0.75263
G1 X134.946 Y118.321 E0.13313
G1 X134.946 Y91.679 E0.96064
G1 X131.254 Y91.679 E0.13313
G1 X131.254 Y97.388 E0.20585
;WIPE_START
M204 S1000
G1 X130.908 Y97.648 F10800
;WIPE_END
G1 Z0.6
; acceleration to travel
M204 S1500
G1 X128.746 Y94.406
; decel to extrusion
M204 S800
G1 X127.592 Y92.676
; end travel
G1 Z0.2
;TYPE:Internal perimeter
G1 F900
G1 X127.682 Y92.607 E0.00408
G1 X128.285 Y91.822 E0.03571
G1 X128.664 Y90.907 E0.03571
G1 X128.786 Y89.978 E0.03379
G1 X128.814 Y80.864 E0.32861
G1 X135.864 Y82.444 E0.26051
G1 X144.574 Y89.39 E0.4017
G1 X149.409 Y99.429 E0.40176
G1 X149.409 Y110.571 E0.40176
G1 X144.574 Y120.61 E0.40176
G1 X135.862 Y127.558 E0.4018
G1 X133.05 Y128.207 E0.10405
G1 X128.814 Y129.147 E0.15648
G1 X128.786 Y120.022 E0.32903
G1 X128.664 Y119.093 E0.03379
G1 X128.285 Y118.178 E0.03571
G1 X127.682 Y117.393 E0.03571
G1 X126.897 Y116.79 E0.03571
G1 X125.982 Y116.411 E0.03571
G1 X125 Y116.282 E0.03571
G1 X124.018 Y116.411 E0.03571
G1 X123.103 Y116.79 E0.03571
G1 X122.318 Y117.393 E0.03571
G1 X121.715 Y118.178 E0.03571
G1 X121.336 Y119.093 E0.03571
G1 X121.214 Y120.022 E0.03379
G1 X121.186 Y129.144 E0.32892
G1 X114.136 Y127.556 E0.26057
G1 X105.426 Y120.61 E0.40172
G1 X100.591 Y110.571 E0.40176
G1 X100.591 Y99.429 E0.40176
G1 X105.426 Y89.39 E0.40176
G1 X114.136 Y82.444 E0.40172
G1 X121.186 Y80.856 E0.26057
G1 X121.214 Y89.978 E0.32892
G1 X121.336 Y90.907 E0.03379
G1 X121.715 Y91.822 E0.03571
G1 X122.318 Y92.607 E0.03571
G1 X123.103 Y93.21 E0.03571
G1 X124.018 Y93.589 E0.03571
G1 X125 Y93.718 E0.03571
G1 X125.982 Y93.589 E0.03571
G1 X126.897 Y93.21 E0.03571
G1 X127.545 Y92.713 E0.02946
G1 X127.363 Y92.377 F10800
;TYPE:External perimeter
G1 F900
G1 X127.413 Y92.338 E0.00229
G1 X127.956 Y91.631 E0.03213
G1 X128.297 Y90.808 E0.03213
G1 X128.409 Y89.952 E0.03113
G1 X128.438 Y80.394 E0.34466
G1 X136.031 Y82.095 E0.28057
G1 X144.877 Y89.149 E0.40794
G1 X149.786 Y99.343 E0.40797
G1 X149.786 Y110.657 E0.40797
G1 X144.877 Y120.851 E0.40797
G1 X136.03 Y127.906 E0.40799
G1 X133.134 Y128.574 E0.10719
G1 X128.438 Y129.617 E0.17343
G1 X128.409 Y120.048 E0.34506
G1 X128.297 Y119.192 E0.03113
G1 X127.956 Y118.369 E0.03213
G1 X127.413 Y117.662 E0.03213
G1 X126.706 Y117.119 E0.03213
G1 X125.883 Y116.778 E0.03213
G1 X125 Y116.662 E0.03213
G1 X124.117 Y116.778 E0.03213
G1 X123.294 Y117.119 E0.03213
G1 X122.587 Y117.662 E0.03213
G1 X122.044 Y118.369 E0.03213
G1 X121.703 Y119.192 E0.03213
G1 X121.591 Y120.048 E0.03113
G1 X121.562 Y129.616 E0.345
G1 X113.969 Y127.905 E0.28064
M73 P0 R181
G1 X105.123 Y120.851 E0.40795
G1 X100.214 Y110.657 E0.40797
G1 X100.214 Y99.343 E0.40797
G1 X105.123 Y89.149 E0.40797
G1 X113.969 Y82.095 E0.40795
G1 X121.562 Y80.384 E0.28064
G1 X121.563 Y80.831 E0.0161
G1 X121.591 Y89.952 E0.32891
G1 X121.703 Y90.808 E0.03113
G1 X122.044 Y91.631 E0.03213
G1 X122.587 Y92.338 E0.03213
G1 X123.294 Y92.881 E0.03213
G1 X124.117 Y93.222 E0.03213
G1 X125 Y93.338 E0.03213
G1 X125.883 Y93.222 E0.03213
G1 X126.706 Y92.881 E0.03213
G1 X127.315 Y92.414 E0.02767
;WIPE_START
M204 S1000
G1 X127.732 Y92.53 F10800
;WIPE_END
G1 Z0.6
; acceleration to travel
M204 S1500
G1 X137.07 Y90.124
; decel to extrusion
M204 S1000
G1 X143.301 Y88.519
; end travel
G1 Z0.2
;TYPE:Solid infill
;WIDTH:0.420579
G1 F953.39149
G1 X144.359 Y89.577 E0.05403
G1 X144.854 Y90.606 E0.04122
G1 X141.692 Y87.443 E0.16149
G1 X139.059 Y85.344 E0.1216
G1 X145.35 Y91.635 E0.32124
G1 X145.845 Y92.663 E0.04122
G1 X136.426 Y83.244 E0.48099
G1 X135.742 Y82.699 E0.03156
G1 X135.233 Y82.585 E0.01883
G1 X146.34 Y93.692 E0.56716
G1 X146.836 Y94.72 E0.04122
G1 X134.546 Y82.431 E0.62755
G1 X133.859 Y82.277 E0.02543
G1 X147.331 Y95.749 E0.68794
G1 X147.826 Y96.778 E0.04122
G1 X133.172 Y82.123 E0.74833
G1 X132.484 Y81.969 E0.02543
G1 X148.322 Y97.806 E0.80871
G1 X148.817 Y98.835 E0.04122
G1 X131.797 Y81.815 E0.8691
G1 X131.11 Y81.661 E0.02543
G1 X149.133 Y99.684 E0.92034
G1 X149.133 Y100.218 E0.01925
G1 X130.423 Y81.507 E0.95544
G1 X129.735 Y81.353 E0.02543
G1 X149.133 Y100.751 E0.99053
G1 X149.133 Y101.284 E0.01925
G1 X129.088 Y81.239 E1.02358
G1 X129.087 Y81.771 E0.0192
G1 X149.133 Y101.818 E1.02366
G1 X149.133 Y102.351 E0.01925
G1 X129.085 Y82.302 E1.02374
G1 X129.083 Y82.834 E0.0192
G1 X149.133 Y102.884 E1.02383
G1 X149.133 Y103.417 E0.01925
G1 X129.082 Y83.366 E1.02391
M73 P1 R181
G1 X129.08 Y83.897 E0.0192
G1 X149.133 Y103.951 E1.02399
G1 X149.133 Y104.484 E0.01925
G1 X129.078 Y84.429 E1.02407
G1 X129.077 Y84.961 E0.0192
G1 X135.143 Y91.027 E0.30975
G1 X135.598 Y91.027 E0.01644
G1 X135.598 Y91.482 E0.01644
G1 X149.133 Y105.017 E0.69115
G1 X149.133 Y105.55 E0.01925
G1 X135.598 Y92.015 E0.69115
G1 X135.598 Y92.549 E0.01925
G1 X149.133 Y106.084 E0.69115
G1 X149.133 Y106.617 E0.01925
G1 X135.598 Y93.082 E0.69115
G1 X135.598 Y93.615 E0.01925
G1 X149.133 Y107.15 E0.69115
G1 X149.133 Y107.684 E0.01925
G1 X135.598 Y94.148 E0.69115
G1 X135.598 Y94.682 E0.01925
G1 X149.133 Y108.217 E0.69115
G1 X149.133 Y108.75 E0.01925
G1 X135.598 Y95.215 E0.69115
G1 X135.598 Y95.748 E0.01925
G1 X149.133 Y109.283 E0.69115
G1 X149.133 Y109.817 E0.01925
G1 X135.598 Y96.282 E0.69115
G1 X135.598 Y96.815 E0.01925
G1 X149.133 Y110.35 E0.69115
G1 X149.133 Y110.508 E0.00572
G1 X149.012 Y110.761 E0.01014
G1 X135.598 Y97.348 E0.68493
G1 X135.598 Y97.881 E0.01925
G1 X148.838 Y111.121 E0.67607
G1 X148.665 Y111.481 E0.01442
G1 X135.598 Y98.415 E0.66722
G1 X135.598 Y98.948 E0.01925
G1 X148.492 Y111.841 E0.65837
G1 X148.318 Y112.201 E0.01442
G1 X135.598 Y99.481 E0.64952
G1 X135.598 Y100.014 E0.01925
G1 X148.145 Y112.561 E0.64067
G1 X147.972 Y112.921 E0.01442
G1 X135.598 Y100.548 E0.63182
G1 X135.598 Y101.081 E0.01925
G1 X147.798 Y113.281 E0.62297
G1 X147.625 Y113.641 E0.01442
G1 X135.598 Y101.614 E0.61412
G1 X135.598 Y102.147 E0.01925
G1 X147.452 Y114.001 E0.60527
G1 X147.278 Y114.361 E0.01442
G1 X135.598 Y102.681 E0.59641
M73 P1 R180
G1 X135.598 Y103.214 E0.01925
G1 X147.105 Y114.721 E0.58756
G1 X146.932 Y115.081 E0.01442
G1 X135.598 Y103.747 E0.57871
G1 X135.598 Y104.281 E0.01925
G1 X146.758 Y115.44 E0.56986
G1 X146.585 Y115.8 E0.01442
G1 X135.598 Y104.814 E0.56101
G1 X135.598 Y105.347 E0.01925
G1 X146.412 Y116.16 E0.55216
G1 X146.238 Y116.52 E0.01442
G1 X135.598 Y105.88 E0.54331
G1 X135.598 Y106.414 E0.01925
G1 X146.065 Y116.88 E0.53446
G1 X145.892 Y117.24 E0.01442
G1 X135.598 Y106.947 E0.52561
G1 X135.598 Y107.48 E0.01925
G1 X145.718 Y117.6 E0.51675
G1 X145.545 Y117.96 E0.01442
G1 X135.598 Y108.013 E0.5079
G1 X135.598 Y108.547 E0.01925
G1 X145.372 Y118.32 E0.49905
G1 X145.198 Y118.68 E0.01442
G1 X135.598 Y109.08 E0.4902
G1 X135.598 Y109.613 E0.01925
G1 X145.025 Y119.04 E0.48135
G1 X144.852 Y119.4 E0.01442
G1 X135.598 Y110.147 E0.4725
G1 X135.598 Y110.68 E0.01925
G1 X144.678 Y119.76 E0.46365
G1 X144.505 Y120.12 E0.01442
G1 X135.598 Y111.213 E0.4548
G1 X135.598 Y111.746 E0.01925
G1 X144.316 Y120.464 E0.44515
G1 X144.019 Y120.701 E0.0137
G1 X135.598 Y112.28 E0.43
G1 X135.598 Y112.813 E0.01925
G1 X143.723 Y120.937 E0.41485
G1 X143.426 Y121.174 E0.0137
G1 X135.598 Y113.346 E0.3997
G1 X135.598 Y113.879 E0.01925
G1 X143.129 Y121.41 E0.38455
G1 X142.833 Y121.647 E0.0137
G1 X135.598 Y114.413 E0.3694
G1 X135.598 Y114.946 E0.01925
G1 X142.536 Y121.883 E0.35425
G1 X142.239 Y122.12 E0.0137
G1 X135.598 Y115.479 E0.3391
G1 X135.598 Y116.013 E0.01925
G1 X141.943 Y122.357 E0.32395
G1 X141.646 Y122.593 E0.0137
G1 X135.598 Y116.546 E0.3088
G1 X135.598 Y117.079 E0.01925
G1 X141.349 Y122.83 E0.29366
G1 X141.052 Y123.066 E0.0137
G1 X135.598 Y117.612 E0.27851
G1 X135.598 Y118.146 E0.01925
G1 X140.756 Y123.303 E0.26336
G1 X140.459 Y123.54 E0.0137
G1 X135.598 Y118.679 E0.24821
G1 X135.598 Y118.973 E0.01063
G1 X135.36 Y118.973 E0.00862
G1 X140.162 Y123.776 E0.24525
G1 X139.866 Y124.013 E0.0137
G1 X134.826 Y118.973 E0.25733
G1 X134.293 Y118.973 E0.01925
G1 X139.569 Y124.249 E0.26941
G1 X139.272 Y124.486 E0.0137
G1 X133.76 Y118.973 E0.28149
G1 X133.226 Y118.973 E0.01925
G1 X138.976 Y124.723 E0.29358
G1 X138.679 Y124.959 E0.0137
G1 X132.693 Y118.973 E0.30566
G1 X132.16 Y118.973 E0.01925
G1 X138.382 Y125.196 E0.31774
G1 X138.086 Y125.432 E0.0137
G1 X131.465 Y118.811 E0.3381
G1 Z0.6 F10800
; acceleration to travel
M204 S1500
G1 X133.449 Y102.238
; decel to extrusion
M204 S1000
G1 X134.772 Y91.189
; end travel
G1 Z0.2
G1 F953.39149
G1 X129.075 Y85.492 E0.29089
G1 X129.074 Y86.024 E0.0192
G1 X134.076 Y91.027 E0.25546
G1 X133.543 Y91.027 E0.01925
G1 X129.072 Y86.556 E0.22831
G1 X129.07 Y87.087 E0.0192
G1 X133.01 Y91.027 E0.20116
G1 X132.477 Y91.027 E0.01925
G1 X129.069 Y87.619 E0.17401
G1 X129.067 Y88.15 E0.0192
G1 X131.943 Y91.027 E0.14687
G1 X131.41 Y91.027 E0.01925
G1 X129.066 Y88.682 E0.11972
G1 X129.064 Y89.214 E0.0192
G1 X130.877 Y91.027 E0.09257
G1 X130.602 Y91.027 E0.00993
G1 X130.602 Y91.285 E0.00932
G1 X129.062 Y89.745 E0.07861
G1 X129.062 Y89.996 E0.00906
G1 X129.029 Y90.245 E0.00907
G1 X130.602 Y91.818 E0.08032
G1 X130.602 Y92.351 E0.01925
G1 X128.967 Y90.716 E0.08349
G1 X128.932 Y90.979 E0.00955
G1 X128.863 Y91.146 E0.00654
G1 X130.602 Y92.885 E0.08879
G1 X130.602 Y93.418 E0.01925
G1 X128.707 Y91.523 E0.09676
G1 X128.551 Y91.9 E0.01474
G1 X130.602 Y93.951 E0.10474
G1 X130.602 Y94.484 E0.01925
G1 X128.331 Y92.214 E0.11594
G1 X128.1 Y92.516 E0.01373
G1 X130.602 Y95.018 E0.12777
G1 X130.602 Y95.551 E0.01925
G1 X127.865 Y92.814 E0.13975
G1 X127.563 Y93.046 E0.01373
G1 X130.602 Y96.084 E0.15516
G1 X130.602 Y96.618 E0.01925
G1 X127.261 Y93.277 E0.17057
G1 X127.035 Y93.451 E0.01028
G1 X126.941 Y93.49 E0.0037
G1 X130.602 Y97.151 E0.18694
G1 X130.602 Y97.684 E0.01925
G1 X126.564 Y93.646 E0.2062
G1 X126.186 Y93.802 E0.01474
G1 X129.18 Y96.796 E0.15286
G1 X129.604 Y96.796 E0.01532
G1 X129.604 Y97.22 E0.01532
G1 X130.602 Y98.217 E0.05093
G1 X130.602 Y98.751 E0.01925
G1 X129.604 Y97.753 E0.05093
G1 X129.604 Y98.287 E0.01925
G1 X130.602 Y99.284 E0.05093
G1 X130.602 Y99.817 E0.01925
G1 X129.604 Y98.82 E0.05093
G1 X129.604 Y99.353 E0.01925
G1 X130.602 Y100.35 E0.05093
G1 X130.602 Y100.884 E0.01925
G1 X129.604 Y99.886 E0.05093
G1 X129.604 Y100.42 E0.01925
G1 X130.602 Y101.417 E0.05093
G1 X130.602 Y101.95 E0.01925
G1 X129.604 Y100.953 E0.05093
G1 X129.604 Y101.486 E0.01925
G1 X130.602 Y102.483 E0.05093
G1 X130.602 Y103.017 E0.01925
G1 X129.604 Y102.019 E0.05093
G1 X129.604 Y102.553 E0.01925
G1 X130.602 Y103.55 E0.05093
G1 X130.602 Y104.083 E0.01925
G1 X129.604 Y103.086 E0.05093
G1 X129.604 Y103.619 E0.01925
G1 X130.602 Y104.617 E0.05093
G1 X130.602 Y105.15 E0.01925
G1 X129.604 Y104.152 E0.05093
G1 X129.604 Y104.686 E0.01925
G1 X130.602 Y105.683 E0.05093
G1 X130.602 Y106.216 E0.01925
G1 X129.604 Y105.219 E0.05093
G1 X129.604 Y105.752 E0.01925
G1 X130.602 Y106.75 E0.05093
G1 X130.602 Y107.283 E0.01925
G1 X129.604 Y106.286 E0.05093
G1 X129.604 Y106.819 E0.01925
G1 X130.602 Y107.816 E0.05093
G1 X130.602 Y108.349 E0.01925
G1 X129.604 Y107.352 E0.05093
G1 X129.604 Y107.885 E0.01925
G1 X130.602 Y108.883 E0.05093
G1 X130.602 Y109.416 E0.01925
G1 X129.604 Y108.419 E0.05093
G1 X129.604 Y108.952 E0.01925
G1 X130.602 Y109.949 E0.05093
G1 X130.602 Y110.483 E0.01925
G1 X129.604 Y109.485 E0.05093
G1 X129.604 Y110.018 E0.01925
G1 X130.602 Y111.016 E0.05093
G1 X130.602 Y111.549 E0.01925
G1 X129.604 Y110.552 E0.05093
G1 X129.604 Y111.085 E0.01925
G1 X130.602 Y112.082 E0.05093
G1 X130.602 Y112.616 E0.01925
G1 X129.604 Y111.618 E0.05093
G1 X129.604 Y112.152 E0.01925
G1 X130.602 Y113.149 E0.05093
G1 X130.602 Y113.682 E0.01925
G1 X129.604 Y112.685 E0.05093
G1 X129.604 Y113.204 E0.01876
G1 X129.591 Y113.204 E0.0005
G1 X130.602 Y114.215 E0.05163
G1 X130.602 Y114.749 E0.01925
G1 X129.057 Y113.204 E0.07886
G1 X128.524 Y113.204 E0.01925
G1 X130.602 Y115.282 E0.10609
G1 X130.602 Y115.815 E0.01925
G1 X127.991 Y113.204 E0.13332
G1 X127.457 Y113.204 E0.01925
G1 X130.602 Y116.349 E0.16055
G1 X130.602 Y116.882 E0.01925
G1 X126.924 Y113.204 E0.18778
G1 X126.391 Y113.204 E0.01925
G1 X130.602 Y117.415 E0.21501
G1 X130.602 Y117.948 E0.01925
