; generated by SuperSlicer 2.5.59 on 2022-09-10 at 22:47:02 UTC

; 

; external perimeters extrusion width = 0.45mm
; perimeters extrusion width = 0.45mm
; infill extrusion width = 0.45mm
; solid infill extrusion width = 0.45mm
; top infill extrusion width = 0.40mm
; first layer extrusion width = 0.42mm

; external perimeters extrusion width = 0.45mm
; perimeters extrusion width = 0.45mm
; infill extrusion width = 0.45mm
; solid infill extrusion width = 0.45mm
; top infill extrusion width = 0.40mm
; first layer extrusion width = 0.42mm

; object:{"name":"lcd_support_a","id":"lcd_support_a.stl id:0 copy 0","object_center":[137.310666,117.310657,0.000000],"boundingbox_center":[137.310666,117.310657,9.700000],"boundingbox_size":[45.000000,50.992950,19.400000]}
; object:{"name":"lcd_support_b","id":"lcd_support_b.stl id:1 copy 0","object_center":[112.689335,92.689342,0.000000],"boundingbox_center":[112.689335,92.689342,9.700000],"boundingbox_size":[45.000000,50.992950,19.400000]}
; plater:{"center":[125.000000,105.000000,0.000000],"boundingbox_center":[125.000000,105.000000,9.700000],"boundingbox_size":[69.621331,75.614265,19.400000]}

M73 P0 R105
;TYPE:Custom
Start : M104 S0
M140 S0
PRINT_START EXTRUDER_TEMP=230 BED_TEMP=85
M107
G21 ; set units to millimeters
G90 ; use absolute coordinates
M83 ; use relative distances for extrusion
M900 K0.08 ; Filament gcode LA 1.5
M900 K45 ; Filament gcode LA 1.0
;_TOOLCHANGE 0
M104 S230 ; set temperature
M109 S230 ; set temperature and wait for it to be reached
M107
;LAYER_CHANGE
;Z:0.2
;HEIGHT:0.2
;BEFORE_LAYER_CHANGE
G92 E0.0
;0.2


G1 E-1 F2100
M73 P0 R104
G1 Z0.2 F10800
G1 Z0.2
;AFTER_LAYER_CHANGE
;0.2
G1 Z0.4
M204 S1000
G1 X91.836 Y66.809
G1 Z0.2
G1 E1 F2100
;TYPE:Skirt
;WIDTH:0.52
G1 F1200
G1 X91.066 Y67.885 E0.05249
G1 X88.066 Y76.885 E0.37634
G1 X87.951 Y77.593 E0.02845
G1 X87.951 Y109.743 E1.27538
G1 X88.606 Y111.326 E0.06797
G1 X95.281 Y118.001 E0.37446
G1 X95.967 Y118.469 E0.03293
G1 X152.239 Y143.09 E2.43659
G1 X153.548 Y143.24 E0.0523
G1 X154.719 Y142.622 E0.05249
G1 X161.394 Y135.947 E0.37446
G1 X162.049 Y134.365 E0.06797
G1 X162.049 Y102.214 E1.27538
G1 X161.934 Y101.506 E0.02845
G1 X158.934 Y92.506 E0.37634
G1 X158.107 Y91.389 E0.05514
G1 X123.45 Y66.768 E1.68644
G1 X122.154 Y66.354 E0.05398
G1 X93.189 Y66.354 E1.149
G1 X91.893 Y66.79 E0.05424
;WIPE_START
G1 F8640
G1 X91.066 Y67.885 E-0.31687
G1 X90.199 Y70.486 E-0.63313
;WIPE_END
G1 E-0.05 F2100
G1 Z0.4 F10800
; printing object lcd_support_a.stl id:0 copy 0
; acceleration to travel
M204 S1500
G1 X118.879 Y94.653
; decel to extrusion
M204 S800
G1 X124.454 Y99.351
; end travel
G1 Z0.2
G1 E1 F2100
;TYPE:Internal perimeter
;WIDTH:0.377079
G1 F1200
G1 X129.05 Y94.755 E0.1806
G1 X155.7 Y94.755 E0.74047
G1 X158.269 Y102.464 E0.22578
G1 X158.269 Y133.16 E0.85291
G1 X153.775 Y137.655 E0.1766
G1 X153.498 Y137.101 E0.0172
G1 X152.876 Y136.479 E0.02446
G1 X153.993 Y135.361 E0.04391
G1 X154.256 Y134.986 E0.01272
G1 X154.372 Y134.57 E0.012
G1 X154.357 Y134.183 E0.01077
G1 X154.253 Y133.863 E0.00934
G1 X153.993 Y133.495 E0.01253
G1 X151.953 Y131.454 E0.08018
G1 X151.686 Y131.18 E0.01062
G1 X151.42 Y130.907 E0.01062
G1 X126.711 Y106.198 E0.9709
G1 X126.395 Y105.89 E0.01227
G1 X126.079 Y105.581 E0.01227
G1 X125.455 Y104.956 E0.02454
G1 X124.688 Y104.209 E0.02975
G1 X124.237 Y103.989 E0.01395
G1 X123.937 Y103.946 E0.0084
G1 X123.603 Y103.978 E0.00932
G1 X123.265 Y104.106 E0.01005
G1 X122.964 Y104.332 E0.01046
G1 X120.786 Y106.51 E0.08559
G1 X119.041 Y104.765 E0.06856
G1 X124.412 Y99.394 E0.21105
G1 X124.188 Y99.085 F10800
G1 F1200
G1 X128.894 Y94.378 E0.18494
G1 X155.972 Y94.378 E0.75236
G1 X158.647 Y102.403 E0.23503
G1 X158.647 Y102.827 E0.01177
G1 X158.647 Y133.317 E0.84717
G1 X153.921 Y138.042 E0.18567
G1 X153.58 Y138.375 E0.01325
;WIDTH:0.398762
G1 X153.239 Y138.708 E0.01411
G1 X153.369 Y138.305 E0.01255
;WIDTH:0.377079
G1 X153.498 Y137.901 E0.01178
G1 X153.232 Y137.368 E0.01657
G1 X152.343 Y136.479 E0.03493
G1 X153.727 Y135.095 E0.05438
G1 X153.914 Y134.827 E0.00909
G1 X153.997 Y134.53 E0.00857
G1 X153.986 Y134.253 E0.00769
G1 X153.912 Y134.025 E0.00667
G1 X153.727 Y133.761 E0.00895
G1 X124.564 Y104.598 E1.14595
G1 X124.318 Y104.421 E0.00841
G1 X123.926 Y104.323 E0.01124
G1 X123.687 Y104.346 E0.00666
G1 X123.446 Y104.437 E0.00718
G1 X123.23 Y104.598 E0.00747
G1 X120.786 Y107.043 E0.09606
G1 X118.508 Y104.765 E0.08952
G1 X124.145 Y99.127 E0.22153
G1 X123.921 Y98.818 F10800
G1 F1200
G1 X128.738 Y94.001 E0.18928
G1 X156.243 Y94.001 E0.76425
G1 X159.024 Y102.342 E0.24428
G1 X159.024 Y133.473 E0.86499
G1 X152.853 Y139.643 E0.24247
G1 X152.304 Y139.095 E0.02156
G1 X152.965 Y138.434 E0.02596
G1 X153.125 Y137.954 E0.01406
G1 X152.965 Y137.634 E0.00994
G1 X151.809 Y136.479 E0.04541
G1 X152.862 Y135.426 E0.04134
G1 X153.523 Y134.753 E0.02624
G1 X153.622 Y134.489 E0.00783
G1 X153.571 Y134.186 E0.00854
G1 X153.46 Y134.028 E0.00537
G1 X124.297 Y104.865 E1.14595
G1 X124.042 Y104.718 E0.00816
G1 X123.771 Y104.713 E0.00754
G1 X123.497 Y104.865 E0.0087
G1 X120.786 Y107.576 E0.10654
G1 X117.974 Y104.765 E0.11047
G1 X123.879 Y98.861 E0.23201
G1 X123.654 Y98.551 F10800
;TYPE:External perimeter
G1 F1200
G1 X128.582 Y93.624 E0.19362
G1 X156.515 Y93.624 E0.77614
G1 X159.401 Y102.281 E0.25354
G1 X159.401 Y133.629 E0.87103
G1 X152.853 Y140.177 E0.25729
G1 X151.771 Y139.095 E0.04251
G1 X152.698 Y138.167 E0.03644
G1 X152.752 Y138.007 E0.00469
G1 X152.698 Y137.901 E0.00331
G1 X151.276 Y136.479 E0.05589
G1 X153.193 Y134.561 E0.07534
G1 X153.248 Y134.448 E0.00348
G1 X153.193 Y134.295 E0.00453
G1 X124.03 Y105.131 E1.14595
G1 X123.903 Y105.076 E0.00386
G1 X123.764 Y105.131 E0.00416
G1 X120.786 Y108.109 E0.11702
G1 X117.441 Y104.765 E0.13143
M73 P1 R104
G1 X123.612 Y98.594 E0.24248
;WIPE_START
M204 S1000
G1 X124.041 Y98.655 F10800
;WIPE_END
;WIPE_START
G1 F8640
G1 X126.886 Y95.683 E-0.95
;WIPE_END
G1 E-0.05 F2100
G1 Z0.4 F10800
; acceleration to travel
M204 S1500
G1 X127.88 Y101.784
; decel to extrusion
M204 S800
G1 X128.073 Y102.97
; end travel
G1 Z0.2
G1 E1 F2100
;TYPE:Internal perimeter
G1 F1200
G1 X127.439 Y103.604 E0.02491
G1 X126.94 Y104.107 E0.0197
G1 X126.658 Y104.634 E0.0166
G1 X126.645 Y105.269 E0.01763
G1 X126.819 Y105.593 E0.01022
;WIDTH:0.408886
G1 X126.992 Y105.917 E0.01119
G1 X151.701 Y130.626 E1.06332
G1 X151.874 Y130.779 E0.00704
G1 X152.065 Y130.863 E0.00637
;WIDTH:0.377079
G1 X152.257 Y130.948 E0.00581
G1 X152.828 Y130.992 E0.01591
G1 X153.275 Y130.842 E0.01312
G1 X153.574 Y130.619 E0.01037
G1 X156.865 Y127.327 E0.12933
G1 X157.143 Y126.918 E0.01374
G1 X157.232 Y126.622 E0.00859
G1 X157.252 Y126.394 E0.00636
G1 X157.252 Y107.75 E0.51804
G1 X157.143 Y107.225 E0.01487
G1 X156.865 Y106.816 E0.01374
G1 X150.208 Y100.159 E0.26158
G1 X149.799 Y99.882 E0.01374
G1 X149.546 Y99.801 E0.0074
G1 X149.275 Y99.773 E0.00755
G1 X131.817 Y99.773 E0.48509
G1 X131.589 Y99.793 E0.00636
G1 X131.272 Y99.891 E0.0092
G1 X130.883 Y100.159 E0.01313
G1 X128.115 Y102.928 E0.10877
G1 X128.34 Y103.237 F10800
G1 F1200
G1 X127.706 Y103.871 E0.02491
G1 X127.223 Y104.356 E0.01901
G1 X127.022 Y104.732 E0.01186
G1 X127.013 Y105.185 E0.01259
G1 X127.266 Y105.644 E0.01454
G1 X151.974 Y130.352 E0.9709
G1 X152.099 Y130.457 E0.00454
G1 X152.366 Y130.587 E0.00825
G1 X152.774 Y130.619 E0.01136
G1 X153.094 Y130.512 E0.00937
G1 X153.307 Y130.352 E0.00741
G1 X156.599 Y127.061 E0.12933
G1 X156.797 Y126.768 E0.00982
G1 X156.875 Y126.394 E0.01062
G1 X156.875 Y107.75 E0.51804
G1 X156.797 Y107.375 E0.01062
G1 X156.599 Y107.083 E0.00982
G1 X149.942 Y100.426 E0.26158
G1 X149.65 Y100.228 E0.00982
G1 X149.275 Y100.15 E0.01062
G1 X131.817 Y100.15 E0.48509
G1 X131.428 Y100.234 E0.01106
G1 X131.15 Y100.426 E0.00938
G1 X128.382 Y103.194 E0.10877
G1 X128.606 Y103.503 F10800
G1 F1200
G1 X127.533 Y104.577 E0.04219
G1 X127.386 Y104.83 E0.00812
G1 X127.381 Y105.102 E0.00755
G1 X127.533 Y105.377 E0.00873
G1 X152.241 Y130.085 E0.9709
M73 P1 R103
G1 X152.476 Y130.226 E0.00762
G1 X152.721 Y130.245 E0.00682
G1 X152.913 Y130.181 E0.00562
G1 X153.041 Y130.085 E0.00445
G1 X156.332 Y126.794 E0.12933
G1 X156.451 Y126.619 E0.00589
G1 X156.498 Y126.394 E0.00637
G1 X156.498 Y107.75 E0.51804
G1 X156.451 Y107.525 E0.00637
G1 X156.332 Y107.35 E0.00589
G1 X149.675 Y100.693 E0.26158
G1 X149.5 Y100.574 E0.00589
G1 X149.275 Y100.527 E0.00637
G1 X131.817 Y100.527 E0.48509
G1 X131.583 Y100.577 E0.00663
G1 X131.417 Y100.693 E0.00563
G1 X128.649 Y103.461 E0.10877
G1 X128.873 Y103.77 F10800
;TYPE:External perimeter
G1 F1200
G1 X128.239 Y104.404 E0.02491
G1 X127.791 Y104.853 E0.01762
G1 X127.749 Y105.019 E0.00475
G1 X127.799 Y105.11 E0.00291
G1 X152.508 Y129.819 E0.9709
G1 X152.668 Y129.872 E0.00469
G1 X152.774 Y129.819 E0.00331
G1 X156.065 Y126.527 E0.12933
G1 X156.105 Y126.469 E0.00196
G1 X156.121 Y126.394 E0.00212
G1 X156.121 Y107.75 E0.51804
G1 X156.065 Y107.616 E0.00401
G1 X149.409 Y100.959 E0.26158
G1 X149.275 Y100.904 E0.00401
G1 X131.817 Y100.904 E0.48509
G1 X131.683 Y100.959 E0.00401
G1 X128.915 Y103.727 E0.10877
;WIPE_START
M204 S1000
G1 X128.976 Y104.156 F10800
;WIPE_END
;WIPE_START
G1 F8640
G1 X128.097 Y104.263 E-0.20445
G1 X127.61 Y104.75 E-0.15915
G1 X127.535 Y105.046 E-0.07045
G1 X127.638 Y105.232 E-0.04895
G1 X129.068 Y106.662 E-0.467
;WIPE_END
G1 E-0.05 F2100
G1 Z0.4 F10800
; acceleration to travel
M204 S1500
G1 X148.982 Y133.816
; decel to extrusion
M204 S800
G1 X152.853 Y139.095
; end travel
G1 Z0.2
G1 E1 F2100
;TYPE:Internal perimeter
;WIDTH:0.398762
G1 F1200
G1 X153.239 Y138.708 E0.01617
;WIPE_START
G1 F8640
M204 S1000
G1 X152.853 Y139.095 E-0.12618
;WIPE_END
G1 E-0.87382 F2100
G1 Z0.4 F10800
; acceleration to travel
M204 S1500
G1 X154.46 Y103.515
; decel to extrusion
M204 S1000
G1 X154.851 Y94.869
; end travel
G1 Z0.2
G1 E1 F2100
;TYPE:Solid infill
;WIDTH:0.420562
G1 F1200
G1 X155.746 Y95.763 E0.03974
G1 X156.012 Y96.563 E0.02647
G1 X154.48 Y95.031 E0.06805
G1 X153.946 Y95.031 E0.01674
G1 X156.279 Y97.363 E0.10357
G1 X156.546 Y98.163 E0.02647
G1 X153.413 Y95.031 E0.13909
G1 X152.88 Y95.031 E0.01674
G1 X156.812 Y98.963 E0.1746
G1 X157.079 Y99.763 E0.02647
G1 X152.347 Y95.031 E0.21012
G1 X151.813 Y95.031 E0.01674
G1 X157.345 Y100.563 E0.24564
G1 X157.612 Y101.363 E0.02647
G1 X151.28 Y95.031 E0.28115
G1 X150.747 Y95.031 E0.01674
G1 X157.879 Y102.163 E0.31667
G1 X157.994 Y102.509 E0.01146
G1 X157.994 Y102.811 E0.00949
G1 X150.213 Y95.031 E0.34547
G1 X149.68 Y95.031 E0.01674
G1 X157.994 Y103.345 E0.36915
G1 X157.994 Y103.878 E0.01674
G1 X149.147 Y95.031 E0.39283
G1 X148.614 Y95.031 E0.01674
G1 X157.994 Y104.411 E0.4165
G1 X157.994 Y104.944 E0.01674
G1 X148.08 Y95.031 E0.44018
G1 X147.547 Y95.031 E0.01674
G1 X157.994 Y105.478 E0.46386
G1 X157.994 Y106.011 E0.01674
G1 X147.014 Y95.031 E0.48754
G1 X146.481 Y95.031 E0.01674
G1 X157.994 Y106.544 E0.51122
G1 X157.994 Y107.078 E0.01674
G1 X145.947 Y95.031 E0.53489
G1 X145.414 Y95.031 E0.01674
G1 X158.156 Y107.773 E0.56577
G1 X157.302 Y107.452 F10800
G1 F1200
G1 X157.994 Y108.144 E0.03075
G1 X157.994 Y108.677 E0.01674
G1 X157.527 Y108.21 E0.02074
G1 X157.527 Y108.744 E0.01674
G1 X157.994 Y109.211 E0.02074
G1 X157.994 Y109.744 E0.01674
G1 X157.527 Y109.277 E0.02074
G1 X157.527 Y109.81 E0.01674
G1 X157.994 Y110.277 E0.02074
G1 X157.994 Y110.81 E0.01674
G1 X157.527 Y110.343 E0.02074
G1 X157.527 Y110.877 E0.01674
G1 X157.994 Y111.344 E0.02074
G1 X157.994 Y111.877 E0.01674
G1 X157.527 Y111.41 E0.02074
G1 X157.527 Y111.943 E0.01674
G1 X157.994 Y112.41 E0.02074
G1 X157.994 Y112.944 E0.01674
G1 X157.527 Y112.476 E0.02074
G1 X157.527 Y113.01 E0.01674
G1 X157.994 Y113.477 E0.02074
G1 X157.994 Y114.01 E0.01674
G1 X157.527 Y113.543 E0.02074
G1 X157.527 Y114.076 E0.01674
G1 X157.994 Y114.543 E0.02074
G1 X157.994 Y115.077 E0.01674
G1 X157.527 Y114.61 E0.02074
G1 X157.527 Y115.143 E0.01674
G1 X157.994 Y115.61 E0.02074
G1 X157.994 Y116.143 E0.01674
G1 X157.527 Y115.676 E0.02074
G1 X157.527 Y116.209 E0.01674
G1 X157.994 Y116.676 E0.02074
G1 X157.994 Y117.21 E0.01674
G1 X157.527 Y116.743 E0.02074
G1 X157.527 Y117.276 E0.01674
G1 X157.994 Y117.743 E0.02074
G1 X157.994 Y118.276 E0.01674
G1 X157.527 Y117.809 E0.02074
G1 X157.527 Y118.342 E0.01674
G1 X157.994 Y118.809 E0.02074
G1 X157.994 Y119.343 E0.01674
G1 X157.527 Y118.876 E0.02074
G1 X157.527 Y119.409 E0.01674
G1 X157.994 Y119.876 E0.02074
G1 X157.994 Y120.409 E0.01674
G1 X157.527 Y119.942 E0.02074
G1 X157.527 Y120.476 E0.01674
G1 X157.994 Y120.943 E0.02074
G1 X157.994 Y121.476 E0.01674
G1 X157.527 Y121.009 E0.02074
G1 X157.527 Y121.542 E0.01674
G1 X157.994 Y122.009 E0.02074
G1 X157.994 Y122.542 E0.01674
G1 X157.527 Y122.075 E0.02074
G1 X157.527 Y122.609 E0.01674
G1 X157.994 Y123.076 E0.02074
G1 X157.994 Y123.609 E0.01674
G1 X157.527 Y123.142 E0.02074
G1 X157.527 Y123.675 E0.01674
G1 X157.994 Y124.142 E0.02074
G1 X157.994 Y124.675 E0.01674
G1 X157.527 Y124.208 E0.02074
G1 X157.527 Y124.742 E0.01674
G1 X157.994 Y125.209 E0.02074
G1 X157.994 Y125.742 E0.01674
G1 X157.527 Y125.275 E0.02074
G1 X157.527 Y125.808 E0.01674
G1 X157.994 Y126.275 E0.02074
G1 X157.994 Y126.809 E0.01674
G1 X157.527 Y126.342 E0.02074
G1 X157.527 Y126.398 E0.00177
G1 X157.503 Y126.671 E0.00861
G1 X157.462 Y126.81 E0.00454
G1 X157.994 Y127.342 E0.02363
G1 X157.994 Y127.875 E0.01674
G1 X157.296 Y127.177 E0.03099
G1 X157.08 Y127.495 E0.01205
G1 X157.994 Y128.408 E0.04057
G1 X157.994 Y128.942 E0.01674
G1 X156.817 Y127.765 E0.05226
G1 X156.551 Y128.031 E0.01184
G1 X157.994 Y129.475 E0.0641
G1 X157.994 Y130.008 E0.01674
G1 X156.284 Y128.298 E0.07594
G1 X156.017 Y128.565 E0.01184
G1 X157.994 Y130.541 E0.08777
G1 X157.994 Y131.075 E0.01674
G1 X155.751 Y128.831 E0.09961
G1 X155.484 Y129.098 E0.01184
G1 X157.994 Y131.608 E0.11145
G1 X157.994 Y132.141 E0.01674
G1 X155.217 Y129.364 E0.12329
G1 X154.951 Y129.631 E0.01184
G1 X157.994 Y132.675 E0.13513
G1 X157.994 Y133.046 E0.01168
G1 X157.914 Y133.127 E0.00358
G1 X154.684 Y129.898 E0.14339
G1 X154.418 Y130.164 E0.01184
G1 X157.647 Y133.394 E0.14339
G1 X157.38 Y133.66 E0.01184
G1 X154.151 Y130.431 E0.14339
G1 X153.884 Y130.698 E0.01184
G1 X157.114 Y133.927 E0.14339
G1 X156.847 Y134.194 E0.01184
G1 X153.597 Y130.943 E0.14432
G1 X153.407 Y131.086 E0.00745
G1 X153.256 Y131.136 E0.00499
G1 X156.58 Y134.46 E0.14761
G1 X156.314 Y134.727 E0.01184
G1 X152.852 Y131.265 E0.1537
G1 X152.274 Y131.221 E0.01819
G1 X156.047 Y134.994 E0.16751
G1 X155.78 Y135.26 E0.01184
G1 X154.617 Y134.096 E0.05167
G1 X154.628 Y134.133 E0.00119
G1 X154.647 Y134.601 E0.01471
G1 X154.634 Y134.647 E0.0015
G1 X155.514 Y135.527 E0.03907
G1 X155.247 Y135.793 E0.01184
G1 X154.517 Y135.064 E0.0324
G1 X154.507 Y135.1 E0.00118
G1 X154.366 Y135.344 E0.00886
G1 X154.32 Y135.399 E0.00227
G1 X154.981 Y136.06 E0.02934
G1 X154.714 Y136.327 E0.01184
G1 X154.065 Y135.678 E0.02879
G1 X153.799 Y135.945 E0.01184
G1 X154.447 Y136.593 E0.02879
G1 X154.181 Y136.86 E0.01184
G1 X153.532 Y136.212 E0.02879
G1 X153.266 Y136.478 E0.01184
G1 X154.029 Y137.241 E0.03388
;WIPE_START
G1 F8640
G1 X153.266 Y136.478 E-0.24918
G1 X153.532 Y136.212 E-0.08707
G1 X154.181 Y136.86 E-0.21174
G1 X154.447 Y136.593 E-0.08707
G1 X153.799 Y135.945 E-0.21175
G1 X154.065 Y135.678 E-0.08707
G1 X154.115 Y135.728 E-0.01612
;WIPE_END
G1 E-0.05 F2100
G1 Z0.4 F10800
; acceleration to travel
M204 S1500
G1 X150.432 Y106.733
; decel to extrusion
M204 S1000
G1 X149.538 Y99.687
; end travel
G1 Z0.2
G1 E1 F2100
G1 F1200
G1 X144.881 Y95.031 E0.20676
G1 X144.347 Y95.031 E0.01674
G1 X148.815 Y99.498 E0.19834
G1 X148.281 Y99.498 E0.01674
G1 X143.814 Y95.031 E0.19834
G1 X143.281 Y95.031 E0.01674
G1 X147.748 Y99.498 E0.19834
G1 X147.215 Y99.498 E0.01674
G1 X142.748 Y95.031 E0.19834
G1 X142.214 Y95.031 E0.01674
G1 X146.681 Y99.498 E0.19834
G1 X146.148 Y99.498 E0.01674
G1 X141.681 Y95.031 E0.19834
G1 X141.148 Y95.031 E0.01674
G1 X145.615 Y99.498 E0.19834
G1 X145.082 Y99.498 E0.01674
G1 X140.615 Y95.031 E0.19834
G1 X140.081 Y95.031 E0.01674
G1 X144.548 Y99.498 E0.19834
G1 X144.015 Y99.498 E0.01674
G1 X139.548 Y95.031 E0.19834
G1 X139.015 Y95.031 E0.01674
G1 X143.482 Y99.498 E0.19834
