; generated by SuperSlicer 2.4 on 2022-08-06 at 07:28:51 UTC

; 

; external perimeters extrusion width = 0.60mm
; perimeters extrusion width = 0.50mm
; infill extrusion width = 0.50mm
; solid infill extrusion width = 0.50mm
; top infill extrusion width = 0.45mm
; first layer extrusion width = 0.42mm

; object:{"name":"Long_Spacer (1)","id":"Long_Spacer (1).stl id:0 copy 0","object_center":[125.000002,105.000002,0.000000],"boundingbox_center":[125.000002,105.000002,10.000000],"boundingbox_size":[6.799306,6.799306,20.000000]}
; plater:{"center":[125.000002,105.000002,0.000000],"boundingbox_center":[125.000002,105.000002,10.000000],"boundingbox_size":[6.799306,6.799306,20.000000]}

M73 P0 R2
;TYPE:Custom
Start : M104 S0
M140 S0
PRINT_START EXTRUDER_TEMP=230 BED_TEMP=65
M107
G21 ; set units to millimeters
G90 ; use absolute coordinates
M83 ; use relative distances for extrusion
; Filament gcode
SET_PRESSURE_ADVANCE ADVANCE=0.035
M104 S230 ; set temperature
M109 S230 ; set temperature and wait for it to be reached
M107
;LAYER_CHANGE
;Z:0.2
;HEIGHT:0.2
;BEFORE_LAYER_CHANGE
G92 E0.0
;0.2


G1 E-0.8 F2100
G1 Z0.4 F10800
;AFTER_LAYER_CHANGE
;0.2
G1 Z0.6
M204 S1000
G1 X119.686 Y101.102
G1 Z0.2
G1 E0.8 F2100
;TYPE:Skirt
;WIDTH:0.52
G1 F1200
G1 X119.006 Y102.261 E0.05333
M73 P1 R2
G1 X118.575 Y103.534 E0.05333
G1 X118.411 Y104.869 E0.05333
G1 X118.47 Y105.887 E0.04045
G1 X118.785 Y107.193 E0.05333
G1 X119.36 Y108.409 E0.05333
G1 X120.169 Y109.482 E0.05333
G1 X121.17 Y110.363 E0.05291
G1 X122.338 Y111.029 E0.05333
G1 X123.3 Y111.368 E0.04045
G1 X124.627 Y111.58 E0.05333
G1 X125.97 Y111.519 E0.05333
G1 X127.273 Y111.187 E0.05333
G1 X128.481 Y110.597 E0.05333
G1 X129.536 Y109.782 E0.05291
G1 X130.219 Y109.025 E0.04044
G1 X130.923 Y107.892 E0.05291
G1 X131.386 Y106.63 E0.05333
G1 X131.584 Y105.3 E0.05333
G1 X131.551 Y104.281 E0.04045
G1 X131.272 Y102.977 E0.05291
G1 X130.731 Y101.746 E0.05333
M73 P2 R2
G1 X129.952 Y100.651 E0.05333
G1 X128.966 Y99.737 E0.05333
G1 X127.816 Y99.041 E0.05333
G1 X126.548 Y98.594 E0.05333
G1 X125.216 Y98.413 E0.05333
G1 X124.197 Y98.459 E0.04045
G1 X122.897 Y98.754 E0.05291
G1 X121.673 Y99.311 E0.05333
G1 X120.588 Y100.105 E0.05333
G1 X119.727 Y101.057 E0.05095
G1 X120.078 Y101.374 F10800
G1 F1200
G1 X119.566 Y102.199 E0.03851
G1 X119.111 Y103.36 E0.04947
G1 X118.901 Y104.589 E0.04947
G1 X118.944 Y105.835 E0.04947
G1 X119.239 Y107.047 E0.04947
G1 X119.774 Y108.173 E0.04947
G1 X120.527 Y109.167 E0.04947
G1 X121.437 Y109.968 E0.04809
G1 X122.519 Y110.588 E0.04947
G1 X123.435 Y110.91 E0.03851
G1 X124.667 Y111.105 E0.04947
G1 X125.912 Y111.046 E0.04947
M73 P3 R2
G1 X127.12 Y110.735 E0.04947
G1 X128.239 Y110.185 E0.04947
G1 X129.199 Y109.444 E0.04809
G1 X129.849 Y108.724 E0.03851
G1 X130.489 Y107.694 E0.04809
G1 X130.921 Y106.524 E0.04947
G1 X131.107 Y105.291 E0.04947
G1 X131.076 Y104.321 E0.03851
G1 X130.822 Y103.135 E0.04809
G1 X130.323 Y101.993 E0.04947
G1 X129.602 Y100.975 E0.04947
G1 X128.689 Y100.125 E0.04947
G1 X127.623 Y99.478 E0.04947
G1 X126.448 Y99.061 E0.04947
G1 X125.213 Y98.89 E0.04947
G1 X124.243 Y98.934 E0.03851
G1 X123.061 Y99.202 E0.04809
G1 X121.925 Y99.717 E0.04947
G1 X120.917 Y100.45 E0.04947
G1 X120.119 Y101.329 E0.04709
G1 X120.47 Y101.646 F10800
G1 F1200
G1 X119.884 Y102.635 E0.04561
G1 X119.51 Y103.722 E0.04561
M73 P4 R2
G1 X119.365 Y104.863 E0.04561
G1 X119.454 Y106.009 E0.04561
G1 X119.775 Y107.113 E0.04561
G1 X120.312 Y108.13 E0.04561
G1 X120.885 Y108.852 E0.03658
G1 X121.704 Y109.573 E0.04327
G1 X122.7 Y110.146 E0.04561
G1 X123.57 Y110.453 E0.03658
G1 X124.706 Y110.629 E0.04561
G1 X125.854 Y110.572 E0.04561
G1 X126.967 Y110.283 E0.04561
G1 X127.998 Y109.774 E0.04561
G1 X128.861 Y109.107 E0.04327
G1 X129.479 Y108.422 E0.03658
G1 X130.055 Y107.496 E0.04327
G1 X130.456 Y106.418 E0.04561
G1 X130.63 Y105.282 E0.04561
G1 X130.601 Y104.36 E0.03658
G1 X130.372 Y103.294 E0.04327
G1 X129.914 Y102.239 E0.04561
G1 X129.252 Y101.299 E0.04561
G1 X128.412 Y100.514 E0.04561
G1 X127.431 Y99.915 E0.04561
G1 X126.349 Y99.527 E0.04561
G1 X125.21 Y99.367 E0.04561
M73 P5 R2
G1 X124.289 Y99.409 E0.03658
G1 X123.225 Y99.65 E0.04327
G1 X122.176 Y100.122 E0.04561
G1 X121.245 Y100.796 E0.04561
G1 X120.511 Y101.601 E0.04323
; INIT printing object Long_Spacer (1).stl id:0 copy 0
;WIPE_START
G1 F8640
G1 X120.47 Y101.646 E-0.01385
G1 X119.884 Y102.635 E-0.26549
G1 X119.51 Y103.722 E-0.26549
G1 X119.393 Y104.647 E-0.21517
;WIPE_END
G1 E-0.04 F2100
G1 Z0.6 F10800
; printing object Long_Spacer (1).stl id:0 copy 0
; acceleration to travel
M204 S1500
G1 X122.318 Y103.561
; decel to extrusion
M204 S800
G1 X122.887 Y103.35
; end travel
G1 Z0.2
G1 E0.8 F2100
;TYPE:External perimeter
;WIDTH:0.42
G1 F1200
G1 X122.742 Y103.547 E0.00766
G1 X122.579 Y103.837 E0.01043
G1 X122.409 Y104.292 E0.01524
G1 X122.324 Y104.775 E0.01539
G1 X122.328 Y105.266 E0.01538
G1 X122.42 Y105.748 E0.01539
G1 X122.597 Y106.201 E0.01524
G1 X122.765 Y106.488 E0.01044
G1 X122.966 Y106.753 E0.01043
G1 X123.312 Y107.086 E0.01504
G1 X123.581 Y107.28 E0.01041
G1 X123.874 Y107.438 E0.01045
G1 X124.332 Y107.602 E0.01524
G1 X124.816 Y107.68 E0.01539
G1 X125.307 Y107.668 E0.01538
G1 X125.787 Y107.568 E0.01539
G1 X126.242 Y107.381 E0.01541
G1 X126.653 Y107.114 E0.01537
G1 X127.011 Y106.779 E0.01537
G1 X127.299 Y106.383 E0.01537
G1 X127.515 Y105.943 E0.01536
G1 X127.644 Y105.474 E0.01525
G1 X127.682 Y105.143 E0.01044
G1 X127.678 Y104.811 E0.01043
G1 X127.6 Y104.332 E0.01521
G1 X127.438 Y103.875 E0.01521
G1 X127.28 Y103.582 E0.01043
G1 X127.088 Y103.311 E0.01043
G1 X126.753 Y102.966 E0.01507
G1 X126.488 Y102.765 E0.01042
M73 P6 R2
G1 X126.201 Y102.597 E0.01044
G1 X125.748 Y102.42 E0.01524
G1 X125.266 Y102.328 E0.01539
G1 X124.775 Y102.325 E0.01539
G1 X124.292 Y102.411 E0.01537
G1 X123.833 Y102.582 E0.01537
G1 X123.416 Y102.832 E0.01524
G1 X123.161 Y103.045 E0.01043
G1 X122.936 Y103.283 E0.01026
G1 X122.923 Y103.302 E0.00073
;WIPE_START
M204 S1000
G1 X122.644 Y103.323 F10800
;WIPE_END
M204 S800
G1 X122.599 Y103.103
G1 F1200
G1 X122.781 Y102.892 E0.00873
G1 X123.008 Y102.676 E0.00982
G1 X123.255 Y102.485 E0.00978
G1 X123.521 Y102.321 E0.0098
G1 X123.802 Y102.184 E0.00983
G1 X124.092 Y102.077 E0.00969
G1 X124.555 Y101.972 E0.01488
G1 X124.863 Y101.943 E0.0097
G1 X125.176 Y101.945 E0.0098
G1 X125.488 Y101.979 E0.00983
G1 X125.793 Y102.042 E0.00978
G1 X126.09 Y102.14 E0.00981
G1 X126.378 Y102.264 E0.00981
G1 X126.648 Y102.419 E0.00976
G1 X126.902 Y102.601 E0.00981
G1 X127.137 Y102.809 E0.00984
G1 X127.351 Y103.037 E0.0098
G1 X127.537 Y103.287 E0.00977
G1 X127.699 Y103.555 E0.00982
G1 X127.832 Y103.838 E0.00981
G1 X127.935 Y104.13 E0.0097
G1 X128.034 Y104.594 E0.01489
G1 X128.06 Y104.903 E0.00972
G1 X128.055 Y105.216 E0.0098
G1 X128.018 Y105.525 E0.00976
G1 X127.947 Y105.83 E0.00982
G1 X127.848 Y106.127 E0.00982
G1 X127.719 Y106.408 E0.00971
G1 X127.468 Y106.812 E0.01489
G1 X127.274 Y107.053 E0.00971
G1 X127.054 Y107.271 E0.00971
G1 X126.678 Y107.561 E0.01489
G1 X126.412 Y107.719 E0.0097
G1 X126.127 Y107.846 E0.0098
G1 X125.831 Y107.948 E0.00981
G1 X125.526 Y108.015 E0.00978
G1 X125.215 Y108.053 E0.00983
G1 X124.902 Y108.059 E0.0098
G1 X124.59 Y108.033 E0.00983
G1 X124.283 Y107.978 E0.00978
G1 X123.984 Y107.888 E0.0098
G1 X123.693 Y107.77 E0.00982
G1 X123.419 Y107.623 E0.00977
G1 X123.163 Y107.45 E0.00969
G1 X122.806 Y107.135 E0.01492
G1 X122.601 Y106.902 E0.00972
G1 X122.419 Y106.648 E0.00981
G1 X122.264 Y106.378 E0.00976
G1 X122.14 Y106.09 E0.00981
G1 X122.042 Y105.793 E0.00981
G1 X121.979 Y105.488 E0.00978
G1 X121.945 Y105.176 E0.00983
G1 X121.943 Y104.863 E0.0098
G1 X121.973 Y104.551 E0.00983
G1 X122.032 Y104.245 E0.00978
G1 X122.126 Y103.947 E0.0098
G1 X122.247 Y103.658 E0.00982
G1 X122.398 Y103.386 E0.00976
G1 X122.562 Y103.15 E0.00901
;WIPE_START
M204 S1000
G1 X122.874 Y103.146 F10800
;WIPE_END
; INIT stop printing object Long_Spacer (1).stl id:0 copy 0
M106 S84.15
;LAYER_CHANGE
;Z:0.5
;HEIGHT:0.3
;BEFORE_LAYER_CHANGE
G92 E0.0
;0.5


;WIPE_START
G1 F8640
G1 X123.138 Y102.828 E-0.09544
G1 X123.368 Y102.65 E-0.06723
G1 X123.617 Y102.497 E-0.06739
G1 X123.881 Y102.368 E-0.0678
G1 X124.149 Y102.269 E-0.06604
G1 X124.587 Y102.17 E-0.10362
G1 X124.872 Y102.143 E-0.06614
G1 X125.164 Y102.145 E-0.06748
G1 X125.456 Y102.177 E-0.06783
G1 X125.741 Y102.236 E-0.06722
G1 X125.839 Y102.268 E-0.0238
;WIPE_END
G1 E-0.04 F2100
G1 Z0.6 F10800
; stop printing object Long_Spacer (1).stl id:0 copy 0
;AFTER_LAYER_CHANGE
;0.5
M104 S225 ; set temperature
M140 S60 ; set bed temperature
M73 P7 R2
G1 Z0.9
; acceleration to travel
M204 S1500
G1 X126.829 Y99.463
; decel to extrusion
M204 S1000
G1 X127.071 Y98.779
; end travel
G1 Z0.5
G1 E0.8 F2100
;TYPE:Skirt
;WIDTH:0.52
G1 F1350
G1 X126.548 Y98.594 E0.0315
G1 X125.216 Y98.413 E0.0764
G1 X124.197 Y98.459 E0.05794
G1 X122.897 Y98.754 E0.0758
G1 X121.673 Y99.311 E0.07639
G1 X120.588 Y100.105 E0.07639
G1 X119.686 Y101.102 E0.07639
G1 X119.006 Y102.261 E0.07639
G1 X118.575 Y103.534 E0.0764
G1 X118.411 Y104.869 E0.07639
G1 X118.47 Y105.887 E0.05794
G1 X118.785 Y107.193 E0.07639
G1 X119.36 Y108.409 E0.07639
G1 X120.169 Y109.482 E0.07639
G1 X121.17 Y110.363 E0.07579
G1 X122.338 Y111.029 E0.07639
G1 X123.3 Y111.368 E0.05794
G1 X124.627 Y111.58 E0.07639
G1 X125.97 Y111.519 E0.0764
M73 P8 R2
G1 X127.273 Y111.187 E0.07639
G1 X128.481 Y110.597 E0.0764
G1 X129.536 Y109.782 E0.0758
G1 X130.219 Y109.025 E0.05794
G1 X130.923 Y107.892 E0.0758
G1 X131.386 Y106.63 E0.07639
G1 X131.584 Y105.3 E0.07639
G1 X131.551 Y104.281 E0.05794
G1 X131.272 Y102.977 E0.07579
G1 X130.731 Y101.746 E0.07639
G1 X129.952 Y100.651 E0.07639
G1 X128.966 Y99.737 E0.0764
G1 X127.816 Y99.041 E0.07639
G1 X127.127 Y98.798 E0.04148
G1 X126.969 Y99.245 F10800
G1 F1350
G1 X126.448 Y99.061 E0.03138
G1 X125.213 Y98.89 E0.07087
G1 X124.243 Y98.934 E0.05517
G1 X123.061 Y99.202 E0.06889
G1 X121.925 Y99.717 E0.07087
G1 X120.917 Y100.45 E0.07087
G1 X120.078 Y101.374 E0.07086
G1 X119.566 Y102.199 E0.05517
G1 X119.111 Y103.36 E0.07087
G1 X118.901 Y104.589 E0.07086
G1 X118.944 Y105.835 E0.07087
M73 P9 R2
G1 X119.239 Y107.047 E0.07087
G1 X119.774 Y108.173 E0.07087
G1 X120.527 Y109.167 E0.07087
G1 X121.437 Y109.968 E0.06889
G1 X122.519 Y110.588 E0.07087
G1 X123.435 Y110.91 E0.05517
G1 X124.667 Y111.105 E0.07087
G1 X125.912 Y111.046 E0.07087
G1 X127.12 Y110.735 E0.07086
G1 X128.239 Y110.185 E0.07087
G1 X129.199 Y109.444 E0.06889
G1 X129.849 Y108.724 E0.05517
G1 X130.489 Y107.694 E0.06889
G1 X130.921 Y106.524 E0.07086
G1 X131.107 Y105.291 E0.07087
G1 X131.076 Y104.321 E0.05517
G1 X130.822 Y103.135 E0.06889
G1 X130.323 Y101.993 E0.07087
G1 X129.602 Y100.975 E0.07087
G1 X128.689 Y100.125 E0.07087
G1 X127.623 Y99.478 E0.07087
G1 X127.025 Y99.265 E0.03607
G1 X126.865 Y99.712 F10800
G1 F1350
G1 X126.349 Y99.527 E0.0312
G1 X125.21 Y99.367 E0.06534
G1 X124.289 Y99.409 E0.0524
G1 X123.225 Y99.65 E0.06198
M73 P10 R2
G1 X122.176 Y100.122 E0.06534
G1 X121.245 Y100.796 E0.06534
G1 X120.47 Y101.646 E0.06534
G1 X119.884 Y102.635 E0.06534
G1 X119.51 Y103.722 E0.06534
G1 X119.365 Y104.863 E0.06534
G1 X119.454 Y106.009 E0.06534
G1 X119.775 Y107.113 E0.06534
G1 X120.312 Y108.13 E0.06534
G1 X120.885 Y108.852 E0.0524
G1 X121.704 Y109.573 E0.06198
G1 X122.7 Y110.146 E0.06534
G1 X123.57 Y110.453 E0.0524
G1 X124.706 Y110.629 E0.06534
G1 X125.854 Y110.572 E0.06534
G1 X126.967 Y110.283 E0.06534
G1 X127.998 Y109.774 E0.06534
G1 X128.861 Y109.107 E0.06198
G1 X129.479 Y108.422 E0.0524
G1 X130.055 Y107.496 E0.06199
G1 X130.456 Y106.418 E0.06534
G1 X130.63 Y105.282 E0.06534
G1 X130.601 Y104.36 E0.0524
G1 X130.372 Y103.294 E0.06198
G1 X129.914 Y102.239 E0.06534
G1 X129.252 Y101.299 E0.06534
G1 X128.412 Y100.514 E0.06534
G1 X127.431 Y99.915 E0.06534
M73 P11 R2
G1 X126.922 Y99.732 E0.03073
; INIT printing object Long_Spacer (1).stl id:0 copy 0
;WIPE_START
G1 F8640
G1 X126.349 Y99.527 E-0.14061
G1 X125.21 Y99.367 E-0.26549
G1 X124.289 Y99.409 E-0.21292
G1 X123.693 Y99.544 E-0.14098
;WIPE_END
G1 E-0.04 F2100
G1 Z0.9 F10800
; printing object Long_Spacer (1).stl id:0 copy 0
; acceleration to travel
M204 S1500
G1 X125.483 Y102.004
; decel to extrusion
M204 S800
G1 X125.839 Y102.493
; end travel
G1 Z0.5
G1 E0.8 F2100
;TYPE:External perimeter
;WIDTH:0.6
G1 F2027.9423
G1 X125.738 Y102.454 E0.00724
G1 X125.263 Y102.362 E0.03237
G1 X124.778 Y102.358 E0.03237
G1 X124.301 Y102.443 E0.03237
G1 X123.847 Y102.613 E0.03237
G1 X123.436 Y102.86 E0.03206
G1 X123.184 Y103.07 E0.0219
G1 X122.963 Y103.305 E0.02159
G1 X122.771 Y103.566 E0.02159
G1 X122.611 Y103.852 E0.0219
G1 X122.443 Y104.301 E0.03206
G1 X122.358 Y104.778 E0.03237
G1 X122.362 Y105.263 E0.03237
G1 X122.454 Y105.738 E0.03237
G1 X122.629 Y106.185 E0.03206
G1 X122.794 Y106.469 E0.0219
G1 X122.991 Y106.73 E0.0219
G1 X123.333 Y107.061 E0.03175
G1 X123.6 Y107.251 E0.0219
G1 X123.888 Y107.407 E0.0219
G1 X124.34 Y107.568 E0.03206
G1 X124.818 Y107.645 E0.03237
G1 X125.303 Y107.634 E0.03237
G1 X125.777 Y107.535 E0.03237
G1 X126.225 Y107.351 E0.03237
G1 X126.633 Y107.089 E0.03237
G1 X126.986 Y106.757 E0.03237
G1 X127.272 Y106.367 E0.03237
G1 X127.483 Y105.93 E0.03237
G1 X127.61 Y105.467 E0.03206
G1 X127.647 Y105.142 E0.0219
G1 X127.645 Y104.814 E0.0219
G1 X127.568 Y104.34 E0.03206
G1 X127.407 Y103.888 E0.03206
G1 X127.251 Y103.6 E0.0219
G1 X127.061 Y103.333 E0.0219
G1 X126.73 Y102.991 E0.03175
G1 X126.469 Y102.794 E0.0219
G1 X126.185 Y102.629 E0.0219
G1 X125.895 Y102.515 E0.02081
;WIPE_START
M204 S1000
G1 X125.823 Y102.386 F10800
;WIPE_END
M204 S800
G1 X125.979 Y102.063
G1 F2088.543
G1 X126.104 Y102.104 E0.00879
G1 X126.393 Y102.231 E0.02115
G1 X126.668 Y102.388 E0.02115
G1 X126.926 Y102.572 E0.02115
G1 X127.164 Y102.781 E0.02115
G1 X127.379 Y103.013 E0.02115
G1 X127.569 Y103.266 E0.02115
G1 X127.733 Y103.537 E0.02115
G1 X127.868 Y103.823 E0.02115
G1 X127.972 Y104.118 E0.02089
G1 X128.072 Y104.59 E0.03221
G1 X128.098 Y104.901 E0.02089
G1 X128.092 Y105.218 E0.02115
G1 X128.054 Y105.532 E0.02115
G1 X127.984 Y105.841 E0.02114
G1 X127.883 Y106.141 E0.02115
G1 X127.753 Y106.425 E0.02089
G1 X127.498 Y106.835 E0.03221
G1 X127.301 Y107.077 E0.02089
G1 X127.08 Y107.298 E0.02089
G1 X126.698 Y107.593 E0.03221
G1 X126.429 Y107.751 E0.02089
G1 X126.141 Y107.883 E0.02115
G1 X125.841 Y107.984 E0.02115
G1 X125.532 Y108.054 E0.02114
G1 X125.218 Y108.092 E0.02115
G1 X124.901 Y108.098 E0.02115
G1 X124.586 Y108.072 E0.02115
G1 X124.275 Y108.014 E0.02115
G1 X123.971 Y107.924 E0.02115
G1 X123.678 Y107.804 E0.02115
G1 X123.399 Y107.654 E0.02115
G1 X123.14 Y107.479 E0.02089
G1 X122.778 Y107.161 E0.03221
G1 X122.572 Y106.926 E0.02089
G1 X122.388 Y106.668 E0.02115
G1 X122.231 Y106.393 E0.02115
M73 P12 R2
G1 X122.104 Y106.104 E0.02115
G1 X122.006 Y105.803 E0.02115
G1 X121.94 Y105.493 E0.02115
G1 X121.906 Y105.178 E0.02115
G1 X121.904 Y104.862 E0.02115
G1 X121.934 Y104.547 E0.02115
G1 X121.996 Y104.236 E0.02115
G1 X122.09 Y103.934 E0.02115
G1 X122.214 Y103.643 E0.02115
G1 X122.367 Y103.366 E0.02115
G1 X122.547 Y103.106 E0.02115
G1 X122.753 Y102.865 E0.02114
G1 X122.983 Y102.647 E0.02115
G1 X123.233 Y102.454 E0.02115
G1 X123.502 Y102.287 E0.02115
G1 X123.787 Y102.148 E0.02115
G1 X124.08 Y102.041 E0.02089
G1 X124.551 Y101.934 E0.03221
G1 X124.862 Y101.904 E0.02089
G1 X125.178 Y101.906 E0.02115
G1 X125.493 Y101.94 E0.02115
G1 X125.803 Y102.006 E0.02115
G1 X125.921 Y102.045 E0.00835
;WIPE_START
M204 S1000
G1 X126.006 Y102.192 F10800
;WIPE_END
; INIT stop printing object Long_Spacer (1).stl id:0 copy 0
M106 S170.85
;LAYER_CHANGE
;Z:0.8
;HEIGHT:0.3
;BEFORE_LAYER_CHANGE
G92 E0.0
;0.8


;WIPE_START
G1 F8640
G1 X126.303 Y102.41 E-0.08518
G1 X126.561 Y102.557 E-0.06837
G1 X126.802 Y102.729 E-0.06837
G1 X127.024 Y102.924 E-0.06837
G1 X127.225 Y103.141 E-0.06837
G1 X127.403 Y103.378 E-0.06836
G1 X127.556 Y103.632 E-0.06837
G1 X127.682 Y103.899 E-0.06837
G1 X127.779 Y104.173 E-0.06689
G1 X127.874 Y104.619 E-0.10542
G1 X127.883 Y104.722 E-0.02394
;WIPE_END
G1 E-0.04 F2100
G1 Z0.9 F10800
; stop printing object Long_Spacer (1).stl id:0 copy 0
;AFTER_LAYER_CHANGE
;0.8
G1 Z1.2
; acceleration to travel
M204 S1500
