; generated by SuperSlicer 2.4 on 2022-06-08 at 00:56:13 UTC

; 

; external perimeters extrusion width = 0.45mm
; perimeters extrusion width = 0.45mm
; infill extrusion width = 0.45mm
; solid infill extrusion width = 0.45mm
; top infill extrusion width = 0.40mm
; first layer extrusion width = 0.42mm

; external perimeters extrusion width = 0.45mm
; perimeters extrusion width = 0.45mm
; infill extrusion width = 0.45mm
; solid infill extrusion width = 0.45mm
; top infill extrusion width = 0.40mm
; first layer extrusion width = 0.42mm

; external perimeters extrusion width = 0.45mm
; perimeters extrusion width = 0.45mm
; infill extrusion width = 0.45mm
; solid infill extrusion width = 0.45mm
; top infill extrusion width = 0.40mm
; first layer extrusion width = 0.42mm

; external perimeters extrusion width = 0.45mm
; perimeters extrusion width = 0.45mm
; infill extrusion width = 0.45mm
; solid infill extrusion width = 0.45mm
; top infill extrusion width = 0.40mm
; first layer extrusion width = 0.42mm

; external perimeters extrusion width = 0.45mm
; perimeters extrusion width = 0.45mm
; infill extrusion width = 0.45mm
; solid infill extrusion width = 0.45mm
; top infill extrusion width = 0.40mm
; first layer extrusion width = 0.42mm

; object:{"name":"MGN9_1515_rail_guide_x2","id":"MGN9_1515_rail_guide_x2.stl id:0 copy 0","object_center":[124.790159,149.250000,0.000000],"boundingbox_center":[124.790159,149.250000,5.000000],"boundingbox_size":[14.946457,18.034401,10.000000]}
; object:{"name":"micron-key-rail-alignment-tool-x2","id":"micron-key-rail-alignment-tool-x2.stl id:1 copy 0","object_center":[109.290158,113.732800,0.000000],"boundingbox_center":[109.290158,113.732800,6.000000],"boundingbox_size":[25.000000,41.000000,12.000000]}
; object:{"name":"micron-y-rail-alignment-tool-x1","id":"micron-y-rail-alignment-tool-x1.stl id:2 copy 0","object_center":[124.790154,69.482800,0.000000],"boundingbox_center":[124.790154,69.482800,6.500002],"boundingbox_size":[21.000008,35.500000,13.000004]}
; object:{"name":"micron-key-rail-alignment-tool-x2","id":"micron-key-rail-alignment-tool-x2.stl id:3 copy 0","object_center":[140.290158,113.732800,0.000000],"boundingbox_center":[140.290158,113.732800,6.000000],"boundingbox_size":[25.000000,41.000000,12.000000]}
; object:{"name":"MGN9_1515_rail_guide_x2","id":"MGN9_1515_rail_guide_x2.stl id:4 copy 0","object_center":[145.736615,149.250000,0.000000],"boundingbox_center":[145.736615,149.250000,5.000000],"boundingbox_size":[14.946457,18.034401,10.000000]}
; plater:{"center":[125.000001,105.000000,0.000000],"boundingbox_center":[125.000001,105.000000,6.500002],"boundingbox_size":[56.419685,106.534400,13.000004]}

M73 P0 R104
;TYPE:Custom
Start : M104 S0
M140 S0
PRINT_START EXTRUDER_TEMP=215 BED_TEMP=60
M107
G21 ; set units to millimeters
G90 ; use absolute coordinates
M83 ; use relative distances for extrusion
M900 K0.05 ; Filament gcode LA 1.5
M900 K30 ; Filament gcode LA 1.0
M104 S215 ; set temperature
M109 S215 ; set temperature and wait for it to be reached
M107
;LAYER_CHANGE
;Z:0.2
;HEIGHT:0.2
;BEFORE_LAYER_CHANGE
G92 E0.0
;0.2


G1 E-0.8 F2100
G1 Z0.4 F10800
;AFTER_LAYER_CHANGE
;0.2
G1 Z0.6
M204 S1000
G1 X112.347 Y51.389
G1 Z0.2
G1 E0.8 F2100
;TYPE:Skirt
;WIDTH:0.52
G1 F1200
G1 X94.756 Y93.117 E1.7964
G1 X94.552 Y94.233 E0.04498
G1 X94.552 Y133.233 E1.5471
G1 X94.636 Y133.943 E0.02836
G1 X94.928 Y134.735 E0.03348
G1 X95.314 Y135.317 E0.02773
G1 X116.22 Y159.157 E1.25783
G1 X116.908 Y159.751 E0.03607
G1 X117.688 Y160.177 E0.03525
G1 X118.261 Y160.369 E0.02397
G1 X119.312 Y160.506 E0.04205
G1 X152.71 Y160.506 E1.32486
G1 X153.393 Y160.409 E0.02738
G1 X154.259 Y160.014 E0.03775
G1 X154.971 Y159.305 E0.03986
G1 X155.313 Y158.606 E0.03087
G1 X155.443 Y157.839 E0.03085
G1 X155.448 Y140.713 E0.67939
G1 X155.029 Y94.213 E1.8447
G1 X154.944 Y93.523 E0.02757
G1 X154.777 Y92.98 E0.02252
G1 X137.088 Y51.109 E1.80312
G1 X136.726 Y50.604 E0.02465
G1 X136.263 Y50.169 E0.02521
G1 X135.732 Y49.837 E0.02487
G1 X134.928 Y49.566 E0.03364
G1 X134.389 Y49.499 E0.02156
G1 X128.892 Y49.494 E0.21805
G1 X115.191 Y49.499 E0.5435
G1 X114.366 Y49.637 E0.03319
G1 X113.849 Y49.837 E0.02201
G1 X113.317 Y50.169 E0.02487
G1 X112.786 Y50.691 E0.02952
G1 X112.379 Y51.338 E0.03036
; INIT printing object MGN9_1515_rail_guide_x2.stl id:0 copy 0
;WIPE_START
G1 F8640
G1 X112.347 Y51.389 E-0.01385
G1 X111.092 Y54.367 E-0.74615
;WIPE_END
G1 E-0.04 F2100
G1 Z0.6 F10800
; printing object MGN9_1515_rail_guide_x2.stl id:0 copy 0
; acceleration to travel
M204 S1500
G1 X117.903 Y139.2
; decel to extrusion
M204 S800
G1 X119.227 Y155.691
; end travel
G1 Z0.2
G1 E0.8 F2100
;TYPE:Internal perimeter
;WIDTH:0.42
G1 F1200
G1 X124.696 Y155.691 E0.17149
G1 X124.699 Y156.224 E0.01672
G1 X124.721 Y156.433 E0.00658
G1 X119.315 Y156.418 E0.1695
G1 X119.238 Y156.393 E0.00254
G1 X119.173 Y156.31 E0.0033
G1 X119.158 Y156.179 E0.00416
G1 X119.158 Y155.691 E0.01528
G1 X119.167 Y155.691 E0.00026
G1 X119.227 Y155.314 F10800
G1 F1200
G1 X125.071 Y155.314 E0.18325
G1 X125.076 Y156.203 E0.02788
G1 X125.143 Y156.834 E0.01987
G1 X124.83 Y156.81 E0.00982
G1 X119.362 Y156.803 E0.17144
G1 X119.256 Y156.795 E0.00335
G1 X119.072 Y156.736 E0.00605
G1 X118.979 Y156.674 E0.00352
G1 X118.915 Y156.61 E0.00284
G1 X118.843 Y156.5 E0.00412
G1 X118.803 Y156.387 E0.00377
G1 X118.781 Y156.2 E0.00589
G1 X118.781 Y155.314 E0.02778
G1 X119.167 Y155.314 E0.01209
;WIPE_START
G1 F8640
M204 S1000
G1 X122.458 Y155.314 E-0.76
;WIPE_END
G1 E-0.04 F2100
G1 Z0.6 F10800
; acceleration to travel
M204 S1500
G1 X119.853 Y144.233
; decel to extrusion
M204 S800
G1 X119.346 Y142.079
; end travel
G1 Z0.2
G1 E0.8 F2100
G1 F1200
G1 X124.54 Y142.075 E0.16284
G1 X124.721 Y142.068 E0.00569
G1 X124.699 Y142.275 E0.00652
G1 X124.696 Y142.809 E0.01673
G1 X119.158 Y142.809 E0.17364
G1 X119.158 Y142.292 E0.01621
G1 X119.162 Y142.244 E0.00149
G1 X119.203 Y142.115 E0.00427
G1 X119.288 Y142.094 E0.00274
G1 X119.299 Y141.702 F10800
G1 F1200
G1 X124.533 Y141.698 E0.1641
G1 X125.142 Y141.676 E0.01911
G1 X125.076 Y142.296 E0.01955
G1 X125.071 Y143.186 E0.0279
G1 X118.781 Y143.186 E0.19722
G1 X118.781 Y142.277 E0.02848
G1 X118.789 Y142.172 E0.00333
G1 X118.848 Y141.988 E0.00605
G1 X118.914 Y141.888 E0.00375
G1 X118.961 Y141.84 E0.00209
G1 X119.087 Y141.755 E0.00477
G1 X119.142 Y141.732 E0.00188
G1 X119.24 Y141.713 E0.00314
G1 X119.263 Y141.325 F10800
G1 F1200
G1 X124.526 Y141.32 E0.16502
G1 X125.044 Y141.302 E0.01624
G1 X125.643 Y141.234 E0.01891
G1 X125.514 Y141.747 E0.01659
G1 X125.453 Y142.317 E0.01798
G1 X125.446 Y143.563 E0.03906
G1 X119.443 Y143.563 E0.18823
G1 X119.443 Y154.937 E0.35663
G1 X125.446 Y154.937 E0.18823
G1 X125.453 Y156.183 E0.03905
G1 X125.513 Y156.752 E0.01796
G1 X125.644 Y157.279 E0.01702
G1 X125.365 Y157.229 E0.00888
G1 X124.816 Y157.187 E0.01728
G1 X119.347 Y157.18 E0.17145
G1 X119.183 Y157.168 E0.00518
G1 X119.021 Y157.128 E0.00522
G1 X118.907 Y157.079 E0.00388
G1 X118.739 Y156.968 E0.00634
G1 X118.62 Y156.849 E0.00527
G1 X118.503 Y156.668 E0.00673
G1 X118.433 Y156.473 E0.0065
G1 X118.404 Y156.222 E0.00793
G1 X118.404 Y142.263 E0.43767
G1 X118.417 Y142.099 E0.00516
G1 X118.456 Y141.937 E0.00522
G1 X118.505 Y141.823 E0.00388
G1 X118.619 Y141.65 E0.0065
G1 X118.718 Y141.55 E0.00441
G1 X118.907 Y141.422 E0.00717
G1 X119.033 Y141.369 E0.00427
G1 X119.204 Y141.336 E0.00546
G1 X119.227 Y140.948 F10800
;TYPE:External perimeter
G1 F1200
G1 X124.519 Y140.943 E0.16595
G1 X125.015 Y140.926 E0.01557
G1 X125.517 Y140.869 E0.01581
G1 X125.994 Y140.774 E0.01525
G1 X126.457 Y140.754 E0.01456
G1 X131.27 Y140.752 E0.1509
G1 X131.58 Y140.832 E0.01003
G1 X131.579 Y141.055 E0.00698
G1 X131.303 Y141.13 E0.00896
G1 X126.057 Y141.131 E0.16446
G1 X125.886 Y141.813 E0.02204
G1 X125.83 Y142.338 E0.01656
G1 X125.821 Y143.94 E0.05022
G1 X119.82 Y143.94 E0.18816
G1 X119.82 Y154.56 E0.33298
G1 X125.821 Y154.56 E0.18816
G1 X125.83 Y156.162 E0.05022
G1 X125.885 Y156.687 E0.01655
G1 X126.055 Y157.37 E0.02208
G1 X131.303 Y157.371 E0.16452
G1 X131.573 Y157.444 E0.00878
G1 X131.576 Y157.664 E0.00689
G1 X131.24 Y157.748 E0.01089
G1 X126.299 Y157.747 E0.15492
G1 X125.819 Y157.694 E0.01512
G1 X125.318 Y157.603 E0.01598
G1 X124.801 Y157.564 E0.01624
G1 X119.333 Y157.557 E0.17146
G1 X119.123 Y157.541 E0.0066
G1 X118.901 Y157.487 E0.00716
G1 X118.728 Y157.413 E0.00592
G1 X118.499 Y157.261 E0.00861
G1 X118.325 Y157.087 E0.00771
G1 X118.163 Y156.837 E0.00935
G1 X118.063 Y156.56 E0.00923
G1 X118.027 Y156.244 E0.00997
G1 X118.027 Y142.249 E0.43881
G1 X118.043 Y142.039 E0.00659
G1 X118.097 Y141.817 E0.00716
G1 X118.171 Y141.644 E0.00592
G1 X118.325 Y141.412 E0.0087
G1 X118.474 Y141.259 E0.00673
G1 X118.728 Y141.088 E0.00958
G1 X118.924 Y141.006 E0.00666
G1 X119.168 Y140.959 E0.00779
;WIPE_START
M204 S1000
G1 X119.448 Y141.281 F10800
;WIPE_END
;WIPE_START
G1 F8640
G1 X122.739 Y141.192 E-0.76
;WIPE_END
G1 E-0.04 F2100
G1 Z0.6 F10800
; acceleration to travel
M204 S1500
G1 X119.888 Y142.24
; decel to extrusion
M204 S800
G1 X119.334 Y142.444
; end travel
G1 Z0.2
G1 E0.8 F2100
;TYPE:Gap fill
;WIDTH:0.435525
G1 F1200
G1 X119.526 Y142.444 E0.00626
G1 X121.927 Y142.441 E0.07839
G1 X124.328 Y142.439 E0.07839
G1 X124.525 Y142.439 E0.00641
;WIPE_START
G1 F8640
M204 S1000
G1 X124.328 Y142.439 E-0.04537
G1 X121.927 Y142.441 E-0.55448
G1 X121.233 Y142.442 E-0.16016
;WIPE_END
G1 E-0.04 F2100
G1 Z0.6 F10800
; acceleration to travel
M204 S1500
G1 X119.299 Y143.21
; decel to extrusion
M204 S800
G1 X118.923 Y143.359
; end travel
G1 Z0.2
G1 E0.8 F2100
;WIDTH:0.734649
G1 F1200
G1 X118.923 Y143.532 E0.00995
G1 X118.923 Y143.705 E0.00995
G1 X118.923 Y154.795 E0.63785
G1 X118.923 Y154.968 E0.00995
G1 X118.923 Y155.141 E0.00995
;WIPE_START
G1 F8640
M204 S1000
G1 X118.923 Y154.968 E-0.03993
G1 X118.923 Y154.795 E-0.03993
G1 X118.923 Y151.849 E-0.68014
;WIPE_END
G1 E-0.04 F2100
G1 Z0.6 F10800
; acceleration to travel
M204 S1500
G1 X119.273 Y155.37
; decel to extrusion
M204 S800
G1 X119.341 Y156.054
; end travel
G1 Z0.2
G1 E0.8 F2100
;WIDTH:0.436472
G1 F1200
G1 X119.531 Y156.055 E0.00623
G1 X121.929 Y156.058 E0.07849
G1 X124.328 Y156.062 E0.07849
G1 X124.525 Y156.062 E0.00644
; INIT stop printing object MGN9_1515_rail_guide_x2.stl id:0 copy 0
; INIT printing object MGN9_1515_rail_guide_x2.stl id:4 copy 0
;WIPE_START
G1 F8640
M204 S1000
G1 X124.328 Y156.062 E-0.04547
G1 X121.929 Y156.058 E-0.55381
G1 X121.233 Y156.057 E-0.16072
;WIPE_END
G1 E-0.04 F2100
G1 Z0.6 F10800
; stop printing object MGN9_1515_rail_guide_x2.stl id:0 copy 0
; printing object MGN9_1515_rail_guide_x2.stl id:4 copy 0
; acceleration to travel
M204 S1500
G1 X137.033 Y156.061
; decel to extrusion
M204 S800
G1 X140.105 Y156.062
; end travel
G1 Z0.2
G1 E0.8 F2100
;TYPE:Internal perimeter
;WIDTH:0.42
G1 F1200
G1 X140.105 Y155.691 E0.01161
G1 X145.642 Y155.691 E0.17364
G1 X145.646 Y156.224 E0.01672
G1 X145.668 Y156.433 E0.00658
G1 X140.262 Y156.418 E0.1695
G1 X140.184 Y156.393 E0.00254
G1 X140.12 Y156.31 E0.0033
G1 X140.105 Y156.179 E0.00416
G1 X140.105 Y156.122 E0.00178
G1 X139.728 Y156.062 F10800
G1 F1200
G1 X139.728 Y155.314 E0.02344
G1 X146.017 Y155.314 E0.19721
G1 X146.022 Y156.203 E0.02788
G1 X146.089 Y156.834 E0.01987
G1 X145.777 Y156.81 E0.00982
G1 X140.309 Y156.803 E0.17144
G1 X140.202 Y156.795 E0.00335
G1 X140.018 Y156.736 E0.00605
G1 X139.925 Y156.674 E0.00352
G1 X139.861 Y156.61 E0.00284
G1 X139.79 Y156.5 E0.00412
G1 X139.749 Y156.387 E0.00377
G1 X139.728 Y156.2 E0.00589
G1 X139.728 Y156.122 E0.00246
;WIPE_START
G1 F8640
M204 S1000
G1 X139.728 Y155.314 E-0.18646
G1 X142.211 Y155.314 E-0.57354
;WIPE_END
G1 E-0.04 F2100
G1 Z0.6 F10800
; acceleration to travel
M204 S1500
G1 X140.448 Y144.844
; decel to extrusion
M204 S800
G1 X140.105 Y142.809
; end travel
G1 Z0.2
G1 E0.8 F2100
G1 F1200
G1 X140.105 Y142.292 E0.01621
G1 X140.108 Y142.244 E0.00149
G1 X140.15 Y142.115 E0.00427
G1 X140.293 Y142.079 E0.00462
G1 X145.486 Y142.075 E0.16284
G1 X145.668 Y142.068 E0.00569
G1 X145.646 Y142.275 E0.00652
G1 X145.643 Y142.809 E0.01673
G1 X140.165 Y142.809 E0.17176
G1 X139.728 Y143.186 F10800
G1 F1200
G1 X139.728 Y142.277 E0.02848
G1 X139.736 Y142.172 E0.00333
G1 X139.794 Y141.988 E0.00605
G1 X139.861 Y141.888 E0.00375
G1 X139.907 Y141.84 E0.00209
G1 X140.033 Y141.755 E0.00477
G1 X140.089 Y141.732 E0.00188
G1 X140.246 Y141.702 E0.00502
G1 X145.479 Y141.698 E0.1641
G1 X146.089 Y141.676 E0.01911
G1 X146.023 Y142.296 E0.01955
G1 X146.017 Y143.186 E0.0279
G1 X139.788 Y143.186 E0.19534
;WIPE_START
G1 F8640
M204 S1000
G1 X139.728 Y142.277 E-0.21022
G1 X139.736 Y142.172 E-0.0245
G1 X139.794 Y141.988 E-0.04453
G1 X139.861 Y141.888 E-0.02765
G1 X139.907 Y141.84 E-0.01537
G1 X140.033 Y141.755 E-0.03511
G1 X140.089 Y141.732 E-0.01388
G1 X140.246 Y141.702 E-0.03696
G1 X141.769 Y141.701 E-0.35177
;WIPE_END
G1 E-0.04 F2100
G1 Z0.6 F10800
; acceleration to travel
M204 S1500
G1 X139.744 Y153.724
; decel to extrusion
M204 S800
G1 X139.35 Y156.062
; end travel
G1 Z0.2
G1 E0.8 F2100
G1 F1200
G1 X139.35 Y142.263 E0.43265
G1 X139.363 Y142.099 E0.00516
G1 X139.403 Y141.937 E0.00522
G1 X139.451 Y141.823 E0.00388
G1 X139.566 Y141.65 E0.0065
G1 X139.664 Y141.55 E0.00441
G1 X139.854 Y141.422 E0.00717
G1 X139.979 Y141.369 E0.00427
G1 X140.209 Y141.325 E0.00734
G1 X145.473 Y141.32 E0.16502
G1 X145.99 Y141.302 E0.01624
G1 X146.589 Y141.234 E0.01891
G1 X146.46 Y141.747 E0.01659
G1 X146.4 Y142.317 E0.01798
G1 X146.392 Y143.563 E0.03906
G1 X140.389 Y143.563 E0.18823
G1 X140.389 Y154.937 E0.35663
G1 X146.392 Y154.937 E0.18823
G1 X146.399 Y156.183 E0.03905
M73 P0 R103
G1 X146.46 Y156.752 E0.01796
G1 X146.591 Y157.279 E0.01702
G1 X146.312 Y157.229 E0.00888
G1 X145.762 Y157.187 E0.01728
G1 X140.294 Y157.18 E0.17145
G1 X140.129 Y157.168 E0.00518
G1 X139.967 Y157.128 E0.00522
G1 X139.854 Y157.079 E0.00388
G1 X139.685 Y156.968 E0.00634
G1 X139.566 Y156.849 E0.00527
G1 X139.449 Y156.668 E0.00673
G1 X139.379 Y156.473 E0.0065
G1 X139.35 Y156.222 E0.00793
G1 X139.35 Y156.122 E0.00314
G1 X138.973 Y156.062 F10800
;TYPE:External perimeter
G1 F1200
G1 X138.973 Y142.249 E0.4331
G1 X138.989 Y142.039 E0.00659
G1 X139.044 Y141.817 E0.00716
G1 X139.118 Y141.644 E0.00592
G1 X139.271 Y141.412 E0.0087
G1 X139.421 Y141.259 E0.00673
G1 X139.674 Y141.088 E0.00958
G1 X139.87 Y141.006 E0.00666
G1 X140.173 Y140.948 E0.00967
G1 X145.466 Y140.943 E0.16595
G1 X145.962 Y140.926 E0.01557
G1 X146.463 Y140.869 E0.01581
G1 X146.94 Y140.774 E0.01525
G1 X147.404 Y140.754 E0.01456
G1 X152.217 Y140.752 E0.1509
G1 X152.526 Y140.832 E0.01003
G1 X152.525 Y141.055 E0.00698
G1 X152.249 Y141.13 E0.00896
G1 X147.004 Y141.131 E0.16446
G1 X146.832 Y141.813 E0.02204
G1 X146.777 Y142.338 E0.01656
G1 X146.767 Y143.94 E0.05022
G1 X140.766 Y143.94 E0.18816
G1 X140.766 Y154.56 E0.33298
G1 X146.767 Y154.56 E0.18816
G1 X146.776 Y156.162 E0.05022
G1 X146.832 Y156.687 E0.01655
G1 X147.002 Y157.37 E0.02208
G1 X152.249 Y157.371 E0.16452
G1 X152.52 Y157.444 E0.00878
G1 X152.523 Y157.664 E0.00689
G1 X152.186 Y157.748 E0.01089
G1 X147.245 Y157.747 E0.15492
G1 X146.766 Y157.694 E0.01512
G1 X146.264 Y157.603 E0.01598
G1 X145.748 Y157.564 E0.01624
G1 X140.279 Y157.557 E0.17146
G1 X140.07 Y157.541 E0.0066
G1 X139.848 Y157.487 E0.00716
G1 X139.674 Y157.413 E0.00592
G1 X139.445 Y157.261 E0.00861
G1 X139.271 Y157.087 E0.00771
G1 X139.109 Y156.837 E0.00935
G1 X139.01 Y156.56 E0.00923
G1 X138.973 Y156.244 E0.00997
G1 X138.973 Y156.122 E0.00382
;WIPE_START
M204 S1000
G1 X139.32 Y155.862 F10800
;WIPE_END
M204 S800
G1 X139.87 Y155.141
;TYPE:Gap fill
;WIDTH:0.734649
G1 F1200
G1 X139.87 Y154.968 E0.00995
G1 X139.87 Y154.795 E0.00995
G1 X139.87 Y143.705 E0.63785
G1 X139.87 Y143.532 E0.00995
G1 X139.87 Y143.359 E0.00995
;WIPE_START
G1 F8640
M204 S1000
G1 X139.87 Y143.532 E-0.03993
G1 X139.87 Y143.705 E-0.03993
G1 X139.87 Y146.651 E-0.68014
;WIPE_END
G1 E-0.04 F2100
G1 Z0.6 F10800
; acceleration to travel
M204 S1500
G1 X140.214 Y143.129
; decel to extrusion
M204 S800
G1 X140.28 Y142.444
; end travel
G1 Z0.2
G1 E0.8 F2100
;WIDTH:0.435525
G1 F1200
G1 X140.472 Y142.444 E0.00626
