; generated by SuperSlicer 2.4 on 2022-08-04 at 05:14:01 UTC

; 

; external perimeters extrusion width = 0.45mm
; perimeters extrusion width = 0.45mm
; infill extrusion width = 0.45mm
; solid infill extrusion width = 0.45mm
; top infill extrusion width = 0.40mm
; first layer extrusion width = 0.42mm

; object:{"name":"Pieta_Face","id":"Pieta_Face.stl id:0 copy 0","object_center":[125.000293,105.000636,0.000000],"boundingbox_center":[125.000293,105.000636,21.494650],"boundingbox_size":[41.806599,46.585602,42.989300]}
; plater:{"center":[125.000293,105.000636,0.000000],"boundingbox_center":[125.000293,105.000636,21.494650],"boundingbox_size":[41.806599,46.585602,42.989300]}

M73 P0 R79
;TYPE:Custom
Start : M104 S0
M140 S0
PRINT_START EXTRUDER_TEMP=230 BED_TEMP=65
M107
G21 ; set units to millimeters
G90 ; use absolute coordinates
M83 ; use relative distances for extrusion
; Filament gcode
SET_PRESSURE_ADVANCE ADVANCE=0.035
M104 S230 ; set temperature
M109 S230 ; set temperature and wait for it to be reached
M107
;LAYER_CHANGE
;Z:0.2
;HEIGHT:0.2
;BEFORE_LAYER_CHANGE
G92 E0.0
;0.2


G1 E-0.8 F2100
G1 Z0.4 F10800
;AFTER_LAYER_CHANGE
;0.2
G1 Z0.6
M204 S1000
G1 X108.052 Y93.556
G1 Z0.2
G1 E0.8 F2100
;TYPE:Skirt
;WIDTH:0.52
G1 F1200
G1 X107.82 Y93.824 E0.01407
G1 X107.375 Y94.755 E0.0409
G1 X106.079 Y99.624 E0.19987
G1 X106.088 Y100.482 E0.03405
G1 X107.781 Y111.169 E0.42926
G1 X108.088 Y112.217 E0.0433
G1 X108.636 Y113.11 E0.04156
G1 X109.216 Y113.708 E0.03308
G1 X117.081 Y120.486 E0.41185
G1 X122.746 Y124.685 E0.27974
G1 X123.148 Y124.933 E0.01875
G1 X124.246 Y125.23 E0.0451
G1 X130.708 Y125.193 E0.25634
G1 X135.16 Y124.562 E0.17838
G1 X136.158 Y124.299 E0.04095
G1 X137.191 Y123.863 E0.0445
G1 X137.76 Y123.487 E0.02706
G1 X138.26 Y122.96 E0.0288
G1 X142.956 Y114.21 E0.39393
G1 X143.96 Y111.985 E0.09682
G1 X147.692 Y95.752 E0.66076
G1 X147.756 Y94.786 E0.03843
G1 X147.583 Y93.884 E0.0364
G1 X147.288 Y93.287 E0.02641
G1 X144.292 Y89.562 E0.18968
G1 X143.79 Y89.078 E0.02763
G1 X143.119 Y88.665 E0.03126
G1 X142.542 Y88.475 E0.0241
G1 X129.191 Y85.788 E0.54024
G1 X128.282 Y85.75 E0.0361
G1 X115.514 Y86.302 E0.50699
G1 X115.159 Y86.335 E0.01414
G1 X114.064 Y86.761 E0.04661
G1 X113.549 Y87.207 E0.02701
G1 X108.091 Y93.511 E0.33077
; INIT printing object Pieta_Face.stl id:0 copy 0
;WIPE_START
G1 F8640
G1 X107.82 Y93.824 E-0.09573
G1 X107.375 Y94.755 E-0.23809
G1 X106.9 Y96.538 E-0.42618
;WIPE_END
G1 E-0.04 F2100
G1 Z0.6 F10800
; printing object Pieta_Face.stl id:0 copy 0
; acceleration to travel
M204 S1500
G1 X120.304 Y97.059
; decel to extrusion
M204 S800
G1 X122.91 Y97.16
; end travel
G1 Z0.2
G1 E0.8 F2100
;TYPE:Internal perimeter
;WIDTH:0.42
G1 F1200
G1 X122.54 Y97.087 E0.01182
G1 X122.292 Y98.338 E0.04
G1 X119.58 Y112.051 E0.43829
G1 X130.934 Y114.297 E0.3629
G1 X133.894 Y99.333 E0.47829
G1 X122.969 Y97.172 E0.3492
G1 X122.837 Y97.53 F10800
;TYPE:External perimeter
G1 F1200
G1 X122.662 Y98.411 E0.02817
G1 X120.023 Y111.754 E0.42646
G1 X130.637 Y113.854 E0.33925
G1 X133.451 Y99.629 E0.45464
G1 X122.895 Y97.542 E0.33737
;WIPE_START
M204 S1000
G1 X122.444 Y97.452 F10800
;WIPE_END
;WIPE_START
G1 F8640
G1 X122.662 Y98.411 E-0.22711
G1 X122.214 Y100.675 E-0.53289
;WIPE_END
G1 E-0.04 F2100
G1 Z0.6 F10800
; acceleration to travel
M204 S1500
G1 X121.214 Y95.165
; decel to extrusion
M204 S800
G1 X121.02 Y94.093
; end travel
G1 Z0.2
G1 E0.8 F2100
;TYPE:Internal perimeter
G1 F1200
G1 X121.788 Y93.501 E0.03042
G1 X122.369 Y93.099 E0.02216
G1 X122.554 Y93.003 E0.00653
G1 X122.925 Y92.606 E0.01702
G1 X123.125 Y92.272 E0.01221
G1 X123.649 Y91.66 E0.02525
G1 X123.84 Y91.351 E0.01141
G1 X124.329 Y90.671 E0.02625
G1 X125.061 Y89.909 E0.03313
G1 X125.393 Y89.636 E0.01347
G1 X125.663 Y89.475 E0.00986
G1 X126.07 Y89.325 E0.01359
G1 X126.407 Y89.273 E0.01069
G1 X126.697 Y89.281 E0.0091
G1 X127.054 Y89.321 E0.01128
G1 X127.551 Y89.344 E0.01559
G1 X127.614 Y89.356 E0.00202
G1 X127.768 Y89.428 E0.00533
G1 X128.091 Y89.482 E0.01025
G1 X128.395 Y89.733 E0.01237
G1 X128.607 Y89.971 E0.00997
G1 X128.735 Y90.156 E0.00706
G1 X129.122 Y90.585 E0.0181
G1 X130.088 Y91.541 E0.04264
G1 X130.576 Y92.053 E0.02215
G1 X131.059 Y92.483 E0.02029
G1 X132.483 Y93.651 E0.05775
G1 X133.212 Y94.179 E0.02821
G1 X133.76 Y94.673 E0.02315
G1 X134.207 Y95.2 E0.02167
G1 X134.804 Y96.096 E0.03377
G1 X135.526 Y96.974 E0.03562
G1 X135.826 Y97.369 E0.01555
G1 X136.239 Y97.838 E0.0196
G1 X136.983 Y98.299 E0.02744
G1 X137.753 Y98.297 E0.02416
G1 X138.13 Y98.114 E0.01313
G1 X138.54 Y97.647 E0.01949
G1 X138.802 Y97.069 E0.01989
G1 X138.998 Y96.273 E0.02571
G1 X139.204 Y95.12 E0.03673
G1 X139.342 Y94.587 E0.01727
G1 X139.492 Y94.139 E0.01479
G1 X139.651 Y93.755 E0.01303
G1 X139.98 Y93.646 E0.01087
G1 X140.322 Y93.444 E0.01246
G1 X140.655 Y93.083 E0.01539
G1 X140.834 Y92.823 E0.0099
G1 X140.873 Y92.789 E0.00161
G1 X140.994 Y92.712 E0.0045
G1 X141.429 Y92.538 E0.01469
G1 X141.727 Y92.322 E0.01154
G1 X142.02 Y91.876 E0.01674
G1 X142.391 Y92.484 E0.02233
G1 X142.805 Y92.896 E0.01832
G1 X143.079 Y93.04 E0.00972
G1 X143.429 Y93.303 E0.01371
G1 X143.773 Y93.661 E0.01558
G1 X144.003 Y93.94 E0.01132
G1 X144.184 Y94.086 E0.00729
G1 X144.343 Y94.262 E0.00743
G1 X144.786 Y94.629 E0.01804
G1 X144.908 Y94.81 E0.00685
G1 X144.928 Y94.86 E0.0017
G1 X144.924 Y95.128 E0.00842
G1 X144.673 Y95.695 E0.01944
G1 X144.535 Y95.948 E0.00902
G1 X144.371 Y96.359 E0.01386
G1 X144.137 Y96.766 E0.01475
G1 X144.039 Y97.017 E0.00845
G1 X143.895 Y97.273 E0.00921
G1 X143.834 Y97.45 E0.00585
G1 X143.684 Y97.748 E0.01047
G1 X143.405 Y98.456 E0.02384
G1 X143.136 Y99.165 E0.02377
G1 X142.764 Y100.415 E0.04091
G1 X142.512 Y101.166 E0.02484
G1 X141.959 Y102.551 E0.04675
G1 X141.729 Y103.319 E0.02513
G1 X141.554 Y104.14 E0.02633
G1 X141.528 Y104.666 E0.01652
G1 X141.46 Y105.232 E0.01785
G1 X141.406 Y105.481 E0.00802
G1 X141.306 Y105.829 E0.01133
G1 X140.982 Y106.676 E0.02842
G1 X140.863 Y107.247 E0.0183
G1 X140.851 Y107.86 E0.01924
G1 X140.931 Y108.366 E0.01605
G1 X141.016 Y108.726 E0.01161
G1 X141.225 Y109.28 E0.01856
G1 X141.35 Y109.519 E0.00847
G1 X141.415 Y109.685 E0.00558
G1 X141.346 Y110.161 E0.01506
G1 X141.254 Y110.557 E0.01277
G1 X141.122 Y110.972 E0.01365
G1 X140.755 Y111.809 E0.02865
G1 X140.373 Y112.567 E0.02663
G1 X139.982 Y113.232 E0.02417
G1 X139.842 Y113.395 E0.00675
G1 X139.12 Y114.026 E0.03004
G1 X138.214 Y114.887 E0.0392
G1 X137.516 Y115.649 E0.0324
G1 X137.21 Y116.051 E0.01583
G1 X137.007 Y116.367 E0.01179
G1 X136.798 Y116.751 E0.0137
G1 X136.594 Y117.265 E0.01733
G1 X136.393 Y118.038 E0.02505
G1 X136.264 Y118.694 E0.02095
G1 X135.957 Y120.803 E0.06685
G1 X135.902 Y120.956 E0.0051
G1 X135.855 Y121.015 E0.00235
G1 X135.592 Y121.162 E0.00943
G1 X135.18 Y121.308 E0.01371
G1 X134.743 Y121.427 E0.01423
G1 X131.036 Y121.941 E0.11732
G1 X130.555 Y121.986 E0.01514
G1 X130.44 Y121.977 E0.00361
G1 X130.374 Y121.95 E0.00224
G1 X129.956 Y121.645 E0.01623
G1 X129.696 Y121.492 E0.00947
G1 X129.397 Y121.36 E0.01023
G1 X128.922 Y121.233 E0.01541
G1 X128.265 Y121.152 E0.02077
G1 X127.795 Y121.133 E0.01474
G1 X127.282 Y121.144 E0.01608
G1 X126.718 Y121.218 E0.01784
G1 X126.111 Y121.366 E0.01959
G1 X125.493 Y121.574 E0.02045
G1 X124.466 Y121.974 E0.03455
G1 X124.221 Y121.736 E0.01068
G1 X123.058 Y120.352 E0.05671
G1 X122.6 Y119.848 E0.02134
G1 X122.111 Y119.38 E0.02122
G1 X121.764 Y119.079 E0.0144
G1 X121.188 Y118.667 E0.02219
G1 X120.338 Y118.186 E0.03062
G1 X119.94 Y117.998 E0.01382
G1 X119.417 Y117.793 E0.01762
G1 X119.189 Y117.731 E0.00741
G1 X118.946 Y117.627 E0.00828
G1 X118.462 Y117.26 E0.01904
G1 X118.036 Y116.812 E0.01941
G1 X117.692 Y116.369 E0.01755
G1 X117.447 Y115.99 E0.01417
G1 X116.997 Y115.117 E0.0308
G1 X116.68 Y114.553 E0.02028
G1 X116.255 Y113.971 E0.02261
G1 X115.75 Y113.457 E0.02256
G1 X115.116 Y112.933 E0.02582
G1 X114.587 Y112.579 E0.01994
G1 X114.033 Y112.251 E0.02019
G1 X113.275 Y111.871 E0.02658
G1 X111.99 Y111.329 E0.04373
G1 X111.465 Y111.075 E0.01829
G1 X111.148 Y110.835 E0.01246
G1 X110.941 Y110.536 E0.01141
G1 X110.862 Y110.333 E0.00683
G1 X110.839 Y110.186 E0.00464
G1 X110.826 Y109.735 E0.01416
G1 X110.868 Y109.302 E0.01365
G1 X111.09 Y108.301 E0.03214
G1 X111.216 Y107.543 E0.0241
G1 X111.28 Y106.792 E0.02362
G1 X111.326 Y105.567 E0.03844
G1 X111.327 Y105.21 E0.01119
G1 X111.288 Y104.762 E0.0141
G1 X111.169 Y104.194 E0.0182
G1 X111.034 Y103.714 E0.01564
G1 X110.975 Y103.327 E0.01227
G1 X110.977 Y102.987 E0.01066
G1 X111.032 Y102.465 E0.01645
G1 X111.088 Y101.364 E0.03456
G1 X110.81 Y100.73 E0.02171
G1 X110.246 Y100.437 E0.01993
G1 X109.517 Y100.232 E0.02376
G1 X109.321 Y100.144 E0.00672
G1 X109.262 Y100.106 E0.00222
G1 X109.141 Y99.976 E0.00556
G1 X109.407 Y99.532 E0.01626
G1 X109.642 Y98.923 E0.02045
G1 X109.836 Y98.275 E0.02121
G1 X110.065 Y97.102 E0.03747
G1 X110.24 Y95.843 E0.03987
G1 X110.305 Y95.568 E0.00886
G1 X110.37 Y95.442 E0.00443
G1 X110.98 Y94.782 E0.0282
G1 X111.093 Y94.701 E0.00434
G1 X111.255 Y94.64 E0.00543
G1 X111.871 Y94.537 E0.01957
G1 X112.293 Y94.246 E0.0161
G1 X112.637 Y93.774 E0.01831
G1 X113.269 Y93.078 E0.02946
G1 X113.479 Y92.598 E0.01643
G1 X113.592 Y92.256 E0.0113
G1 X114.013 Y92.45 E0.01452
G1 X114.772 Y92.629 E0.02447
G1 X115.311 Y92.096 E0.02376
G1 X115.592 Y91.643 E0.01673
G1 X115.696 Y91.087 E0.01773
G1 X115.728 Y90.623 E0.01458
G1 X115.791 Y90.305 E0.01014
G1 X115.924 Y89.873 E0.01418
G1 X116.092 Y90.269 E0.01348
G1 X116.276 Y90.984 E0.02316
G1 X116.562 Y91.438 E0.01684
G1 X117.063 Y91.913 E0.02162
G1 X117.619 Y92.307 E0.02138
G1 X117.965 Y92.634 E0.01493
G1 X118.293 Y93.031 E0.01614
G1 X118.803 Y93.438 E0.02045
G1 X118.833 Y93.509 E0.00242
G1 X118.934 Y93.864 E0.01157
G1 X119.317 Y94.231 E0.01664
G1 X119.769 Y94.406 E0.01519
G1 X120.443 Y94.335 E0.02125
G1 X120.971 Y94.129 E0.01779
G1 X120.789 Y93.795 F10800
;TYPE:External perimeter
G1 F1200
G1 X121.565 Y93.196 E0.03073
G1 X122.175 Y92.775 E0.02323
G1 X122.323 Y92.698 E0.00525
G1 X122.622 Y92.378 E0.01373
G1 X122.818 Y92.051 E0.01195
G1 X123.343 Y91.437 E0.02533
G1 X123.526 Y91.141 E0.01091
G1 X124.038 Y90.429 E0.0275
G1 X124.804 Y89.632 E0.03467
G1 X125.175 Y89.327 E0.01505
G1 X125.5 Y89.133 E0.01185
G1 X125.975 Y88.958 E0.01588
G1 X126.383 Y88.895 E0.01295
G1 X126.723 Y88.905 E0.01066
G1 X127.084 Y88.944 E0.01139
G1 X127.593 Y88.969 E0.01599
G1 X127.73 Y88.993 E0.00437
G1 X127.882 Y89.065 E0.00527
G1 X128.198 Y89.118 E0.01004
G1 X128.311 Y89.176 E0.00398
G1 X128.657 Y89.461 E0.01406
G1 X128.904 Y89.737 E0.01162
G1 X129.031 Y89.922 E0.00702
G1 X129.394 Y90.324 E0.01699
G1 X130.357 Y91.277 E0.04248
G1 X130.838 Y91.781 E0.02185
G1 X131.304 Y92.197 E0.01956
G1 X132.713 Y93.352 E0.05715
G1 X133.449 Y93.885 E0.02849
G1 X134.031 Y94.41 E0.02458
G1 X134.509 Y94.973 E0.02315
G1 X135.108 Y95.872 E0.03386
G1 X135.822 Y96.74 E0.03526
G1 X136.118 Y97.13 E0.01534
G1 X136.485 Y97.547 E0.01742
G1 X137.09 Y97.922 E0.02231
G1 X137.666 Y97.92 E0.01806
G1 X137.897 Y97.808 E0.00804
G1 X138.22 Y97.44 E0.01535
G1 X138.444 Y96.945 E0.01704
G1 X138.629 Y96.195 E0.02424
G1 X138.835 Y95.039 E0.0368
G1 X138.981 Y94.479 E0.01814
G1 X139.139 Y94.007 E0.0156
G1 X139.342 Y93.516 E0.01665
G1 X139.417 Y93.423 E0.00376
G1 X139.45 Y93.404 E0.00119
G1 X139.581 Y93.381 E0.00416
G1 X139.823 Y93.301 E0.00799
G1 X140.083 Y93.148 E0.00946
G1 X140.359 Y92.847 E0.01281
G1 X140.55 Y92.571 E0.01053
G1 X140.646 Y92.486 E0.004
G1 X140.821 Y92.375 E0.00651
G1 X141.245 Y92.205 E0.01432
G1 X141.45 Y92.057 E0.00792
G1 X141.661 Y91.736 E0.01207
G1 X141.785 Y91.228 E0.01637
G1 X141.792 Y91.222 E0.00031
G1 X141.872 Y91.226 E0.00249
G1 X141.965 Y91.266 E0.00316
G1 X142.072 Y91.348 E0.00424
G1 X142.3 Y91.61 E0.01088
G1 X142.689 Y92.249 E0.02347
G1 X143.03 Y92.589 E0.0151
G1 X143.281 Y92.72 E0.00888
G1 X143.68 Y93.019 E0.01562
G1 X144.055 Y93.41 E0.017
G1 X144.27 Y93.671 E0.01057
G1 X144.443 Y93.811 E0.007
G1 X144.604 Y93.988 E0.00751
G1 X145.069 Y94.373 E0.01892
G1 X145.241 Y94.631 E0.00972
G1 X145.307 Y94.788 E0.00532
G1 X145.299 Y95.211 E0.01329
G1 X145.011 Y95.862 E0.02232
G1 X144.877 Y96.109 E0.0088
G1 X144.712 Y96.523 E0.01401
G1 X144.478 Y96.93 E0.01469
G1 X144.381 Y97.179 E0.00838
G1 X144.24 Y97.429 E0.00901
G1 X144.181 Y97.597 E0.00557
G1 X144.029 Y97.902 E0.0107
G1 X143.757 Y98.592 E0.02325
G1 X143.494 Y99.285 E0.02326
G1 X143.124 Y100.529 E0.04069
G1 X142.866 Y101.296 E0.02537
G1 X142.315 Y102.675 E0.04655
G1 X142.095 Y103.412 E0.02413
G1 X141.929 Y104.189 E0.0249
G1 X141.904 Y104.698 E0.01598
G1 X141.833 Y105.295 E0.01884
G1 X141.771 Y105.574 E0.00897
G1 X141.664 Y105.948 E0.01221
G1 X141.345 Y106.782 E0.02799
G1 X141.239 Y107.289 E0.01625
G1 X141.229 Y107.834 E0.01709
G1 X141.301 Y108.293 E0.01456
G1 X141.378 Y108.616 E0.0104
G1 X141.57 Y109.126 E0.01708
G1 X141.694 Y109.363 E0.0084
G1 X141.779 Y109.581 E0.00733
G1 X141.795 Y109.69 E0.00346
G1 X141.717 Y110.23 E0.01712
G1 X141.618 Y110.657 E0.01374
G1 X141.475 Y111.105 E0.01474
G1 X141.096 Y111.969 E0.02959
G1 X140.704 Y112.748 E0.02732
G1 X140.29 Y113.453 E0.02563
G1 X140.11 Y113.662 E0.00866
G1 X139.374 Y114.304 E0.03063
G1 X138.483 Y115.152 E0.03855
G1 X137.805 Y115.891 E0.03145
G1 X137.519 Y116.268 E0.01483
G1 X137.331 Y116.56 E0.01089
G1 X137.14 Y116.912 E0.01255
G1 X136.953 Y117.382 E0.01588
G1 X136.761 Y118.122 E0.02396
G1 X136.636 Y118.757 E0.02031
G1 X136.325 Y120.896 E0.06776
G1 X136.235 Y121.144 E0.00826
G1 X136.154 Y121.261 E0.00448
G1 X136.103 Y121.308 E0.00216
G1 X135.749 Y121.506 E0.01273
G1 X135.293 Y121.668 E0.01516
G1 X134.818 Y121.797 E0.01543
G1 X131.08 Y122.315 E0.11834
G1 X130.559 Y122.364 E0.01641
G1 X130.353 Y122.348 E0.00645
G1 X130.189 Y122.282 E0.00555
G1 X129.749 Y121.96 E0.0171
G1 X129.524 Y121.828 E0.00818
G1 X129.272 Y121.717 E0.00864
G1 X128.85 Y121.604 E0.01369
G1 X128.234 Y121.528 E0.01946
G1 X127.791 Y121.51 E0.0139
G1 X127.311 Y121.52 E0.01507
G1 X126.787 Y121.589 E0.01655
G1 X126.216 Y121.728 E0.01844
G1 X125.621 Y121.928 E0.01967
G1 X124.456 Y122.382 E0.03922
G1 X124.338 Y122.375 E0.00369
G1 X123.945 Y121.994 E0.01719
G1 X122.774 Y120.6 E0.05708
G1 X122.329 Y120.111 E0.02071
G1 X121.857 Y119.658 E0.02051
G1 X121.53 Y119.376 E0.01356
G1 X120.985 Y118.985 E0.02101
G1 X120.165 Y118.521 E0.02956
G1 X119.79 Y118.344 E0.01299
G1 X119.299 Y118.151 E0.01656
G1 X119.065 Y118.088 E0.0076
G1 X118.755 Y117.955 E0.01057
G1 X118.21 Y117.542 E0.02144
G1 X117.749 Y117.058 E0.02096
G1 X117.385 Y116.588 E0.01865
G1 X117.12 Y116.18 E0.01526
G1 X116.665 Y115.296 E0.03116
G1 X116.362 Y114.758 E0.01937
G1 X115.966 Y114.215 E0.02105
G1 X115.495 Y113.736 E0.02108
G1 X114.89 Y113.236 E0.02461
G1 X114.386 Y112.898 E0.01901
G1 X113.852 Y112.583 E0.01945
G1 X113.117 Y112.214 E0.02578
G1 X111.835 Y111.673 E0.04365
G1 X111.267 Y111.398 E0.01976
G1 X110.872 Y111.1 E0.01552
G1 X110.606 Y110.714 E0.01471
G1 X110.497 Y110.432 E0.00946
G1 X110.462 Y110.222 E0.00667
G1 X110.448 Y109.722 E0.01569
G1 X110.495 Y109.242 E0.01511
G1 X110.72 Y108.229 E0.03254
G1 X110.842 Y107.496 E0.02332
G1 X110.903 Y106.769 E0.02287
G1 X110.949 Y105.559 E0.03795
G1 X110.95 Y105.226 E0.01046
G1 X110.914 Y104.817 E0.01286
G1 X110.802 Y104.284 E0.01709
G1 X110.665 Y103.793 E0.01596
G1 X110.597 Y103.354 E0.01393
G1 X110.6 Y102.966 E0.01217
G1 X110.656 Y102.436 E0.01671
G1 X110.707 Y101.434 E0.03145
G1 X110.518 Y101.003 E0.01475
G1 X110.338 Y100.899 E0.00653
G1 X110.107 Y100.789 E0.00801
G1 X109.387 Y100.588 E0.02343
G1 X109.14 Y100.476 E0.0085
G1 X109.019 Y100.397 E0.00455
G1 X108.839 Y100.206 E0.00821
G1 X108.794 Y100.135 E0.00266
G1 X108.745 Y99.994 E0.00467
G1 X108.755 Y99.887 E0.00337
G1 X109.067 Y99.366 E0.01905
G1 X109.285 Y98.801 E0.01898
G1 X109.47 Y98.185 E0.02017
G1 X109.693 Y97.04 E0.03656
G1 X109.869 Y95.773 E0.04012
G1 X109.949 Y95.436 E0.01085
G1 X110.058 Y95.224 E0.00747
G1 X110.73 Y94.498 E0.03102
G1 X110.914 Y94.366 E0.00709
G1 X111.156 Y94.274 E0.00813
G1 X111.726 Y94.179 E0.0181
G1 X112.026 Y93.972 E0.01145
G1 X112.344 Y93.535 E0.01693
G1 X112.948 Y92.87 E0.02817
G1 X113.127 Y92.463 E0.01393
G1 X113.276 Y92.01 E0.01495
G1 X113.495 Y91.658 E0.01301
G1 X113.578 Y91.565 E0.00391
