; generated by SuperSlicer 2.4 on 2022-08-01 at 08:44:42 UTC

; 

; external perimeters extrusion width = 0.45mm
; perimeters extrusion width = 0.45mm
; infill extrusion width = 0.45mm
; solid infill extrusion width = 0.45mm
; top infill extrusion width = 0.40mm
; first layer extrusion width = 0.42mm

; external perimeters extrusion width = 0.45mm
; perimeters extrusion width = 0.45mm
; infill extrusion width = 0.45mm
; solid infill extrusion width = 0.45mm
; top infill extrusion width = 0.40mm
; first layer extrusion width = 0.42mm

; external perimeters extrusion width = 0.45mm
; perimeters extrusion width = 0.45mm
; infill extrusion width = 0.45mm
; solid infill extrusion width = 0.45mm
; top infill extrusion width = 0.40mm
; first layer extrusion width = 0.42mm

; external perimeters extrusion width = 0.45mm
; perimeters extrusion width = 0.45mm
; infill extrusion width = 0.45mm
; solid infill extrusion width = 0.45mm
; top infill extrusion width = 0.40mm
; first layer extrusion width = 0.42mm

; external perimeters extrusion width = 0.45mm
; perimeters extrusion width = 0.45mm
; infill extrusion width = 0.45mm
; solid infill extrusion width = 0.45mm
; top infill extrusion width = 0.40mm
; first layer extrusion width = 0.42mm

; external perimeters extrusion width = 0.45mm
; perimeters extrusion width = 0.45mm
; infill extrusion width = 0.45mm
; solid infill extrusion width = 0.45mm
; top infill extrusion width = 0.40mm
; first layer extrusion width = 0.42mm

; external perimeters extrusion width = 0.45mm
; perimeters extrusion width = 0.45mm
; infill extrusion width = 0.45mm
; solid infill extrusion width = 0.45mm
; top infill extrusion width = 0.40mm
; first layer extrusion width = 0.42mm

; external perimeters extrusion width = 0.45mm
; perimeters extrusion width = 0.45mm
; infill extrusion width = 0.45mm
; solid infill extrusion width = 0.45mm
; top infill extrusion width = 0.40mm
; first layer extrusion width = 0.42mm

; external perimeters extrusion width = 0.45mm
; perimeters extrusion width = 0.45mm
; infill extrusion width = 0.45mm
; solid infill extrusion width = 0.45mm
; top infill extrusion width = 0.40mm
; first layer extrusion width = 0.42mm

; external perimeters extrusion width = 0.45mm
; perimeters extrusion width = 0.45mm
; infill extrusion width = 0.45mm
; solid infill extrusion width = 0.45mm
; top infill extrusion width = 0.40mm
; first layer extrusion width = 0.42mm

; external perimeters extrusion width = 0.45mm
; perimeters extrusion width = 0.45mm
; infill extrusion width = 0.45mm
; solid infill extrusion width = 0.45mm
; top infill extrusion width = 0.40mm
; first layer extrusion width = 0.42mm

; external perimeters extrusion width = 0.45mm
; perimeters extrusion width = 0.45mm
; infill extrusion width = 0.45mm
; solid infill extrusion width = 0.45mm
; top infill extrusion width = 0.40mm
; first layer extrusion width = 0.42mm

; object:{"name":"Pleta_In01X4","id":"Pleta_In01X4.stl id:0 copy 0","object_center":[131.500000,100.000000,0.000000],"boundingbox_center":[131.500000,100.000000,5.000000],"boundingbox_size":[10.000000,20.000000,10.000000]}
; object:{"name":"Pleta_In02X6","id":"Pleta_In02X6.stl id:1 copy 0","object_center":[149.500000,117.999999,0.000000],"boundingbox_center":[149.500000,117.999999,10.000000],"boundingbox_size":[20.000000,10.000000,20.000000]}
; object:{"name":"Pleta_In03X2","id":"Pleta_In03X2.stl id:2 copy 0","object_center":[100.500000,100.905143,0.000000],"boundingbox_center":[100.500000,100.905143,2.500000],"boundingbox_size":[20.000000,5.000000,5.000000]}
; object:{"name":"Pleta_In02X6","id":"Pleta_In02X6.stl id:3 copy 0","object_center":[149.500000,105.000000,0.000000],"boundingbox_center":[149.500000,105.000000,10.000000],"boundingbox_size":[20.000000,10.000000,20.000000]}
; object:{"name":"Pleta_In02X6","id":"Pleta_In02X6.stl id:4 copy 0","object_center":[149.500000,92.000001,0.000000],"boundingbox_center":[149.500000,92.000001,10.000000],"boundingbox_size":[20.000000,10.000000,20.000000]}
; object:{"name":"Pleta_In02X6","id":"Pleta_In02X6.stl id:5 copy 0","object_center":[149.500000,130.999998,0.000000],"boundingbox_center":[149.500000,130.999998,10.000000],"boundingbox_size":[20.000000,10.000000,20.000000]}
; object:{"name":"Pleta_In02X6","id":"Pleta_In02X6.stl id:6 copy 0","object_center":[149.500000,79.000002,0.000000],"boundingbox_center":[149.500000,79.000002,10.000000],"boundingbox_size":[20.000000,10.000000,20.000000]}
; object:{"name":"Pleta_In02X6","id":"Pleta_In02X6.stl id:7 copy 0","object_center":[126.500000,79.000002,0.000000],"boundingbox_center":[126.500000,79.000002,10.000000],"boundingbox_size":[20.000000,10.000000,20.000000]}
; object:{"name":"Pleta_In03X2","id":"Pleta_In03X2.stl id:8 copy 0","object_center":[100.500000,108.905143,0.000000],"boundingbox_center":[100.500000,108.905143,2.500000],"boundingbox_size":[20.000000,5.000000,5.000000]}
; object:{"name":"Pleta_In01X4","id":"Pleta_In01X4.stl id:9 copy 0","object_center":[118.500000,100.000000,0.000000],"boundingbox_center":[118.500000,100.000000,5.000000],"boundingbox_size":[10.000000,20.000000,10.000000]}
; object:{"name":"Pleta_In01X4","id":"Pleta_In01X4.stl id:10 copy 0","object_center":[131.500000,123.000000,0.000000],"boundingbox_center":[131.500000,123.000000,5.000000],"boundingbox_size":[10.000000,20.000000,10.000000]}
; object:{"name":"Pleta_In01X4","id":"Pleta_In01X4.stl id:11 copy 0","object_center":[118.500000,123.000000,0.000000],"boundingbox_center":[118.500000,123.000000,5.000000],"boundingbox_size":[10.000000,20.000000,10.000000]}
; plater:{"center":[125.000000,105.000000,0.000000],"boundingbox_center":[125.000000,105.000000,10.000000],"boundingbox_size":[69.000000,61.999996,20.000000]}

M73 P0 R153
;TYPE:Custom
Start : M104 S0
M140 S0
PRINT_START EXTRUDER_TEMP=230 BED_TEMP=65
M107
G21 ; set units to millimeters
G90 ; use absolute coordinates
M83 ; use relative distances for extrusion
; Filament gcode
SET_PRESSURE_ADVANCE ADVANCE=0.035
M104 S230 ; set temperature
M109 S230 ; set temperature and wait for it to be reached
M107
;LAYER_CHANGE
;Z:0.2
;HEIGHT:0.2
;BEFORE_LAYER_CHANGE
G92 E0.0
;0.2


G1 E-0.8 F2100
G1 Z0.4 F10800
;AFTER_LAYER_CHANGE
;0.2
G1 Z0.6
M204 S1000
G1 X89.961 Y95.84
G1 Z0.2
G1 E0.8 F2100
;TYPE:Skirt
;WIDTH:0.52
G1 F1200
G1 X88.968 Y96.773 E0.05406
G1 X88.261 Y98.405 E0.07055
G1 X88.261 Y111.405 E0.5157
G1 X88.968 Y113.037 E0.07054
G1 X111.968 Y134.632 E1.25153
G1 X113.243 Y135.224 E0.05579
G1 X139.243 Y138.224 E1.03825
G1 X159.5 Y138.239 E0.80357
G1 X160.311 Y138.086 E0.03273
G1 X161.347 Y137.264 E0.05249
G1 X161.739 Y136 E0.05249
G1 X161.739 Y74 E2.4595
G1 X161.586 Y73.189 E0.03273
G1 X160.764 Y72.153 E0.05249
G1 X159.5 Y71.761 E0.05249
G1 X116.5 Y71.761 E1.70578
G1 X114.968 Y72.368 E0.06536
G1 X90.005 Y95.799 E1.35816
; INIT printing object Pleta_In01X4.stl id:0 copy 0
;WIPE_START
G1 F8640
G1 X88.968 Y96.773 E-0.32849
G1 X88.261 Y98.405 E-0.41066
G1 X88.261 Y98.495 E-0.02085
;WIPE_END
G1 E-0.04 F2100
G1 Z0.6 F10800
; printing object Pleta_In01X4.stl id:0 copy 0
; acceleration to travel
M204 S1500
G1 X121.567 Y96.238
; decel to extrusion
M204 S800
G1 X128.041 Y95.799
; end travel
G1 Z0.2
G1 E0.8 F2100
;TYPE:Internal perimeter
;WIDTH:0.42
G1 F1200
G1 X128.041 Y91.541 E0.13351
G1 X134.959 Y91.541 E0.21689
G1 X134.959 Y108.459 E0.53044
G1 X128.041 Y108.459 E0.21689
G1 X128.041 Y95.859 E0.39505
G1 X127.664 Y95.799 F10800
G1 F1200
G1 X127.664 Y91.164 E0.14533
G1 X135.336 Y91.164 E0.24054
G1 X135.336 Y108.836 E0.55408
G1 X127.664 Y108.836 E0.24054
G1 X127.664 Y95.859 E0.40687
G1 X127.287 Y95.799 F10800
G1 F1200
G1 X127.287 Y90.787 E0.15716
G1 X135.713 Y90.787 E0.26419
G1 X135.713 Y109.213 E0.57773
G1 X127.287 Y109.213 E0.26419
G1 X127.287 Y95.859 E0.41869
G1 X126.91 Y95.799 F10800
;TYPE:External perimeter
G1 F1200
G1 X126.91 Y90.41 E0.16898
G1 X136.09 Y90.41 E0.28783
G1 X136.09 Y109.59 E0.60138
G1 X126.91 Y109.59 E0.28783
G1 X126.91 Y95.859 E0.43052
;WIPE_START
M204 S1000
G1 X127.256 Y95.599 F10800
;WIPE_END
;WIPE_START
G1 F8640
G1 X127.16 Y92.309 E-0.76
;WIPE_END
G1 E-0.04 F2100
G1 Z0.6 F10800
; acceleration to travel
M204 S1500
G1 X132.73 Y91.782
; decel to extrusion
M204 S1000
G1 X134.083 Y91.654
; end travel
G1 Z0.2
G1 E0.8 F2100
;TYPE:Solid infill
;WIDTH:0.421851
G1 F1200
G1 X134.684 Y92.254 E0.02673
G1 X134.684 Y92.788 E0.01679
G1 X133.712 Y91.816 E0.04326
G1 X133.179 Y91.816 E0.01679
G1 X134.684 Y93.321 E0.06701
G1 X134.684 Y93.854 E0.01679
G1 X132.646 Y91.816 E0.09076
G1 X132.112 Y91.816 E0.01679
G1 X134.684 Y94.388 E0.11451
G1 X134.684 Y94.921 E0.01679
G1 X131.579 Y91.816 E0.13826
G1 X131.046 Y91.816 E0.01679
G1 X134.684 Y95.454 E0.16201
G1 X134.684 Y95.987 E0.01679
G1 X130.513 Y91.816 E0.18576
G1 X129.979 Y91.816 E0.01679
G1 X134.684 Y96.521 E0.20951
G1 X134.684 Y97.054 E0.01679
G1 X129.446 Y91.816 E0.23326
G1 X128.913 Y91.816 E0.01679
G1 X134.684 Y97.587 E0.25701
G1 X134.684 Y98.12 E0.01679
G1 X128.38 Y91.816 E0.28076
G1 X128.316 Y91.816 E0.00199
G1 X128.316 Y92.287 E0.01481
G1 X134.684 Y98.654 E0.28357
G1 X134.684 Y99.187 E0.01679
G1 X128.316 Y92.82 E0.28357
G1 X128.316 Y93.353 E0.01679
G1 X134.684 Y99.72 E0.28357
G1 X134.684 Y100.254 E0.01679
G1 X128.316 Y93.886 E0.28357
G1 X128.316 Y94.42 E0.01679
G1 X134.684 Y100.787 E0.28357
G1 X134.684 Y101.32 E0.01679
G1 X128.316 Y94.953 E0.28357
G1 X128.316 Y95.486 E0.01679
G1 X134.684 Y101.853 E0.28357
G1 X134.684 Y102.387 E0.01679
G1 X128.316 Y96.02 E0.28357
G1 X128.316 Y96.553 E0.01679
G1 X134.684 Y102.92 E0.28357
G1 X134.684 Y103.453 E0.01679
G1 X128.316 Y97.086 E0.28357
G1 X128.316 Y97.619 E0.01679
G1 X134.684 Y103.986 E0.28357
G1 X134.684 Y104.52 E0.01679
G1 X128.316 Y98.153 E0.28357
G1 X128.316 Y98.686 E0.01679
G1 X134.684 Y105.053 E0.28357
G1 X134.684 Y105.586 E0.01679
G1 X128.316 Y99.219 E0.28357
G1 X128.316 Y99.752 E0.01679
G1 X134.684 Y106.119 E0.28357
G1 X134.684 Y106.653 E0.01679
G1 X128.316 Y100.286 E0.28357
G1 X128.316 Y100.819 E0.01679
G1 X134.684 Y107.186 E0.28357
G1 X134.684 Y107.719 E0.01679
G1 X128.316 Y101.352 E0.28357
G1 X128.316 Y101.886 E0.01679
G1 X134.614 Y108.184 E0.28049
G1 X134.081 Y108.184 E0.01679
G1 X128.316 Y102.419 E0.25674
G1 X128.316 Y102.952 E0.01679
G1 X133.548 Y108.184 E0.23299
G1 X133.015 Y108.184 E0.01679
G1 X128.316 Y103.485 E0.20924
G1 X128.316 Y104.019 E0.01679
G1 X132.481 Y108.184 E0.18549
G1 X131.948 Y108.184 E0.01679
G1 X128.316 Y104.552 E0.16174
G1 X128.316 Y105.085 E0.01679
G1 X131.415 Y108.184 E0.13799
G1 X130.882 Y108.184 E0.01679
G1 X128.316 Y105.618 E0.11424
G1 X128.316 Y106.152 E0.01679
G1 X130.348 Y108.184 E0.09049
G1 X129.815 Y108.184 E0.01679
G1 X128.316 Y106.685 E0.06674
G1 X128.316 Y107.218 E0.01679
G1 X129.282 Y108.184 E0.04299
G1 X128.748 Y108.184 E0.01679
G1 X128.154 Y107.589 E0.02646
; INIT stop printing object Pleta_In01X4.stl id:0 copy 0
; INIT printing object Pleta_In01X4.stl id:9 copy 0
;WIPE_START
G1 F8640
G1 X128.748 Y108.184 E-0.19402
G1 X129.282 Y108.184 E-0.12313
G1 X128.316 Y107.218 E-0.31521
G1 X128.316 Y106.685 E-0.12313
G1 X128.33 Y106.699 E-0.00451
;WIPE_END
G1 E-0.04 F2100
G1 Z0.6 F10800
; stop printing object Pleta_In01X4.stl id:0 copy 0
; printing object Pleta_In01X4.stl id:9 copy 0
; acceleration to travel
M204 S1500
G1 X122.996 Y107.444
; decel to extrusion
M204 S800
G1 X121.959 Y107.589
; end travel
G1 Z0.2
G1 E0.8 F2100
;TYPE:Internal perimeter
;WIDTH:0.42
G1 F1200
G1 X121.959 Y108.459 E0.02726
G1 X115.041 Y108.459 E0.21689
G1 X115.041 Y91.541 E0.53044
G1 X121.959 Y91.541 E0.21689
G1 X121.959 Y107.529 E0.5013
G1 X122.336 Y107.589 F10800
G1 F1200
G1 X122.336 Y108.836 E0.03908
G1 X114.664 Y108.836 E0.24054
G1 X114.664 Y91.164 E0.55408
G1 X122.336 Y91.164 E0.24054
G1 X122.336 Y107.529 E0.51312
G1 X122.713 Y107.589 F10800
G1 F1200
G1 X122.713 Y109.213 E0.05091
G1 X114.287 Y109.213 E0.26419
G1 X114.287 Y90.787 E0.57773
M73 P0 R152
G1 X122.713 Y90.787 E0.26419
G1 X122.713 Y107.529 E0.52494
G1 X123.09 Y107.589 F10800
;TYPE:External perimeter
G1 F1200
G1 X123.09 Y109.59 E0.06273
G1 X113.91 Y109.59 E0.28783
G1 X113.91 Y90.41 E0.60138
G1 X123.09 Y90.41 E0.28783
G1 X123.09 Y107.529 E0.53677
;WIPE_START
M204 S1000
G1 X122.744 Y107.789 F10800
;WIPE_END
;WIPE_START
G1 F8640
G1 X122.89 Y109.39 E-0.37113
G1 X121.206 Y109.39 E-0.38887
;WIPE_END
G1 E-0.04 F2100
G1 Z0.6 F10800
; acceleration to travel
M204 S1500
G1 X121.107 Y95.122
; decel to extrusion
M204 S1000
G1 X121.083 Y91.654
; end travel
G1 Z0.2
G1 E0.8 F2100
;TYPE:Solid infill
;WIDTH:0.421851
G1 F1200
G1 X121.684 Y92.254 E0.02673
G1 X121.684 Y92.788 E0.01679
G1 X120.712 Y91.816 E0.04326
G1 X120.179 Y91.816 E0.01679
G1 X121.684 Y93.321 E0.06701
G1 X121.684 Y93.854 E0.01679
G1 X119.646 Y91.816 E0.09076
G1 X119.112 Y91.816 E0.01679
G1 X121.684 Y94.388 E0.11451
G1 X121.684 Y94.921 E0.01679
G1 X118.579 Y91.816 E0.13826
G1 X118.046 Y91.816 E0.01679
G1 X121.684 Y95.454 E0.16201
G1 X121.684 Y95.987 E0.01679
G1 X117.513 Y91.816 E0.18576
G1 X116.979 Y91.816 E0.01679
G1 X121.684 Y96.521 E0.20951
G1 X121.684 Y97.054 E0.01679
G1 X116.446 Y91.816 E0.23326
G1 X115.913 Y91.816 E0.01679
G1 X121.684 Y97.587 E0.25701
G1 X121.684 Y98.12 E0.01679
G1 X115.38 Y91.816 E0.28076
G1 X115.316 Y91.816 E0.00199
G1 X115.316 Y92.287 E0.01481
G1 X121.684 Y98.654 E0.28357
G1 X121.684 Y99.187 E0.01679
G1 X115.316 Y92.82 E0.28357
G1 X115.316 Y93.353 E0.01679
G1 X121.684 Y99.72 E0.28357
G1 X121.684 Y100.254 E0.01679
G1 X115.316 Y93.886 E0.28357
G1 X115.316 Y94.42 E0.01679
G1 X121.684 Y100.787 E0.28357
G1 X121.684 Y101.32 E0.01679
G1 X115.316 Y94.953 E0.28357
G1 X115.316 Y95.486 E0.01679
G1 X121.684 Y101.853 E0.28357
G1 X121.684 Y102.387 E0.01679
G1 X115.316 Y96.02 E0.28357
G1 X115.316 Y96.553 E0.01679
G1 X121.684 Y102.92 E0.28357
G1 X121.684 Y103.453 E0.01679
G1 X115.316 Y97.086 E0.28357
G1 X115.316 Y97.619 E0.01679
G1 X121.684 Y103.986 E0.28357
G1 X121.684 Y104.52 E0.01679
G1 X115.316 Y98.153 E0.28357
G1 X115.316 Y98.686 E0.01679
G1 X121.684 Y105.053 E0.28357
G1 X121.684 Y105.586 E0.01679
G1 X115.316 Y99.219 E0.28357
G1 X115.316 Y99.752 E0.01679
G1 X121.684 Y106.119 E0.28357
G1 X121.684 Y106.653 E0.01679
G1 X115.316 Y100.286 E0.28357
G1 X115.316 Y100.819 E0.01679
G1 X121.684 Y107.186 E0.28357
G1 X121.684 Y107.719 E0.01679
G1 X115.316 Y101.352 E0.28357
G1 X115.316 Y101.886 E0.01679
G1 X121.614 Y108.184 E0.28049
G1 X121.081 Y108.184 E0.01679
G1 X115.316 Y102.419 E0.25674
G1 X115.316 Y102.952 E0.01679
G1 X120.548 Y108.184 E0.23299
G1 X120.015 Y108.184 E0.01679
G1 X115.316 Y103.485 E0.20924
G1 X115.316 Y104.019 E0.01679
G1 X119.481 Y108.184 E0.18549
G1 X118.948 Y108.184 E0.01679
G1 X115.316 Y104.552 E0.16174
G1 X115.316 Y105.085 E0.01679
G1 X118.415 Y108.184 E0.13799
G1 X117.882 Y108.184 E0.01679
G1 X115.316 Y105.618 E0.11424
G1 X115.316 Y106.152 E0.01679
G1 X117.348 Y108.184 E0.09049
G1 X116.815 Y108.184 E0.01679
G1 X115.316 Y106.685 E0.06674
G1 X115.316 Y107.218 E0.01679
G1 X116.282 Y108.184 E0.04299
G1 X115.748 Y108.184 E0.01679
G1 X115.154 Y107.589 E0.02646
; INIT stop printing object Pleta_In01X4.stl id:9 copy 0
; INIT printing object Pleta_In03X2.stl id:2 copy 0
;WIPE_START
G1 F8640
G1 X115.748 Y108.184 E-0.19402
G1 X116.282 Y108.184 E-0.12313
G1 X115.316 Y107.218 E-0.31521
G1 X115.316 Y106.685 E-0.12313
G1 X115.33 Y106.699 E-0.00451
;WIPE_END
G1 E-0.04 F2100
G1 Z0.6 F10800
; stop printing object Pleta_In01X4.stl id:9 copy 0
; printing object Pleta_In03X2.stl id:2 copy 0
; acceleration to travel
M204 S1500
G1 X109.996 Y102.651
; decel to extrusion
M204 S800
G1 X108.959 Y101.864
; end travel
G1 Z0.2
G1 E0.8 F2100
;TYPE:Internal perimeter
;WIDTH:0.42
G1 F1200
G1 X92.041 Y101.864 E0.53044
G1 X92.041 Y99.946 E0.06012
G1 X108.959 Y99.946 E0.53044
G1 X108.959 Y101.804 E0.05824
G1 X109.336 Y102.241 F10800
G1 F1200
G1 X91.664 Y102.241 E0.55408
G1 X91.664 Y99.569 E0.08377
G1 X109.336 Y99.569 E0.55408
G1 X109.336 Y102.181 E0.08189
G1 X109.713 Y102.618 F10800
G1 F1200
G1 X91.287 Y102.618 E0.57773
G1 X91.287 Y99.192 E0.10741
G1 X109.713 Y99.192 E0.57773
G1 X109.713 Y102.558 E0.10553
