; generated by SuperSlicer 2.5.59 on 2022-09-17 at 05:48:16 UTC

; 

; external perimeters extrusion width = 0.45mm
; perimeters extrusion width = 0.45mm
; infill extrusion width = 0.45mm
; solid infill extrusion width = 0.45mm
; top infill extrusion width = 0.40mm
; first layer extrusion width = 0.42mm

; object:{"name":"Pointy_Stick2","id":"Pointy_Stick2.stl id:0 copy 0","object_center":[125.000000,105.000000,0.000000],"boundingbox_center":[125.000000,105.000000,87.504005],"boundingbox_size":[23.788208,18.783890,175.008011]}
; plater:{"center":[125.000000,105.000000,0.000000],"boundingbox_center":[125.000000,105.000000,87.504005],"boundingbox_size":[23.788208,18.783890,175.008011]}

M73 P0 R59


; Pre-Processed for Cancel-Object support by preprocess_cancellation v0.2.0
; 1 known objects
EXCLUDE_OBJECT_DEFINE NAME=Pointy_Stick2_stl_id_0_copy_0 CENTER=128.571,103.949 POLYGON=[[135.121,95.851],[113.962,102.381],[113.722,102.546],[113.503,102.876],[113.406,103.139],[113.338,103.62],[113.457,104.525],[113.65,104.993],[113.813,105.231],[114.111,105.5],[128.802,114.012],[129.473,114.156],[129.855,114.073],[130.296,113.847],[130.514,113.58],[136.039,105.146],[136.282,104.584],[136.358,104.174],[136.651,97.381],[136.597,97.0],[136.506,96.668],[136.228,96.264],[135.831,95.997],[135.121,95.851]]
;TYPE:Custom
M104 S0
M140 S0
START_PRINT BED=60 NOZZLE=215 PA=0.05896 INITIAL_TOOL=0 BED_MESH=Y PRINT_MIN_X=108.459 PRINT_MIN_Y=83.9701 PRINT_MAX_X=148.574 PRINT_MAX_Y=123.985 PROBE_COUNT=3
;SET_FILAMENT_SENSOR SENSOR=encoder_sensor ENABLE=1
;PURGE_LINE
M107
G21 ; set units to millimeters
G90 ; use absolute coordinates
M83 ; use relative distances for extrusion
M900 K0.05 ; Filament gcode LA 1.5
M900 K30 ; Filament gcode LA 1.0
;_TOOLCHANGE 0
M107
;LAYER_CHANGE
;Z:0.2
;HEIGHT:0.2
;BEFORE_LAYER_CHANGE
G92 E0.0
;0.2


G1 E-0.8 F2100
G1 Z0.4 F10800
;AFTER_LAYER_CHANGE
;0.2
G1 Z0.6
M204 S1000
G1 X112.956 Y92.089
G1 Z0.2
G1 E0.8 F2100
;TYPE:Skirt
;WIDTH:0.52
G1 F1200
G1 X111.208 Y94.817 E0.12853
G1 X109.932 Y97.804 E0.12886
G1 X109.229 Y100.588 E0.11391
G1 X108.935 Y103.812 E0.12843
G1 X109.233 Y107.386 E0.14224
G1 X110.053 Y110.505 E0.12796
G1 X111.206 Y113.135 E0.1139
G1 X112.951 Y115.862 E0.12844
G1 X115.125 Y118.266 E0.12858
G1 X117.651 Y120.27 E0.12791
G1 X120.807 Y121.979 E0.14239
G1 X123.888 Y123.007 E0.12884
G1 X127.089 Y123.508 E0.1285
G1 X130.32 Y123.478 E0.12817
G1 X133.159 Y123.003 E0.11422
G1 X136.229 Y121.977 E0.1284
G1 X139.381 Y120.27 E0.14218
G1 X141.907 Y118.266 E0.12794
G1 X144.081 Y115.861 E0.12859
G1 X145.822 Y113.142 E0.12808
G1 X146.976 Y110.514 E0.11386
G1 X147.802 Y107.373 E0.12882
G1 X148.098 Y104.15 E0.1284
G1 X147.857 Y100.916 E0.12862
G1 X146.975 Y97.441 E0.14224
G1 X145.653 Y94.504 E0.12777
G1 X144.089 Y92.105 E0.11359
G1 X141.914 Y89.695 E0.12879
G1 X139.368 Y87.678 E0.12883
G1 X136.548 Y86.119 E0.12783
G1 X133.157 Y84.954 E0.14225
G1 X129.965 Y84.449 E0.12818
G1 X126.726 Y84.478 E0.1285
G1 X123.536 Y85.039 E0.1285
G1 X120.473 Y86.123 E0.12889
G1 X117.946 Y87.494 E0.11405
G1 X115.386 Y89.45 E0.12778
G1 X112.997 Y92.045 E0.13993
;WIPE_START
G1 F8640
M204 S1250
G1 X111.212 Y94.81 E-0.76
;WIPE_END
G1 E-0.04 F2100
G1 Z0.6 F10800
; acceleration to travel
M204 S1500
G1 X114.509 Y93.868
; decel to extrusion
M204 S1000
G1 X115.311 Y93.639
; end travel
G1 Z0.2
G1 E0.8 F2100
;WIDTH:0.42
G1 F1200
G1 X115.648 Y93.149 E0.01866
G1 X117.952 Y90.889 E0.10119
G1 X120.214 Y89.349 E0.08582
G1 X121.982 Y88.483 E0.0617
G1 X123.826 Y87.823 E0.06142
G1 X126.949 Y87.235 E0.09963
G1 X130.116 Y87.237 E0.09931
G1 X133.105 Y87.799 E0.09538
G1 X135.932 Y88.884 E0.09493
G1 X138.538 Y90.474 E0.09572
G1 X140.811 Y92.501 E0.09548
G1 X142.395 Y94.477 E0.07941
G1 X143.379 Y96.111 E0.05981
G1 X144.177 Y97.839 E0.05969
G1 X145.118 Y101.296 E0.11232
G1 X145.317 Y104.884 E0.11267
G1 X145.112 Y106.695 E0.05715
G1 X144.721 Y108.488 E0.05752
G1 X143.631 Y111.353 E0.09611
G1 X141.792 Y114.301 E0.10895
G1 X139.402 Y116.799 E0.1084
G1 X136.902 Y118.56 E0.09588
G1 X135.138 Y119.437 E0.06176
G1 X133.284 Y120.11 E0.06183
G1 X130.095 Y120.721 E0.10183
G1 X126.885 Y120.717 E0.10064
G1 X123.791 Y120.118 E0.09879
G1 X120.888 Y118.972 E0.09788
G1 X119.302 Y118.047 E0.05756
G1 X117.831 Y116.974 E0.05708
G1 X115.337 Y114.424 E0.11185
G1 X113.579 Y111.707 E0.10145
G1 X112.371 Y108.689 E0.10195
G1 X111.805 Y105.902 E0.08915
G1 X111.7 Y103.877 E0.06359
G1 X111.83 Y101.845 E0.06386
G1 X112.545 Y98.713 E0.10069
G1 X113.829 Y95.79 E0.10012
G1 X115.277 Y93.689 E0.08
G1 X115.586 Y93.903 F10800
G1 F1200
G1 X115.948 Y93.378 E0.01998
G1 X118.178 Y91.191 E0.09793
G1 X120.393 Y89.681 E0.08403
G1 X122.119 Y88.834 E0.06028
G1 X123.939 Y88.183 E0.06062
G1 X126.966 Y87.612 E0.09659
G1 X130.064 Y87.611 E0.09712
G1 X132.987 Y88.157 E0.09323
G1 X135.751 Y89.215 E0.09279
G1 X138.3 Y90.767 E0.09359
G1 X140.527 Y92.749 E0.09347
G1 X142.079 Y94.682 E0.07773
G1 X143.041 Y96.278 E0.05844
G1 X143.828 Y97.983 E0.05887
G1 X144.749 Y101.376 E0.11021
G1 X144.94 Y104.857 E0.10933
G1 X144.738 Y106.643 E0.05635
G1 X144.356 Y108.394 E0.05617
G1 X143.285 Y111.201 E0.09422
G1 X141.483 Y114.085 E0.10662
G1 X139.142 Y116.525 E0.10601
G1 X136.721 Y118.228 E0.09282
M73 P1 R59
G1 X134.98 Y119.094 E0.06097
G1 X133.17 Y119.75 E0.06035
G1 X130.077 Y120.344 E0.09875
G1 X126.939 Y120.343 E0.0984
G1 X123.913 Y119.761 E0.09659
G1 X121.065 Y118.639 E0.09598
G1 X119.517 Y117.736 E0.0562
G1 X118.066 Y116.679 E0.05628
G1 X115.62 Y114.174 E0.10978
G1 X113.906 Y111.518 E0.09911
G1 X112.737 Y108.597 E0.09866
G1 X112.181 Y105.869 E0.0873
G1 X112.077 Y103.868 E0.0628
G1 X112.206 Y101.884 E0.06235
G1 X112.908 Y98.815 E0.09872
G1 X114.166 Y95.958 E0.09788
G1 X115.552 Y93.952 E0.07644
G1 X115.86 Y94.164 F10800
G1 F1200
G1 X116.225 Y93.635 E0.02018
G1 X118.405 Y91.493 E0.0958
G1 X120.571 Y90.014 E0.08224
G1 X122.275 Y89.178 E0.05952
G1 X124.052 Y88.544 E0.05915
G1 X127.019 Y87.986 E0.09465
G1 X130.012 Y87.985 E0.09385
G1 X132.868 Y88.516 E0.09109
G1 X135.57 Y89.546 E0.09066
G1 X138.063 Y91.06 E0.09145
G1 X140.243 Y92.998 E0.09146
G1 X141.763 Y94.888 E0.07605
G1 X142.703 Y96.446 E0.05706
G1 X143.479 Y98.127 E0.05805
G1 X144.373 Y101.416 E0.10688
G1 X144.564 Y104.831 E0.10723
G1 X144.368 Y106.572 E0.05494
G1 X143.99 Y108.299 E0.05543
G1 X142.955 Y111.017 E0.09119
G1 X141.197 Y113.838 E0.10423
G1 X138.91 Y116.227 E0.10369
G1 X136.54 Y117.897 E0.09091
G1 X134.841 Y118.743 E0.05951
G1 X133.055 Y119.39 E0.05955
G1 X130.059 Y119.967 E0.09568
G1 X126.992 Y119.969 E0.09616
G1 X124.035 Y119.404 E0.09439
G1 X121.243 Y118.306 E0.09408
G1 X119.715 Y117.415 E0.05544
G1 X118.301 Y116.383 E0.05488
G1 X115.926 Y113.954 E0.10654
G1 X114.249 Y111.361 E0.09682
G1 X113.103 Y108.505 E0.09649
G1 X112.557 Y105.835 E0.08545
G1 X112.454 Y103.882 E0.06132
G1 X112.581 Y101.924 E0.06152
G1 X113.272 Y98.917 E0.09673
G1 X114.504 Y96.127 E0.09564
G1 X115.826 Y94.214 E0.0729
G1 X116.134 Y94.426 F10800
G1 F1200
G1 X116.503 Y93.891 E0.02038
G1 X118.632 Y91.795 E0.09367
G1 X120.749 Y90.346 E0.08045
G1 X122.412 Y89.529 E0.05809
G1 X124.165 Y88.904 E0.05834
G1 X127.071 Y88.36 E0.09271
G1 X129.994 Y88.362 E0.09166
G1 X132.782 Y88.883 E0.08892
G1 X135.419 Y89.892 E0.08852
G1 X137.852 Y91.373 E0.08931
G1 X139.959 Y93.246 E0.08839
G1 X141.447 Y95.094 E0.07437
G1 X142.366 Y96.614 E0.05569
G1 X143.12 Y98.241 E0.05624
G1 X143.998 Y101.457 E0.10453
G1 X144.187 Y104.805 E0.10511
G1 X143.994 Y106.52 E0.05414
G1 X143.625 Y108.205 E0.05407
G1 X142.625 Y110.834 E0.08818
G1 X140.911 Y113.592 E0.10184
G1 X138.678 Y115.93 E0.10136
G1 X136.359 Y117.566 E0.08899
G1 X134.702 Y118.393 E0.05804
G1 X132.941 Y119.031 E0.05874
G1 X130.005 Y119.593 E0.09372
G1 X127.01 Y119.592 E0.09393
G1 X124.123 Y119.037 E0.09216
G1 X121.42 Y117.973 E0.09109
G1 X119.929 Y117.105 E0.05408
G1 X118.536 Y116.088 E0.05408
G1 X116.209 Y113.704 E0.10447
G1 X114.592 Y111.203 E0.09336
G1 X113.469 Y108.412 E0.09433
G1 X112.933 Y105.801 E0.08359
G1 X112.831 Y103.873 E0.06053
G1 X112.956 Y101.963 E0.06
G1 X113.624 Y99.053 E0.09364
G1 X114.825 Y96.326 E0.09341
G1 X116.1 Y94.476 E0.07046
G1 X116.408 Y94.688 F10800
G1 F1200
G1 X116.78 Y94.147 E0.02058
G1 X118.859 Y92.097 E0.09153
G1 X120.928 Y90.679 E0.07865
G1 X122.569 Y89.872 E0.05732
G1 X124.277 Y89.264 E0.05686
G1 X127.088 Y88.737 E0.08968
G1 X129.942 Y88.736 E0.08949
G1 X132.664 Y89.242 E0.08678
G1 X135.238 Y90.224 E0.08638
G1 X137.615 Y91.667 E0.08718
G1 X139.675 Y93.495 E0.08639
G1 X141.131 Y95.3 E0.07269
G1 X142.028 Y96.782 E0.05433
G1 X142.76 Y98.356 E0.05444
G1 X143.623 Y101.499 E0.10217
G1 X143.811 Y104.778 E0.10299
G1 X143.621 Y106.468 E0.05333
G1 X143.26 Y108.11 E0.05271
G1 X142.295 Y110.65 E0.08518
G1 X140.624 Y113.346 E0.09944
G1 X138.445 Y115.632 E0.09903
G1 X136.178 Y117.235 E0.08706
G1 X134.544 Y118.05 E0.05725
G1 X132.827 Y118.671 E0.05725
G1 X129.952 Y119.219 E0.09175
G1 X127.063 Y119.218 E0.09059
G1 X124.245 Y118.679 E0.08996
G1 X121.597 Y117.64 E0.08919
G1 X120.144 Y116.795 E0.05271
G1 X118.771 Y115.793 E0.05328
G1 X116.515 Y113.483 E0.10124
G1 X114.935 Y111.045 E0.09108
G1 X113.835 Y108.319 E0.09217
G1 X113.309 Y105.766 E0.08173
G1 X113.208 Y103.886 E0.05903
G1 X113.332 Y102.003 E0.05918
G1 X113.976 Y99.188 E0.09055
G1 X115.146 Y96.525 E0.09119
G1 X116.374 Y94.737 E0.06802
G1 X116.684 Y94.951 F10800
G1 F1200
G1 X117.081 Y94.376 E0.0219
G1 X119.086 Y92.398 E0.08829
G1 X121.107 Y91.011 E0.07685
G1 X122.705 Y90.224 E0.05588
G1 X124.39 Y89.624 E0.05606
G1 X127.14 Y89.111 E0.08774
G1 X129.925 Y89.113 E0.0873
G1 X132.577 Y89.609 E0.08462
G1 X135.087 Y90.57 E0.08425
G1 X137.377 Y91.96 E0.084
G1 X139.392 Y93.745 E0.08438
G1 X140.815 Y95.506 E0.07101
G1 X141.69 Y96.951 E0.05296
G1 X142.412 Y98.501 E0.05361
G1 X143.254 Y101.579 E0.10006
G1 X143.434 Y104.752 E0.09965
G1 X143.25 Y106.397 E0.0519
G1 X142.894 Y108.016 E0.05197
G1 X141.949 Y110.499 E0.08331
G1 X140.314 Y113.13 E0.09713
G1 X138.185 Y115.359 E0.09663
G1 X135.997 Y116.904 E0.08401
G1 X134.385 Y117.708 E0.05646
G1 X132.713 Y118.311 E0.05575
G1 X129.934 Y118.842 E0.0887
G1 X127.116 Y118.845 E0.08836
G1 X124.366 Y118.322 E0.08776
G1 X121.774 Y117.306 E0.08729
G1 X120.342 Y116.474 E0.05194
G1 X119.007 Y115.498 E0.05186
G1 X116.798 Y113.233 E0.09918
G1 X115.262 Y110.856 E0.08876
G1 X114.2 Y108.226 E0.0889
M73 P1 R58
G1 X113.685 Y105.732 E0.07986
G1 X113.585 Y103.878 E0.05823
G1 X113.707 Y102.043 E0.05764
G1 X114.34 Y99.29 E0.08858
G1 X115.483 Y96.693 E0.08896
G1 X116.65 Y95 E0.06447
G1 X116.959 Y95.212 F10800
G1 F1200
G1 X117.358 Y94.631 E0.02211
G1 X119.313 Y92.699 E0.08617
G1 X121.285 Y91.343 E0.07505
G1 X122.862 Y90.567 E0.0551
G1 X124.502 Y89.984 E0.05456
G1 X127.158 Y89.488 E0.08472
G1 X129.873 Y89.487 E0.08513
G1 X132.459 Y89.968 E0.08248
G1 X134.906 Y90.901 E0.08212
G1 X137.14 Y92.254 E0.08188
G1 X139.109 Y93.994 E0.08237
G1 X140.499 Y95.713 E0.06932
G1 X141.353 Y97.119 E0.05158
G1 X142.063 Y98.646 E0.05279
G1 X142.878 Y101.621 E0.09672
G1 X143.058 Y104.726 E0.09753
G1 X142.877 Y106.345 E0.05109
G1 X142.529 Y107.921 E0.0506
G1 X141.619 Y110.316 E0.08032
G1 X140.028 Y112.884 E0.09473
G1 X137.953 Y115.062 E0.09431
G1 X135.815 Y116.573 E0.08208
G1 X134.247 Y117.357 E0.05497
G1 X132.599 Y117.952 E0.05494
G1 X129.916 Y118.465 E0.08565
G1 X127.169 Y118.471 E0.08614
G1 X124.487 Y117.964 E0.08556
G1 X121.951 Y116.973 E0.08538
G1 X120.556 Y116.164 E0.05056
G1 X119.242 Y115.203 E0.05106
G1 X117.105 Y113.012 E0.09595
G1 X115.605 Y110.697 E0.08649
G1 X114.566 Y108.133 E0.08674
G1 X114.06 Y105.698 E0.078
G1 X113.962 Y103.891 E0.05672
G1 X114.082 Y102.083 E0.05681
G1 X114.703 Y99.392 E0.0866
G1 X115.804 Y96.892 E0.08564
G1 X116.925 Y95.262 E0.06203
G1 X117.234 Y95.474 F10800
G1 F1200
G1 X117.636 Y94.887 E0.02232
G1 X119.541 Y93.001 E0.08404
G1 X121.465 Y91.676 E0.07324
G1 X122.999 Y90.919 E0.05364
G1 X124.614 Y90.345 E0.05375
G1 X127.21 Y89.862 E0.08278
G1 X129.821 Y89.861 E0.08188
G1 X132.341 Y90.326 E0.08034
G1 X134.726 Y91.233 E0.07999
G1 X136.903 Y92.548 E0.07976
G1 X138.825 Y94.243 E0.08036
G1 X140.183 Y95.92 E0.06764
G1 X141.016 Y97.288 E0.05022
G1 X141.704 Y98.761 E0.05098
G1 X142.503 Y101.663 E0.09436
G1 X142.681 Y104.7 E0.09541
G1 X142.506 Y106.274 E0.04965
G1 X142.164 Y107.827 E0.04986
G1 X141.289 Y110.133 E0.07734
G1 X139.741 Y112.639 E0.09234
G1 X137.72 Y114.764 E0.09198
G1 X135.634 Y116.243 E0.08016
G1 X134.109 Y117.006 E0.05347
G1 X132.485 Y117.592 E0.05412
G1 X129.862 Y118.091 E0.0837
G1 X127.221 Y118.097 E0.08283
G1 X124.608 Y117.607 E0.08336
G1 X122.128 Y116.64 E0.08346
G1 X120.754 Y115.842 E0.04979
G1 X119.477 Y114.908 E0.04963
G1 X117.388 Y112.763 E0.09389
G1 X115.931 Y110.508 E0.08417
G1 X114.932 Y108.04 E0.08348
G1 X114.436 Y105.663 E0.07613
G1 X114.339 Y103.882 E0.05592
G1 X114.457 Y102.123 E0.05527
G1 X115.056 Y99.527 E0.08353
G1 X116.125 Y97.091 E0.08343
G1 X117.2 Y95.523 E0.0596
G1 X117.51 Y95.736 F10800
G1 F1200
G1 X117.937 Y95.115 E0.02364
G1 X119.769 Y93.301 E0.08081
G1 X121.644 Y92.008 E0.07143
G1 X123.156 Y91.262 E0.05286
G1 X124.726 Y90.705 E0.05224
G1 X127.261 Y90.236 E0.08085
G1 X129.804 Y90.238 E0.07972
G1 X132.223 Y90.685 E0.07714
G1 X134.546 Y91.564 E0.07787
G1 X136.667 Y92.842 E0.07764
G1 X138.543 Y94.493 E0.07835
G1 X139.868 Y96.127 E0.06595
G1 X140.678 Y97.457 E0.04884
G1 X141.355 Y98.906 E0.05015
G1 X142.134 Y101.743 E0.09224
G1 X142.305 Y104.674 E0.09206
G1 X142.133 Y106.222 E0.04883
G1 X141.799 Y107.732 E0.04848
G1 X140.943 Y109.982 E0.07549
G1 X139.431 Y112.423 E0.09003
G1 X137.459 Y114.491 E0.08958
G1 X135.452 Y115.912 E0.07711
G1 X133.95 Y116.664 E0.05267
G1 X132.371 Y117.232 E0.05261
G1 X129.81 Y117.718 E0.08175
G1 X127.238 Y117.72 E0.08063
G1 X124.695 Y117.239 E0.08115
G1 X122.304 Y116.306 E0.08047
G1 X120.969 Y115.532 E0.04839
G1 X119.713 Y114.613 E0.04882
G1 X117.671 Y112.513 E0.09182
G1 X116.274 Y110.349 E0.08076
G1 X115.298 Y107.946 E0.08134
G1 X114.812 Y105.628 E0.07426
G1 X114.716 Y103.896 E0.05439
G1 X114.833 Y102.164 E0.05443
G1 X115.419 Y99.629 E0.08156
G1 X116.463 Y97.259 E0.08121
G1 X117.476 Y95.786 E0.05606
G1 X117.785 Y95.998 F10800
G1 F1200
G1 X118.215 Y95.37 E0.02386
G1 X119.997 Y93.602 E0.07869
G1 X121.823 Y92.34 E0.06962
G1 X123.292 Y91.613 E0.05138
G1 X124.838 Y91.065 E0.05143
G1 X127.279 Y90.613 E0.07783
G1 X129.752 Y90.612 E0.07755
M73 P2 R58
G1 X132.138 Y91.053 E0.07607
G1 X134.396 Y91.911 E0.07574
G1 X136.458 Y93.156 E0.07552
G1 X138.26 Y94.743 E0.0753
G1 X139.553 Y96.334 E0.06427
G1 X140.341 Y97.627 E0.04748
G1 X140.996 Y99.022 E0.04833
G1 X141.759 Y101.785 E0.08988
G1 X141.928 Y104.649 E0.08994
G1 X141.762 Y106.151 E0.04738
G1 X141.433 Y107.637 E0.04773
G1 X140.613 Y109.8 E0.07252
G1 X139.144 Y112.178 E0.08764
G1 X137.226 Y114.194 E0.08725
G1 X135.27 Y115.581 E0.07519
G1 X133.811 Y116.313 E0.05117
G1 X132.257 Y116.872 E0.05179
G1 X129.791 Y117.341 E0.07871
G1 X127.29 Y117.346 E0.07842
G1 X124.815 Y116.882 E0.07895
G1 X122.481 Y115.973 E0.07855
G1 X121.167 Y115.211 E0.04762
G1 X119.948 Y114.318 E0.04737
G1 X117.977 Y112.293 E0.0886
G1 X116.616 Y110.191 E0.07852
G1 X115.663 Y107.852 E0.0792
G1 X115.187 Y105.593 E0.07237
G1 X115.094 Y103.887 E0.05357
G1 X115.208 Y102.204 E0.05287
G1 X115.771 Y99.765 E0.0785
G1 X116.784 Y97.458 E0.07901
G1 X117.751 Y96.047 E0.05362
G1 X118.061 Y96.259 F10800
G1 F1200
G1 X118.494 Y95.625 E0.02407
G1 X120.225 Y93.903 E0.07656
G1 X122.003 Y92.671 E0.06779
G1 X123.449 Y91.956 E0.05059
G1 X124.95 Y91.426 E0.04991
G1 X127.33 Y90.987 E0.0759
G1 X129.735 Y90.989 E0.07539
G1 X132.02 Y91.411 E0.07287
G1 X134.216 Y92.243 E0.07361
G1 X136.221 Y93.451 E0.0734
G1 X137.977 Y94.994 E0.0733
G1 X139.238 Y96.542 E0.06258
G1 X140.005 Y97.797 E0.04612
G1 X140.637 Y99.138 E0.04651
G1 X141.384 Y101.828 E0.08752
G1 X141.552 Y104.623 E0.08781
G1 X141.388 Y106.099 E0.04655
G1 X141.068 Y107.542 E0.04635
G1 X140.282 Y109.617 E0.06957
G1 X138.857 Y111.932 E0.08524
G1 X136.993 Y113.897 E0.08492
G1 X135.088 Y115.251 E0.07326
G1 X133.653 Y115.971 E0.05036
G1 X132.144 Y116.512 E0.05025
G1 X129.738 Y116.967 E0.07676
G1 X127.308 Y116.969 E0.07622
G1 X124.903 Y116.514 E0.07674
G1 X122.657 Y115.639 E0.07556
