; generated by SuperSlicer 2.5.59 on 2022-09-11 at 17:42:24 UTC

; 

; external perimeters extrusion width = 0.40mm
; perimeters extrusion width = 0.40mm
; infill extrusion width = 0.50mm
; solid infill extrusion width = 0.56mm
; top infill extrusion width = 0.40mm
; support material extrusion width = 0.50mm
; first layer extrusion width = 0.80mm

; external perimeters extrusion width = 0.40mm
; perimeters extrusion width = 0.40mm
; infill extrusion width = 0.50mm
; solid infill extrusion width = 0.56mm
; top infill extrusion width = 0.40mm
; support material extrusion width = 0.50mm
; first layer extrusion width = 0.80mm

; object:{"name":"psu_lower_mount_black","id":"psu_lower_mount_black.stl id:0 copy 0","object_center":[125.000000,122.000000,0.000000],"boundingbox_center":[125.000000,122.000000,9.000000],"boundingbox_size":[30.500000,13.400002,18.000000]}
; object:{"name":"psu_upper_mount_black","id":"psu_upper_mount_black.stl id:1 copy 0","object_center":[125.000000,96.799999,0.000000],"boundingbox_center":[125.000000,96.799999,10.000000],"boundingbox_size":[40.500000,31.000000,20.000000]}
; plater:{"center":[125.000000,105.000000,0.000000],"boundingbox_center":[125.000000,105.000000,10.000000],"boundingbox_size":[40.500000,47.400002,20.000000]}

M73 P0 R48
;TYPE:Custom
Start : M104 S0
M140 S0
PRINT_START EXTRUDER_TEMP=230 BED_TEMP=85
M107
G21 ; set units to millimeters
G90 ; use absolute coordinates
M83 ; use relative distances for extrusion
M900 K0.08 ; Filament gcode LA 1.5
M900 K45 ; Filament gcode LA 1.0
;_TOOLCHANGE 0
M104 S230 ; set temperature
M109 S230 ; set temperature and wait for it to be reached
M107
;LAYER_CHANGE
;Z:0.25
;HEIGHT:0.25
;BEFORE_LAYER_CHANGE
G92 E0.0
;0.25


G1 E-1 F2100
G1 Z0.2 F39000
G1 Z0.25
;AFTER_LAYER_CHANGE
;0.25
G1 Z0.45
M204 S1250
G1 X101.425 Y81.584
G1 Z0.25
G1 E1 F2100
;TYPE:Skirt
;WIDTH:0.6
G1 F3184.7741
G1 X101.03 Y83.275 E0.09861
G1 X101.03 Y106.469 E1.31709
G1 X101.183 Y107.538 E0.06131
G1 X106.183 Y124.691 E1.01461
G1 X107.379 Y126.534 E0.12478
G1 X108.924 Y127.327 E0.09861
G1 X128.836 Y132.305 E1.16555
G1 X129.762 Y132.42 E0.053
G1 X140.15 Y132.42 E0.58988
G1 X142.232 Y131.802 E0.12334
G1 X143.435 Y130.549 E0.09861
G1 X143.958 Y128.893 E0.09861
G1 X147.083 Y88.318 E2.31093
G1 X147.095 Y85.118 E0.18173
G1 X146.892 Y83.892 E0.07055
G1 X145.976 Y82.417 E0.09861
G1 X144.133 Y80.574 E0.14801
G1 X143.123 Y79.85 E0.07055
G1 X141.432 Y79.455 E0.09861
G1 X104.85 Y79.455 E2.07736
G1 X102.528 Y80.242 E0.13923
G1 X101.463 Y81.538 E0.09521
G1 X101.971 Y81.718 F39000
G1 F3184.7741
G1 X101.577 Y83.275 E0.09119
G1 X101.577 Y106.469 E1.31709
G1 X101.708 Y107.385 E0.05254
G1 X106.708 Y124.538 E1.01461
G1 X107.641 Y126.038 E0.10033
G1 X109.056 Y126.797 E0.09119
G1 X128.968 Y131.775 E1.16555
G1 X129.762 Y131.873 E0.04542
G1 X140.15 Y131.873 E0.58988
G1 X141.727 Y131.468 E0.09245
G1 X142.901 Y130.373 E0.09119
G1 X143.414 Y128.851 E0.09119
G1 X146.548 Y88.025 E2.32521
G1 X146.548 Y85.118 E0.16507
G1 X146.412 Y84.183 E0.05367
G1 X145.589 Y82.804 E0.09119
G1 X143.746 Y80.961 E0.14801
G1 X142.989 Y80.396 E0.05367
G1 X141.432 Y80.002 E0.09119
G1 X104.85 Y80.002 E2.07736
G1 X103.058 Y80.536 E0.10621
G1 X102.011 Y81.674 E0.08778
;WIPE_START
G1 F31200
G1 X101.577 Y83.275 E-0.10607
G1 X101.577 Y96.473 E-0.84393
;WIPE_END
G1 E-0.05 F2100
G1 Z0.45 F39000
; printing object psu_lower_mount_black.stl id:0 copy 0
; acceleration to travel
M204 S1500
G1 X123.341 Y120.276
; decel to extrusion
M204 S1250
G1 X129.903 Y127.454
; end travel
G1 Z0.25
G1 E1 F2100
;TYPE:Internal perimeter
;WIDTH:0.746349
G1 F2771.7685
G1 X110.996 Y122.727 E1.40316
M73 P1 R48
G1 X110.996 Y118.121 E0.33159
G1 X115.827 Y118.121 E0.34778
G1 X116.056 Y118.098 E0.01659
G1 X116.448 Y117.933 E0.03058
G1 X116.757 Y117.625 E0.03148
G1 X116.921 Y117.236 E0.03034
G1 X116.939 Y117.071 E0.01197
G1 X117.289 Y116.721 E0.03561
G1 X122.211 Y116.721 E0.35441
G1 X122.561 Y117.071 E0.03561
G1 X122.579 Y117.236 E0.01197
G1 X122.747 Y117.63 E0.03082
G1 X123.036 Y117.922 E0.02959
G1 X123.338 Y118.07 E0.02421
G1 X123.673 Y118.121 E0.02443
G1 X139.004 Y118.121 E1.10376
G1 X139.004 Y121.226 E0.22353
G1 X139.004 Y121.942 E0.05153
G1 X139.009 Y122.321 E0.0273
G1 X139.014 Y122.7 E0.0273
G1 X139 Y123.308 E0.04379
G1 X139.002 Y123.558 E0.01801
G1 X139.004 Y123.808 E0.01801
G1 X139.004 Y127.454 E0.26244
G1 X129.963 Y127.454 E0.65087
G1 X129.812 Y128.2 F39000
;TYPE:External perimeter
G1 F2771.7685
G1 X110.25 Y123.31 E1.45173
G1 X110.25 Y123.123 E0.01268
G1 X110.25 Y122.75 E0.02611
G1 X110.25 Y117.375 E0.38698
G1 X110.437 Y117.375 E0.01205
G1 X110.81 Y117.375 E0.02548
G1 X115.827 Y117.375 E0.36122
G1 X115.903 Y117.367 E0.00553
G1 X116.084 Y117.273 E0.01466
G1 X116.192 Y117.08 E0.0159
G1 X116.2 Y116.755 E0.02344
G1 X116.98 Y115.975 E0.07938
G1 X122.52 Y115.975 E0.39893
G1 X123.3 Y116.755 E0.07938
G1 X123.3 Y117.002 E0.0178
G1 X123.364 Y117.211 E0.01577
G1 X123.461 Y117.309 E0.00986
G1 X123.673 Y117.375 E0.01603
G1 X139.75 Y117.375 E1.15749
G1 X139.75 Y117.562 E0.01199
G1 X139.75 Y117.935 E0.02543
G1 X139.75 Y128.2 E0.73907
G1 X139.563 Y128.2 E0.01199
G1 X139.19 Y128.2 E0.02543
G1 X129.872 Y128.2 E0.67092
;WIPE_START
G1 X129.671 Y127.826 F39000
;WIPE_END
;WIPE_START
G1 F31200
G1 X115.234 Y124.316 E-0.95
;WIPE_END
G1 E-0.05 F2100
G1 Z0.45 F39000
; acceleration to travel
M204 S1500
G1 X129.829 Y125.275
; decel to extrusion
M204 S1250
G1 X134.229 Y125.564
; end travel
G1 Z0.25
G1 E1 F2100
;TYPE:Internal perimeter
G1 F2771.7685
G1 X134.94 Y125.728 E0.05248
G1 X135.49 Y125.734 E0.03963
G1 X136.036 Y125.641 E0.03985
G1 X136.6 Y125.424 E0.04355
G1 X137.241 Y125.003 E0.05517
G1 X137.589 Y124.648 E0.03579
G1 X137.902 Y124.193 E0.03979
G1 X138.129 Y123.688 E0.03984
G1 X138.194 Y123.419 E0.01992
G1 X138.26 Y123.151 E0.01992
G1 X138.284 Y122.599 E0.03976
G1 X138.223 Y122.049 E0.03983
G1 X138.128 Y121.762 E0.02178
G1 X138.032 Y121.475 E0.02178
G1 X137.641 Y120.816 E0.05519
G1 X137.302 Y120.452 E0.03577
G1 X136.849 Y120.111 E0.04087
G1 X136.271 Y119.836 E0.04611
G1 X135.56 Y119.672 E0.05248
G1 X135.01 Y119.666 E0.03963
G1 X134.464 Y119.759 E0.03985
G1 X133.9 Y119.976 E0.04355
G1 X133.259 Y120.397 E0.05517
G1 X132.911 Y120.752 E0.03579
G1 X132.598 Y121.207 E0.03979
G1 X132.371 Y121.712 E0.03984
G1 X132.24 Y122.249 E0.03984
G1 X132.208 Y122.802 E0.03984
G1 X132.276 Y123.351 E0.03984
G1 X132.468 Y123.925 E0.04355
G1 X132.859 Y124.584 E0.05519
G1 X133.198 Y124.947 E0.03577
G1 X133.651 Y125.289 E0.04087
G1 X134.175 Y125.538 E0.04179
G1 X134.894 Y124.97 F39000
;TYPE:External perimeter
G1 F2771.7685
G1 X135.321 Y124.998 E0.03081
G1 X135.736 Y124.947 E0.03009
G1 X136.212 Y124.787 E0.03618
G1 X136.661 Y124.512 E0.03792
G1 X136.947 Y124.252 E0.02784
G1 X137.197 Y123.923 E0.02973
G1 X137.386 Y123.55 E0.03009
G1 X137.445 Y123.35 E0.01505
G1 X137.505 Y123.15 E0.01505
G1 X137.527 Y122.942 E0.01505
G1 X137.549 Y122.734 E0.01505
G1 X137.517 Y122.317 E0.03009
G1 X137.378 Y121.834 E0.03618
G1 X137.125 Y121.373 E0.03792
G1 X136.877 Y121.076 E0.02784
G1 X136.58 Y120.827 E0.02793
G1 X136.155 Y120.587 E0.0351
G1 X135.606 Y120.43 E0.04107
G1 X135.112 Y120.405 E0.03567
G1 X134.764 Y120.453 E0.02522
G1 X134.288 Y120.614 E0.03618
G1 X133.839 Y120.888 E0.03792
G1 X133.553 Y121.148 E0.02784
G1 X133.303 Y121.477 E0.02973
G1 X133.114 Y121.85 E0.03009
G1 X132.995 Y122.25 E0.03009
G1 X132.951 Y122.666 E0.03009
G1 X132.983 Y123.083 E0.03009
G1 X133.122 Y123.566 E0.03618
G1 X133.375 Y124.027 E0.03792
G1 X133.623 Y124.324 E0.02784
G1 X133.94 Y124.59 E0.02978
G1 X134.345 Y124.813 E0.03328
G1 X134.836 Y124.953 E0.03675
;WIPE_START
G1 X135.139 Y124.654 F39000
;WIPE_END
;WIPE_START
G1 F31200
G1 X135.326 Y125.199 E-0.03684
G1 X135.78 Y125.143 E-0.02924
G1 X136.297 Y124.969 E-0.03487
G1 X136.782 Y124.673 E-0.03634
G1 X137.095 Y124.387 E-0.02711
G1 X137.367 Y124.03 E-0.02871
G1 X137.573 Y123.625 E-0.02905
G1 X137.637 Y123.407 E-0.01453
G1 X137.702 Y123.189 E-0.01453
G1 X137.726 Y122.963 E-0.01453
G1 X137.75 Y122.737 E-0.01453
G1 X137.715 Y122.282 E-0.0292
G1 X137.564 Y121.758 E-0.03487
G1 X137.291 Y121.259 E-0.03634
G1 X137.019 Y120.934 E-0.02711
G1 X136.694 Y120.661 E-0.02713
G1 X136.232 Y120.402 E-0.03385
G1 X135.639 Y120.232 E-0.03944
G1 X135.103 Y120.204 E-0.03435
G1 X134.718 Y120.257 E-0.02482
G1 X134.203 Y120.431 E-0.03477
G1 X133.718 Y120.727 E-0.03634
G1 X133.405 Y121.013 E-0.02711
G1 X133.133 Y121.37 E-0.02871
G1 X132.927 Y121.775 E-0.02905
G1 X132.798 Y122.211 E-0.02906
G1 X132.75 Y122.663 E-0.02906
G1 X132.785 Y123.118 E-0.0292
G1 X132.936 Y123.642 E-0.03487
G1 X133.209 Y124.141 E-0.03634
G1 X133.481 Y124.466 E-0.02712
G1 X133.827 Y124.756 E-0.02884
G1 X133.993 Y124.847 E-0.01214
;WIPE_END
G1 E-0.05 F2100
G1 Z0.45 F39000
G1 X122.436 Y117.169
G1 Z0.25
G1 E1 F2100
;TYPE:Solid infill
;WIDTH:0.8
G1 F2572.5211
G1 X117.413 Y117.169 E0.38964
G1 X117.119 Y117.864 E0.0585
G1 X117.075 Y117.916 E0.00526
G1 X122.424 Y117.916 E0.41496
G1 X122.612 Y118.136 E0.02247
G1 X122.79 Y118.279 E0.01766
G1 X123.042 Y118.42 E0.02244
G1 X123.297 Y118.508 E0.0209
G1 X123.562 Y118.55 E0.02085
G1 X134.748 Y118.553 E0.86776
G1 X134.764 Y118.662 E0.00852
G1 X111.429 Y118.662 E1.81019
G1 X111.429 Y119.408 E0.0579
G1 X134.162 Y119.408 E1.76347
G1 X133.994 Y119.459 E0.01363
G1 X133.677 Y119.605 E0.02703
G1 X133.222 Y119.882 E0.04137
G1 X132.963 Y120.082 E0.02538
G1 X132.886 Y120.155 E0.00817
G1 X111.429 Y120.155 E1.66453
G1 X111.429 Y120.901 E0.0579
G1 X132.279 Y120.901 E1.61739
G1 X132.21 Y121.014 E0.01027
G1 X132.054 Y121.334 E0.0276
G1 X131.955 Y121.592 E0.02148
G1 X131.94 Y121.647 E0.00443
G1 X111.429 Y121.647 E1.59107
G1 X111.429 Y122.389 E0.05753
G1 X111.448 Y122.394 E0.00151
G1 X131.793 Y122.394 E1.5782
G1 X131.771 Y122.635 E0.01883
G1 X131.805 Y123.14 E0.03923
G1 X114.433 Y123.14 E1.34759
G1 X117.419 Y123.886 E0.23872
G1 X131.985 Y123.886 E1.12994
G1 X132.053 Y124.066 E0.01493
G1 X132.343 Y124.598 E0.04696
G1 X132.368 Y124.633 E0.00332
G1 X120.404 Y124.633 E0.92804
G1 X123.39 Y125.379 E0.23872
G1 X133.587 Y125.379 E0.79108
;WIPE_START
G1 F31200
G1 X123.39 Y125.379 E-0.65207
G1 X120.404 Y124.633 E-0.19677
G1 X121.986 Y124.633 E-0.10116
;WIPE_END
G1 E-0.05 F2100
G1 Z0.45 F39000
G1 X137.75 Y124.633
G1 Z0.25
G1 E1 F2100
G1 F2572.5211
G1 X138.566 Y124.633 E0.06334
G1 X138.567 Y125.379 E0.0579
G1 X136.888 Y125.379 E0.13026
;WIPE_START
G1 F31200
G1 X138.567 Y125.379 E-0.10737
G1 X138.566 Y124.633 E-0.04772
G1 X137.75 Y124.633 E-0.05221
;WIPE_END
G1 E-0.7927 F2100
G1 Z0.45 F39000
G1 X138.89 Y126.125
G1 Z0.25
G1 E1 F2100
G1 F2572.5211
G1 X126.375 Y126.125 E0.97082
G1 X129.36 Y126.872 E0.23872
G1 X138.891 Y126.872 E0.73935
;WIPE_START
G1 F31200
G1 X129.36 Y126.872 E-0.60942
G1 X126.375 Y126.125 E-0.19677
G1 X128.624 Y126.125 E-0.14381
;WIPE_END
G1 E-0.05 F2100
G1 Z0.45 F39000
G1 X138.892 Y118.662
G1 Z0.25
G1 E1 F2100
G1 F2572.5211
G1 X135.702 Y118.662 E0.24742
G1 X135.629 Y119.215 E0.04329
G1 X136.347 Y119.408 E0.05767
G1 X138.571 Y119.408 E0.17253
G1 X138.571 Y120.155 E0.0579
G1 X137.612 Y120.155 E0.07441
G1 X138.316 Y120.901 E0.07958
G1 X138.892 Y120.901 E0.04472
;WIPE_START
G1 F31200
G1 X138.316 Y120.901 E-0.03686
G1 X137.612 Y120.155 E-0.0656
G1 X138.571 Y120.155 E-0.06133
G1 X138.571 Y119.408 E-0.04772
G1 X136.347 Y119.408 E-0.14221
G1 X135.629 Y119.215 E-0.04754
G1 X135.702 Y118.662 E-0.03568
G1 X138.892 Y118.662 E-0.20394
;WIPE_END
G1 E-0.35912 F2100
G1 Z0.45 F39000
; stop printing object psu_lower_mount_black.stl id:0 copy 0
; printing object psu_upper_mount_black.stl id:1 copy 0
; acceleration to travel
M204 S1500
G1 X127.702 Y100.025
; decel to extrusion
M204 S1250
G1 X124.329 Y94.405
; end travel
G1 Z0.25
G1 E1 F2100
;TYPE:Internal perimeter
;WIDTH:0.746349
G1 F2771.7685
G1 X123.798 Y94.229 E0.04024
G1 X106.702 Y94.229 E1.23093
G1 X106.03 Y94.453 E0.05098
G1 X105.996 Y94.52 E0.0054
G1 X105.996 Y84.421 E0.72705
G1 X140.957 Y84.421 E2.51709
G1 X142.129 Y85.593 E0.11929
G1 X142.129 Y86.879 E0.09257
G1 X139.673 Y86.879 E0.17679
G1 X139.279 Y86.95 E0.02886
G1 X138.954 Y87.141 E0.02712
G1 X138.731 Y87.393 E0.0242
G1 X138.579 Y87.764 E0.02887
G1 X138.561 Y87.929 E0.01197
G1 X138.211 Y88.279 E0.03561
G1 X133.289 Y88.279 E0.35441
G1 X132.939 Y87.929 E0.03561
G1 X132.921 Y87.764 E0.01197
G1 X132.769 Y87.393 E0.02887
G1 X132.546 Y87.141 E0.0242
G1 X132.221 Y86.95 E0.02712
G1 X131.827 Y86.879 E0.02886
G1 X126.383 Y86.879 E0.39197
G1 X125.452 Y86.635 E0.06928
G1 X125.058 Y86.605 E0.02841
G1 X124.685 Y86.709 E0.02793
G1 X124.389 Y86.915 E0.02592
G1 X124.194 Y87.167 E0.02296
G1 X124.09 Y87.42 E0.01971
G1 X124.051 Y87.648 E0.01664
G1 X124.085 Y88.002 E0.02556
G1 X124.329 Y88.933 E0.06928
G1 X124.329 Y94.345 E0.38971
;WIPE_START
G1 F31200
G1 X123.798 Y94.229 E-0.03472
G1 X109.484 Y94.229 E-0.91528
;WIPE_END
G1 E-0.05 F2100
G1 Z0.45 F39000
; acceleration to travel
M204 S1500
G1 X120.487 Y107.671
; decel to extrusion
M204 S1250
G1 X123.798 Y111.717
; end travel
G1 Z0.25
G1 E1 F2100
;TYPE:External perimeter
;WIDTH:0.912374
G1 F2235.8766
G1 X115.273 Y111.717 E0.76093
G1 X115.091 Y111.713 E0.01627
G1 X114.908 Y111.709 E0.01627
G1 X114.748 Y111.621 E0.01627
G1 X114.589 Y111.534 E0.01627
G1 X106.017 Y106.585 E0.88338
G1 X105.692 Y106.378 E0.03445
;WIDTH:0.97788
G1 F2077.406
G1 X105.366 Y106.171 E0.03708
G1 X105.349 Y105.785 E0.03708
;WIDTH:0.912375
G1 F2235.8742
G1 X105.333 Y105.4 E0.03445
G1 X105.333 Y95.348 E0.89714
G1 X105.312 Y95.12 E0.02044
;WIDTH:0.857033
G1 F2389.895
G1 X105.292 Y94.892 E0.01912
;WIDTH:0.801691
G1 F2566.7058
G1 X105.271 Y94.664 E0.01781
;WIDTH:0.746349
G1 F2771.7685
G1 X105.25 Y94.436 E0.01649
G1 X105.25 Y83.675 E0.77475
G1 X105.437 Y83.675 E0.01199
G1 X105.81 Y83.675 E0.02543
G1 X141.266 Y83.675 E2.55278
M73 P1 R47
G1 X142.875 Y85.284 E0.1638
G1 X142.875 Y85.969 E0.04937
G1 X142.875 Y87.625 E0.11919
G1 X142.688 Y87.625 E0.01199
G1 X142.315 Y87.625 E0.02543
G1 X140.448 Y87.625 E0.13442
G1 X139.609 Y87.631 E0.06044
G1 X139.433 Y87.712 E0.01393
G1 X139.308 Y87.92 E0.01745
G1 X139.3 Y88.245 E0.02344
G1 X138.52 Y89.025 E0.07938
G1 X132.98 Y89.025 E0.39893
G1 X132.2 Y88.245 E0.07938
G1 X132.192 Y87.92 E0.02344
G1 X132.067 Y87.712 E0.01745
G1 X131.827 Y87.625 E0.01838
G1 X126.287 Y87.625 E0.39888
G1 X126.041 Y87.561 E0.01826
G1 X125.132 Y87.347 E0.06726
G1 X124.909 Y87.451 E0.0177
G1 X124.809 Y87.619 E0.0141
G1 X124.808 Y87.813 E0.01395
G1 X125.075 Y88.837 E0.07618
G1 X125.075 Y94.523 E0.40942
G1 X125.055 Y94.936 E0.02973
;WIDTH:0.831125
G1 F2469.5341
G1 X125.036 Y95.348 E0.03337
G1 X125.036 Y110.348 E1.21216
G1 X125.033 Y110.492 E0.01161
G1 X125.009 Y110.657 E0.01348
;WIDTH:0.894342
G1 F2283.835
G1 X124.985 Y110.822 E0.01457
;WIDTH:0.957558
G1 F2124.1102
G1 X124.961 Y110.987 E0.01567
;WIDTH:1.020775
G1 F1985.2666
G1 X124.938 Y111.152 E0.01677
G1 X124.938 Y111.663 E0.0513
G1 X124.683 Y111.663 E0.0229
G1 X124.427 Y111.663 E0.0229
G1 X124.113 Y111.69 E0.03173
;WIDTH:0.912374
G1 F2235.8766
G1 X123.858 Y111.712 E0.02282
;WIPE_START
G1 X123.589 Y111.376 F39000
;WIPE_END
G1 X123.798 Y110.805
;WIDTH:0.915832
G1 F2226.9104
G1 X123.878 Y110.801 E0.00712
;WIDTH:0.919288
G1 F2218.0184
G1 X123.995 Y110.776 E0.01082
;WIDTH:1.020775
G1 F1985.2666
G1 X124.113 Y110.75 E0.01209
G1 X124.137 Y110.65 E0.00104
;WIDTH:0.955475
G1 F2129.0173
G1 X124.162 Y110.549 E0.0097
;WIDTH:0.890175
G1 F2295.2106
G1 X124.186 Y110.449 E0.00899
;WIDTH:0.824875
G1 F2489.5473
G1 X124.211 Y110.348 E0.00829
G1 X124.211 Y95.348 E1.20241
G1 X124.117 Y95.199 E0.01415
;WIDTH:0.77402
G1 F2665.2983
G1 X124.022 Y95.05 E0.01322
G1 X123.798 Y94.975 E0.01767
G1 X106.702 Y94.975 E1.2801
G1 X106.478 Y95.05 E0.01767
G1 X106.362 Y95.199 E0.01416
;WIDTH:0.912375
G1 F2235.8742
G1 X106.245 Y95.348 E0.01688
G1 X106.245 Y105.4 E0.89714
G1 X106.262 Y105.522 E0.01101
;WIDTH:0.97788
G1 F2077.406
G1 X106.278 Y105.644 E0.01185
G1 X106.376 Y105.72 E0.01185
;WIDTH:0.915832
G1 F2226.9104
G1 X106.473 Y105.795 E0.01105
G1 X110.759 Y108.269 E0.44347
G1 X115.045 Y110.743 E0.44347
G1 X115.273 Y110.805 E0.02116
G1 X123.738 Y110.805 E0.75862
;WIPE_START
G1 X123.988 Y110.453 F39000
;WIPE_END
