; generated by SuperSlicer 2.5.59 on 2022-09-11 at 02:14:55 UTC

; 

; external perimeters extrusion width = 0.45mm
; perimeters extrusion width = 0.45mm
; infill extrusion width = 0.45mm
; solid infill extrusion width = 0.45mm
; top infill extrusion width = 0.40mm
; first layer extrusion width = 0.42mm

; object:{"name":"Front Case","id":"Front Case id:0 copy 0","object_center":[125.000000,105.000000,0.000000],"boundingbox_center":[125.000000,105.000000,5.550000],"boundingbox_size":[139.000000,89.199997,11.099999]}
; plater:{"center":[125.000000,105.000000,0.000000],"boundingbox_center":[125.000000,105.000000,5.550000],"boundingbox_size":[139.000000,89.199997,11.099999]}

M73 P0 R147
;TYPE:Custom
Start : M104 S0
M140 S0
PRINT_START EXTRUDER_TEMP=210 BED_TEMP=85
M107
G21 ; set units to millimeters
G90 ; use absolute coordinates
M83 ; use relative distances for extrusion
M900 K0.08 ; Filament gcode LA 1.5
M900 K45 ; Filament gcode LA 1.0
;_TOOLCHANGE 0
M104 S210 ; set temperature
M109 S210 ; set temperature and wait for it to be reached
M107
;LAYER_CHANGE
;Z:0.2
;HEIGHT:0.2
;BEFORE_LAYER_CHANGE
G92 E0.0
;0.2


G1 E-1 F2100
G1 Z0.2 F10800
G1 Z0.2
;AFTER_LAYER_CHANGE
;0.2
G1 Z0.4
M204 S1000
G1 X55.672 Y63.608
G1 Z0.2
G1 E1 F2100
;TYPE:Skirt
;WIDTH:0.52
G1 F1200
G1 X55.172 Y64.315 E0.03435
G1 X54.761 Y65.607 E0.0538
G1 X54.761 Y147.6 E3.2526
G1 X55.417 Y149.183 E0.06797
G1 X55.917 Y149.683 E0.02805
G1 X57.5 Y150.339 E0.06797
G1 X192.5 Y150.339 E5.35536
G1 X194.083 Y149.683 E0.06797
G1 X194.583 Y149.183 E0.02805
G1 X195.239 Y147.6 E0.06797
G1 X195.239 Y65.607 E3.2526
G1 X194.828 Y64.315 E0.0538
G1 X194.328 Y63.608 E0.03435
G1 X193.764 Y63.053 E0.03138
G1 X192.5 Y62.661 E0.05249
G1 X57.5 Y62.661 E5.35536
G1 X56.721 Y62.801 E0.03138
G1 X55.72 Y63.571 E0.05011
;WIPE_START
G1 F8640
G1 X55.172 Y64.315 E-0.21324
G1 X54.761 Y65.607 E-0.31313
G1 X54.761 Y67.442 E-0.42362
;WIPE_END
G1 E-0.05 F2100
G1 Z0.4 F10800
; printing object Front Case id:0 copy 0
; acceleration to travel
M204 S1500
G1 X58.264 Y66.939
; decel to extrusion
M204 S800
G1 X58.945 Y66.841
; end travel
G1 Z0.2
G1 E1 F2100
;TYPE:Internal perimeter
;WIDTH:0.377079
G1 F1200
G1 X191.059 Y66.846 E3.67084
M73 P0 R146
G1 X191.059 Y146.159 E2.20373
G1 X58.941 Y146.159 E3.67094
G1 X58.945 Y66.901 E2.2022
G1 X58.568 Y66.464 F10800
G1 F1200
G1 X191.436 Y66.469 E3.6918
G1 X191.436 Y71.619 E0.14309
G1 X191.436 Y146.536 E2.0816
G1 X58.564 Y146.536 E3.69189
G1 X58.568 Y66.524 E2.22316
G1 X58.191 Y66.087 F10800
G1 F1200
G1 X191.813 Y66.092 E3.71275
M73 P1 R146
G1 X191.813 Y146.913 E2.24564
G1 X58.187 Y146.913 E3.71285
G1 X58.191 Y66.147 E2.24411
M73 P1 R145
G1 X57.814 Y65.71 F10800
;TYPE:External perimeter
G1 F1200
G1 X192.19 Y65.715 E3.73371
G1 X192.19 Y71.619 E0.16405
G1 X192.19 Y147.29 E2.10255
G1 X57.81 Y147.29 E3.7338
G1 X57.814 Y65.77 E2.26507
;WIPE_START
M204 S1000
G1 X58.16 Y65.91 F10800
;WIPE_END
;WIPE_START
G1 F8640
G1 X62.274 Y65.91 E-0.95
;WIPE_END
G1 E-0.05 F2100
G1 Z0.4 F10800
; acceleration to travel
M204 S1500
G1 X67.274 Y72.064
; decel to extrusion
M204 S800
G1 X68.246 Y73.261
; end travel
G1 Z0.2
G1 E1 F2100
;TYPE:Internal perimeter
G1 F1200
G1 X68.115 Y73.487 E0.00728
G1 X67.91 Y74.084 E0.01751
G1 X67.859 Y74.59 E0.01415
G1 X67.859 Y140.91 E1.84271
G1 X67.87 Y141.084 E0.00485
G1 X67.958 Y141.584 E0.01411
G1 X68.114 Y142.012 E0.01267
G1 X68.47 Y142.591 E0.01888
G1 X68.99 Y143.056 E0.01939
G1 X69.387 Y143.285 E0.01274
G1 X69.819 Y143.442 E0.01276
G1 X70.155 Y143.517 E0.00957
G1 X70.49 Y143.541 E0.00933
G1 X179.51 Y143.541 E3.02915
G1 X180.184 Y143.442 E0.01894
G1 X180.612 Y143.286 E0.01267
G1 X181.01 Y143.056 E0.01276
G1 X181.361 Y142.761 E0.01274
G1 X181.656 Y142.409 E0.01276
G1 X181.885 Y142.013 E0.01274
G1 X182.092 Y141.412 E0.01765
G1 X182.141 Y140.91 E0.01402
G1 X182.141 Y74.59 E1.84271
G1 X182.042 Y73.916 E0.01894
G1 X181.943 Y73.6 E0.0092
G1 X181.656 Y73.09 E0.01626
G1 X181.361 Y72.739 E0.01274
G1 X180.826 Y72.315 E0.01899
G1 X180.181 Y72.058 E0.01928
G1 X179.845 Y71.983 E0.00957
G1 X179.51 Y71.959 E0.00933
G1 X70.49 Y71.959 E3.02915
G1 X69.816 Y72.058 E0.01894
G1 X69.388 Y72.214 E0.01267
G1 X68.796 Y72.581 E0.01934
G1 X68.344 Y73.091 E0.01893
G1 X68.276 Y73.209 E0.00379
G1 X68.63 Y73.35 F10800
G1 F1200
G1 X68.545 Y73.456 E0.00377
G1 X68.312 Y74.048 E0.01768
G1 X68.236 Y74.59 E0.01522
G1 X68.236 Y140.91 E1.84271
G1 X68.329 Y141.518 E0.01709
G1 X68.441 Y141.824 E0.00905
G1 X68.761 Y142.351 E0.01713
G1 X69.233 Y142.767 E0.0175
G1 X69.516 Y142.931 E0.0091
G1 X69.948 Y143.088 E0.01276
G1 X70.49 Y143.164 E0.01522
G1 X179.51 Y143.164 E3.02915
G1 X180.118 Y143.071 E0.01709
G1 X180.424 Y142.959 E0.00905
G1 X180.821 Y142.729 E0.01276
G1 X181.072 Y142.519 E0.0091
G1 X181.466 Y142.025 E0.01754
G1 X181.688 Y141.452 E0.01708
G1 X181.764 Y140.91 E0.01522
G1 X181.764 Y74.59 E1.84271
G1 X181.75 Y74.425 E0.00461
G1 X181.6 Y73.756 E0.01903
G1 X181.329 Y73.279 E0.01526
G1 X181.119 Y73.028 E0.0091
G1 X180.636 Y72.64 E0.01721
G1 X180.052 Y72.412 E0.01742
G1 X179.51 Y72.336 E0.01522
G1 X70.49 Y72.336 E3.02915
G1 X70.325 Y72.35 E0.00461
G1 X69.722 Y72.473 E0.01709
G1 X69.179 Y72.771 E0.01722
G1 X68.928 Y72.981 E0.0091
G1 X68.668 Y73.304 E0.01151
G1 X68.923 Y73.583 F10800
G1 F1200
G1 X68.869 Y73.649 E0.00237
G1 X68.666 Y74.177 E0.01571
G1 X68.613 Y74.59 E0.01158
G1 X68.613 Y140.91 E1.84271
M73 P1 R144
G1 X68.701 Y141.452 E0.01525
G1 X68.768 Y141.635 E0.00543
G1 X69.051 Y142.11 E0.01538
G1 X69.475 Y142.478 E0.0156
G1 X70.077 Y142.734 E0.01816
G1 X70.49 Y142.787 E0.01158
G1 X179.51 Y142.787 E3.02915
G1 X179.609 Y142.778 E0.00277
G1 X180.235 Y142.632 E0.01786
G1 X180.783 Y142.277 E0.01816
G1 X181.137 Y141.84 E0.01563
G1 X181.334 Y141.323 E0.01535
G1 X181.387 Y140.91 E0.01158
G1 X181.387 Y74.59 E1.84271
M73 P2 R144
G1 X181.378 Y74.491 E0.00277
G1 X181.257 Y73.913 E0.01641
G1 X181.003 Y73.467 E0.01426
G1 X180.877 Y73.317 E0.00546
G1 X180.446 Y72.966 E0.01543
G1 X179.923 Y72.766 E0.01555
G1 X179.51 Y72.713 E0.01158
G1 X70.49 Y72.713 E3.02915
G1 X70.391 Y72.722 E0.00277
G1 X69.852 Y72.827 E0.01525
G1 X69.367 Y73.097 E0.01543
G1 X69.217 Y73.223 E0.00546
G1 X68.961 Y73.536 E0.01123
G1 X69.21 Y73.818 F10800
;TYPE:External perimeter
G1 F1200
G1 X69.021 Y74.306 E0.01455
G1 X68.99 Y74.59 E0.00795
G1 X68.99 Y140.91 E1.84271
G1 X69.072 Y141.385 E0.01341
G1 X69.324 Y141.844 E0.01455
G1 X69.718 Y142.19 E0.01456
G1 X70.206 Y142.379 E0.01456
G1 X70.49 Y142.41 E0.00795
G1 X179.51 Y142.41 E3.02915
G1 X179.985 Y142.328 E0.01341
G1 X180.444 Y142.076 E0.01455
G1 X180.79 Y141.682 E0.01456
G1 X180.979 Y141.194 E0.01455
G1 X181.01 Y140.91 E0.00795
G1 X181.01 Y74.59 E1.84271
G1 X180.922 Y74.091 E0.01407
G1 X180.676 Y73.656 E0.0139
G1 X180.282 Y73.31 E0.01456
G1 X179.794 Y73.121 E0.01456
G1 X179.51 Y73.09 E0.00795
G1 X70.49 Y73.09 E3.02915
G1 X70.015 Y73.172 E0.01341
G1 X69.556 Y73.424 E0.01455
G1 X69.25 Y73.773 E0.01289
;WIPE_START
M204 S1000
G1 X69.423 Y74.157 F10800
;WIPE_END
;WIPE_START
G1 F8640
G1 X68.825 Y74.258 E-0.14013
G1 X68.79 Y74.58 E-0.07466
G1 X68.79 Y77.764 E-0.73522
;WIPE_END
G1 E-0.05 F2100
G1 Z0.4 F10800
; acceleration to travel
M204 S1500
G1 X167.065 Y69.685
; decel to extrusion
M204 S1000
G1 X190.946 Y67.722
; end travel
G1 Z0.2
G1 E1 F2100
;TYPE:Solid infill
;WIDTH:0.418825
G1 F1200
G1 X190.346 Y67.121 E0.02654
G1 X189.812 Y67.121 E0.01667
G1 X190.784 Y68.093 E0.04295
G1 X190.784 Y68.626 E0.01667
G1 X189.279 Y67.121 E0.06653
G1 X188.746 Y67.121 E0.01667
G1 X190.784 Y69.159 E0.09011
G1 X190.784 Y69.692 E0.01667
G1 X188.212 Y67.121 E0.11369
G1 X187.679 Y67.121 E0.01667
G1 X190.784 Y70.226 E0.13727
G1 X190.784 Y70.759 E0.01667
G1 X187.146 Y67.121 E0.16085
G1 X186.612 Y67.121 E0.01667
G1 X190.784 Y71.292 E0.18443
G1 X190.784 Y71.826 E0.01667
G1 X186.079 Y67.121 E0.20801
G1 X185.546 Y67.121 E0.01667
G1 X190.784 Y72.359 E0.23159
G1 X190.784 Y72.892 E0.01667
G1 X185.013 Y67.121 E0.25518
G1 X184.479 Y67.121 E0.01667
G1 X190.784 Y73.425 E0.27876
G1 X190.784 Y73.959 E0.01667
G1 X183.946 Y67.121 E0.30234
G1 X183.413 Y67.121 E0.01667
G1 X190.784 Y74.492 E0.32592
G1 X190.784 Y75.025 E0.01667
G1 X182.879 Y67.121 E0.3495
G1 X182.346 Y67.121 E0.01667
G1 X190.784 Y75.558 E0.37308
G1 X190.784 Y76.092 E0.01667
G1 X181.813 Y67.121 E0.39666
G1 X181.28 Y67.121 E0.01667
G1 X190.784 Y76.625 E0.42024
G1 X190.784 Y77.158 E0.01667
G1 X180.746 Y67.121 E0.44382
G1 X180.213 Y67.121 E0.01667
G1 X190.784 Y77.692 E0.4674
G1 X190.784 Y78.225 E0.01667
G1 X179.68 Y67.121 E0.49098
G1 X179.146 Y67.121 E0.01667
G1 X190.784 Y78.758 E0.51456
G1 X190.784 Y79.291 E0.01667
G1 X178.613 Y67.121 E0.53815
G1 X178.08 Y67.121 E0.01667
G1 X190.784 Y79.825 E0.56173
G1 X190.784 Y80.358 E0.01667
G1 X177.547 Y67.121 E0.58531
G1 X177.013 Y67.121 E0.01667
G1 X190.784 Y80.891 E0.60889
G1 X190.784 Y81.424 E0.01667
G1 X176.48 Y67.121 E0.63247
G1 X175.947 Y67.121 E0.01667
G1 X190.784 Y81.958 E0.65605
G1 X190.784 Y82.491 E0.01667
G1 X182.34 Y74.047 E0.37337
G1 X182.392 Y74.313 E0.00849
G1 X182.416 Y74.587 E0.00857
G1 X182.416 Y74.657 E0.00221
G1 X190.784 Y83.024 E0.36997
G1 X190.784 Y83.558 E0.01667
G1 X182.416 Y75.19 E0.36997
G1 X182.416 Y75.724 E0.01667
G1 X190.784 Y84.091 E0.36997
G1 X190.784 Y84.624 E0.01667
G1 X182.416 Y76.257 E0.36997
G1 X182.416 Y76.79 E0.01667
G1 X190.784 Y85.157 E0.36997
G1 X190.784 Y85.691 E0.01667
G1 X182.416 Y77.324 E0.36997
G1 X182.416 Y77.857 E0.01667
G1 X190.784 Y86.224 E0.36997
G1 X190.784 Y86.757 E0.01667
G1 X182.416 Y78.39 E0.36997
G1 X182.416 Y78.923 E0.01667
G1 X190.784 Y87.29 E0.36997
G1 X190.784 Y87.824 E0.01667
G1 X182.416 Y79.457 E0.36997
M73 P2 R143
G1 X182.416 Y79.99 E0.01667
G1 X190.784 Y88.357 E0.36997
G1 X190.784 Y88.89 E0.01667
G1 X182.416 Y80.523 E0.36997
G1 X182.416 Y81.056 E0.01667
G1 X190.784 Y89.423 E0.36997
G1 X190.784 Y89.957 E0.01667
G1 X182.416 Y81.59 E0.36997
G1 X182.416 Y82.123 E0.01667
G1 X190.784 Y90.49 E0.36997
G1 X190.784 Y91.023 E0.01667
G1 X182.416 Y82.656 E0.36997
G1 X182.416 Y83.19 E0.01667
G1 X190.784 Y91.557 E0.36997
G1 X190.784 Y92.09 E0.01667
G1 X182.416 Y83.723 E0.36997
G1 X182.416 Y84.256 E0.01667
G1 X190.784 Y92.623 E0.36997
G1 X190.784 Y93.156 E0.01667
G1 X182.416 Y84.789 E0.36997
G1 X182.416 Y85.323 E0.01667
G1 X190.784 Y93.69 E0.36997
G1 X190.784 Y94.223 E0.01667
G1 X182.416 Y85.856 E0.36997
G1 X182.416 Y86.389 E0.01667
G1 X190.784 Y94.756 E0.36997
G1 X190.784 Y95.289 E0.01667
G1 X182.416 Y86.922 E0.36997
G1 X182.416 Y87.456 E0.01667
G1 X190.784 Y95.823 E0.36997
G1 X190.784 Y96.356 E0.01667
G1 X182.416 Y87.989 E0.36997
G1 X182.416 Y88.522 E0.01667
G1 X190.784 Y96.889 E0.36997
G1 X190.784 Y97.423 E0.01667
G1 X182.416 Y89.056 E0.36997
G1 X182.416 Y89.589 E0.01667
G1 X190.784 Y97.956 E0.36997
G1 X190.784 Y98.489 E0.01667
G1 X182.416 Y90.122 E0.36997
G1 X182.416 Y90.655 E0.01667
G1 X190.784 Y99.022 E0.36997
G1 X190.784 Y99.556 E0.01667
G1 X182.416 Y91.189 E0.36997
G1 X182.416 Y91.722 E0.01667
G1 X190.784 Y100.089 E0.36997
G1 X190.784 Y100.622 E0.01667
G1 X182.416 Y92.255 E0.36997
G1 X182.416 Y92.788 E0.01667
G1 X190.784 Y101.155 E0.36997
G1 X190.784 Y101.689 E0.01667
G1 X182.416 Y93.322 E0.36997
G1 X182.416 Y93.855 E0.01667
G1 X190.784 Y102.222 E0.36997
G1 X190.784 Y102.755 E0.01667
G1 X182.416 Y94.388 E0.36997
G1 X182.416 Y94.921 E0.01667
G1 X190.784 Y103.289 E0.36997
G1 X190.784 Y103.822 E0.01667
G1 X182.416 Y95.455 E0.36997
G1 X182.416 Y95.988 E0.01667
G1 X190.784 Y104.355 E0.36997
G1 X190.784 Y104.888 E0.01667
G1 X182.416 Y96.521 E0.36997
G1 X182.416 Y97.055 E0.01667
G1 X190.784 Y105.422 E0.36997
G1 X190.784 Y105.955 E0.01667
G1 X182.416 Y97.588 E0.36997
G1 X182.416 Y98.121 E0.01667
G1 X190.784 Y106.488 E0.36997
G1 X190.784 Y107.021 E0.01667
G1 X182.416 Y98.654 E0.36997
G1 X182.416 Y99.188 E0.01667
G1 X190.784 Y107.555 E0.36997
G1 X190.784 Y108.088 E0.01667
G1 X182.416 Y99.721 E0.36997
G1 X182.416 Y100.254 E0.01667
G1 X190.784 Y108.621 E0.36997
G1 X190.784 Y109.154 E0.01667
G1 X182.416 Y100.787 E0.36997
G1 X182.416 Y101.321 E0.01667
G1 X190.784 Y109.688 E0.36997
G1 X190.784 Y110.221 E0.01667
G1 X182.416 Y101.854 E0.36997
G1 X182.416 Y102.387 E0.01667
G1 X190.784 Y110.754 E0.36997
G1 X190.784 Y111.288 E0.01667
G1 X182.416 Y102.921 E0.36997
G1 X182.416 Y103.454 E0.01667
G1 X190.784 Y111.821 E0.36997
G1 X190.784 Y112.354 E0.01667
G1 X182.416 Y103.987 E0.36997
G1 X182.416 Y104.52 E0.01667
G1 X190.784 Y112.887 E0.36997
G1 X190.784 Y113.421 E0.01667
G1 X182.416 Y105.054 E0.36997
G1 X182.416 Y105.587 E0.01667
G1 X190.784 Y113.954 E0.36997
G1 X190.784 Y114.487 E0.01667
G1 X182.416 Y106.12 E0.36997
G1 X182.416 Y106.653 E0.01667
G1 X190.784 Y115.02 E0.36997
G1 X190.784 Y115.554 E0.01667
G1 X182.416 Y107.187 E0.36997
G1 X182.416 Y107.72 E0.01667
G1 X190.784 Y116.087 E0.36997
G1 X190.784 Y116.62 E0.01667
G1 X182.416 Y108.253 E0.36997
G1 X182.416 Y108.787 E0.01667
G1 X190.784 Y117.154 E0.36997
G1 X190.784 Y117.687 E0.01667
G1 X182.416 Y109.32 E0.36997
G1 X182.416 Y109.853 E0.01667
G1 X190.784 Y118.22 E0.36997
G1 X190.784 Y118.753 E0.01667
G1 X182.416 Y110.386 E0.36997
G1 X182.416 Y110.92 E0.01667
G1 X190.784 Y119.287 E0.36997
G1 X190.784 Y119.82 E0.01667
G1 X182.416 Y111.453 E0.36997
G1 X182.416 Y111.986 E0.01667
G1 X190.784 Y120.353 E0.36997
G1 X190.784 Y120.886 E0.01667
G1 X182.416 Y112.519 E0.36997
M73 P3 R143
G1 X182.416 Y113.053 E0.01667
G1 X190.784 Y121.42 E0.36997
G1 X190.784 Y121.953 E0.01667
G1 X182.416 Y113.586 E0.36997
G1 X182.416 Y114.119 E0.01667
G1 X190.784 Y122.486 E0.36997
G1 X190.784 Y123.02 E0.01667
G1 X182.416 Y114.652 E0.36997
G1 X182.416 Y115.186 E0.01667
G1 X190.784 Y123.553 E0.36997
G1 X190.784 Y124.086 E0.01667
G1 X182.416 Y115.719 E0.36997
G1 X182.416 Y116.252 E0.01667
G1 X190.784 Y124.619 E0.36997
G1 X190.784 Y125.153 E0.01667
G1 X182.416 Y116.786 E0.36997
G1 X182.416 Y117.319 E0.01667
G1 X190.784 Y125.686 E0.36997
G1 X190.784 Y126.219 E0.01667
G1 X182.416 Y117.852 E0.36997
G1 X182.416 Y118.385 E0.01667
G1 X190.784 Y126.752 E0.36997
G1 X190.784 Y127.286 E0.01667
G1 X182.416 Y118.919 E0.36997
G1 X182.416 Y119.452 E0.01667
G1 X190.784 Y127.819 E0.36997
G1 X190.784 Y128.352 E0.01667
G1 X182.416 Y119.985 E0.36997
G1 X182.416 Y120.518 E0.01667
G1 X190.784 Y128.885 E0.36997
G1 X190.784 Y129.419 E0.01667
G1 X182.416 Y121.052 E0.36997
G1 X182.416 Y121.585 E0.01667
G1 X190.784 Y129.952 E0.36997
G1 X190.784 Y130.485 E0.01667
G1 X182.416 Y122.118 E0.36997
G1 X182.416 Y122.652 E0.01667
G1 X190.784 Y131.019 E0.36997
G1 X190.784 Y131.552 E0.01667
G1 X182.416 Y123.185 E0.36997
G1 X182.416 Y123.718 E0.01667
G1 X190.784 Y132.085 E0.36997
G1 X190.784 Y132.618 E0.01667
G1 X182.416 Y124.251 E0.36997
G1 X182.416 Y124.785 E0.01667
G1 X190.784 Y133.152 E0.36997
G1 X190.784 Y133.685 E0.01667
G1 X182.416 Y125.318 E0.36997
G1 X182.416 Y125.851 E0.01667
G1 X190.784 Y134.218 E0.36997
G1 X190.784 Y134.751 E0.01667
G1 X182.416 Y126.384 E0.36997
G1 X182.416 Y126.918 E0.01667
G1 X190.784 Y135.285 E0.36997
G1 X190.784 Y135.818 E0.01667
G1 X182.416 Y127.451 E0.36997
G1 X182.416 Y127.984 E0.01667
G1 X190.784 Y136.351 E0.36997
G1 X190.784 Y136.885 E0.01667
G1 X182.416 Y128.518 E0.36997
G1 X182.416 Y129.051 E0.01667
G1 X190.784 Y137.418 E0.36997
G1 X190.784 Y137.951 E0.01667
G1 X182.416 Y129.584 E0.36997
G1 X182.416 Y130.117 E0.01667
G1 X190.784 Y138.484 E0.36997
G1 X190.784 Y139.018 E0.01667
G1 X182.416 Y130.651 E0.36997
M73 P3 R142
G1 X182.416 Y131.184 E0.01667
G1 X190.784 Y139.551 E0.36997
G1 X190.784 Y140.084 E0.01667
G1 X182.416 Y131.717 E0.36997
G1 X182.416 Y132.25 E0.01667
G1 X190.784 Y140.617 E0.36997
G1 X190.784 Y141.151 E0.01667
G1 X182.416 Y132.784 E0.36997
G1 X182.416 Y133.317 E0.01667
G1 X190.784 Y141.684 E0.36997
G1 X190.784 Y142.217 E0.01667
G1 X182.416 Y133.85 E0.36997
G1 X182.416 Y134.383 E0.01667
G1 X190.784 Y142.751 E0.36997
G1 X190.784 Y143.284 E0.01667
G1 X182.416 Y134.917 E0.36997
G1 X182.416 Y135.45 E0.01667
G1 X190.784 Y143.817 E0.36997
G1 X190.784 Y144.35 E0.01667
G1 X182.416 Y135.983 E0.36997
G1 X182.416 Y136.517 E0.01667
G1 X190.784 Y144.884 E0.36997
G1 X190.784 Y145.417 E0.01667
G1 X182.416 Y137.05 E0.36997
G1 X182.416 Y137.583 E0.01667
