; generated by SuperSlicer 2.5.59 on 2022-09-10 at 22:55:16 UTC

; 

; external perimeters extrusion width = 0.45mm
; perimeters extrusion width = 0.45mm
; infill extrusion width = 0.45mm
; solid infill extrusion width = 0.45mm
; top infill extrusion width = 0.40mm
; first layer extrusion width = 0.42mm

; external perimeters extrusion width = 0.45mm
; perimeters extrusion width = 0.45mm
; infill extrusion width = 0.45mm
; solid infill extrusion width = 0.45mm
; top infill extrusion width = 0.40mm
; first layer extrusion width = 0.42mm

; object:{"name":"Right Leg","id":"Right Leg id:0 copy 0","object_center":[144.982384,112.313430,0.000000],"boundingbox_center":[144.982384,112.313430,10.199999],"boundingbox_size":[42.000000,90.220581,20.399998]}
; object:{"name":"Left Leg","id":"Left Leg id:1 copy 0","object_center":[105.017617,97.808612,0.000000],"boundingbox_center":[105.017617,97.808612,10.199999],"boundingbox_size":[42.000000,90.220581,20.399998]}
; plater:{"center":[125.000000,105.061021,0.000000],"boundingbox_center":[125.000000,105.061021,10.199999],"boundingbox_size":[81.964766,104.725399,20.399998]}

M73 P0 R103
;TYPE:Custom
Start : M104 S0
M140 S0
PRINT_START EXTRUDER_TEMP=230 BED_TEMP=85
M107
G21 ; set units to millimeters
G90 ; use absolute coordinates
M83 ; use relative distances for extrusion
M900 K0.08 ; Filament gcode LA 1.5
M900 K45 ; Filament gcode LA 1.0
;_TOOLCHANGE 0
M104 S230 ; set temperature
M109 S230 ; set temperature and wait for it to be reached
M107
;LAYER_CHANGE
;Z:0.2
;HEIGHT:0.2
;BEFORE_LAYER_CHANGE
G92 E0.0
;0.2


G1 E-1 F2100
G1 Z0.2 F10800
G1 Z0.2
;AFTER_LAYER_CHANGE
;0.2
G1 Z0.4
M204 S1000
G1 X82.17 Y55.617
G1 Z0.2
G1 E1 F2100
;TYPE:Skirt
;WIDTH:0.52
G1 F1200
G1 X81.779 Y56.881 E0.05249
G1 X81.779 Y137.519 E3.19885
G1 X82.015 Y138.52 E0.0408
G1 X84.015 Y142.52 E0.17741
G1 X85.413 Y143.674 E0.0719
G1 X137.115 Y158.179 E2.13017
G1 X137.72 Y158.262 E0.02421
G1 X163.982 Y158.262 E1.04182
G1 X165.069 Y157.981 E0.04455
G1 X165.985 Y157.025 E0.05249
G1 X167.985 Y153.025 E0.17741
G1 X168.221 Y152.024 E0.0408
G1 X168.221 Y71.386 E3.19885
G1 X167.802 Y70.082 E0.05432
G1 X166.748 Y69.282 E0.05249
G1 X155.025 Y65.029 E0.49469
G1 X96.044 Y50.525 E2.40946
G1 X94.744 Y50.595 E0.05165
G1 X83.252 Y54.777 E0.48513
G1 X82.218 Y55.58 E0.05194
;WIPE_START
G1 F8640
G1 X81.779 Y56.881 E-0.31698
G1 X81.779 Y59.623 E-0.63302
;WIPE_END
G1 E-0.05 F2100
G1 Z0.4 F10800
; printing object Right Leg id:0 copy 0
; acceleration to travel
M204 S1500
G1 X141.991 Y71.571
; decel to extrusion
M204 S800
G1 X153.696 Y73.893
; end travel
G1 Z0.2
G1 E1 F2100
;TYPE:Internal perimeter
;WIDTH:0.377079
G1 F1200
G1 X155.412 Y69.179 E0.13941
G1 X164.441 Y72.465 E0.26699
G1 X164.441 Y151.66 E2.20046
G1 X163.03 Y154.482 E0.08768
G1 X137.992 Y154.482 E0.6957
G1 X125.958 Y150.103 E0.35582
G1 X128.337 Y143.565 E0.19331
G1 X154.074 Y143.565 E0.71511
G1 X154.302 Y143.545 E0.00636
G1 X154.696 Y143.409 E0.01158
G1 X155.007 Y143.178 E0.01076
M73 P0 R102
G1 X161.137 Y137.049 E0.24086
G1 X161.337 Y136.793 E0.00902
G1 X161.474 Y136.473 E0.00967
G1 X161.524 Y136.115 E0.01003
G1 X161.524 Y81.752 E1.51051
G1 X161.46 Y81.346 E0.01142
G1 X161.285 Y80.995 E0.01089
G1 X157.446 Y75.513 E0.18596
G1 X157.277 Y75.316 E0.00719
G1 X157.064 Y75.15 E0.0075
G1 X156.816 Y75.029 E0.00767
G1 X153.752 Y73.914 E0.09061
G1 X153.212 Y74.119 F10800
G1 F1200
G1 X155.186 Y68.695 E0.16037
G1 X164.818 Y72.201 E0.2848
G1 X164.818 Y151.749 E2.21027
G1 X163.263 Y154.86 E0.09663
G1 X137.925 Y154.86 E0.70402
G1 X125.474 Y150.328 E0.36815
G1 X128.073 Y143.188 E0.21112
G1 X154.074 Y143.188 E0.72244
G1 X154.192 Y143.181 E0.00327
G1 X154.518 Y143.077 E0.00953
G1 X154.741 Y142.912 E0.00769
G1 X160.87 Y136.782 E0.24086
G1 X161.013 Y136.599 E0.00644
G1 X161.111 Y136.371 E0.00691
G1 X161.147 Y136.115 E0.00717
G1 X161.147 Y81.752 E1.51051
M73 P1 R102
G1 X161.101 Y81.462 E0.00816
G1 X160.976 Y81.211 E0.00778
G1 X157.137 Y75.729 E0.18596
G1 X157.017 Y75.588 E0.00514
G1 X156.687 Y75.384 E0.01078
G1 X153.269 Y74.139 E0.10109
G1 X152.729 Y74.344 F10800
G1 F1200
G1 X154.961 Y68.212 E0.18132
G1 X165.195 Y71.937 E0.30261
G1 X165.195 Y151.838 E2.22008
G1 X163.496 Y155.237 E0.10558
G1 X137.859 Y155.237 E0.71234
G1 X124.991 Y150.553 E0.38047
G1 X127.809 Y142.811 E0.22894
G1 X154.074 Y142.811 E0.72978
G1 X154.279 Y142.772 E0.0058
G1 X154.474 Y142.645 E0.00646
G1 X160.604 Y136.515 E0.24086
G1 X160.689 Y136.406 E0.00386
G1 X160.769 Y136.115 E0.00837
G1 X160.769 Y81.752 E1.51051
G1 X160.742 Y81.578 E0.00489
G1 X160.667 Y81.428 E0.00467
G1 X156.828 Y75.945 E0.18596
G1 X156.756 Y75.861 E0.00308
G1 X156.558 Y75.738 E0.00647
G1 X152.785 Y74.365 E0.11156
G1 X152.246 Y74.57 F10800
;TYPE:External perimeter
G1 F1200
G1 X154.736 Y67.729 E0.20228
G1 X165.572 Y71.673 E0.32043
G1 X165.572 Y151.927 E2.22989
G1 X163.729 Y155.614 E0.11453
G1 X137.792 Y155.614 E0.72067
G1 X124.508 Y150.779 E0.3928
G1 X127.545 Y142.434 E0.24675
G1 X154.074 Y142.434 E0.73712
G1 X154.207 Y142.379 E0.00401
G1 X160.337 Y136.249 E0.24086
G1 X160.392 Y136.115 E0.00401
G1 X160.392 Y81.752 E1.51051
G1 X160.358 Y81.644 E0.00315
G1 X156.519 Y76.161 E0.18596
G1 X156.429 Y76.092 E0.00315
G1 X152.302 Y74.59 E0.12204
;WIPE_START
M204 S1000
G1 X152.552 Y74.312 F10800
;WIPE_END
;WIPE_START
G1 F8640
G1 X153.959 Y70.446 E-0.95
;WIPE_END
G1 E-0.05 F2100
G1 Z0.4 F10800
; acceleration to travel
M204 S1500
G1 X161.33 Y71.781
; decel to extrusion
M204 S1000
G1 X163.121 Y72.105
; end travel
G1 Z0.2
G1 E1 F2100
;TYPE:Solid infill
;WIDTH:0.418947
G1 F1200
G1 X164.166 Y73.15 E0.04623
G1 X164.166 Y73.683 E0.01668
G1 X162.554 Y72.071 E0.07132
G1 X161.715 Y71.766 E0.02791
G1 X164.166 Y74.217 E0.1084
G1 X164.166 Y74.75 E0.01668
G1 X160.877 Y71.461 E0.14548
G1 X160.038 Y71.155 E0.02791
G1 X164.166 Y75.283 E0.18257
G1 X164.166 Y75.816 E0.01668
G1 X159.2 Y70.85 E0.21965
G1 X158.361 Y70.545 E0.02791
G1 X164.166 Y76.35 E0.25674
G1 X164.166 Y76.883 E0.01668
G1 X157.523 Y70.24 E0.29382
G1 X156.684 Y69.935 E0.02791
G1 X164.166 Y77.416 E0.33091
G1 X164.166 Y77.949 E0.01668
G1 X155.846 Y69.63 E0.36799
G1 X155.576 Y69.531 E0.00898
G1 X155.48 Y69.797 E0.00883
G1 X164.166 Y78.483 E0.38419
G1 X164.166 Y79.016 E0.01668
G1 X155.337 Y70.187 E0.39049
G1 X155.195 Y70.578 E0.01301
G1 X164.166 Y79.549 E0.39678
G1 X164.166 Y80.082 E0.01668
G1 X155.053 Y70.969 E0.40308
G1 X154.911 Y71.36 E0.01301
G1 X164.166 Y80.616 E0.40937
G1 X164.166 Y81.149 E0.01668
G1 X154.768 Y71.751 E0.41566
G1 X154.626 Y72.142 E0.01301
G1 X164.166 Y81.682 E0.42196
G1 X164.166 Y82.216 E0.01668
G1 X158.528 Y76.577 E0.24938
G1 X157.669 Y75.351 E0.04682
G1 X157.468 Y75.117 E0.00966
G1 X157.21 Y74.916 E0.01021
G1 X156.915 Y74.772 E0.01029
G1 X156.613 Y74.662 E0.01006
G1 X154.484 Y72.533 E0.09417
G1 X154.341 Y72.924 E0.01301
G1 X155.774 Y74.357 E0.06338
G1 X154.936 Y74.052 E0.02791
G1 X154.199 Y73.315 E0.03259
G1 X154.057 Y73.706 E0.01301
G1 X154.369 Y74.018 E0.01379
;WIPE_START
G1 F8640
G1 X154.057 Y73.706 E-0.10184
G1 X154.199 Y73.315 E-0.09607
G1 X154.936 Y74.052 E-0.24057
G1 X155.774 Y74.357 E-0.20602
G1 X154.839 Y73.422 E-0.3055
;WIPE_END
G1 E-0.05 F2100
G1 Z0.4 F10800
; acceleration to travel
M204 S1500
G1 X158.277 Y76.86
; decel to extrusion
M204 S1000
G1 X159.113 Y77.696
; end travel
G1 Z0.2
G1 E1 F2100
G1 F1200
G1 X164.166 Y82.749 E0.2235
G1 X164.166 Y83.282 E0.01668
G1 X161.019 Y80.135 E0.1392
G1 X161.514 Y80.842 E0.02701
G1 X161.723 Y81.261 E0.01463
G1 X161.743 Y81.393 E0.00416
G1 X164.166 Y83.815 E0.10715
G1 X164.166 Y84.349 E0.01668
G1 X161.799 Y81.982 E0.10469
G1 X161.799 Y82.515 E0.01668
G1 X164.166 Y84.882 E0.10469
G1 X164.166 Y85.415 E0.01668
G1 X161.799 Y83.048 E0.10469
G1 X161.799 Y83.581 E0.01668
G1 X164.166 Y85.948 E0.10469
G1 X164.166 Y86.482 E0.01668
G1 X161.799 Y84.115 E0.10469
G1 X161.799 Y84.648 E0.01668
G1 X164.166 Y87.015 E0.10469
G1 X164.166 Y87.548 E0.01668
G1 X161.799 Y85.181 E0.10469
G1 X161.799 Y85.715 E0.01668
G1 X164.166 Y88.082 E0.10469
G1 X164.166 Y88.615 E0.01668
G1 X161.799 Y86.248 E0.10469
G1 X161.799 Y86.781 E0.01668
G1 X164.166 Y89.148 E0.10469
G1 X164.166 Y89.681 E0.01668
G1 X161.799 Y87.314 E0.10469
G1 X161.799 Y87.848 E0.01668
G1 X164.166 Y90.215 E0.10469
G1 X164.166 Y90.748 E0.01668
G1 X161.799 Y88.381 E0.10469
G1 X161.799 Y88.914 E0.01668
G1 X164.166 Y91.281 E0.10469
G1 X164.166 Y91.814 E0.01668
G1 X161.799 Y89.447 E0.10469
G1 X161.799 Y89.981 E0.01668
G1 X164.166 Y92.348 E0.10469
G1 X164.166 Y92.881 E0.01668
G1 X161.799 Y90.514 E0.10469
G1 X161.799 Y91.047 E0.01668
G1 X164.166 Y93.414 E0.10469
G1 X164.166 Y93.948 E0.01668
G1 X161.799 Y91.58 E0.10469
G1 X161.799 Y92.114 E0.01668
G1 X164.166 Y94.481 E0.10469
G1 X164.166 Y95.014 E0.01668
G1 X161.799 Y92.647 E0.10469
G1 X161.799 Y93.18 E0.01668
G1 X164.166 Y95.547 E0.10469
G1 X164.166 Y96.081 E0.01668
G1 X161.799 Y93.714 E0.10469
G1 X161.799 Y94.247 E0.01668
G1 X164.166 Y96.614 E0.10469
G1 X164.166 Y97.147 E0.01668
G1 X161.799 Y94.78 E0.10469
G1 X161.799 Y95.313 E0.01668
G1 X164.166 Y97.68 E0.10469
G1 X164.166 Y98.214 E0.01668
G1 X161.799 Y95.847 E0.10469
G1 X161.799 Y96.38 E0.01668
G1 X164.166 Y98.747 E0.10469
G1 X164.166 Y99.28 E0.01668
G1 X161.799 Y96.913 E0.10469
G1 X161.799 Y97.446 E0.01668
G1 X164.166 Y99.813 E0.10469
G1 X164.166 Y100.347 E0.01668
G1 X161.799 Y97.98 E0.10469
G1 X161.799 Y98.513 E0.01668
G1 X164.166 Y100.88 E0.10469
G1 X164.166 Y101.413 E0.01668
G1 X161.799 Y99.046 E0.10469
G1 X161.799 Y99.58 E0.01668
G1 X164.166 Y101.947 E0.10469
G1 X164.166 Y102.48 E0.01668
G1 X161.799 Y100.113 E0.10469
M73 P1 R101
G1 X161.799 Y100.646 E0.01668
G1 X164.166 Y103.013 E0.10469
G1 X164.166 Y103.546 E0.01668
G1 X161.799 Y101.179 E0.10469
G1 X161.799 Y101.713 E0.01668
G1 X164.166 Y104.08 E0.10469
G1 X164.166 Y104.613 E0.01668
G1 X161.799 Y102.246 E0.10469
G1 X161.799 Y102.779 E0.01668
G1 X164.166 Y105.146 E0.10469
G1 X164.166 Y105.679 E0.01668
G1 X161.799 Y103.312 E0.10469
G1 X161.799 Y103.846 E0.01668
G1 X164.166 Y106.213 E0.10469
G1 X164.166 Y106.746 E0.01668
G1 X161.799 Y104.379 E0.10469
G1 X161.799 Y104.912 E0.01668
G1 X164.166 Y107.279 E0.10469
G1 X164.166 Y107.813 E0.01668
G1 X161.799 Y105.446 E0.10469
G1 X161.799 Y105.979 E0.01668
G1 X164.166 Y108.346 E0.10469
G1 X164.166 Y108.879 E0.01668
G1 X161.799 Y106.512 E0.10469
G1 X161.799 Y107.045 E0.01668
G1 X164.166 Y109.412 E0.10469
G1 X164.166 Y109.946 E0.01668
G1 X161.799 Y107.579 E0.10469
G1 X161.799 Y108.112 E0.01668
G1 X164.166 Y110.479 E0.10469
G1 X164.166 Y111.012 E0.01668
G1 X161.799 Y108.645 E0.10469
G1 X161.799 Y109.178 E0.01668
G1 X164.166 Y111.545 E0.10469
G1 X164.166 Y112.079 E0.01668
G1 X161.799 Y109.712 E0.10469
G1 X161.799 Y110.245 E0.01668
G1 X164.166 Y112.612 E0.10469
G1 X164.166 Y113.145 E0.01668
G1 X161.799 Y110.778 E0.10469
G1 X161.799 Y111.311 E0.01668
G1 X164.166 Y113.679 E0.10469
G1 X164.166 Y114.212 E0.01668
G1 X161.799 Y111.845 E0.10469
G1 X161.799 Y112.378 E0.01668
G1 X164.166 Y114.745 E0.10469
G1 X164.166 Y115.278 E0.01668
G1 X161.799 Y112.911 E0.10469
G1 X161.799 Y113.445 E0.01668
G1 X164.166 Y115.812 E0.10469
G1 X164.166 Y116.345 E0.01668
G1 X161.799 Y113.978 E0.10469
G1 X161.799 Y114.511 E0.01668
G1 X164.166 Y116.878 E0.10469
G1 X164.166 Y117.411 E0.01668
G1 X161.799 Y115.044 E0.10469
G1 X161.799 Y115.578 E0.01668
G1 X164.166 Y117.945 E0.10469
G1 X164.166 Y118.478 E0.01668
G1 X161.799 Y116.111 E0.10469
G1 X161.799 Y116.644 E0.01668
G1 X164.166 Y119.011 E0.10469
G1 X164.166 Y119.544 E0.01668
G1 X161.799 Y117.177 E0.10469
G1 X161.799 Y117.711 E0.01668
G1 X164.166 Y120.078 E0.10469
G1 X164.166 Y120.611 E0.01668
G1 X161.799 Y118.244 E0.10469
G1 X161.799 Y118.777 E0.01668
G1 X164.166 Y121.144 E0.10469
G1 X164.166 Y121.678 E0.01668
G1 X161.799 Y119.311 E0.10469
G1 X161.799 Y119.844 E0.01668
G1 X164.166 Y122.211 E0.10469
G1 X164.166 Y122.744 E0.01668
G1 X161.799 Y120.377 E0.10469
G1 X161.799 Y120.91 E0.01668
G1 X164.166 Y123.277 E0.10469
G1 X164.166 Y123.811 E0.01668
G1 X161.799 Y121.444 E0.10469
G1 X161.799 Y121.977 E0.01668
G1 X164.166 Y124.344 E0.10469
G1 X164.166 Y124.877 E0.01668
G1 X161.799 Y122.51 E0.10469
G1 X161.799 Y123.043 E0.01668
G1 X164.166 Y125.41 E0.10469
G1 X164.166 Y125.944 E0.01668
G1 X161.799 Y123.577 E0.10469
G1 X161.799 Y124.11 E0.01668
G1 X164.166 Y126.477 E0.10469
G1 X164.166 Y127.01 E0.01668
G1 X161.799 Y124.643 E0.10469
G1 X161.799 Y125.177 E0.01668
G1 X164.166 Y127.544 E0.10469
G1 X164.166 Y128.077 E0.01668
G1 X161.799 Y125.71 E0.10469
G1 X161.799 Y126.243 E0.01668
G1 X164.166 Y128.61 E0.10469
G1 X164.166 Y129.143 E0.01668
G1 X161.799 Y126.776 E0.10469
G1 X161.799 Y127.31 E0.01668
G1 X164.166 Y129.677 E0.10469
G1 X164.166 Y130.21 E0.01668
G1 X161.799 Y127.843 E0.10469
G1 X161.799 Y128.376 E0.01668
G1 X164.166 Y130.743 E0.10469
G1 X164.166 Y131.276 E0.01668
G1 X161.799 Y128.909 E0.10469
G1 X161.799 Y129.443 E0.01668
G1 X164.166 Y131.81 E0.10469
G1 X164.166 Y132.343 E0.01668
G1 X161.799 Y129.976 E0.10469
G1 X161.799 Y130.509 E0.01668
G1 X164.166 Y132.876 E0.10469
G1 X164.166 Y133.41 E0.01668
G1 X161.799 Y131.042 E0.10469
G1 X161.799 Y131.576 E0.01668
G1 X164.166 Y133.943 E0.10469
G1 X164.166 Y134.476 E0.01668
G1 X161.799 Y132.109 E0.10469
G1 X161.799 Y132.642 E0.01668
G1 X164.166 Y135.009 E0.10469
G1 X164.166 Y135.543 E0.01668
G1 X161.799 Y133.176 E0.10469
G1 X161.799 Y133.709 E0.01668
G1 X164.166 Y136.076 E0.10469
G1 X164.166 Y136.609 E0.01668
G1 X161.799 Y134.242 E0.10469
G1 X161.799 Y134.775 E0.01668
G1 X164.166 Y137.142 E0.10469
G1 X164.166 Y137.676 E0.01668
G1 X161.799 Y135.309 E0.10469
G1 X161.799 Y135.842 E0.01668
G1 X164.166 Y138.209 E0.10469
G1 X164.166 Y138.742 E0.01668
G1 X161.778 Y136.355 E0.1056
G1 X161.775 Y136.39 E0.00109
G1 X161.739 Y136.551 E0.00519
G1 X161.649 Y136.759 E0.00707
G1 X164.166 Y139.275 E0.11132
G1 X164.166 Y139.809 E0.01668
G1 X161.45 Y137.093 E0.12013
G1 X161.335 Y137.24 E0.00582
G1 X161.199 Y137.376 E0.00602
G1 X164.166 Y140.342 E0.13121
G1 X164.166 Y140.875 E0.01668
G1 X160.933 Y137.642 E0.143
G1 X160.666 Y137.909 E0.01179
G1 X164.166 Y141.409 E0.15479
G1 X164.166 Y141.942 E0.01668
G1 X160.4 Y138.175 E0.16659
G1 X160.133 Y138.442 E0.01179
G1 X164.166 Y142.475 E0.17838
G1 X164.166 Y143.008 E0.01668
G1 X159.866 Y138.709 E0.19018
G1 X159.6 Y138.975 E0.01179
G1 X164.166 Y143.542 E0.20197
G1 X164.166 Y144.075 E0.01668
G1 X159.333 Y139.242 E0.21376
M73 P2 R101
G1 X159.066 Y139.509 E0.01179
G1 X164.166 Y144.608 E0.22556
G1 X164.166 Y145.141 E0.01668
G1 X158.8 Y139.775 E0.23735
G1 X158.533 Y140.042 E0.01179
G1 X164.166 Y145.675 E0.24914
G1 X164.166 Y146.208 E0.01668
G1 X158.266 Y140.309 E0.26094
G1 X158 Y140.575 E0.01179
G1 X164.166 Y146.741 E0.27273
G1 X164.166 Y147.275 E0.01668
G1 X157.733 Y140.842 E0.28452
G1 X157.467 Y141.108 E0.01179
G1 X164.166 Y147.808 E0.29632
G1 X164.166 Y148.341 E0.01668
G1 X157.2 Y141.375 E0.30811
G1 X156.933 Y141.642 E0.01179
G1 X164.166 Y148.874 E0.3199
G1 X164.166 Y149.408 E0.01668
G1 X156.667 Y141.908 E0.3317
G1 X156.4 Y142.175 E0.01179
G1 X164.166 Y149.941 E0.34349
G1 X164.166 Y150.474 E0.01668
G1 X156.133 Y142.442 E0.35528
G1 X155.867 Y142.708 E0.01179
G1 X164.166 Y151.007 E0.36708
G1 X164.166 Y151.541 E0.01668
G1 X155.6 Y142.975 E0.37887
G1 X155.333 Y143.242 E0.01179
G1 X164.006 Y151.914 E0.3836
G1 X163.828 Y152.27 E0.01243
G1 X155.055 Y143.496 E0.38806
G1 X154.985 Y143.555 E0.00286
G1 X154.824 Y143.653 E0.00591
G1 X154.719 Y143.694 E0.0035
G1 X163.651 Y152.625 E0.39504
G1 X163.473 Y152.981 E0.01243
G1 X154.304 Y143.812 E0.40554
G1 X154.08 Y143.84 E0.00708
G1 X153.799 Y143.84 E0.00877
G1 X163.295 Y153.336 E0.42002
G1 X163.117 Y153.692 E0.01243
G1 X153.266 Y143.84 E0.43574
G1 X152.733 Y143.84 E0.01668
G1 X162.94 Y154.047 E0.45147
G1 X162.86 Y154.207 E0.00559
G1 X162.566 Y154.207 E0.00918
G1 X152.199 Y143.84 E0.45854
G1 X151.666 Y143.84 E0.01668
G1 X162.033 Y154.207 E0.45854
G1 X161.5 Y154.207 E0.01668
G1 X151.133 Y143.84 E0.45854
G1 X150.599 Y143.84 E0.01668
G1 X160.966 Y154.207 E0.45854
G1 X160.433 Y154.207 E0.01668
G1 X150.066 Y143.84 E0.45854
G1 X149.533 Y143.84 E0.01668
G1 X159.9 Y154.207 E0.45854
G1 X159.367 Y154.207 E0.01668
