; generated by SuperSlicer 2.5.59 on 2022-09-11 at 03:23:01 UTC

; 

; external perimeters extrusion width = 0.45mm
; perimeters extrusion width = 0.45mm
; infill extrusion width = 0.45mm
; solid infill extrusion width = 0.45mm
; top infill extrusion width = 0.40mm
; first layer extrusion width = 0.42mm

; object:{"name":"Bottom Case","id":"Bottom Case id:0 copy 0","object_center":[125.000000,105.000000,0.000000],"boundingbox_center":[125.000000,105.000000,2.100001],"boundingbox_size":[139.000000,89.199997,4.200001]}
; plater:{"center":[125.000000,105.000000,0.000000],"boundingbox_center":[125.000000,105.000000,2.100001],"boundingbox_size":[139.000000,89.199997,4.200001]}

M73 P0 R71
;TYPE:Custom
Start : M104 S0
M140 S0
PRINT_START EXTRUDER_TEMP=230 BED_TEMP=85
M107
G21 ; set units to millimeters
G90 ; use absolute coordinates
M83 ; use relative distances for extrusion
M900 K0.08 ; Filament gcode LA 1.5
M900 K45 ; Filament gcode LA 1.0
;_TOOLCHANGE 0
M104 S230 ; set temperature
M109 S230 ; set temperature and wait for it to be reached
M107
;LAYER_CHANGE
;Z:0.2
;HEIGHT:0.2
;BEFORE_LAYER_CHANGE
G92 E0.0
;0.2


G1 E-1 F2100
G1 Z0.2 F10800
G1 Z0.2
;AFTER_LAYER_CHANGE
;0.2
G1 Z0.4
M204 S1000
G1 X55.917 Y58.817
G1 Z0.2
G1 E1 F2100
;TYPE:Skirt
;WIDTH:0.52
G1 F1200
G1 X53.917 Y60.817 E0.1122
G1 X53.261 Y62.4 E0.06797
G1 X53.261 Y147.6 E3.37983
G1 X53.917 Y149.183 E0.06797
G1 X55.917 Y151.183 E0.1122
G1 X57.5 Y151.839 E0.06797
G1 X192.5 Y151.839 E5.35536
G1 X194.083 Y151.183 E0.06797
G1 X196.083 Y149.183 E0.1122
G1 X196.739 Y147.6 E0.06797
G1 X196.739 Y62.4 E3.37983
M73 P0 R70
G1 X196.083 Y60.817 E0.06797
G1 X194.083 Y58.817 E0.1122
G1 X192.5 Y58.161 E0.06797
G1 X57.5 Y58.161 E5.35536
M73 P1 R70
G1 X55.973 Y58.794 E0.06559
;WIPE_START
G1 F8640
G1 X53.917 Y60.817 E-0.66591
G1 X53.446 Y61.954 E-0.28409
;WIPE_END
G1 E-0.05 F2100
G1 Z0.4 F10800
; printing object Bottom Case id:0 copy 0
; acceleration to travel
M204 S1500
G1 X61.458 Y131.911
; decel to extrusion
M204 S800
G1 X63.016 Y145.51
; end travel
G1 Z0.2
G1 E1 F2100
;TYPE:Internal perimeter
;WIDTH:0.377079
G1 F1200
G1 X62.997 Y145.127 E0.01066
G1 X62.877 Y144.602 E0.01496
G1 X62.668 Y144.106 E0.01496
G1 X62.375 Y143.654 E0.01496
G1 X62.009 Y143.259 E0.01496
G1 X61.58 Y142.934 E0.01496
G1 X61.096 Y142.686 E0.0151
G1 X60.574 Y142.527 E0.01517
G1 X60.052 Y142.463 E0.01462
G1 X59.514 Y142.49 E0.01496
G1 X58.989 Y142.61 E0.01496
G1 X58.493 Y142.819 E0.01496
G1 X58.04 Y143.111 E0.01496
G1 X57.646 Y143.478 E0.01496
G1 X57.321 Y143.907 E0.01496
G1 X57.041 Y144.479 E0.01769
G1 X57.041 Y65.986 E2.18095
G1 X57.155 Y66.335 E0.01019
G1 X57.401 Y66.814 E0.01496
G1 X57.726 Y67.243 E0.01496
G1 X58.121 Y67.61 E0.01496
G1 X58.573 Y67.902 E0.01496
G1 X59.069 Y68.111 E0.01496
G1 X59.594 Y68.231 E0.01496
G1 X60.132 Y68.258 E0.01496
G1 X60.666 Y68.191 E0.01496
G1 X61.181 Y68.032 E0.01496
G1 X61.66 Y67.787 E0.01496
G1 X62.089 Y67.462 E0.01496
G1 X62.456 Y67.067 E0.01496
G1 X62.748 Y66.615 E0.01496
G1 X62.957 Y66.119 E0.01496
G1 X63.077 Y65.594 E0.01496
G1 X63.104 Y65.056 E0.01496
G1 X63.037 Y64.521 E0.01496
G1 X62.878 Y64.007 E0.01496
G1 X62.633 Y63.528 E0.01496
G1 X62.308 Y63.098 E0.01496
G1 X61.913 Y62.732 E0.01496
G1 X61.461 Y62.44 E0.01496
G1 X60.965 Y62.231 E0.01496
G1 X60.878 Y62.197 E0.00258
;WIDTH:0.411032
G1 X60.792 Y62.162 E0.00284
;WIDTH:0.444985
G1 X60.706 Y62.128 E0.0031
;WIDTH:0.478938
G1 X60.62 Y62.094 E0.00336
;WIDTH:0.512891
G1 X60.533 Y62.06 E0.00362
;WIDTH:0.546844
G1 X60.447 Y62.026 E0.00389
G1 X60.54 Y62.012 E0.00393
;WIDTH:0.512891
G1 X60.632 Y61.998 E0.00366
;WIDTH:0.478938
G1 X60.725 Y61.984 E0.0034
;WIDTH:0.444985
G1 X60.818 Y61.97 E0.00313
;WIDTH:0.411032
G1 X60.91 Y61.955 E0.00287
;WIDTH:0.377079
G1 X61.003 Y61.941 E0.0026
G1 X188.997 Y61.941 E3.55638
G1 X189.07 Y61.957 E0.00206
;WIDTH:0.414213
G1 X189.142 Y61.972 E0.00228
;WIDTH:0.451347
G1 X189.214 Y61.988 E0.00251
;WIDTH:0.48848
G1 X189.287 Y62.003 E0.00274
;WIDTH:0.525614
G1 X189.359 Y62.019 E0.00297
;WIDTH:0.562748
G1 X189.431 Y62.034 E0.0032
G1 X189.374 Y62.062 E0.00274
;WIDTH:0.50434
G1 X189.317 Y62.089 E0.00243
G1 X189.218 Y62.133 E0.00418
;WIDTH:0.472525
G1 X189.118 Y62.177 E0.00389
;WIDTH:0.44071
G1 X189.018 Y62.221 E0.0036
;WIDTH:0.408894
G1 X188.919 Y62.265 E0.00331
;WIDTH:0.377079
G1 X188.819 Y62.309 E0.00303
G1 X188.34 Y62.555 E0.01496
G1 X187.911 Y62.88 E0.01496
G1 X187.544 Y63.275 E0.01496
G1 X187.252 Y63.727 E0.01496
G1 X187.043 Y64.223 E0.01496
G1 X186.923 Y64.748 E0.01496
G1 X186.896 Y65.286 E0.01496
G1 X186.963 Y65.82 E0.01496
G1 X187.122 Y66.335 E0.01496
G1 X187.367 Y66.814 E0.01496
G1 X187.692 Y67.243 E0.01496
G1 X188.087 Y67.61 E0.01496
G1 X188.539 Y67.902 E0.01496
G1 X189.035 Y68.111 E0.01496
G1 X189.597 Y68.234 E0.01597
G1 X190.098 Y68.258 E0.01395
G1 X190.632 Y68.191 E0.01496
G1 X191.147 Y68.032 E0.01496
G1 X191.626 Y67.787 E0.01496
G1 X192.056 Y67.462 E0.01496
G1 X192.422 Y67.067 E0.01496
G1 X192.714 Y66.615 E0.01496
G1 X192.959 Y65.986 E0.01874
G1 X192.959 Y144.479 E2.18095
G1 X192.925 Y144.386 E0.00275
G1 X192.679 Y143.907 E0.01496
G1 X192.354 Y143.478 E0.01496
G1 X191.96 Y143.111 E0.01496
G1 X191.507 Y142.819 E0.01496
G1 X191.011 Y142.61 E0.01496
G1 X190.486 Y142.49 E0.01496
G1 X189.948 Y142.463 E0.01496
G1 X189.414 Y142.53 E0.01496
G1 X188.899 Y142.688 E0.01496
G1 X188.393 Y142.953 E0.01588
G1 X187.991 Y143.259 E0.01403
G1 X187.625 Y143.654 E0.01496
G1 X187.332 Y144.106 E0.01496
G1 X187.123 Y144.602 E0.01496
G1 X187.003 Y145.127 E0.01496
G1 X186.976 Y145.665 E0.01496
G1 X187.043 Y146.199 E0.01496
G1 X187.202 Y146.714 E0.01496
G1 X187.447 Y147.193 E0.01496
G1 X187.773 Y147.622 E0.01496
G1 X188.267 Y148.059 E0.01833
G1 X61.733 Y148.059 E3.51581
G1 X61.833 Y147.989 E0.00339
G1 X62.228 Y147.622 E0.01496
G1 X62.553 Y147.193 E0.01496
G1 X62.798 Y146.714 E0.01496
G1 X62.957 Y146.199 E0.01496
G1 X63.024 Y145.665 E0.01496
G1 X63.019 Y145.57 E0.00264
;WIPE_START
G1 F8640
M204 S1000
G1 X62.997 Y145.127 E-0.10245
G1 X62.877 Y144.602 E-0.12433
G1 X62.668 Y144.106 E-0.12434
G1 X62.375 Y143.654 E-0.12434
G1 X62.009 Y143.259 E-0.12434
G1 X61.58 Y142.934 E-0.12433
G1 X61.096 Y142.686 E-0.12549
G1 X60.68 Y142.559 E-0.10039
;WIPE_END
G1 E-0.05 F2100
G1 Z0.4 F10800
; acceleration to travel
M204 S1500
G1 X169.298 Y75.134
; decel to extrusion
M204 S800
G1 X190.413 Y62.026
; end travel
G1 Z0.2
G1 E1 F2100
;WIDTH:0.546844
G1 F1200
G1 X190.691 Y62.014 E0.01165
;WIDTH:0.490988
G1 X190.969 Y62.003 E0.01036
G1 X191.836 Y62.003 E0.03231
G1 X191.905 Y62.068 E0.00353
G1 X191.973 Y62.134 E0.00353
G1 X192.187 Y62.334 E0.01092
;WIDTH:0.468247
G1 X192.401 Y62.534 E0.01037
G1 X192.657 Y62.796 E0.01294
G1 X192.913 Y63.057 E0.01294
G1 X192.913 Y63.154 E0.00343
;WIDTH:0.463962
G1 X192.913 Y64.062 E0.03179
G1 X192.886 Y63.988 E0.00279
G1 X192.636 Y63.502 E0.01913
G1 X192.468 Y63.287 E0.00955
G1 X192.3 Y63.072 E0.00955
G1 X192.102 Y62.884 E0.00955
G1 X191.904 Y62.696 E0.00955
G1 X191.679 Y62.54 E0.00961
;WIDTH:0.499673
G1 X191.453 Y62.384 E0.01042
G1 X190.947 Y62.171 E0.02085
G1 X190.68 Y62.099 E0.0105
;WIDTH:0.546844
G1 X190.471 Y62.042 E0.00907
;WIPE_START
G1 F8640
M204 S1000
G1 X190.691 Y62.014 E-0.05119
;WIPE_END
G1 E-0.94881 F2100
G1 Z0.4 F10800
; acceleration to travel
M204 S1500
G1 X187.842 Y64.476
; decel to extrusion
M204 S800
G1 X187.288 Y64.955
; end travel
G1 Z0.2
G1 E1 F2100
;WIDTH:0.377079
G1 F1200
G1 X187.272 Y65.09 E0.00379
G1 X187.308 Y65.637 E0.01523
G1 X187.463 Y66.175 E0.01557
G1 X187.706 Y66.641 E0.01459
G1 X188.041 Y67.058 E0.01487
G1 X188.452 Y67.405 E0.01493
G1 X188.924 Y67.665 E0.01498
G1 X189.431 Y67.827 E0.0148
G1 X189.901 Y67.882 E0.01314
G1 X190.373 Y67.855 E0.01314
G1 X190.833 Y67.747 E0.01314
G1 X191.268 Y67.56 E0.01314
G1 X191.663 Y67.301 E0.01314
G1 X192.007 Y66.977 E0.01314
G1 X192.29 Y66.598 E0.01314
G1 X192.503 Y66.175 E0.01314
G1 X192.549 Y66.071 E0.00316
;WIDTH:0.415441
G1 X192.595 Y65.967 E0.00353
;WIDTH:0.453804
G1 X192.641 Y65.863 E0.00389
;WIDTH:0.492166
G1 X192.687 Y65.759 E0.00425
;WIDTH:0.523298
G1 X192.733 Y65.655 E0.00455
G1 X192.761 Y65.259 E0.01586
G1 X192.751 Y65.017 E0.00968
G1 X192.74 Y64.775 E0.00968
G1 X192.705 Y64.693 E0.00356
;WIDTH:0.440947
G1 X192.67 Y64.611 E0.00295
G1 X192.521 Y64.249 E0.01296
;WIDTH:0.377079
G1 X192.372 Y63.886 E0.01088
G1 X192.141 Y63.531 E0.01178
G1 X191.789 Y63.147 E0.01449
G1 X191.41 Y62.864 E0.01314
G1 X190.988 Y62.651 E0.01314
G1 X190.535 Y62.515 E0.01314
G1 X190.065 Y62.459 E0.01314
G1 X189.593 Y62.486 E0.01314
G1 X189.133 Y62.595 E0.01314
G1 X188.699 Y62.782 E0.01314
G1 X188.303 Y63.041 E0.01314
G1 X187.959 Y63.365 E0.01314
G1 X187.676 Y63.744 E0.01314
G1 X187.463 Y64.166 E0.01314
G1 X187.327 Y64.619 E0.01314
G1 X187.295 Y64.895 E0.00772
G1 X187.659 Y65.055 F10800
G1 F1200
G1 X187.674 Y65.528 E0.01314
G1 X187.771 Y65.923 E0.01132
G1 X187.936 Y66.296 E0.01132
G1 X188.225 Y66.71 E0.01404
G1 X188.668 Y67.096 E0.01631
G1 X189.083 Y67.323 E0.01316
G1 X189.529 Y67.463 E0.01297
G1 X189.934 Y67.507 E0.01132
G1 X190.34 Y67.48 E0.01132
G1 X190.736 Y67.383 E0.01132
G1 X191.108 Y67.218 E0.01132
G1 X191.447 Y66.992 E0.01132
G1 X191.741 Y66.71 E0.01131
G1 X191.981 Y66.381 E0.01132
G1 X192.161 Y66.016 E0.01132
G1 X192.218 Y65.82 E0.00566
G1 X192.275 Y65.625 E0.00566
G1 X192.297 Y65.423 E0.00566
G1 X192.319 Y65.22 E0.00566
G1 X192.292 Y64.814 E0.01132
G1 X192.195 Y64.418 E0.01132
G1 X192.031 Y64.046 E0.01131
G1 X191.832 Y63.747 E0.00996
G1 X191.522 Y63.413 E0.01266
G1 X191.194 Y63.173 E0.01132
G1 X190.828 Y62.993 E0.01132
G1 X190.437 Y62.879 E0.01131
G1 X190.032 Y62.835 E0.01132
G1 X189.626 Y62.862 E0.01132
G1 X189.231 Y62.959 E0.01132
G1 X188.858 Y63.123 E0.01132
G1 X188.519 Y63.35 E0.01132
G1 X188.225 Y63.632 E0.01132
G1 X187.985 Y63.96 E0.01131
G1 X187.771 Y64.418 E0.01404
G1 X187.66 Y64.995 E0.01633
G1 X188.033 Y65.043 F10800
;TYPE:External perimeter
G1 F1200
G1 X188.05 Y65.495 E0.01258
G1 X188.136 Y65.826 E0.00949
G1 X188.277 Y66.137 E0.00949
G1 X188.492 Y66.443 E0.0104
G1 X188.884 Y66.787 E0.01449
G1 X189.243 Y66.982 E0.01133
G1 X189.627 Y67.098 E0.01115
G1 X189.967 Y67.131 E0.00949
G1 X190.307 Y67.104 E0.00949
G1 X190.638 Y67.018 E0.00949
G1 X190.949 Y66.877 E0.00949
G1 X191.23 Y66.683 E0.00949
G1 X191.474 Y66.443 E0.00949
G1 X191.672 Y66.165 E0.00949
G1 X191.819 Y65.857 E0.00949
G1 X191.865 Y65.692 E0.00475
G1 X191.911 Y65.527 E0.00475
G1 X191.943 Y65.187 E0.00949
G1 X191.916 Y64.847 E0.00949
G1 X191.831 Y64.516 E0.00949
G1 X191.689 Y64.205 E0.00949
G1 X191.523 Y63.964 E0.00813
G1 X191.256 Y63.68 E0.01084
G1 X190.977 Y63.482 E0.00949
G1 X190.669 Y63.335 E0.00949
G1 X190.34 Y63.243 E0.00949
G1 X190 Y63.211 E0.00949
G1 X189.659 Y63.238 E0.00949
G1 X189.328 Y63.323 E0.00949
G1 X189.017 Y63.465 E0.00949
G1 X188.736 Y63.659 E0.00949
G1 X188.492 Y63.898 E0.00949
G1 X188.294 Y64.177 E0.00949
G1 X188.136 Y64.516 E0.0104
G1 X188.044 Y64.984 E0.01325
;WIPE_START
M204 S1000
G1 X188.371 Y65.256 F10800
;WIPE_END
;WIPE_START
G1 F8640
G1 X187.851 Y65.524 E-0.13515
G1 X187.946 Y65.893 E-0.08793
G1 X188.103 Y66.236 E-0.08717
G1 X188.342 Y66.578 E-0.09627
G1 X188.769 Y66.952 E-0.13111
G1 X189.165 Y67.167 E-0.10401
G1 X189.588 Y67.295 E-0.10196
G1 X189.965 Y67.332 E-0.08756
G1 X190.34 Y67.302 E-0.08698
G1 X190.474 Y67.267 E-0.03187
;WIPE_END
G1 E-0.05 F2100
G1 Z0.4 F10800
; acceleration to travel
M204 S1500
G1 X189.601 Y62.886
; decel to extrusion
M204 S800
G1 X189.431 Y62.034
; end travel
G1 Z0.2
G1 E1 F2100
;TYPE:Internal perimeter
;WIDTH:0.562748
G1 F1200
G1 X189.707 Y62.022 E0.01194
;WIDTH:0.514582
G1 X189.983 Y62.01 E0.01083
G1 X190.198 Y62.018 E0.00844
;WIDTH:0.546844
G1 X190.413 Y62.026 E0.00902
;WIPE_START
G1 F8640
M204 S1000
G1 X190.198 Y62.018 E-0.0497
;WIPE_END
G1 E-0.9503 F2100
G1 Z0.4 F10800
; acceleration to travel
M204 S1500
G1 X80.743 Y62.031
; decel to extrusion
M204 S800
G1 X59.465 Y62.034
; end travel
G1 Z0.2
G1 E1 F2100
;WIDTH:0.562748
G1 F1200
G1 X59.259 Y62.103 E0.00938
;WIDTH:0.499673
G1 X59.053 Y62.171 E0.00824
G1 X58.547 Y62.384 E0.02085
G1 X58.321 Y62.54 E0.01042
;WIDTH:0.451849
G1 X58.096 Y62.696 E0.00933
G1 X57.7 Y63.072 E0.01856
G1 X57.532 Y63.287 E0.00927
G1 X57.364 Y63.502 E0.00927
G1 X57.087 Y64.062 E0.02127
G1 X57.087 Y63.057 E0.03418
G1 X57.138 Y63.004 E0.0025
G1 X57.189 Y62.952 E0.0025
G1 X57.394 Y62.743 E0.00994
G1 X57.599 Y62.534 E0.00994
G1 X57.881 Y62.268 E0.01319
;WIDTH:0.499673
G1 X58.164 Y62.003 E0.01473
G1 X58.771 Y62.003 E0.02308
G1 X59.118 Y62.018 E0.01319
;WIDTH:0.562748
G1 X59.405 Y62.031 E0.01241
;WIPE_START
G1 F8640
M204 S1000
G1 X59.259 Y62.103 E-0.03752
;WIPE_END
G1 E-0.96248 F2100
G1 Z0.4 F10800
; acceleration to travel
M204 S1500
G1 X62.152 Y64.529
; decel to extrusion
M204 S800
G1 X62.714 Y65
; end travel
G1 Z0.2
G1 E1 F2100
;WIDTH:0.377079
G1 F1200
G1 X62.701 Y64.781 E0.0061
G1 X62.593 Y64.321 E0.01314
G1 X62.406 Y63.886 E0.01314
G1 X62.147 Y63.491 E0.01314
G1 X61.823 Y63.147 E0.01314
G1 X61.444 Y62.864 E0.01314
G1 X61.021 Y62.651 E0.01314
G1 X60.569 Y62.515 E0.01314
G1 X60.099 Y62.459 E0.01314
G1 X59.627 Y62.486 E0.01314
G1 X59.167 Y62.595 E0.01314
G1 X58.732 Y62.782 E0.01314
G1 X58.337 Y63.041 E0.01314
G1 X57.993 Y63.365 E0.01314
G1 X57.71 Y63.744 E0.01314
G1 X57.497 Y64.166 E0.01314
G1 X57.45 Y64.288 E0.00363
;WIDTH:0.413635
G1 X57.402 Y64.41 E0.00403
;WIDTH:0.45019
G1 X57.355 Y64.531 E0.00442
;WIDTH:0.486746
G1 X57.307 Y64.653 E0.00482
;WIDTH:0.523301
G1 X57.26 Y64.775 E0.00522
G1 X57.249 Y64.929 E0.00617
G1 X57.239 Y65.083 E0.00617
G1 X57.249 Y65.325 E0.00968
G1 X57.26 Y65.567 E0.00968
G1 X57.284 Y65.652 E0.00352
;WIDTH:0.48663
G1 X57.308 Y65.737 E0.00325
G1 X57.388 Y65.916 E0.00725
;WIDTH:0.450113
G1 X57.468 Y66.096 E0.00666
;WIDTH:0.413596
G1 X57.548 Y66.276 E0.00606
;WIDTH:0.377079
G1 X57.628 Y66.455 E0.00546
G1 X57.887 Y66.851 E0.01314
G1 X58.211 Y67.195 E0.01314
G1 X58.59 Y67.478 E0.01314
G1 X59.012 Y67.691 E0.01314
G1 X59.465 Y67.827 E0.01314
G1 X59.935 Y67.882 E0.01314
G1 X60.569 Y67.827 E0.01768
G1 X61.076 Y67.665 E0.0148
G1 X61.548 Y67.405 E0.01498
G1 X61.959 Y67.058 E0.01494
G1 X62.294 Y66.641 E0.01486
G1 X62.537 Y66.175 E0.01459
G1 X62.673 Y65.723 E0.01314
G1 X62.728 Y65.253 E0.01314
G1 X62.717 Y65.06 E0.00537
G1 X62.341 Y65.055 F10800
G1 F1200
G1 X62.343 Y65.01 E0.00126
G1 X62.229 Y64.418 E0.01674
G1 X62.064 Y64.046 E0.01132
G1 X61.838 Y63.707 E0.01131
G1 X61.556 Y63.413 E0.01132
G1 X61.227 Y63.173 E0.01132
G1 X60.862 Y62.993 E0.01132
G1 X60.471 Y62.879 E0.01131
G1 X60.066 Y62.835 E0.01132
G1 X59.66 Y62.862 E0.01132
G1 X59.264 Y62.959 E0.01132
G1 X58.892 Y63.123 E0.01131
G1 X58.553 Y63.35 E0.01132
G1 X58.259 Y63.632 E0.01132
G1 X58.019 Y63.96 E0.01132
G1 X57.839 Y64.326 E0.01132
G1 X57.725 Y64.717 E0.01131
G1 X57.681 Y65.122 E0.01132
G1 X57.708 Y65.528 E0.01132
G1 X57.805 Y65.923 E0.01132
G1 X57.969 Y66.296 E0.01131
G1 X58.196 Y66.634 E0.01132
G1 X58.478 Y66.928 E0.01132
G1 X58.806 Y67.169 E0.01131
G1 X59.172 Y67.349 E0.01132
G1 X59.563 Y67.463 E0.01131
G1 X59.968 Y67.507 E0.01132
G1 X60.338 Y67.483 E0.0103
G1 X60.769 Y67.383 E0.01232
G1 X61.227 Y67.169 E0.01404
G1 X61.693 Y66.792 E0.01664
G1 X61.985 Y66.425 E0.01304
G1 X62.196 Y66.015 E0.0128
G1 X62.326 Y65.528 E0.014
G1 X62.339 Y65.115 E0.01148
G1 X61.967 Y65.043 F10800
;TYPE:External perimeter
G1 F1200
G1 X61.864 Y64.516 E0.01491
G1 X61.723 Y64.205 E0.00949
G1 X61.529 Y63.923 E0.00949
G1 X61.289 Y63.68 E0.00949
G1 X61.011 Y63.482 E0.00949
G1 X60.703 Y63.335 E0.00949
G1 X60.373 Y63.243 E0.00949
G1 X60.033 Y63.211 E0.00949
G1 X59.693 Y63.238 E0.00949
G1 X59.362 Y63.323 E0.00949
G1 X59.051 Y63.465 E0.00949
G1 X58.77 Y63.659 E0.00949
G1 X58.526 Y63.898 E0.00949
G1 X58.328 Y64.177 E0.00949
G1 X58.181 Y64.485 E0.00949
G1 X58.089 Y64.814 E0.00949
G1 X58.057 Y65.154 E0.00949
G1 X58.084 Y65.495 E0.00949
G1 X58.169 Y65.826 E0.00949
G1 X58.311 Y66.137 E0.00949
G1 X58.505 Y66.418 E0.00949
G1 X58.744 Y66.662 E0.00949
G1 X59.023 Y66.86 E0.00949
G1 X59.331 Y67.007 E0.00949
G1 X59.66 Y67.098 E0.00949
G1 X60 Y67.131 E0.00949
G1 X60.305 Y67.107 E0.00848
G1 X60.672 Y67.018 E0.01049
G1 X61.011 Y66.86 E0.0104
G1 X61.426 Y66.525 E0.01482
