; generated by SuperSlicer 2.3.57 on 2022-05-24 at 13:47:02 UTC

; 

; external perimeters extrusion width = 0.45mm
; perimeters extrusion width = 0.45mm
; infill extrusion width = 0.45mm
; solid infill extrusion width = 0.45mm
; top infill extrusion width = 0.40mm
; first layer extrusion width = 0.42mm

; object:{"name":"ringing_tower","id":"ringing_tower.stl id:0 copy 0","object_center":[125.000000,105.000000,0.000000],"boundingbox_center":[125.000000,105.000000,30.000000],"boundingbox_size":[120.000000,120.000000,60.000000]}
; Total objects to print: 1
M486 T1
; plater:{"center":[125.000000,105.000000,0.000000],"boundingbox_center":[125.000000,105.000000,30.000000],"boundingbox_size":[120.000000,120.000000,60.000000]}

M73 P0 R103
M73 Q0 S104
;TYPE:Custom
M104 S0
M140 S0
PRINT_START EXTRUDER_TEMP=245 BED_TEMP=85
M107
G21 ; set units to millimeters
G90 ; use absolute coordinates
M83 ; use relative distances for extrusion
M900 K0.08 ; Filament gcode LA 1.5
M900 K45 ; Filament gcode LA 1.0
;LAYER_CHANGE
;Z:0.2
;HEIGHT:0.2
;BEFORE_LAYER_CHANGE
G92 E0.0
;0.2


G1 E-1 F2100
G1 Z0.2 F10800
G1 Z0.2
;AFTER_LAYER_CHANGE
;0.2
G1 Z0.4
G1 X63.402 Y43.432
G1 Z0.2
G1 E1 F2100
;TYPE:Skirt
;WIDTH:0.52
G1 F1200
G1 X62.931 Y44.146 E0.03395
G1 X62.761 Y44.989 E0.0341
G1 X62.761 Y165 E4.76076
G1 X62.935 Y165.865 E0.035
G1 X63.432 Y166.598 E0.03511
G1 X64.146 Y167.069 E0.03395
G1 X64.989 Y167.239 E0.0341
G1 X73.135 Y167.234 E0.32316
G1 X73.87 Y167.063 E0.02992
G1 X74.505 Y166.657 E0.02992
G1 X186.598 Y54.568 E6.28838
G1 X187.045 Y53.912 E0.0315
G1 X187.234 Y53.14 E0.0315
G1 X187.218 Y44.7 E0.33481
G1 X186.971 Y43.938 E0.03179
G1 X186.473 Y43.315 E0.03165
G1 X185.789 Y42.905 E0.03165
G1 X185.004 Y42.761 E0.03165
G1 X64.988 Y42.761 E4.76095
G1 X64.128 Y42.938 E0.03482
G1 X63.452 Y43.398 E0.03244
; INIT printing object ringing_tower.stl id:0 copy 0
M104 S245 ; set temperature
;WIPE_START
G1 F8640
G1 X62.931 Y44.146 E-0.21052
G1 X62.761 Y44.989 E-0.19848
G1 X62.761 Y47.332 E-0.541
;WIPE_END
G1 E-0.05 F2100
G1 Z0.4 F10800
; printing object ringing_tower.stl id:0 copy 0
M486 S0
G1 X70.713 Y89.382
G1 Z0.2
G1 E1 F2100
;TYPE:Internal perimeter
;WIDTH:0.42
G1 F1200
G1 X70.713 Y95.108 E0.17955
G1 X72.213 Y96.835 E0.07172
G1 X72.213 Y121.165 E0.76284
G1 X70.713 Y122.892 E0.07172
G1 X70.713 Y128.102 E0.16335
G1 X69.94 Y127.699 E0.02733
G1 X65.787 Y130.607 E0.15895
G1 X65.787 Y92.831 E1.18445
G1 X70.664 Y89.416 E0.18666
;WIPE_START
G1 F8640
G1 X70.699 Y93.53 E-0.95
;WIPE_END
G1 E-0.05 F2100
G1 Z0.4 F10800
G1 X70.787 Y129.322
G1 Z0.2
G1 E1 F2100
G1 F1200
G1 X72.213 Y130.964 E0.06818
G1 X72.213 Y164.213 E1.04249
G1 X65.787 Y164.213 E0.20148
M73 Q0 S103
G1 X65.787 Y133.081 E0.97613
G1 X69.94 Y135.988 E0.15895
G1 X70.787 Y135.547 E0.02995
G1 X70.787 Y129.382 E0.1933
;WIPE_START
G1 F8640
G1 X72.213 Y130.964 E-0.49171
G1 X72.213 Y132.949 E-0.45829
;WIPE_END
G1 E-0.05 F2100
G1 Z0.4 F10800
G1 X70.787 Y88.678
G1 Z0.2
G1 E1 F2100
G1 F1200
G1 X70.787 Y81.01 E0.24041
G1 X65.787 Y77.509 E0.19138
G1 X65.787 Y45.787 E0.99462
G1 X96.919 Y45.787 E0.97613
G1 X94.012 Y49.94 E0.15895
G1 X94.453 Y50.787 E0.02995
G1 X101.86 Y50.787 E0.23224
G1 X102.301 Y49.94 E0.02995
G1 X99.393 Y45.787 E0.15895
G1 X137.169 Y45.787 E1.18445
G1 X140.67 Y50.787 E0.19138
M73 P0 R102
G1 X148.99 Y50.787 E0.26085
G1 X152.491 Y45.787 E0.19138
G1 X184.213 Y45.787 E0.99462
G1 X184.213 Y52.213 E0.20148
G1 X133.326 Y52.213 E1.59552
G1 X131.826 Y50.713 E0.06651
G1 X126.174 Y50.713 E0.17722
G1 X124.674 Y52.213 E0.06651
G1 X72.213 Y52.213 E1.64488
G1 X72.213 Y87.036 E1.09185
G1 X70.826 Y88.632 E0.0663
G1 X71.111 Y88.88 F10800
;TYPE:External perimeter
G1 F1200
G1 X71.09 Y88.904 E0.00101
G1 X71.09 Y94.967 E0.19011
G1 X72.59 Y96.694 E0.07172
G1 X72.59 Y121.306 E0.77167
G1 X71.09 Y123.033 E0.07172
G1 X71.09 Y129.096 E0.19011
G1 X72.59 Y130.823 E0.07172
G1 X72.59 Y164.59 E1.05873
G1 X65.41 Y164.59 E0.22512
G1 X65.41 Y132.356 E1.01066
G1 X69.969 Y135.548 E0.17449
G1 X70.41 Y135.319 E0.0156
G1 X70.41 Y128.369 E0.2179
G1 X69.969 Y128.139 E0.0156
G1 X65.41 Y131.331 E0.17449
G1 X65.41 Y92.634 E1.21332
G1 X70.41 Y89.133 E0.19138
G1 X70.41 Y81.206 E0.24854
G1 X65.41 Y77.705 E0.19138
G1 X65.41 Y45.41 E1.0126
G1 X97.644 Y45.41 E1.01066
M73 P1 R102
M73 Q1 S103
G1 X94.452 Y49.969 E0.17449
G1 X94.681 Y50.41 E0.0156
G1 X101.631 Y50.41 E0.2179
G1 X101.861 Y49.969 E0.0156
G1 X98.669 Y45.41 E0.17449
G1 X137.366 Y45.41 E1.21332
G1 X140.867 Y50.41 E0.19138
G1 X148.794 Y50.41 E0.24854
G1 X152.295 Y45.41 E0.19138
G1 X184.59 Y45.41 E1.0126
G1 X184.59 Y52.59 E0.22512
G1 X133.17 Y52.59 E1.61224
G1 X131.67 Y51.09 E0.06651
G1 X126.33 Y51.09 E0.16742
G1 X124.83 Y52.59 E0.06651
G1 X72.59 Y52.59 E1.63795
G1 X72.59 Y87.177 E1.08444
G1 X71.15 Y88.834 E0.06883
;WIPE_START
G1 X71.08 Y88.873 F10800
;WIPE_END
;WIPE_START
G1 F8640
G1 X70.953 Y92.986 E-0.95
;WIPE_END
G1 E-0.05 F2100
G1 Z0.4 F10800
G1 X70.162 Y89.906
G1 Z0.2
G1 E1 F2100
;TYPE:Solid infill
;WIDTH:0.421481
G1 F1200
G1 X70.438 Y90.182 E0.01228
G1 X70.438 Y90.715 E0.01678
G1 X69.964 Y90.242 E0.02106
G1 X69.651 Y90.461 E0.01205
G1 X70.438 Y91.248 E0.03501
G1 X70.438 Y91.781 E0.01678
G1 X69.337 Y90.681 E0.04897
G1 X69.024 Y90.9 E0.01205
G1 X70.438 Y92.315 E0.06293
G1 X70.438 Y92.848 E0.01678
G1 X68.71 Y91.12 E0.07688
G1 X68.396 Y91.34 E0.01205
G1 X70.438 Y93.381 E0.09084
G1 X70.438 Y93.914 E0.01678
G1 X68.083 Y91.559 E0.1048
G1 X67.769 Y91.779 E0.01205
G1 X70.438 Y94.448 E0.11876
G1 X70.438 Y94.981 E0.01678
G1 X67.455 Y91.999 E0.13271
G1 X67.142 Y92.218 E0.01205
G1 X71.938 Y97.014 E0.21342
G1 X71.938 Y97.548 E0.01678
G1 X66.828 Y92.438 E0.22737
G1 X66.514 Y92.657 E0.01205
G1 X71.938 Y98.081 E0.24133
G1 X71.938 Y98.614 E0.01678
G1 X66.201 Y92.877 E0.25529
G1 X66.062 Y92.974 E0.00531
G1 X66.062 Y93.272 E0.00938
G1 X71.938 Y99.147 E0.26144
G1 X71.938 Y99.681 E0.01678
G1 X66.062 Y93.805 E0.26144
G1 X66.062 Y94.339 E0.01678
G1 X71.938 Y100.214 E0.26144
G1 X71.938 Y100.747 E0.01678
G1 X66.062 Y94.872 E0.26144
G1 X66.062 Y95.405 E0.01678
G1 X71.938 Y101.28 E0.26144
G1 X71.938 Y101.814 E0.01678
G1 X66.062 Y95.938 E0.26144
G1 X66.062 Y96.472 E0.01678
G1 X71.938 Y102.347 E0.26144
G1 X71.938 Y102.88 E0.01678
G1 X66.062 Y97.005 E0.26144
G1 X66.062 Y97.538 E0.01678
G1 X71.938 Y103.413 E0.26144
G1 X71.938 Y103.947 E0.01678
G1 X66.062 Y98.071 E0.26144
G1 X66.062 Y98.605 E0.01678
G1 X71.938 Y104.48 E0.26144
G1 X71.938 Y105.013 E0.01678
G1 X66.062 Y99.138 E0.26144
G1 X66.062 Y99.671 E0.01678
G1 X71.938 Y105.547 E0.26144
G1 X71.938 Y106.08 E0.01678
G1 X66.062 Y100.204 E0.26144
G1 X66.062 Y100.738 E0.01678
G1 X71.938 Y106.613 E0.26144
G1 X71.938 Y107.146 E0.01678
G1 X66.062 Y101.271 E0.26144
G1 X66.062 Y101.804 E0.01678
G1 X71.938 Y107.68 E0.26144
G1 X71.938 Y108.213 E0.01678
G1 X66.062 Y102.338 E0.26144
G1 X66.062 Y102.871 E0.01678
G1 X71.938 Y108.746 E0.26144
G1 X71.938 Y109.279 E0.01678
G1 X66.062 Y103.404 E0.26144
G1 X66.062 Y103.937 E0.01678
G1 X71.938 Y109.813 E0.26144
G1 X71.938 Y110.346 E0.01678
G1 X66.062 Y104.471 E0.26144
M73 Q1 S102
G1 X66.062 Y105.004 E0.01678
G1 X71.938 Y110.879 E0.26144
G1 X71.938 Y111.413 E0.01678
G1 X66.062 Y105.537 E0.26144
G1 X66.062 Y106.07 E0.01678
G1 X71.938 Y111.946 E0.26144
G1 X71.938 Y112.479 E0.01678
G1 X66.062 Y106.604 E0.26144
G1 X66.062 Y107.137 E0.01678
G1 X71.938 Y113.012 E0.26144
G1 X71.938 Y113.546 E0.01678
G1 X66.062 Y107.67 E0.26144
G1 X66.062 Y108.204 E0.01678
G1 X71.938 Y114.079 E0.26144
G1 X71.938 Y114.612 E0.01678
G1 X66.062 Y108.737 E0.26144
G1 X66.062 Y109.27 E0.01678
G1 X71.938 Y115.145 E0.26144
G1 X71.938 Y115.679 E0.01678
G1 X66.062 Y109.803 E0.26144
G1 X66.062 Y110.337 E0.01678
G1 X71.938 Y116.212 E0.26144
G1 X71.938 Y116.745 E0.01678
G1 X66.062 Y110.87 E0.26144
G1 X66.062 Y111.403 E0.01678
G1 X71.938 Y117.279 E0.26144
G1 X71.938 Y117.812 E0.01678
G1 X66.062 Y111.936 E0.26144
G1 X66.062 Y112.47 E0.01678
G1 X71.938 Y118.345 E0.26144
G1 X71.938 Y118.878 E0.01678
G1 X66.062 Y113.003 E0.26144
G1 X66.062 Y113.536 E0.01678
G1 X71.938 Y119.412 E0.26144
G1 X71.938 Y119.945 E0.01678
G1 X66.062 Y114.07 E0.26144
G1 X66.062 Y114.603 E0.01678
G1 X71.938 Y120.478 E0.26144
G1 X71.938 Y121.011 E0.01678
G1 X66.062 Y115.136 E0.26144
G1 X66.062 Y115.669 E0.01678
G1 X71.713 Y121.32 E0.25146
G1 X71.465 Y121.606 E0.01189
G1 X66.062 Y116.203 E0.24043
M73 P1 R101
G1 X66.062 Y116.736 E0.01678
G1 X71.218 Y121.891 E0.2294
G1 X70.97 Y122.176 E0.01189
G1 X66.062 Y117.269 E0.21837
G1 X66.062 Y117.802 E0.01678
G1 X70.722 Y122.462 E0.20734
G1 X70.474 Y122.747 E0.01189
G1 X66.062 Y118.336 E0.19631
G1 X66.062 Y118.869 E0.01678
G1 X70.438 Y123.244 E0.19469
G1 X70.438 Y123.778 E0.01678
G1 X66.062 Y119.402 E0.19469
G1 X66.062 Y119.936 E0.01678
G1 X70.438 Y124.311 E0.19469
G1 X70.438 Y124.844 E0.01678
G1 X66.062 Y120.469 E0.19469
G1 X66.062 Y121.002 E0.01678
G1 X70.438 Y125.377 E0.19469
G1 X70.438 Y125.911 E0.01678
G1 X66.062 Y121.535 E0.19469
G1 X66.062 Y122.069 E0.01678
G1 X70.438 Y126.444 E0.19469
G1 X70.438 Y126.977 E0.01678
G1 X66.062 Y122.602 E0.19469
G1 X66.062 Y123.135 E0.01678
G1 X70.438 Y127.51 E0.19469
G1 X70.438 Y127.648 E0.00433
G1 X69.919 Y127.378 E0.01841
G1 X69.832 Y127.438 E0.00332
G1 X66.062 Y123.668 E0.16776
G1 X66.062 Y124.202 E0.01678
G1 X69.519 Y127.658 E0.1538
G1 X69.205 Y127.878 E0.01205
G1 X66.062 Y124.735 E0.13984
G1 X66.062 Y125.268 E0.01678
G1 X68.891 Y128.097 E0.12589
G1 X68.578 Y128.317 E0.01205
G1 X66.062 Y125.801 E0.11193
G1 X66.062 Y126.335 E0.01678
G1 X68.264 Y128.537 E0.09797
G1 X67.95 Y128.756 E0.01205
G1 X66.062 Y126.868 E0.08402
G1 X66.062 Y127.401 E0.01678
G1 X67.637 Y128.976 E0.07006
G1 X67.323 Y129.195 E0.01205
G1 X66.062 Y127.935 E0.0561
G1 X66.062 Y128.468 E0.01678
G1 X67.01 Y129.415 E0.04215
G1 X66.696 Y129.635 E0.01205
G1 X66.062 Y129.001 E0.02819
G1 X66.062 Y129.534 E0.01678
G1 X66.382 Y129.854 E0.01423
G1 X66.069 Y130.074 E0.01205
G1 X65.9 Y129.906 E0.00749
;WIPE_START
G1 F8640
G1 X66.069 Y130.074 E-0.05498
G1 X66.382 Y129.854 E-0.08841
G1 X66.062 Y129.534 E-0.10445
G1 X66.062 Y129.001 E-0.12313
G1 X66.696 Y129.635 E-0.20687
G1 X67.01 Y129.415 E-0.08841
G1 X66.141 Y128.546 E-0.28375
;WIPE_END
G1 E-0.05 F2100
G1 Z0.4 F10800
G1 X70.791 Y129.062
G1 Z0.2
G1 E1 F2100
;TYPE:Gap fill
;WIDTH:0.294094
G1 F1200
G1 X70.77 Y128.912 E0.00317
;WIDTH:0.376084
G1 X70.75 Y128.761 E0.00421
G1 X70.75 Y128.504 E0.00712
;WIDTH:0.34354
G1 X70.736 Y128.309 E0.00489
;WIPE_START
G1 F8640
G1 X70.75 Y128.504 E-0.04516
;WIPE_END
G1 E-0.95484 F2100
G1 Z0.4 F10800
G1 X72.1 Y131.593
G1 Z0.2
G1 E1 F2100
;TYPE:Solid infill
;WIDTH:0.422703
G1 F1200
G1 X71.062 Y130.556 E0.0463
G1 X71.062 Y131.089 E0.01683
G1 X71.938 Y131.964 E0.03907
G1 X71.938 Y132.498 E0.01683
G1 X71.062 Y131.622 E0.03907
G1 X71.062 Y132.155 E0.01683
G1 X71.938 Y133.031 E0.03907
G1 X71.938 Y133.564 E0.01683
G1 X71.062 Y132.689 E0.03907
G1 X71.062 Y133.222 E0.01683
G1 X71.938 Y134.097 E0.03907
G1 X71.938 Y134.631 E0.01683
G1 X71.062 Y133.755 E0.03907
G1 X71.062 Y134.288 E0.01683
G1 X71.938 Y135.164 E0.03907
G1 X71.938 Y135.697 E0.01683
G1 X71.062 Y134.822 E0.03907
G1 X71.062 Y135.355 E0.01683
G1 X71.938 Y136.23 E0.03907
G1 X71.938 Y136.764 E0.01683
G1 X70.948 Y135.774 E0.04417
G1 X70.597 Y135.956 E0.01248
G1 X71.938 Y137.297 E0.05982
G1 X71.938 Y137.83 E0.01683
G1 X70.247 Y136.139 E0.07547
G1 X69.919 Y136.31 E0.01166
G1 X69.803 Y136.228 E0.00448
G1 X71.938 Y138.363 E0.09529
G1 X71.938 Y138.897 E0.01683
G1 X68.024 Y134.983 E0.17467
G1 X66.245 Y133.737 E0.06852
G1 X71.938 Y139.43 E0.25404
G1 X71.938 Y139.963 E0.01683
G1 X66.062 Y134.088 E0.2622
G1 X66.062 Y134.621 E0.01683
G1 X71.938 Y140.497 E0.2622
G1 X71.938 Y141.03 E0.01683
G1 X66.062 Y135.154 E0.2622
G1 X66.062 Y135.688 E0.01683
G1 X71.938 Y141.563 E0.2622
G1 X71.938 Y142.096 E0.01683
G1 X66.062 Y136.221 E0.2622
G1 X66.062 Y136.754 E0.01683
G1 X71.938 Y142.63 E0.2622
G1 X71.938 Y143.163 E0.01683
G1 X66.062 Y137.288 E0.2622
G1 X66.062 Y137.821 E0.01683
G1 X71.938 Y143.696 E0.2622
G1 X71.938 Y144.229 E0.01683
G1 X66.062 Y138.354 E0.2622
G1 X66.062 Y138.887 E0.01683
G1 X71.938 Y144.763 E0.2622
G1 X71.938 Y145.296 E0.01683
G1 X66.062 Y139.421 E0.2622
G1 X66.062 Y139.954 E0.01683
G1 X71.938 Y145.829 E0.2622
G1 X71.938 Y146.363 E0.01683
G1 X66.062 Y140.487 E0.2622
G1 X66.062 Y141.02 E0.01683
G1 X71.938 Y146.896 E0.2622
G1 X71.938 Y147.429 E0.01683
G1 X66.062 Y141.554 E0.2622
G1 X66.062 Y142.087 E0.01683
G1 X71.938 Y147.962 E0.2622
G1 X71.938 Y148.496 E0.01683
G1 X66.062 Y142.62 E0.2622
G1 X66.062 Y143.154 E0.01683
G1 X71.938 Y149.029 E0.2622
G1 X71.938 Y149.562 E0.01683
G1 X66.062 Y143.687 E0.2622
G1 X66.062 Y144.22 E0.01683
G1 X71.938 Y150.095 E0.2622
G1 X71.938 Y150.629 E0.01683
G1 X66.062 Y144.753 E0.2622
G1 X66.062 Y145.287 E0.01683
G1 X71.938 Y151.162 E0.2622
G1 X71.938 Y151.695 E0.01683
G1 X66.062 Y145.82 E0.2622
G1 X66.062 Y146.353 E0.01683
G1 X71.938 Y152.229 E0.2622
G1 X71.938 Y152.762 E0.01683
G1 X66.062 Y146.886 E0.2622
G1 X66.062 Y147.42 E0.01683
G1 X71.938 Y153.295 E0.2622
G1 X71.938 Y153.828 E0.01683
G1 X66.062 Y147.953 E0.2622
G1 X66.062 Y148.486 E0.01683
G1 X71.938 Y154.362 E0.2622
G1 X71.938 Y154.895 E0.01683
G1 X66.062 Y149.019 E0.2622
G1 X66.062 Y149.553 E0.01683
G1 X71.938 Y155.428 E0.2622
G1 X71.938 Y155.961 E0.01683
G1 X66.062 Y150.086 E0.2622
M73 P2 R101
G1 X66.062 Y150.619 E0.01683
G1 X71.938 Y156.495 E0.2622
M73 Q2 S102
G1 X71.938 Y157.028 E0.01683
G1 X66.062 Y151.153 E0.2622
G1 X66.062 Y151.686 E0.01683
G1 X71.938 Y157.561 E0.2622
G1 X71.938 Y158.094 E0.01683
G1 X66.062 Y152.219 E0.2622
G1 X66.062 Y152.752 E0.01683
G1 X71.938 Y158.628 E0.2622
G1 X71.938 Y159.161 E0.01683
G1 X66.062 Y153.286 E0.2622
G1 X66.062 Y153.819 E0.01683
G1 X71.938 Y159.694 E0.2622
G1 X71.938 Y160.228 E0.01683
G1 X66.062 Y154.352 E0.2622
G1 X66.062 Y154.885 E0.01683
G1 X71.938 Y160.761 E0.2622
G1 X71.938 Y161.294 E0.01683
G1 X66.062 Y155.419 E0.2622
G1 X66.062 Y155.952 E0.01683
G1 X71.938 Y161.827 E0.2622
G1 X71.938 Y162.361 E0.01683
G1 X66.062 Y156.485 E0.2622
G1 X66.062 Y157.019 E0.01683
G1 X71.938 Y162.894 E0.2622
G1 X71.938 Y163.427 E0.01683
G1 X66.062 Y157.552 E0.2622
G1 X66.062 Y158.085 E0.01683
G1 X71.915 Y163.938 E0.26118
G1 X71.382 Y163.938 E0.01683
G1 X66.062 Y158.618 E0.23739
G1 X66.062 Y159.152 E0.01683
G1 X70.848 Y163.938 E0.21359
G1 X70.315 Y163.938 E0.01683
G1 X66.062 Y159.685 E0.18979
G1 X66.062 Y160.218 E0.01683
G1 X69.782 Y163.938 E0.16599
G1 X69.249 Y163.938 E0.01683
G1 X66.062 Y160.751 E0.14219
G1 X66.062 Y161.285 E0.01683
G1 X68.715 Y163.938 E0.11839
G1 X68.182 Y163.938 E0.01683
G1 X66.062 Y161.818 E0.0946
G1 X66.062 Y162.351 E0.01683
G1 X67.649 Y163.938 E0.0708
G1 X67.115 Y163.938 E0.01683
G1 X66.062 Y162.885 E0.047
G1 X66.062 Y163.418 E0.01683
G1 X66.744 Y164.1 E0.03044
;WIPE_START
G1 F8640
G1 X66.062 Y163.418 E-0.22272
G1 X66.062 Y162.885 E-0.12313
G1 X67.115 Y163.938 E-0.34391
G1 X67.649 Y163.938 E-0.12313
G1 X67.229 Y163.518 E-0.1371
;WIPE_END
G1 E-0.05 F2100
G1 Z0.4 F10800
G1 X184.1 Y46.662
G1 Z0.2
G1 E1 F2100
;WIDTH:0.421452
G1 F1200
G1 X183.5 Y46.062 E0.0267
G1 X182.966 Y46.062 E0.01678
G1 X183.938 Y47.034 E0.04322
G1 X183.938 Y47.567 E0.01678
G1 X182.433 Y46.062 E0.06694
G1 X181.9 Y46.062 E0.01678
G1 X183.938 Y48.1 E0.09067
G1 X183.938 Y48.633 E0.01678
G1 X181.367 Y46.062 E0.1144
G1 X180.833 Y46.062 E0.01678
G1 X183.938 Y49.167 E0.13813
G1 X183.938 Y49.7 E0.01678
G1 X180.3 Y46.062 E0.16186
G1 X179.767 Y46.062 E0.01678
G1 X183.938 Y50.233 E0.18558
G1 X183.938 Y50.766 E0.01678
G1 X179.234 Y46.062 E0.20931
G1 X178.7 Y46.062 E0.01678
G1 X183.938 Y51.3 E0.23304
G1 X183.938 Y51.833 E0.01678
G1 X178.167 Y46.062 E0.25677
G1 X177.634 Y46.062 E0.01678
G1 X183.509 Y51.938 E0.26142
G1 X182.976 Y51.938 E0.01678
G1 X177.1 Y46.062 E0.26142
G1 X176.567 Y46.062 E0.01678
G1 X182.443 Y51.938 E0.26142
G1 X181.909 Y51.938 E0.01678
G1 X176.034 Y46.062 E0.26142
G1 X175.501 Y46.062 E0.01678
G1 X181.376 Y51.938 E0.26142
G1 X180.843 Y51.938 E0.01678
G1 X174.967 Y46.062 E0.26142
G1 X174.434 Y46.062 E0.01678
G1 X180.309 Y51.938 E0.26142
G1 X179.776 Y51.938 E0.01678
G1 X173.901 Y46.062 E0.26142
G1 X173.368 Y46.062 E0.01678
