; generated by SuperSlicer 2.4 on 2022-06-06 at 20:33:19 UTC

; 

; external perimeters extrusion width = 0.45mm
; perimeters extrusion width = 0.45mm
; infill extrusion width = 0.45mm
; solid infill extrusion width = 0.45mm
; top infill extrusion width = 0.40mm
; first layer extrusion width = 0.42mm

; object:{"name":"sd_x2","id":"sd_x2.stl id:0 copy 0","object_center":[125.000000,105.000000,0.000000],"boundingbox_center":[125.000000,105.000000,1.800000],"boundingbox_size":[29.000000,99.250000,3.600000]}
; plater:{"center":[125.000000,105.000000,0.000000],"boundingbox_center":[125.000000,105.000000,1.800000],"boundingbox_size":[29.000000,99.250000,3.600000]}

M73 P0 R27
;TYPE:Custom
Start : M104 S0
M140 S0
PRINT_START EXTRUDER_TEMP=215 BED_TEMP=60
M107
G21 ; set units to millimeters
G90 ; use absolute coordinates
M83 ; use relative distances for extrusion
M900 K0.05 ; Filament gcode LA 1.5
M900 K30 ; Filament gcode LA 1.0
M104 S215 ; set temperature
M109 S215 ; set temperature and wait for it to be reached
M107
;LAYER_CHANGE
;Z:0.2
;HEIGHT:0.2
;BEFORE_LAYER_CHANGE
G92 E0.0
;0.2


G1 E-0.8 F2100
G1 Z0.4 F10800
;AFTER_LAYER_CHANGE
;0.2
G1 Z0.6
M204 S1000
G1 X109.052 Y56.339
G1 Z0.2
G1 E0.8 F2100
;TYPE:Skirt
;WIDTH:0.52
G1 F1200
G1 X108.697 Y57.09 E0.03298
G1 X108.363 Y58.266 E0.0485
G1 X108.264 Y59.265 E0.03982
G1 X108.261 Y133.375 E2.93989
G1 X108.81 Y134.843 E0.06214
G1 X125.736 Y154.273 E1.02222
G1 X126.975 Y155.261 E0.06287
G1 X128.706 Y156.176 E0.07768
G1 X130.221 Y156.643 E0.06287
G1 X132.166 Y156.862 E0.07767
G1 X133.747 Y156.744 E0.06287
G1 X135.638 Y156.237 E0.07768
G1 X137.066 Y155.549 E0.06287
G1 X138.1 Y154.844 E0.04963
G1 X138.764 Y154.272 E0.03478
G1 X140.041 Y152.788 E0.07767
G1 X140.834 Y151.416 E0.06287
G1 X141.291 Y150.251 E0.04963
G1 X141.518 Y149.404 E0.03478
G1 X141.737 Y147.459 E0.07768
G1 X141.717 Y58.873 E3.51413
G1 X141.499 Y57.67 E0.0485
G1 X141.051 Y56.532 E0.0485
G1 X140.39 Y55.504 E0.0485
G1 X139.832 Y54.888 E0.03298
G1 X139.056 Y54.251 E0.03982
G1 X137.988 Y53.656 E0.0485
G1 X136.824 Y53.28 E0.0485
G1 X135.61 Y53.139 E0.0485
G1 X114.5 Y53.136 E0.83741
G1 X113.176 Y53.28 E0.05284
G1 X112.215 Y53.572 E0.03982
G1 X111.127 Y54.129 E0.0485
G1 X110.459 Y54.624 E0.03298
G1 X109.749 Y55.334 E0.03982
G1 X109.086 Y56.289 E0.04612
; INIT printing object sd_x2.stl id:0 copy 0
;WIPE_START
G1 F8640
G1 X109.052 Y56.339 E-0.01385
G1 X108.697 Y57.09 E-0.19197
G1 X108.363 Y58.266 E-0.28231
G1 X108.264 Y59.265 E-0.23179
G1 X108.264 Y59.439 E-0.04009
;WIPE_END
G1 E-0.04 F2100
G1 Z0.6 F10800
; printing object sd_x2.stl id:0 copy 0
; acceleration to travel
M204 S1500
G1 X119.623 Y97.543
; decel to extrusion
M204 S800
G1 X121.831 Y104.951
; end travel
G1 Z0.2
G1 E0.8 F2100
;TYPE:Internal perimeter
;WIDTH:0.42
G1 F1200
G1 X121.503 Y105.059 E0.01084
G1 X121.174 Y105.168 E0.01084
G1 X120.533 Y105.428 E0.02168
G1 X119.91 Y105.728 E0.02168
G1 X119.308 Y106.067 E0.02168
G1 X118.728 Y106.445 E0.02168
G1 X118.174 Y106.858 E0.02168
G1 X117.648 Y107.306 E0.02168
G1 X117.151 Y107.787 E0.02168
G1 X116.686 Y108.299 E0.02168
G1 X116.255 Y108.84 E0.02168
G1 X115.859 Y109.407 E0.02168
G1 X115.501 Y109.999 E0.02168
G1 X115.181 Y110.612 E0.02168
G1 X114.901 Y111.244 E0.02168
G1 X114.662 Y111.893 E0.02168
G1 X114.465 Y112.556 E0.02168
G1 X114.311 Y113.23 E0.02168
G1 X114.201 Y113.913 E0.02168
G1 X114.135 Y114.601 E0.02168
G1 X114.113 Y115.292 E0.02168
G1 X114.135 Y115.983 E0.02168
G1 X114.201 Y116.672 E0.02168
G1 X114.311 Y117.354 E0.02168
G1 X114.465 Y118.028 E0.02168
G1 X114.662 Y118.691 E0.02168
G1 X114.901 Y119.34 E0.02168
G1 X115.181 Y119.973 E0.02168
G1 X115.501 Y120.586 E0.02168
G1 X115.859 Y121.177 E0.02168
G1 X116.255 Y121.744 E0.02168
G1 X116.686 Y122.285 E0.02168
G1 X117.151 Y122.797 E0.02168
G1 X117.648 Y123.278 E0.02168
G1 X118.174 Y123.726 E0.02168
G1 X118.728 Y124.14 E0.02168
G1 X119.308 Y124.517 E0.02168
G1 X119.91 Y124.856 E0.02168
G1 X120.533 Y125.156 E0.02168
G1 X121.174 Y125.416 E0.02168
G1 X121.831 Y125.634 E0.02168
G1 X122.5 Y125.809 E0.02168
G1 X123.178 Y125.941 E0.02168
G1 X123.864 Y126.03 E0.02168
G1 X124.554 Y126.074 E0.02168
G1 X125.246 Y126.074 E0.02168
G1 X125.936 Y126.03 E0.02168
G1 X126.622 Y125.941 E0.02168
G1 X127.3 Y125.809 E0.02168
G1 X127.969 Y125.634 E0.02168
G1 X128.626 Y125.416 E0.02168
G1 X129.267 Y125.156 E0.02168
G1 X129.89 Y124.856 E0.02168
G1 X130.492 Y124.517 E0.02168
G1 X131.072 Y124.14 E0.02168
G1 X131.626 Y123.726 E0.02168
G1 X132.152 Y123.278 E0.02168
G1 X132.649 Y122.797 E0.02168
G1 X133.114 Y122.285 E0.02168
M73 P1 R27
G1 X133.545 Y121.744 E0.02168
G1 X133.941 Y121.177 E0.02168
G1 X134.299 Y120.586 E0.02168
G1 X134.619 Y119.973 E0.02168
G1 X134.899 Y119.34 E0.02168
G1 X135.138 Y118.691 E0.02168
G1 X135.335 Y118.028 E0.02168
G1 X135.489 Y117.354 E0.02168
G1 X135.599 Y116.672 E0.02168
G1 X135.665 Y115.983 E0.02168
G1 X135.687 Y115.292 E0.02168
G1 X135.665 Y114.601 E0.02168
G1 X135.599 Y113.913 E0.02168
G1 X135.489 Y113.23 E0.02168
G1 X135.335 Y112.556 E0.02168
G1 X135.138 Y111.893 E0.02168
G1 X134.899 Y111.244 E0.02168
G1 X134.619 Y110.612 E0.02168
G1 X134.299 Y109.999 E0.02168
G1 X133.941 Y109.407 E0.02168
G1 X133.545 Y108.84 E0.02168
G1 X133.114 Y108.299 E0.02168
G1 X132.649 Y107.787 E0.02168
G1 X132.152 Y107.306 E0.02168
G1 X131.626 Y106.858 E0.02168
G1 X131.072 Y106.445 E0.02168
G1 X130.492 Y106.067 E0.02168
G1 X129.89 Y105.728 E0.02168
G1 X129.267 Y105.428 E0.02168
G1 X128.626 Y105.168 E0.02168
G1 X127.969 Y104.951 E0.02168
G1 X127.3 Y104.775 E0.02168
G1 X126.622 Y104.643 E0.02168
G1 X125.936 Y104.554 E0.02168
G1 X125.591 Y104.532 E0.01084
G1 X125.246 Y104.51 E0.01084
G1 X124.554 Y104.51 E0.02168
G1 X123.864 Y104.554 E0.02168
G1 X123.178 Y104.643 E0.02168
G1 X122.5 Y104.775 E0.02168
G1 X121.889 Y104.935 E0.0198
G1 X121.938 Y105.312 F10800
;TYPE:External perimeter
G1 F1200
G1 X121.621 Y105.417 E0.01046
G1 X121.305 Y105.522 E0.01046
G1 X120.686 Y105.773 E0.02092
G1 X120.085 Y106.062 E0.02092
G1 X119.503 Y106.39 E0.02092
G1 X118.944 Y106.754 E0.02092
G1 X118.409 Y107.153 E0.02092
G1 X117.901 Y107.586 E0.02092
G1 X117.422 Y108.05 E0.02092
G1 X116.973 Y108.544 E0.02092
G1 X116.557 Y109.066 E0.02092
G1 X116.175 Y109.613 E0.02092
G1 X115.829 Y110.184 E0.02092
G1 X115.521 Y110.775 E0.02092
G1 X115.251 Y111.386 E0.02092
G1 X115.02 Y112.012 E0.02092
G1 X114.83 Y112.652 E0.02092
G1 X114.682 Y113.302 E0.02092
G1 X114.575 Y113.961 E0.02092
G1 X114.511 Y114.625 E0.02092
G1 X114.49 Y115.292 E0.02092
G1 X114.511 Y115.959 E0.02092
G1 X114.575 Y116.623 E0.02092
G1 X114.682 Y117.282 E0.02092
G1 X114.83 Y117.933 E0.02092
G1 X115.02 Y118.572 E0.02092
G1 X115.251 Y119.199 E0.02092
G1 X115.521 Y119.809 E0.02092
G1 X115.829 Y120.401 E0.02092
G1 X116.175 Y120.971 E0.02092
G1 X116.557 Y121.519 E0.02092
G1 X116.973 Y122.04 E0.02092
G1 X117.422 Y122.534 E0.02092
G1 X117.901 Y122.999 E0.02092
G1 X118.409 Y123.431 E0.02092
G1 X118.944 Y123.83 E0.02092
G1 X119.503 Y124.194 E0.02092
G1 X120.085 Y124.522 E0.02092
G1 X120.686 Y124.811 E0.02092
G1 X121.305 Y125.062 E0.02092
G1 X121.938 Y125.272 E0.02092
G1 X122.584 Y125.441 E0.02092
G1 X123.239 Y125.569 E0.02092
G1 X123.9 Y125.654 E0.02092
G1 X124.566 Y125.697 E0.02092
G1 X125.234 Y125.697 E0.02092
G1 X125.9 Y125.654 E0.02092
G1 X126.561 Y125.569 E0.02092
G1 X127.216 Y125.441 E0.02092
G1 X127.862 Y125.272 E0.02092
G1 X128.495 Y125.062 E0.02092
G1 X129.114 Y124.811 E0.02092
G1 X129.715 Y124.522 E0.02092
G1 X130.297 Y124.194 E0.02092
G1 X130.856 Y123.83 E0.02092
G1 X131.391 Y123.431 E0.02092
G1 X131.899 Y122.999 E0.02092
G1 X132.378 Y122.534 E0.02092
G1 X132.827 Y122.04 E0.02092
G1 X133.243 Y121.519 E0.02092
G1 X133.625 Y120.971 E0.02092
G1 X133.971 Y120.401 E0.02092
G1 X134.279 Y119.809 E0.02092
G1 X134.414 Y119.504 E0.01046
G1 X134.549 Y119.199 E0.01046
G1 X134.78 Y118.572 E0.02092
G1 X134.97 Y117.933 E0.02092
G1 X135.118 Y117.282 E0.02092
G1 X135.225 Y116.623 E0.02092
G1 X135.289 Y115.959 E0.02092
G1 X135.31 Y115.292 E0.02092
G1 X135.289 Y114.625 E0.02092
G1 X135.225 Y113.961 E0.02092
G1 X135.118 Y113.302 E0.02092
G1 X134.97 Y112.652 E0.02092
G1 X134.78 Y112.012 E0.02092
G1 X134.549 Y111.386 E0.02092
G1 X134.279 Y110.775 E0.02092
G1 X133.971 Y110.184 E0.02092
G1 X133.625 Y109.613 E0.02092
G1 X133.243 Y109.066 E0.02092
G1 X132.827 Y108.544 E0.02092
G1 X132.378 Y108.05 E0.02092
G1 X131.899 Y107.586 E0.02092
G1 X131.391 Y107.153 E0.02092
G1 X130.856 Y106.754 E0.02092
G1 X130.297 Y106.39 E0.02092
G1 X129.715 Y106.062 E0.02092
G1 X129.114 Y105.773 E0.02092
G1 X128.495 Y105.522 E0.02092
G1 X127.862 Y105.312 E0.02092
G1 X127.216 Y105.143 E0.02092
G1 X126.561 Y105.015 E0.02092
G1 X125.9 Y104.93 E0.02092
G1 X125.567 Y104.909 E0.01046
G1 X125.234 Y104.887 E0.01046
G1 X124.566 Y104.887 E0.02092
G1 X123.9 Y104.93 E0.02092
G1 X123.239 Y105.015 E0.02092
G1 X122.584 Y105.143 E0.02092
G1 X121.996 Y105.297 E0.01904
;WIPE_START
M204 S1000
G1 X121.693 Y105.085 F10800
;WIPE_END
;WIPE_START
G1 F8640
G1 X121.684 Y105.607 E-0.12053
G1 X121.374 Y105.71 E-0.07557
G1 X120.767 Y105.956 E-0.15112
G1 X120.177 Y106.24 E-0.15113
G1 X119.607 Y106.561 E-0.15112
G1 X119.206 Y106.822 E-0.11053
;WIPE_END
G1 E-0.04 F2100
G1 Z0.6 F10800
; acceleration to travel
M204 S1500
G1 X122.93 Y94.415
; decel to extrusion
M204 S800
G1 X123.654 Y92.003
; end travel
G1 Z0.2
G1 E0.8 F2100
;TYPE:Internal perimeter
G1 F1200
G1 X123.864 Y92.03 E0.00664
G1 X124.209 Y92.052 E0.01084
G1 X124.554 Y92.074 E0.01084
G1 X125.246 Y92.074 E0.02168
G1 X125.936 Y92.03 E0.02168
G1 X126.622 Y91.941 E0.02168
G1 X127.3 Y91.809 E0.02168
G1 X127.969 Y91.634 E0.02168
G1 X128.626 Y91.416 E0.02168
G1 X129.267 Y91.156 E0.02168
G1 X129.89 Y90.856 E0.02168
G1 X130.492 Y90.517 E0.02168
G1 X131.072 Y90.14 E0.02168
G1 X131.626 Y89.726 E0.02168
G1 X132.152 Y89.278 E0.02168
G1 X132.649 Y88.797 E0.02168
G1 X133.114 Y88.285 E0.02168
G1 X133.545 Y87.744 E0.02168
G1 X133.941 Y87.177 E0.02168
G1 X134.299 Y86.586 E0.02168
G1 X134.619 Y85.973 E0.02168
G1 X134.899 Y85.34 E0.02168
G1 X135.138 Y84.691 E0.02168
G1 X135.335 Y84.028 E0.02168
G1 X135.489 Y83.354 E0.02168
G1 X135.599 Y82.672 E0.02168
G1 X135.665 Y81.983 E0.02168
G1 X135.687 Y81.292 E0.02168
G1 X135.665 Y80.601 E0.02168
G1 X135.599 Y79.913 E0.02168
G1 X135.489 Y79.23 E0.02168
G1 X135.335 Y78.556 E0.02168
G1 X135.138 Y77.893 E0.02168
G1 X134.899 Y77.244 E0.02168
G1 X134.619 Y76.612 E0.02168
G1 X134.299 Y75.999 E0.02168
G1 X133.941 Y75.407 E0.02168
G1 X133.545 Y74.84 E0.02168
G1 X133.114 Y74.299 E0.02168
G1 X132.649 Y73.787 E0.02168
G1 X132.152 Y73.306 E0.02168
G1 X131.626 Y72.858 E0.02168
G1 X131.072 Y72.445 E0.02168
G1 X130.492 Y72.067 E0.02168
G1 X129.89 Y71.728 E0.02168
G1 X129.267 Y71.428 E0.02168
G1 X128.626 Y71.168 E0.02168
G1 X127.969 Y70.951 E0.02168
G1 X127.3 Y70.775 E0.02168
G1 X126.622 Y70.643 E0.02168
G1 X125.936 Y70.554 E0.02168
G1 X125.246 Y70.51 E0.02168
G1 X124.554 Y70.51 E0.02168
G1 X123.864 Y70.554 E0.02168
G1 X123.178 Y70.643 E0.02168
G1 X122.5 Y70.775 E0.02168
G1 X121.831 Y70.951 E0.02168
G1 X121.174 Y71.168 E0.02168
G1 X120.533 Y71.428 E0.02168
G1 X119.91 Y71.728 E0.02168
G1 X119.308 Y72.067 E0.02168
G1 X118.728 Y72.445 E0.02168
G1 X118.174 Y72.858 E0.02168
G1 X117.648 Y73.306 E0.02168
G1 X117.151 Y73.787 E0.02168
G1 X116.686 Y74.299 E0.02168
G1 X116.255 Y74.84 E0.02168
G1 X115.859 Y75.407 E0.02168
G1 X115.501 Y75.999 E0.02168
G1 X115.181 Y76.612 E0.02168
G1 X114.901 Y77.244 E0.02168
G1 X114.662 Y77.893 E0.02168
G1 X114.465 Y78.556 E0.02168
G1 X114.311 Y79.23 E0.02168
G1 X114.201 Y79.913 E0.02168
G1 X114.135 Y80.601 E0.02168
G1 X114.113 Y81.292 E0.02168
G1 X114.135 Y81.983 E0.02168
G1 X114.201 Y82.672 E0.02168
G1 X114.311 Y83.354 E0.02168
G1 X114.465 Y84.028 E0.02168
G1 X114.662 Y84.691 E0.02168
G1 X114.901 Y85.34 E0.02168
G1 X115.181 Y85.973 E0.02168
G1 X115.501 Y86.586 E0.02168
G1 X115.68 Y86.881 E0.01084
G1 X115.859 Y87.177 E0.01084
G1 X116.255 Y87.744 E0.02168
G1 X116.686 Y88.285 E0.02168
G1 X117.151 Y88.797 E0.02168
G1 X117.648 Y89.278 E0.02168
G1 X118.174 Y89.726 E0.02168
G1 X118.728 Y90.14 E0.02168
G1 X119.308 Y90.517 E0.02168
G1 X119.91 Y90.856 E0.02168
G1 X120.533 Y91.156 E0.02168
G1 X121.174 Y91.416 E0.02168
G1 X121.831 Y91.634 E0.02168
G1 X122.5 Y91.809 E0.02168
G1 X123.178 Y91.941 E0.02168
G1 X123.595 Y91.995 E0.01316
G1 X123.702 Y91.629 F10800
;TYPE:External perimeter
G1 F1200
G1 X123.9 Y91.654 E0.00626
G1 X124.233 Y91.676 E0.01046
G1 X124.566 Y91.697 E0.01046
G1 X125.234 Y91.697 E0.02092
G1 X125.9 Y91.654 E0.02092
G1 X126.561 Y91.569 E0.02092
G1 X127.216 Y91.441 E0.02092
G1 X127.862 Y91.272 E0.02092
G1 X128.495 Y91.062 E0.02092
G1 X129.114 Y90.811 E0.02092
G1 X129.715 Y90.522 E0.02092
G1 X130.297 Y90.194 E0.02092
G1 X130.856 Y89.83 E0.02092
G1 X131.391 Y89.431 E0.02092
G1 X131.899 Y88.999 E0.02092
G1 X132.138 Y88.766 E0.01046
G1 X132.378 Y88.534 E0.01046
G1 X132.827 Y88.04 E0.02092
G1 X133.243 Y87.519 E0.02092
G1 X133.625 Y86.971 E0.02092
G1 X133.971 Y86.401 E0.02092
G1 X134.279 Y85.809 E0.02092
G1 X134.549 Y85.199 E0.02092
G1 X134.78 Y84.572 E0.02092
G1 X134.97 Y83.933 E0.02092
G1 X135.118 Y83.282 E0.02092
G1 X135.225 Y82.623 E0.02092
G1 X135.289 Y81.959 E0.02092
G1 X135.31 Y81.292 E0.02092
G1 X135.289 Y80.625 E0.02092
G1 X135.225 Y79.961 E0.02092
G1 X135.118 Y79.302 E0.02092
G1 X134.97 Y78.652 E0.02092
G1 X134.78 Y78.012 E0.02092
G1 X134.549 Y77.386 E0.02092
G1 X134.279 Y76.775 E0.02092
G1 X133.971 Y76.184 E0.02092
G1 X133.625 Y75.613 E0.02092
G1 X133.243 Y75.066 E0.02092
G1 X132.827 Y74.544 E0.02092
G1 X132.378 Y74.05 E0.02092
G1 X131.899 Y73.586 E0.02092
G1 X131.391 Y73.153 E0.02092
G1 X130.856 Y72.754 E0.02092
G1 X130.297 Y72.39 E0.02092
G1 X129.715 Y72.062 E0.02092
G1 X129.414 Y71.918 E0.01046
G1 X129.114 Y71.773 E0.01046
G1 X128.495 Y71.522 E0.02092
G1 X127.862 Y71.312 E0.02092
G1 X127.216 Y71.143 E0.02092
G1 X126.561 Y71.015 E0.02092
G1 X125.9 Y70.93 E0.02092
G1 X125.234 Y70.887 E0.02092
G1 X124.566 Y70.887 E0.02092
G1 X123.9 Y70.93 E0.02092
G1 X123.239 Y71.015 E0.02092
G1 X122.584 Y71.143 E0.02092
G1 X121.938 Y71.312 E0.02092
G1 X121.305 Y71.522 E0.02092
G1 X120.686 Y71.773 E0.02092
G1 X120.085 Y72.062 E0.02092
G1 X119.503 Y72.39 E0.02092
G1 X118.944 Y72.754 E0.02092
G1 X118.409 Y73.153 E0.02092
G1 X117.901 Y73.586 E0.02092
G1 X117.422 Y74.05 E0.02092
G1 X116.973 Y74.544 E0.02092
G1 X116.557 Y75.066 E0.02092
G1 X116.175 Y75.613 E0.02092
G1 X115.829 Y76.184 E0.02092
G1 X115.521 Y76.775 E0.02092
G1 X115.251 Y77.386 E0.02092
G1 X115.02 Y78.012 E0.02092
G1 X114.83 Y78.652 E0.02092
G1 X114.682 Y79.302 E0.02092
G1 X114.575 Y79.961 E0.02092
G1 X114.511 Y80.625 E0.02092
G1 X114.49 Y81.292 E0.02092
G1 X114.511 Y81.959 E0.02092
G1 X114.575 Y82.623 E0.02092
G1 X114.682 Y83.282 E0.02092
G1 X114.83 Y83.933 E0.02092
G1 X115.02 Y84.572 E0.02092
G1 X115.251 Y85.199 E0.02092
G1 X115.521 Y85.809 E0.02092
G1 X115.829 Y86.401 E0.02092
G1 X116.002 Y86.686 E0.01046
G1 X116.175 Y86.971 E0.01046
G1 X116.557 Y87.519 E0.02092
G1 X116.973 Y88.04 E0.02092
G1 X117.422 Y88.534 E0.02092
G1 X117.901 Y88.999 E0.02092
G1 X118.409 Y89.431 E0.02092
G1 X118.944 Y89.83 E0.02092
G1 X119.503 Y90.194 E0.02092
G1 X120.085 Y90.522 E0.02092
G1 X120.686 Y90.811 E0.02092
G1 X121.305 Y91.062 E0.02092
G1 X121.938 Y91.272 E0.02092
G1 X122.584 Y91.441 E0.02092
G1 X123.239 Y91.569 E0.02092
G1 X123.643 Y91.621 E0.01278
;WIPE_START
M204 S1000
G1 X123.779 Y91.813 F10800
;WIPE_END
;WIPE_START
G1 F8640
G1 X124.246 Y91.476 E-0.13296
G1 X124.573 Y91.497 E-0.07556
G1 X125.227 Y91.497 E-0.15113
G1 X125.88 Y91.455 E-0.15112
G1 X126.53 Y91.371 E-0.15113
G1 X126.947 Y91.29 E-0.0981
;WIPE_END
G1 E-0.04 F2100
G1 Z0.6 F10800
; acceleration to travel
M204 S1500
G1 X132.258 Y67.734
; decel to extrusion
M204 S800
G1 X133.29 Y63.154
; end travel
G1 Z0.2
M73 P1 R26
G1 E0.8 F2100
;TYPE:Internal perimeter
G1 F1200
G1 X133.626 Y63.235 E0.01083
G1 X134 Y63.265 E0.01176
G1 X134.374 Y63.235 E0.01176
G1 X134.738 Y63.148 E0.01176
G1 X135.085 Y63.004 E0.01176
G1 X135.405 Y62.808 E0.01176
G1 X135.69 Y62.565 E0.01176
G1 X135.933 Y62.28 E0.01176
G1 X136.129 Y61.96 E0.01176
G1 X136.273 Y61.613 E0.01176
