; generated by SuperSlicer 2.5.59 on 2022-10-02 at 04:45:30 UTC

; 

; external perimeters extrusion width = 0.45mm
; perimeters extrusion width = 0.45mm
; infill extrusion width = 0.45mm
; solid infill extrusion width = 0.45mm
; top infill extrusion width = 0.40mm
; first layer extrusion width = 0.42mm

; object:{"name":"Shape-Box","id":"Shape-Box id:0 copy 0","object_center":[125.000000,105.000000,0.000000],"boundingbox_center":[125.000000,105.000000,0.250000],"boundingbox_size":[75.000000,75.000000,0.500000]}
; plater:{"center":[125.000000,105.000000,0.000000],"boundingbox_center":[125.000000,105.000000,0.250000],"boundingbox_size":[75.000000,75.000000,0.500000]}

M73 P0 R20


; Pre-Processed for Cancel-Object support by preprocess_cancellation v0.2.0
; 1 known objects
EXCLUDE_OBJECT_DEFINE NAME=Shape_Box_id_0_copy_0 CENTER=124.849,104.954 POLYGON=[[87.725,67.725],[87.725,142.275],[162.275,142.275],[162.275,67.725],[87.725,67.725]]
;TYPE:Custom
Start : M104 S0
M140 S0
PRINT_START EXTRUDER_TEMP=215 BED_TEMP=60
M107
G21 ; set units to millimeters
G90 ; use absolute coordinates
M83 ; use relative distances for extrusion
M900 K0.05 ; Filament gcode LA 1.5
M900 K30 ; Filament gcode LA 1.0
;_TOOLCHANGE 0
M104 S215 ; set temperature
M109 S215 ; set temperature and wait for it to be reached
M107
;LAYER_CHANGE
;Z:0.2
;HEIGHT:0.2
;BEFORE_LAYER_CHANGE
G92 E0.0
;0.2
TIMELAPSE_TAKE_FRAME

G1 E-0.8 F2100
M73 P1 R19
G1 Z0.4 F10800
;AFTER_LAYER_CHANGE
;0.2
G1 Z0.6
M204 S1000
G1 X85.653 Y66.236
G1 Z0.2
G1 E0.8 F2100
;TYPE:Skirt
;WIDTH:0.52
G1 F1200
G1 X85.261 Y67.5 E0.05249
G1 X85.261 Y142.5 E2.9752
M73 P2 R19
G1 X85.414 Y143.311 E0.03273
G1 X86.236 Y144.347 E0.05249
G1 X87.5 Y144.739 E0.05249
G1 X162.5 Y144.739 E2.9752
G1 X163.311 Y144.586 E0.03273
G1 X164.347 Y143.764 E0.05249
G1 X164.739 Y142.5 E0.05249
G1 X164.739 Y67.5 E2.9752
G1 X164.586 Y66.689 E0.03273
G1 X163.764 Y65.653 E0.05249
G1 X162.5 Y65.261 E0.05249
G1 X87.5 Y65.261 E2.9752
M73 P3 R19
G1 X86.689 Y65.414 E0.03273
G1 X85.7 Y66.199 E0.05011
;WIPE_START
G1 F8640
G1 X85.261 Y67.5 E-0.31706
G1 X85.261 Y69.418 E-0.44294
;WIPE_END
G1 E-0.04 F2100
G1 Z0.6 F10800
; printing object Shape-Box id:0 copy 0
EXCLUDE_OBJECT_START NAME=Shape_Box_id_0_copy_0
; acceleration to travel
M204 S1500
G1 X87.795 Y68.471
; decel to extrusion
M204 S800
G1 X88.287 Y68.287
; end travel
G1 Z0.2
G1 E0.8 F2100
;TYPE:Internal perimeter
;WIDTH:0.42
G1 F1200
G1 X161.713 Y68.287 E2.30222
G1 X161.713 Y141.713 E2.30222
G1 X88.287 Y141.713 E2.30222
G1 X88.287 Y68.347 E2.30033
M73 P4 R19
G1 X87.91 Y67.91 F10800
;TYPE:External perimeter
G1 F1200
G1 X162.09 Y67.91 E2.32586
G1 X162.09 Y142.09 E2.32586
G1 X87.91 Y142.09 E2.32586
M73 P5 R19
G1 X87.91 Y67.97 E2.32398
;WIPE_START
M204 S1000
G1 X88.256 Y68.11 F10800
;WIPE_END
;WIPE_START
G1 F8640
G1 X91.548 Y68.11 E-0.76
;WIPE_END
G1 E-0.04 F2100
G1 Z0.6 F10800
; acceleration to travel
M204 S1500
G1 X147.292 Y68.343
; decel to extrusion
M204 S1000
G1 X160.838 Y68.4
; end travel
G1 Z0.2
G1 E0.8 F2100
;TYPE:Solid infill
;WIDTH:0.420138
G1 F1200
G1 X161.438 Y69 E0.02662
G1 X161.438 Y69.534 E0.01673
G1 X160.466 Y68.562 E0.04308
G1 X159.933 Y68.562 E0.01673
G1 X161.438 Y70.067 E0.06673
G1 X161.438 Y70.6 E0.01673
G1 X159.4 Y68.562 E0.09039
G1 X158.867 Y68.562 E0.01673
G1 X161.438 Y71.133 E0.11404
M73 P5 R18
G1 X161.438 Y71.667 E0.01673
G1 X158.333 Y68.562 E0.1377
G1 X157.8 Y68.562 E0.01673
G1 X161.438 Y72.2 E0.16135
G1 X161.438 Y72.733 E0.01673
G1 X157.267 Y68.562 E0.185
G1 X156.734 Y68.562 E0.01673
G1 X161.438 Y73.266 E0.20866
G1 X161.438 Y73.8 E0.01673
G1 X156.2 Y68.562 E0.23231
G1 X155.667 Y68.562 E0.01673
G1 X161.438 Y74.333 E0.25597
G1 X161.438 Y74.866 E0.01673
G1 X155.134 Y68.562 E0.27962
G1 X154.6 Y68.562 E0.01673
G1 X161.438 Y75.4 E0.30327
G1 X161.438 Y75.933 E0.01673
G1 X154.067 Y68.562 E0.32693
G1 X153.534 Y68.562 E0.01673
G1 X161.438 Y76.466 E0.35058
M73 P6 R18
G1 X161.438 Y76.999 E0.01673
G1 X153.001 Y68.562 E0.37424
G1 X152.467 Y68.562 E0.01673
G1 X161.438 Y77.533 E0.39789
G1 X161.438 Y78.066 E0.01673
G1 X151.934 Y68.562 E0.42154
G1 X151.401 Y68.562 E0.01673
G1 X161.438 Y78.599 E0.4452
G1 X161.438 Y79.132 E0.01673
G1 X150.868 Y68.562 E0.46885
G1 X150.334 Y68.562 E0.01673
G1 X161.438 Y79.666 E0.4925
G1 X161.438 Y80.199 E0.01673
G1 X149.801 Y68.562 E0.51616
G1 X149.268 Y68.562 E0.01673
G1 X161.438 Y80.732 E0.53981
G1 X161.438 Y81.266 E0.01673
G1 X148.734 Y68.562 E0.56347
G1 X148.201 Y68.562 E0.01673
G1 X161.438 Y81.799 E0.58712
G1 X161.438 Y82.332 E0.01673
G1 X147.668 Y68.562 E0.61077
G1 X147.135 Y68.562 E0.01673
G1 X161.438 Y82.865 E0.63443
G1 X161.438 Y83.399 E0.01673
G1 X146.601 Y68.562 E0.65808
G1 X146.068 Y68.562 E0.01673
G1 X161.438 Y83.932 E0.68174
M73 P7 R18
G1 X161.438 Y84.465 E0.01673
G1 X145.535 Y68.562 E0.70539
G1 X145.002 Y68.562 E0.01673
G1 X161.438 Y84.998 E0.72904
G1 X161.438 Y85.532 E0.01673
G1 X144.468 Y68.562 E0.7527
G1 X143.935 Y68.562 E0.01673
G1 X161.438 Y86.065 E0.77635
G1 X161.438 Y86.598 E0.01673
G1 X143.402 Y68.562 E0.8
G1 X142.869 Y68.562 E0.01673
G1 X161.438 Y87.131 E0.82366
G1 X161.438 Y87.665 E0.01673
G1 X142.335 Y68.562 E0.84731
G1 X141.802 Y68.562 E0.01673
G1 X161.438 Y88.198 E0.87097
G1 X161.438 Y88.731 E0.01673
G1 X141.269 Y68.562 E0.89462
M73 P8 R18
G1 X140.735 Y68.562 E0.01673
G1 X161.438 Y89.265 E0.91827
G1 X161.438 Y89.798 E0.01673
G1 X140.202 Y68.562 E0.94193
G1 X139.669 Y68.562 E0.01673
G1 X161.438 Y90.331 E0.96558
G1 X161.438 Y90.864 E0.01673
G1 X139.136 Y68.562 E0.98924
G1 X138.602 Y68.562 E0.01673
G1 X161.438 Y91.398 E1.01289
G1 X161.438 Y91.931 E0.01673
G1 X138.069 Y68.562 E1.03654
G1 X137.536 Y68.562 E0.01673
G1 X161.438 Y92.464 E1.0602
G1 X161.438 Y92.997 E0.01673
G1 X137.003 Y68.562 E1.08385
M73 P9 R18
G1 X136.469 Y68.562 E0.01673
G1 X161.438 Y93.531 E1.10751
G1 X161.438 Y94.064 E0.01673
G1 X135.936 Y68.562 E1.13116
G1 X135.403 Y68.562 E0.01673
G1 X161.438 Y94.597 E1.15481
G1 X161.438 Y95.131 E0.01673
G1 X134.869 Y68.562 E1.17847
G1 X134.336 Y68.562 E0.01673
G1 X161.438 Y95.664 E1.20212
G1 X161.438 Y96.197 E0.01673
G1 X133.803 Y68.562 E1.22577
M73 P10 R18
G1 X133.27 Y68.562 E0.01673
G1 X161.438 Y96.73 E1.24943
G1 X161.438 Y97.264 E0.01673
G1 X132.736 Y68.562 E1.27308
G1 X132.203 Y68.562 E0.01673
G1 X161.438 Y97.797 E1.29674
G1 X161.438 Y98.33 E0.01673
G1 X131.67 Y68.562 E1.32039
M73 P10 R17
G1 X131.137 Y68.562 E0.01673
G1 X161.438 Y98.863 E1.34404
G1 X161.438 Y99.397 E0.01673
G1 X130.603 Y68.562 E1.3677
M73 P11 R17
G1 X130.07 Y68.562 E0.01673
G1 X161.438 Y99.93 E1.39135
G1 X161.438 Y100.463 E0.01673
G1 X129.537 Y68.562 E1.41501
G1 X129.003 Y68.562 E0.01673
G1 X161.438 Y100.997 E1.43866
G1 X161.438 Y101.53 E0.01673
G1 X128.47 Y68.562 E1.46231
G1 X127.937 Y68.562 E0.01673
G1 X161.438 Y102.063 E1.48597
M73 P12 R17
G1 X161.438 Y102.596 E0.01673
G1 X127.404 Y68.562 E1.50962
G1 X126.87 Y68.562 E0.01673
G1 X161.438 Y103.13 E1.53327
G1 X161.438 Y103.663 E0.01673
G1 X126.337 Y68.562 E1.55693
G1 X125.804 Y68.562 E0.01673
G1 X161.438 Y104.196 E1.58058
G1 X161.438 Y104.729 E0.01673
G1 X125.271 Y68.562 E1.60424
M73 P13 R17
G1 X124.737 Y68.562 E0.01673
G1 X161.438 Y105.263 E1.62789
G1 X161.438 Y105.796 E0.01673
G1 X124.204 Y68.562 E1.65154
G1 X123.671 Y68.562 E0.01673
G1 X161.438 Y106.329 E1.6752
G1 X161.438 Y106.862 E0.01673
G1 X123.138 Y68.562 E1.69885
G1 X122.604 Y68.562 E0.01673
G1 X161.438 Y107.396 E1.72251
M73 P14 R17
G1 X161.438 Y107.929 E0.01673
G1 X122.071 Y68.562 E1.74616
G1 X121.538 Y68.562 E0.01673
G1 X161.438 Y108.462 E1.76981
G1 X161.438 Y108.996 E0.01673
G1 X121.004 Y68.562 E1.79347
G1 X120.471 Y68.562 E0.01673
G1 X161.438 Y109.529 E1.81712
M73 P15 R17
G1 X161.438 Y110.062 E0.01673
G1 X119.938 Y68.562 E1.84078
G1 X119.405 Y68.562 E0.01673
G1 X161.438 Y110.595 E1.86443
M73 P15 R16
G1 X161.438 Y111.129 E0.01673
G1 X118.871 Y68.562 E1.88808
G1 X118.338 Y68.562 E0.01673
G1 X161.438 Y111.662 E1.91174
M73 P16 R16
G1 X161.438 Y112.195 E0.01673
G1 X117.805 Y68.562 E1.93539
G1 X117.272 Y68.562 E0.01673
G1 X161.438 Y112.728 E1.95904
G1 X161.438 Y113.262 E0.01673
G1 X116.738 Y68.562 E1.9827
G1 X116.205 Y68.562 E0.01673
G1 X161.438 Y113.795 E2.00635
M73 P17 R16
G1 X161.438 Y114.328 E0.01673
G1 X115.672 Y68.562 E2.03001
G1 X115.138 Y68.562 E0.01673
G1 X161.438 Y114.862 E2.05366
G1 X161.438 Y115.395 E0.01673
G1 X114.605 Y68.562 E2.07731
M73 P18 R16
G1 X114.072 Y68.562 E0.01673
G1 X161.438 Y115.928 E2.10097
G1 X161.438 Y116.461 E0.01673
G1 X113.539 Y68.562 E2.12462
G1 X113.005 Y68.562 E0.01673
G1 X161.438 Y116.995 E2.14828
G1 X161.438 Y117.528 E0.01673
G1 X112.472 Y68.562 E2.17193
M73 P19 R16
G1 X111.939 Y68.562 E0.01673
G1 X161.438 Y118.061 E2.19558
G1 X161.438 Y118.594 E0.01673
G1 X111.406 Y68.562 E2.21924
G1 X110.872 Y68.562 E0.01673
G1 X161.438 Y119.128 E2.24289
M73 P20 R16
G1 X161.438 Y119.661 E0.01673
G1 X110.339 Y68.562 E2.26654
G1 X109.806 Y68.562 E0.01673
G1 X161.438 Y120.194 E2.2902
M73 P20 R15
G1 X161.438 Y120.728 E0.01673
G1 X109.272 Y68.562 E2.31385
G1 X108.739 Y68.562 E0.01673
M73 P21 R15
G1 X161.438 Y121.261 E2.33751
G1 X161.438 Y121.794 E0.01673
G1 X108.206 Y68.562 E2.36116
G1 X107.673 Y68.562 E0.01673
G1 X161.438 Y122.327 E2.38481
G1 X161.438 Y122.861 E0.01673
G1 X107.139 Y68.562 E2.40847
M73 P22 R15
G1 X106.606 Y68.562 E0.01673
G1 X161.438 Y123.394 E2.43212
G1 X161.438 Y123.927 E0.01673
G1 X106.073 Y68.562 E2.45578
G1 X105.54 Y68.562 E0.01673
G1 X161.438 Y124.46 E2.47943
M73 P23 R15
G1 X161.438 Y124.994 E0.01673
G1 X105.006 Y68.562 E2.50308
G1 X104.473 Y68.562 E0.01673
G1 X161.438 Y125.527 E2.52674
G1 X161.438 Y126.06 E0.01673
G1 X103.94 Y68.562 E2.55039
M73 P24 R15
G1 X103.407 Y68.562 E0.01673
G1 X161.438 Y126.593 E2.57405
G1 X161.438 Y127.127 E0.01673
G1 X102.873 Y68.562 E2.5977
G1 X102.34 Y68.562 E0.01673
G1 X161.438 Y127.66 E2.62135
M73 P25 R15
G1 X161.438 Y128.193 E0.01673
G1 X101.807 Y68.562 E2.64501
M73 P25 R14
G1 X101.273 Y68.562 E0.01673
G1 X161.438 Y128.727 E2.66866
M73 P26 R14
G1 X161.438 Y129.26 E0.01673
G1 X100.74 Y68.562 E2.69231
G1 X100.207 Y68.562 E0.01673
G1 X161.438 Y129.793 E2.71597
G1 X161.438 Y130.326 E0.01673
G1 X99.674 Y68.562 E2.73962
M73 P27 R14
G1 X99.14 Y68.562 E0.01673
G1 X161.438 Y130.86 E2.76328
G1 X161.438 Y131.393 E0.01673
G1 X98.607 Y68.562 E2.78693
G1 X98.074 Y68.562 E0.01673
G1 X161.438 Y131.926 E2.81058
M73 P28 R14
G1 X161.438 Y132.459 E0.01673
G1 X97.541 Y68.562 E2.83424
G1 X97.007 Y68.562 E0.01673
G1 X161.438 Y132.993 E2.85789
G1 X161.438 Y133.526 E0.01673
G1 X96.474 Y68.562 E2.88155
M73 P29 R14
G1 X95.941 Y68.562 E0.01673
G1 X161.438 Y134.059 E2.9052
G1 X161.438 Y134.593 E0.01673
G1 X95.407 Y68.562 E2.92885
M73 P30 R14
G1 X94.874 Y68.562 E0.01673
G1 X161.438 Y135.126 E2.95251
M73 P30 R13
G1 X161.438 Y135.659 E0.01673
G1 X94.341 Y68.562 E2.97616
G1 X93.808 Y68.562 E0.01673
G1 X161.438 Y136.192 E2.99981
M73 P31 R13
G1 X161.438 Y136.726 E0.01673
G1 X93.274 Y68.562 E3.02347
G1 X92.741 Y68.562 E0.01673
G1 X161.438 Y137.259 E3.04712
M73 P32 R13
G1 X161.438 Y137.792 E0.01673
G1 X92.208 Y68.562 E3.07078
G1 X91.675 Y68.562 E0.01673
G1 X161.438 Y138.325 E3.09443
G1 X161.438 Y138.859 E0.01673
G1 X91.141 Y68.562 E3.11808
M73 P33 R13
G1 X90.608 Y68.562 E0.01673
G1 X161.438 Y139.392 E3.14174
G1 X161.438 Y139.925 E0.01673
G1 X90.075 Y68.562 E3.16539
M73 P34 R13
G1 X89.541 Y68.562 E0.01673
G1 X161.438 Y140.459 E3.18905
G1 X161.438 Y140.992 E0.01673
G1 X89.008 Y68.562 E3.2127
M73 P35 R13
G1 X88.562 Y68.562 E0.01399
G1 X88.562 Y68.65 E0.00274
G1 X161.35 Y141.438 E3.2286
M73 P35 R12
G1 X160.817 Y141.438 E0.01673
G1 X88.562 Y69.183 E3.20495
G1 X88.562 Y69.716 E0.01673
G1 X160.284 Y141.438 E3.18129
M73 P36 R12
G1 X159.75 Y141.438 E0.01673
G1 X88.562 Y70.25 E3.15764
G1 X88.562 Y70.783 E0.01673
G1 X159.217 Y141.438 E3.13399
M73 P37 R12
G1 X158.684 Y141.438 E0.01673
G1 X88.562 Y71.316 E3.11033
G1 X88.562 Y71.849 E0.01673
G1 X158.151 Y141.438 E3.08668
G1 X157.617 Y141.438 E0.01673
G1 X88.562 Y72.383 E3.06302
M73 P38 R12
G1 X88.562 Y72.916 E0.01673
G1 X157.084 Y141.438 E3.03937
G1 X156.551 Y141.438 E0.01673
G1 X88.562 Y73.449 E3.01572
M73 P39 R12
G1 X88.562 Y73.982 E0.01673
G1 X156.018 Y141.438 E2.99206
G1 X155.484 Y141.438 E0.01673
G1 X88.562 Y74.516 E2.96841
G1 X88.562 Y75.049 E0.01673
G1 X154.951 Y141.438 E2.94476
M73 P40 R12
G1 X154.418 Y141.438 E0.01673
G1 X88.562 Y75.582 E2.9211
M73 P40 R11
G1 X88.562 Y76.115 E0.01673
G1 X153.885 Y141.438 E2.89745
M73 P41 R11
G1 X153.351 Y141.438 E0.01673
G1 X88.562 Y76.649 E2.87379
G1 X88.562 Y77.182 E0.01673
G1 X152.818 Y141.438 E2.85014
G1 X152.285 Y141.438 E0.01673
G1 X88.562 Y77.715 E2.82649
M73 P42 R11
G1 X88.562 Y78.249 E0.01673
G1 X151.751 Y141.438 E2.80283
G1 X151.218 Y141.438 E0.01673
G1 X88.562 Y78.782 E2.77918
M73 P43 R11
G1 X88.562 Y79.315 E0.01673
G1 X150.685 Y141.438 E2.75552
G1 X150.152 Y141.438 E0.01673
G1 X88.562 Y79.848 E2.73187
G1 X88.562 Y80.382 E0.01673
G1 X149.618 Y141.438 E2.70822
M73 P44 R11
G1 X149.085 Y141.438 E0.01673
G1 X88.562 Y80.915 E2.68456
G1 X88.562 Y81.448 E0.01673
G1 X148.552 Y141.438 E2.66091
G1 X148.019 Y141.438 E0.01673
G1 X88.562 Y81.981 E2.63725
M73 P45 R11
G1 X88.562 Y82.515 E0.01673
G1 X147.485 Y141.438 E2.6136
M73 P45 R10
G1 X146.952 Y141.438 E0.01673
G1 X88.562 Y83.048 E2.58995
G1 X88.562 Y83.581 E0.01673
G1 X146.419 Y141.438 E2.56629
M73 P46 R10
G1 X145.885 Y141.438 E0.01673
G1 X88.562 Y84.115 E2.54264
G1 X88.562 Y84.648 E0.01673
G1 X145.352 Y141.438 E2.51899
G1 X144.819 Y141.438 E0.01673
G1 X88.562 Y85.181 E2.49533
M73 P47 R10
G1 X88.562 Y85.714 E0.01673
G1 X144.286 Y141.438 E2.47168
G1 X143.752 Y141.438 E0.01673
G1 X88.562 Y86.248 E2.44802
G1 X88.562 Y86.781 E0.01673
G1 X143.219 Y141.438 E2.42437
M73 P48 R10
G1 X142.686 Y141.438 E0.01673
G1 X88.562 Y87.314 E2.40072
G1 X88.562 Y87.847 E0.01673
G1 X142.153 Y141.438 E2.37706
G1 X141.619 Y141.438 E0.01673
G1 X88.562 Y88.381 E2.35341
M73 P49 R10
G1 X88.562 Y88.914 E0.01673
G1 X141.086 Y141.438 E2.32975
G1 X140.553 Y141.438 E0.01673
G1 X88.562 Y89.447 E2.3061
G1 X88.562 Y89.981 E0.01673
G1 X140.019 Y141.438 E2.28245
M73 P50 R10
G1 X139.486 Y141.438 E0.01673
G1 X88.562 Y90.514 E2.25879
M73 P50 R9
G1 X88.562 Y91.047 E0.01673
G1 X138.953 Y141.438 E2.23514
G1 X138.42 Y141.438 E0.01673
G1 X88.562 Y91.58 E2.21149
G1 X88.562 Y92.114 E0.01673
G1 X137.886 Y141.438 E2.18783
M73 P51 R9
G1 X137.353 Y141.438 E0.01673
G1 X88.562 Y92.647 E2.16418
G1 X88.562 Y93.18 E0.01673
G1 X136.82 Y141.438 E2.14052
G1 X136.287 Y141.438 E0.01673
G1 X88.562 Y93.713 E2.11687
M73 P52 R9
G1 X88.562 Y94.247 E0.01673
G1 X135.753 Y141.438 E2.09322
G1 X135.22 Y141.438 E0.01673
G1 X88.562 Y94.78 E2.06956
G1 X88.562 Y95.313 E0.01673
G1 X134.687 Y141.438 E2.04591
G1 X134.154 Y141.438 E0.01673
G1 X88.562 Y95.846 E2.02225
M73 P53 R9
G1 X88.562 Y96.38 E0.01673
G1 X133.62 Y141.438 E1.9986
G1 X133.087 Y141.438 E0.01673
G1 X88.562 Y96.913 E1.97495
G1 X88.562 Y97.446 E0.01673
G1 X132.554 Y141.438 E1.95129
M73 P54 R9
G1 X132.02 Y141.438 E0.01673
G1 X88.562 Y97.98 E1.92764
G1 X88.562 Y98.513 E0.01673
G1 X131.487 Y141.438 E1.90398
G1 X130.954 Y141.438 E0.01673
G1 X88.562 Y99.046 E1.88033
G1 X88.562 Y99.579 E0.01673
G1 X130.421 Y141.438 E1.85668
M73 P55 R9
G1 X129.887 Y141.438 E0.01673
G1 X88.562 Y100.113 E1.83302
G1 X88.562 Y100.646 E0.01673
G1 X129.354 Y141.438 E1.80937
M73 P55 R8
G1 X128.821 Y141.438 E0.01673
G1 X88.562 Y101.179 E1.78572
G1 X88.562 Y101.712 E0.01673
G1 X128.288 Y141.438 E1.76206
G1 X127.754 Y141.438 E0.01673
G1 X88.562 Y102.246 E1.73841
M73 P56 R8
G1 X88.562 Y102.779 E0.01673
G1 X127.221 Y141.438 E1.71475
G1 X126.688 Y141.438 E0.01673
G1 X88.562 Y103.312 E1.6911
G1 X88.562 Y103.846 E0.01673
G1 X126.154 Y141.438 E1.66745
G1 X125.621 Y141.438 E0.01673
G1 X88.562 Y104.379 E1.64379
M73 P57 R8
G1 X88.562 Y104.912 E0.01673
G1 X125.088 Y141.438 E1.62014
G1 X124.555 Y141.438 E0.01673
G1 X88.562 Y105.445 E1.59648
G1 X88.562 Y105.979 E0.01673
G1 X124.021 Y141.438 E1.57283
G1 X123.488 Y141.438 E0.01673
G1 X88.562 Y106.512 E1.54918
G1 X88.562 Y107.045 E0.01673
G1 X122.955 Y141.438 E1.52552
M73 P58 R8
G1 X122.422 Y141.438 E0.01673
G1 X88.562 Y107.578 E1.50187
