; generated by SuperSlicer 2.5.59 on 2022-10-04 at 07:21:12 UTC

; 

; external perimeters extrusion width = 0.45mm
; perimeters extrusion width = 0.45mm
; infill extrusion width = 0.45mm
; solid infill extrusion width = 0.45mm
; top infill extrusion width = 0.40mm
; first layer extrusion width = 0.42mm

; object:{"name":"Shape-Box","id":"Shape-Box id:0 copy 0","object_center":[125.000000,105.000000,0.000000],"boundingbox_center":[125.000000,105.000000,0.250000],"boundingbox_size":[100.000000,100.000000,0.500000]}
; plater:{"center":[125.000000,105.000000,0.000000],"boundingbox_center":[125.000000,105.000000,0.250000],"boundingbox_size":[100.000000,100.000000,0.500000]}

M73 P0 R35


; Pre-Processed for Cancel-Object support by preprocess_cancellation v0.2.0
; 1 known objects
EXCLUDE_OBJECT_DEFINE NAME=Shape_Box_id_0_copy_0 CENTER=124.897,105.033 POLYGON=[[75.225,55.225],[75.225,154.775],[174.775,154.775],[174.775,55.225],[75.225,55.225]]
;TYPE:Custom
Start : M104 S0
M140 S0
PRINT_START EXTRUDER_TEMP=230 BED_TEMP=70
M107
G21 ; set units to millimeters
G90 ; use absolute coordinates
M83 ; use relative distances for extrusion
M900 K0.05 ; Filament gcode LA 1.5
M900 K30 ; Filament gcode LA 1.0
;_TOOLCHANGE 0
M104 S230 ; set temperature
M109 S230 ; set temperature and wait for it to be reached
M107
;LAYER_CHANGE
;Z:0.2
;HEIGHT:0.2
;BEFORE_LAYER_CHANGE
G92 E0.0
;0.2
TIMELAPSE_TAKE_FRAME

G1 E-0.8 F2100
G1 Z0.4 F10800
;AFTER_LAYER_CHANGE
;0.2
G1 Z0.6
M204 S1000
G1 X74.261 Y55
G1 Z0.2
G1 E0.8 F2100
;TYPE:Skirt
;WIDTH:0.52
G1 F900
G1 X74.261 Y155 E3.96693
M73 P1 R35
G1 X75 Y155.739 E0.04143
M73 P1 R34
G1 X175 Y155.739 E3.96693
G1 X175.739 Y155 E0.04143
G1 X175.739 Y55 E3.96693
G1 X175 Y54.261 E0.04143
G1 X75 Y54.261 E3.96693
M73 P2 R34
G1 X74.304 Y54.958 E0.03905
;WIPE_START
G1 F8640
G1 X74.302 Y58.249 E-0.76
;WIPE_END
G1 E-0.04 F2100
G1 Z0.6 F10800
; printing object Shape-Box id:0 copy 0
EXCLUDE_OBJECT_START NAME=Shape_Box_id_0_copy_0
; acceleration to travel
M204 S1500
G1 X75.547 Y56.186
; decel to extrusion
M204 S800
G1 X75.787 Y55.787
; end travel
G1 Z0.2
G1 E0.8 F2100
;TYPE:Internal perimeter
;WIDTH:0.42
G1 F900
G1 X174.213 Y55.787 E3.08607
G1 X174.213 Y154.213 E3.08607
G1 X75.787 Y154.213 E3.08607
M73 P3 R34
G1 X75.787 Y55.847 E3.08419
G1 X75.41 Y55.41 F10800
;TYPE:External perimeter
G1 F900
G1 X174.59 Y55.41 E3.10972
G1 X174.59 Y154.59 E3.10972
M73 P4 R33
G1 X75.41 Y154.59 E3.10972
G1 X75.41 Y55.47 E3.10784
;WIPE_START
M204 S1000
G1 X75.756 Y55.61 F10800
;WIPE_END
;WIPE_START
G1 F8640
G1 X79.048 Y55.61 E-0.76
;WIPE_END
G1 E-0.04 F2100
G1 Z0.6 F10800
; acceleration to travel
M204 S1500
G1 X154.904 Y55.843
; decel to extrusion
M204 S1000
G1 X173.338 Y55.9
; end travel
G1 Z0.2
G1 E0.8 F2100
;TYPE:Solid infill
;WIDTH:0.420099
G1 F1200
G1 X173.938 Y56.5 E0.02662
G1 X173.938 Y57.034 E0.01672
G1 X172.966 Y56.062 E0.04308
G1 X172.433 Y56.062 E0.01672
G1 X173.938 Y57.567 E0.06673
G1 X173.938 Y58.1 E0.01672
G1 X171.9 Y56.062 E0.09038
G1 X171.367 Y56.062 E0.01672
G1 X173.938 Y58.633 E0.11403
G1 X173.938 Y59.167 E0.01672
G1 X170.833 Y56.062 E0.13768
G1 X170.3 Y56.062 E0.01672
G1 X173.938 Y59.7 E0.16134
G1 X173.938 Y60.233 E0.01672
G1 X169.767 Y56.062 E0.18499
G1 X169.234 Y56.062 E0.01672
G1 X173.938 Y60.766 E0.20864
G1 X173.938 Y61.3 E0.01672
G1 X168.7 Y56.062 E0.23229
G1 X168.167 Y56.062 E0.01672
G1 X173.938 Y61.833 E0.25594
G1 X173.938 Y62.366 E0.01672
G1 X167.634 Y56.062 E0.27959
G1 X167.1 Y56.062 E0.01672
G1 X173.938 Y62.9 E0.30325
G1 X173.938 Y63.433 E0.01672
G1 X166.567 Y56.062 E0.3269
M73 P5 R33
G1 X166.034 Y56.062 E0.01672
G1 X173.938 Y63.966 E0.35055
G1 X173.938 Y64.499 E0.01672
G1 X165.501 Y56.062 E0.3742
G1 X164.967 Y56.062 E0.01672
G1 X173.938 Y65.033 E0.39785
G1 X173.938 Y65.566 E0.01672
G1 X164.434 Y56.062 E0.4215
G1 X163.901 Y56.062 E0.01672
G1 X173.938 Y66.099 E0.44516
G1 X173.938 Y66.632 E0.01672
G1 X163.368 Y56.062 E0.46881
G1 X162.834 Y56.062 E0.01672
G1 X173.938 Y67.166 E0.49246
G1 X173.938 Y67.699 E0.01672
G1 X162.301 Y56.062 E0.51611
G1 X161.768 Y56.062 E0.01672
G1 X173.938 Y68.232 E0.53976
G1 X173.938 Y68.766 E0.01672
G1 X161.234 Y56.062 E0.56341
G1 X160.701 Y56.062 E0.01672
G1 X173.938 Y69.299 E0.58707
G1 X173.938 Y69.832 E0.01672
G1 X160.168 Y56.062 E0.61072
G1 X159.635 Y56.062 E0.01672
G1 X173.938 Y70.365 E0.63437
G1 X173.938 Y70.899 E0.01672
G1 X159.101 Y56.062 E0.65802
G1 X158.568 Y56.062 E0.01672
G1 X173.938 Y71.432 E0.68167
G1 X173.938 Y71.965 E0.01672
G1 X158.035 Y56.062 E0.70532
G1 X157.502 Y56.062 E0.01672
G1 X173.938 Y72.498 E0.72898
G1 X173.938 Y73.032 E0.01672
G1 X156.968 Y56.062 E0.75263
G1 X156.435 Y56.062 E0.01672
G1 X173.938 Y73.565 E0.77628
G1 X173.938 Y74.098 E0.01672
G1 X155.902 Y56.062 E0.79993
G1 X155.369 Y56.062 E0.01672
G1 X173.938 Y74.631 E0.82358
G1 X173.938 Y75.165 E0.01672
G1 X154.835 Y56.062 E0.84723
M73 P6 R33
G1 X154.302 Y56.062 E0.01672
G1 X173.938 Y75.698 E0.87089
G1 X173.938 Y76.231 E0.01672
G1 X153.769 Y56.062 E0.89454
G1 X153.235 Y56.062 E0.01672
G1 X173.938 Y76.765 E0.91819
G1 X173.938 Y77.298 E0.01672
G1 X152.702 Y56.062 E0.94184
G1 X152.169 Y56.062 E0.01672
G1 X173.938 Y77.831 E0.96549
G1 X173.938 Y78.364 E0.01672
G1 X151.636 Y56.062 E0.98914
G1 X151.102 Y56.062 E0.01672
G1 X173.938 Y78.898 E1.0128
G1 X173.938 Y79.431 E0.01672
G1 X150.569 Y56.062 E1.03645
G1 X150.036 Y56.062 E0.01672
G1 X173.938 Y79.964 E1.0601
G1 X173.938 Y80.497 E0.01672
G1 X149.503 Y56.062 E1.08375
G1 X148.969 Y56.062 E0.01672
G1 X173.938 Y81.031 E1.1074
G1 X173.938 Y81.564 E0.01672
G1 X148.436 Y56.062 E1.13105
M73 P6 R32
G1 X147.903 Y56.062 E0.01672
G1 X173.938 Y82.097 E1.15471
M73 P7 R32
G1 X173.938 Y82.631 E0.01672
G1 X147.369 Y56.062 E1.17836
G1 X146.836 Y56.062 E0.01672
G1 X173.938 Y83.164 E1.20201
G1 X173.938 Y83.697 E0.01672
G1 X146.303 Y56.062 E1.22566
G1 X145.77 Y56.062 E0.01672
G1 X173.938 Y84.23 E1.24931
G1 X173.938 Y84.764 E0.01672
G1 X145.236 Y56.062 E1.27296
G1 X144.703 Y56.062 E0.01672
G1 X173.938 Y85.297 E1.29662
G1 X173.938 Y85.83 E0.01672
G1 X144.17 Y56.062 E1.32027
G1 X143.637 Y56.062 E0.01672
G1 X173.938 Y86.363 E1.34392
G1 X173.938 Y86.897 E0.01672
G1 X143.103 Y56.062 E1.36757
G1 X142.57 Y56.062 E0.01672
G1 X173.938 Y87.43 E1.39122
M73 P8 R32
G1 X173.938 Y87.963 E0.01672
G1 X142.037 Y56.062 E1.41487
G1 X141.503 Y56.062 E0.01672
G1 X173.938 Y88.497 E1.43853
G1 X173.938 Y89.03 E0.01672
G1 X140.97 Y56.062 E1.46218
G1 X140.437 Y56.062 E0.01672
G1 X173.938 Y89.563 E1.48583
G1 X173.938 Y90.096 E0.01672
G1 X139.904 Y56.062 E1.50948
G1 X139.37 Y56.062 E0.01672
G1 X173.938 Y90.63 E1.53313
G1 X173.938 Y91.163 E0.01672
G1 X138.837 Y56.062 E1.55679
G1 X138.304 Y56.062 E0.01672
G1 X173.938 Y91.696 E1.58044
G1 X173.938 Y92.229 E0.01672
G1 X137.771 Y56.062 E1.60409
M73 P9 R32
G1 X137.237 Y56.062 E0.01672
G1 X173.938 Y92.763 E1.62774
G1 X173.938 Y93.296 E0.01672
G1 X136.704 Y56.062 E1.65139
G1 X136.171 Y56.062 E0.01672
G1 X173.938 Y93.829 E1.67504
G1 X173.938 Y94.362 E0.01672
G1 X135.638 Y56.062 E1.6987
G1 X135.104 Y56.062 E0.01672
G1 X173.938 Y94.896 E1.72235
G1 X173.938 Y95.429 E0.01672
G1 X134.571 Y56.062 E1.746
M73 P9 R31
G1 X134.038 Y56.062 E0.01672
G1 X173.938 Y95.962 E1.76965
G1 X173.938 Y96.496 E0.01672
G1 X133.504 Y56.062 E1.7933
M73 P10 R31
G1 X132.971 Y56.062 E0.01672
G1 X173.938 Y97.029 E1.81695
G1 X173.938 Y97.562 E0.01672
G1 X132.438 Y56.062 E1.84061
G1 X131.905 Y56.062 E0.01672
G1 X173.938 Y98.095 E1.86426
G1 X173.938 Y98.629 E0.01672
G1 X131.371 Y56.062 E1.88791
G1 X130.838 Y56.062 E0.01672
G1 X173.938 Y99.162 E1.91156
G1 X173.938 Y99.695 E0.01672
G1 X130.305 Y56.062 E1.93521
G1 X129.772 Y56.062 E0.01672
G1 X173.938 Y100.228 E1.95886
M73 P11 R31
G1 X173.938 Y100.762 E0.01672
G1 X129.238 Y56.062 E1.98252
G1 X128.705 Y56.062 E0.01672
G1 X173.938 Y101.295 E2.00617
G1 X173.938 Y101.828 E0.01672
G1 X128.172 Y56.062 E2.02982
G1 X127.638 Y56.062 E0.01672
G1 X173.938 Y102.362 E2.05347
G1 X173.938 Y102.895 E0.01672
G1 X127.105 Y56.062 E2.07712
G1 X126.572 Y56.062 E0.01672
G1 X173.938 Y103.428 E2.10077
M73 P12 R31
G1 X173.938 Y103.961 E0.01672
G1 X126.039 Y56.062 E2.12443
G1 X125.505 Y56.062 E0.01672
G1 X173.938 Y104.495 E2.14808
G1 X173.938 Y105.028 E0.01672
G1 X124.972 Y56.062 E2.17173
G1 X124.439 Y56.062 E0.01672
G1 X173.938 Y105.561 E2.19538
M73 P12 R30
G1 X173.938 Y106.094 E0.01672
G1 X123.906 Y56.062 E2.21903
G1 X123.372 Y56.062 E0.01672
G1 X173.938 Y106.628 E2.24268
M73 P13 R30
G1 X173.938 Y107.161 E0.01672
G1 X122.839 Y56.062 E2.26634
G1 X122.306 Y56.062 E0.01672
G1 X173.938 Y107.694 E2.28999
G1 X173.938 Y108.228 E0.01672
G1 X121.772 Y56.062 E2.31364
G1 X121.239 Y56.062 E0.01672
G1 X173.938 Y108.761 E2.33729
G1 X173.938 Y109.294 E0.01672
G1 X120.706 Y56.062 E2.36094
G1 X120.173 Y56.062 E0.01672
G1 X173.938 Y109.827 E2.38459
M73 P14 R30
G1 X173.938 Y110.361 E0.01672
G1 X119.639 Y56.062 E2.40825
G1 X119.106 Y56.062 E0.01672
G1 X173.938 Y110.894 E2.4319
G1 X173.938 Y111.427 E0.01672
G1 X118.573 Y56.062 E2.45555
G1 X118.04 Y56.062 E0.01672
G1 X173.938 Y111.96 E2.4792
G1 X173.938 Y112.494 E0.01672
G1 X117.506 Y56.062 E2.50285
M73 P15 R30
G1 X116.973 Y56.062 E0.01672
G1 X173.938 Y113.027 E2.5265
G1 X173.938 Y113.56 E0.01672
G1 X116.44 Y56.062 E2.55016
G1 X115.907 Y56.062 E0.01672
G1 X173.938 Y114.093 E2.57381
M73 P15 R29
G1 X173.938 Y114.627 E0.01672
G1 X115.373 Y56.062 E2.59746
G1 X114.84 Y56.062 E0.01672
G1 X173.938 Y115.16 E2.62111
G1 X173.938 Y115.693 E0.01672
G1 X114.307 Y56.062 E2.64476
M73 P16 R29
G1 X113.773 Y56.062 E0.01672
G1 X173.938 Y116.227 E2.66841
G1 X173.938 Y116.76 E0.01672
G1 X113.24 Y56.062 E2.69207
G1 X112.707 Y56.062 E0.01672
G1 X173.938 Y117.293 E2.71572
G1 X173.938 Y117.826 E0.01672
G1 X112.174 Y56.062 E2.73937
G1 X111.64 Y56.062 E0.01672
G1 X173.938 Y118.36 E2.76302
M73 P17 R29
G1 X173.938 Y118.893 E0.01672
G1 X111.107 Y56.062 E2.78667
G1 X110.574 Y56.062 E0.01672
G1 X173.938 Y119.426 E2.81032
G1 X173.938 Y119.959 E0.01672
G1 X110.041 Y56.062 E2.83398
G1 X109.507 Y56.062 E0.01672
G1 X173.938 Y120.493 E2.85763
M73 P18 R29
G1 X173.938 Y121.026 E0.01672
G1 X108.974 Y56.062 E2.88128
M73 P18 R28
G1 X108.441 Y56.062 E0.01672
G1 X173.938 Y121.559 E2.90493
G1 X173.938 Y122.093 E0.01672
G1 X107.907 Y56.062 E2.92858
G1 X107.374 Y56.062 E0.01672
G1 X173.938 Y122.626 E2.95223
G1 X173.938 Y123.159 E0.01672
G1 X106.841 Y56.062 E2.97589
M73 P19 R28
G1 X106.308 Y56.062 E0.01672
G1 X173.938 Y123.692 E2.99954
G1 X173.938 Y124.226 E0.01672
G1 X105.774 Y56.062 E3.02319
G1 X105.241 Y56.062 E0.01672
G1 X173.938 Y124.759 E3.04684
G1 X173.938 Y125.292 E0.01672
G1 X104.708 Y56.062 E3.07049
M73 P20 R28
G1 X104.175 Y56.062 E0.01672
G1 X173.938 Y125.825 E3.09414
G1 X173.938 Y126.359 E0.01672
G1 X103.641 Y56.062 E3.1178
G1 X103.108 Y56.062 E0.01672
G1 X173.938 Y126.892 E3.14145
G1 X173.938 Y127.425 E0.01672
G1 X102.575 Y56.062 E3.1651
M73 P21 R28
G1 X102.041 Y56.062 E0.01672
G1 X173.938 Y127.959 E3.18875
M73 P21 R27
G1 X173.938 Y128.492 E0.01672
G1 X101.508 Y56.062 E3.2124
G1 X100.975 Y56.062 E0.01672
G1 X173.938 Y129.025 E3.23605
G1 X173.938 Y129.558 E0.01672
G1 X100.442 Y56.062 E3.25971
M73 P22 R27
G1 X99.908 Y56.062 E0.01672
G1 X173.938 Y130.092 E3.28336
G1 X173.938 Y130.625 E0.01672
G1 X99.375 Y56.062 E3.30701
G1 X98.842 Y56.062 E0.01672
G1 X173.938 Y131.158 E3.33066
G1 X173.938 Y131.691 E0.01672
G1 X98.309 Y56.062 E3.35431
M73 P23 R27
G1 X97.775 Y56.062 E0.01672
G1 X173.938 Y132.225 E3.37797
G1 X173.938 Y132.758 E0.01672
G1 X97.242 Y56.062 E3.40162
G1 X96.709 Y56.062 E0.01672
G1 X173.938 Y133.291 E3.42527
G1 X173.938 Y133.824 E0.01672
G1 X96.176 Y56.062 E3.44892
M73 P24 R26
G1 X95.642 Y56.062 E0.01672
G1 X173.938 Y134.358 E3.47257
G1 X173.938 Y134.891 E0.01672
G1 X95.109 Y56.062 E3.49622
G1 X94.576 Y56.062 E0.01672
G1 X173.938 Y135.424 E3.51988
G1 X173.938 Y135.958 E0.01672
G1 X94.042 Y56.062 E3.54353
M73 P25 R26
G1 X93.509 Y56.062 E0.01672
G1 X173.938 Y136.491 E3.56718
G1 X173.938 Y137.024 E0.01672
G1 X92.976 Y56.062 E3.59083
G1 X92.443 Y56.062 E0.01672
G1 X173.938 Y137.557 E3.61448
G1 X173.938 Y138.091 E0.01672
G1 X91.909 Y56.062 E3.63813
M73 P26 R26
G1 X91.376 Y56.062 E0.01672
G1 X173.938 Y138.624 E3.66179
G1 X173.938 Y139.157 E0.01672
G1 X90.843 Y56.062 E3.68544
M73 P26 R25
G1 X90.31 Y56.062 E0.01672
G1 X173.938 Y139.69 E3.70909
M73 P27 R25
G1 X173.938 Y140.224 E0.01672
G1 X89.776 Y56.062 E3.73274
G1 X89.243 Y56.062 E0.01672
G1 X173.938 Y140.757 E3.75639
G1 X173.938 Y141.29 E0.01672
G1 X88.71 Y56.062 E3.78004
G1 X88.176 Y56.062 E0.01672
G1 X173.938 Y141.824 E3.8037
M73 P28 R25
G1 X173.938 Y142.357 E0.01672
G1 X87.643 Y56.062 E3.82735
G1 X87.11 Y56.062 E0.01672
G1 X173.938 Y142.89 E3.851
G1 X173.938 Y143.423 E0.01672
G1 X86.577 Y56.062 E3.87465
M73 P29 R25
G1 X86.043 Y56.062 E0.01672
G1 X173.938 Y143.957 E3.8983
G1 X173.938 Y144.49 E0.01672
G1 X85.51 Y56.062 E3.92195
M73 P29 R24
G1 X84.977 Y56.062 E0.01672
G1 X173.938 Y145.023 E3.94561
G1 X173.938 Y145.556 E0.01672
G1 X84.444 Y56.062 E3.96926
M73 P30 R24
G1 X83.91 Y56.062 E0.01672
G1 X173.938 Y146.09 E3.99291
G1 X173.938 Y146.623 E0.01672
G1 X83.377 Y56.062 E4.01656
G1 X82.844 Y56.062 E0.01672
G1 X173.938 Y147.156 E4.04021
M73 P31 R24
G1 X173.938 Y147.69 E0.01672
G1 X82.31 Y56.062 E4.06386
G1 X81.777 Y56.062 E0.01672
G1 X173.938 Y148.223 E4.08752
G1 X173.938 Y148.756 E0.01672
G1 X81.244 Y56.062 E4.11117
M73 P32 R24
G1 X80.711 Y56.062 E0.01672
G1 X173.938 Y149.289 E4.13482
M73 P32 R23
G1 X173.938 Y149.823 E0.01672
G1 X80.177 Y56.062 E4.15847
G1 X79.644 Y56.062 E0.01672
G1 X173.938 Y150.356 E4.18212
G1 X173.938 Y150.889 E0.01672
G1 X79.111 Y56.062 E4.20577
M73 P33 R23
G1 X78.578 Y56.062 E0.01672
G1 X173.938 Y151.422 E4.22943
G1 X173.938 Y151.956 E0.01672
G1 X78.044 Y56.062 E4.25308
G1 X77.511 Y56.062 E0.01672
G1 X173.938 Y152.489 E4.27673
M73 P34 R23
G1 X173.938 Y153.022 E0.01672
G1 X76.978 Y56.062 E4.30038
G1 X76.445 Y56.062 E0.01672
G1 X173.938 Y153.555 E4.32403
G1 X173.938 Y153.938 E0.01199
G1 X173.787 Y153.938 E0.00474
G1 X76.062 Y56.213 E4.33428
M73 P35 R22
G1 X76.062 Y56.747 E0.01672
G1 X173.253 Y153.938 E4.31063
G1 X172.72 Y153.938 E0.01672
G1 X76.062 Y57.28 E4.28698
G1 X76.062 Y57.813 E0.01672
G1 X172.187 Y153.938 E4.26333
M73 P36 R22
G1 X171.654 Y153.938 E0.01672
G1 X76.062 Y58.346 E4.23968
G1 X76.062 Y58.88 E0.01672
G1 X171.12 Y153.938 E4.21602
G1 X170.587 Y153.938 E0.01672
G1 X76.062 Y59.413 E4.19237
M73 P37 R22
G1 X76.062 Y59.946 E0.01672
G1 X170.054 Y153.938 E4.16872
G1 X169.52 Y153.938 E0.01672
G1 X76.062 Y60.48 E4.14507
G1 X76.062 Y61.013 E0.01672
G1 X168.987 Y153.938 E4.12142
M73 P38 R21
G1 X168.454 Y153.938 E0.01672
G1 X76.062 Y61.546 E4.09777
G1 X76.062 Y62.079 E0.01672
G1 X167.921 Y153.938 E4.07411
G1 X167.387 Y153.938 E0.01672
G1 X76.062 Y62.613 E4.05046
M73 P39 R21
G1 X76.062 Y63.146 E0.01672
G1 X166.854 Y153.938 E4.02681
G1 X166.321 Y153.938 E0.01672
G1 X76.062 Y63.679 E4.00316
G1 X76.062 Y64.212 E0.01672
G1 X165.788 Y153.938 E3.97951
G1 X165.254 Y153.938 E0.01672
G1 X76.062 Y64.746 E3.95586
M73 P40 R21
G1 X76.062 Y65.279 E0.01672
G1 X164.721 Y153.938 E3.9322
G1 X164.188 Y153.938 E0.01672
G1 X76.062 Y65.812 E3.90855
M73 P40 R20
G1 X76.062 Y66.346 E0.01672
G1 X163.654 Y153.938 E3.8849
M73 P41 R20
G1 X163.121 Y153.938 E0.01672
G1 X76.062 Y66.879 E3.86125
G1 X76.062 Y67.412 E0.01672
G1 X162.588 Y153.938 E3.8376
G1 X162.055 Y153.938 E0.01672
G1 X76.062 Y67.945 E3.81395
G1 X76.062 Y68.479 E0.01672
G1 X161.521 Y153.938 E3.79029
M73 P42 R20
G1 X160.988 Y153.938 E0.01672
G1 X76.062 Y69.012 E3.76664
G1 X76.062 Y69.545 E0.01672
G1 X160.455 Y153.938 E3.74299
G1 X159.922 Y153.938 E0.01672
G1 X76.062 Y70.078 E3.71934
M73 P43 R20
G1 X76.062 Y70.612 E0.01672
G1 X159.388 Y153.938 E3.69569
G1 X158.855 Y153.938 E0.01672
G1 X76.062 Y71.145 E3.67204
M73 P43 R19
G1 X76.062 Y71.678 E0.01672
G1 X158.322 Y153.938 E3.64838
G1 X157.788 Y153.938 E0.01672
G1 X76.062 Y72.212 E3.62473
M73 P44 R19
G1 X76.062 Y72.745 E0.01672
G1 X157.255 Y153.938 E3.60108
G1 X156.722 Y153.938 E0.01672
G1 X76.062 Y73.278 E3.57743
G1 X76.062 Y73.811 E0.01672
G1 X156.189 Y153.938 E3.55378
M73 P45 R19
G1 X155.655 Y153.938 E0.01672
