; generated by SuperSlicer 2.5.59 on 2022-10-05 at 06:47:40 UTC

; 

; external perimeters extrusion width = 0.45mm
; perimeters extrusion width = 0.45mm
; infill extrusion width = 0.45mm
; solid infill extrusion width = 0.45mm
; top infill extrusion width = 0.40mm
; first layer extrusion width = 0.42mm

; object:{"name":"shortSide (1)","id":"shortSide (1).stl id:0 copy 0","object_center":[125.000000,105.000000,0.000000],"boundingbox_center":[125.000000,105.000000,4.675000],"boundingbox_size":[198.500000,198.484818,9.350000]}
; plater:{"center":[125.000000,105.000000,0.000000],"boundingbox_center":[125.000000,105.000000,4.675000],"boundingbox_size":[198.500000,198.484818,9.350000]}

M73 P0 R198


; Pre-Processed for Cancel-Object support by preprocess_cancellation v0.2.0
; 1 known objects
EXCLUDE_OBJECT_DEFINE NAME=shortSide_1_stl_id_0_copy_0 CENTER=125.213,104.702 POLYGON=[[123.775,5.983],[121.326,6.043],[118.88,6.164],[116.437,6.346],[114.0,6.588],[111.569,6.89],[109.146,7.252],[106.733,7.674],[104.332,8.156],[101.943,8.697],[99.568,9.297],[97.208,9.955],[94.866,10.671],[92.542,11.446],[90.238,12.277],[87.955,13.165],[85.695,14.11],[83.459,15.11],[81.248,16.165],[79.064,17.274],[76.908,18.437],[74.782,19.653],[72.686,20.921],[70.623,22.241],[68.592,23.611],[66.597,25.031],[64.636,26.5],[62.713,28.017],[60.828,29.582],[58.982,31.192],[57.177,32.847],[55.413,34.547],[53.692,36.29],[52.014,38.075],[50.381,39.9],[48.794,41.766],[47.253,43.67],[45.76,45.612],[44.315,47.59],[42.92,49.603],[41.575,51.651],[40.281,53.73],[39.038,55.841],[37.849,57.983],[36.713,60.153],[35.63,62.35],[34.603,64.574],[33.63,66.822],[32.714,69.094],[31.854,71.387],[31.051,73.702],[30.306,76.035],[29.618,78.386],[28.989,80.753],[28.419,83.135],[27.908,85.531],[27.456,87.939],[27.064,90.356],[26.731,92.783],[26.459,95.218],[26.248,97.658],[26.096,100.103],[26.005,102.551],[25.975,105.0],[26.005,107.449],[26.096,109.897],[26.248,112.342],[26.459,114.782],[26.731,117.217],[27.064,119.644],[27.456,122.061],[27.908,124.469],[28.419,126.865],[28.989,129.247],[29.618,131.614],[30.306,133.965],[31.051,136.298],[31.854,138.613],[32.714,140.906],[33.63,143.178],[34.603,145.426],[35.63,147.65],[36.713,149.847],[37.849,152.017],[39.038,154.159],[40.281,156.27],[41.575,158.349],[42.92,160.397],[44.315,162.41],[45.76,164.388],[47.253,166.33],[48.794,168.234],[50.381,170.1],[52.014,171.925],[53.692,173.71],[55.413,175.453],[57.177,177.153],[58.982,178.808],[60.828,180.418],[62.713,181.983],[64.636,183.5],[66.597,184.969],[68.592,186.389],[70.623,187.759],[72.686,189.079],[74.782,190.347],[76.908,191.563],[79.064,192.726],[81.248,193.835],[83.459,194.89],[85.695,195.89],[87.955,196.835],[90.238,197.723],[92.542,198.554],[94.866,199.329],[97.208,200.045],[99.568,200.703],[101.943,201.303],[104.332,201.844],[106.733,202.326],[109.146,202.748],[111.569,203.11],[114.0,203.412],[116.437,203.654],[118.88,203.836],[121.326,203.957],[123.775,204.017],[126.225,204.017],[128.674,203.957],[131.12,203.836],[133.563,203.654],[136.0,203.412],[138.431,203.11],[140.854,202.748],[143.267,202.326],[145.668,201.844],[148.057,201.303],[150.432,200.703],[152.792,200.045],[155.134,199.329],[157.458,198.554],[159.762,197.723],[162.045,196.835],[164.305,195.89],[166.541,194.89],[168.752,193.835],[170.936,192.726],[173.092,191.563],[175.218,190.347],[177.314,189.079],[179.377,187.759],[181.408,186.389],[183.403,184.969],[185.364,183.5],[187.287,181.983],[189.172,180.418],[191.018,178.808],[192.823,177.153],[194.587,175.453],[196.308,173.71],[197.986,171.925],[199.619,170.1],[201.206,168.234],[202.747,166.33],[204.24,164.388],[205.685,162.41],[207.08,160.397],[208.425,158.349],[209.719,156.27],[210.962,154.159],[212.151,152.017],[213.287,149.847],[214.37,147.65],[215.397,145.426],[216.37,143.178],[217.286,140.906],[218.146,138.613],[218.949,136.298],[219.694,133.965],[220.382,131.614],[221.011,129.247],[221.581,126.865],[222.092,124.469],[222.544,122.061],[222.936,119.644],[223.269,117.217],[223.541,114.782],[223.752,112.342],[223.904,109.897],[223.995,107.449],[224.025,105.0],[223.995,102.551],[223.904,100.103],[223.752,97.658],[223.541,95.218],[223.269,92.783],[222.936,90.356],[222.544,87.939],[222.092,85.531],[221.581,83.135],[221.011,80.753],[220.382,78.386],[219.694,76.035],[218.949,73.702],[218.146,71.387],[217.286,69.094],[216.37,66.822],[215.397,64.574],[214.37,62.35],[213.287,60.153],[212.151,57.983],[210.962,55.841],[209.719,53.73],[208.425,51.651],[207.08,49.603],[205.685,47.59],[204.24,45.612],[202.747,43.67],[201.206,41.766],[199.619,39.9],[197.986,38.075],[196.308,36.29],[194.587,34.547],[192.823,32.847],[191.018,31.192],[189.172,29.582],[187.287,28.017],[185.364,26.5],[183.403,25.031],[181.408,23.611],[179.377,22.241],[177.314,20.921],[175.218,19.653],[173.092,18.437],[170.936,17.274],[168.752,16.165],[166.541,15.11],[164.305,14.11],[162.045,13.165],[159.762,12.277],[157.458,11.446],[155.134,10.671],[152.792,9.955],[150.432,9.297],[148.057,8.697],[145.668,8.156],[143.267,7.674],[140.854,7.252],[138.431,6.89],[136.0,6.588],[133.563,6.346],[131.12,6.164],[128.674,6.043],[126.225,5.983],[123.775,5.983]]
;TYPE:Custom
Start : M104 S0
M140 S0
PRINT_START EXTRUDER_TEMP=230 BED_TEMP=70
M107
G21 ; set units to millimeters
G90 ; use absolute coordinates
M83 ; use relative distances for extrusion
M900 K0.05 ; Filament gcode LA 1.5
M900 K30 ; Filament gcode LA 1.0
;_TOOLCHANGE 0
M104 S230 ; set temperature
M109 S230 ; set temperature and wait for it to be reached
M107
;LAYER_CHANGE
;Z:0.2
;HEIGHT:0.2
;BEFORE_LAYER_CHANGE
G92 E0.0
;0.2
TIMELAPSE_TAKE_FRAME

G1 E-0.8 F2100
M73 P0 R197
G1 Z0.4 F10800
;AFTER_LAYER_CHANGE
;0.2
G1 Z0.6
M204 S1000
G1 X48.707 Y40.409
G1 Z0.2
G1 E0.8 F2100
;TYPE:Skirt
;WIDTH:0.52
G1 F900
G1 X46.491 Y43.081 E0.13772
G1 X43.525 Y47.039 E0.19622
G1 X40.758 Y51.139 E0.19622
G1 X38.198 Y55.371 E0.19621
G1 X35.849 Y59.725 E0.19622
G1 X33.719 Y64.189 E0.19622
G1 X31.813 Y68.753 E0.19622
G1 X30.134 Y73.406 E0.19622
G1 X28.688 Y78.136 E0.19622
G1 X27.477 Y82.932 E0.19622
G1 X26.505 Y87.782 E0.19622
G1 X25.774 Y92.674 E0.19622
G1 X25.286 Y97.596 E0.19622
G1 X25.042 Y102.536 E0.19622
G1 X25.042 Y107.482 E0.19622
G1 X25.287 Y112.423 E0.19622
G1 X25.776 Y117.345 E0.19622
G1 X26.508 Y122.236 E0.19622
G1 X27.481 Y127.086 E0.19622
G1 X28.693 Y131.882 E0.19621
G1 X30.14 Y136.612 E0.19622
G1 X31.819 Y141.264 E0.19622
G1 X33.727 Y145.828 E0.19622
G1 X35.858 Y150.292 E0.19622
G1 X38.207 Y154.645 E0.19622
G1 X40.768 Y158.876 E0.19621
G1 X43.535 Y162.976 E0.19622
G1 X46.502 Y166.934 E0.19622
G1 X49.661 Y170.74 E0.19622
G1 X52.992 Y174.372 E0.19549
G1 X56.51 Y177.848 E0.19622
G1 X60.197 Y181.146 E0.19622
G1 X64.042 Y184.258 E0.19622
G1 X68.036 Y187.175 E0.19622
G1 X72.17 Y189.892 E0.19622
G1 X76.433 Y192.401 E0.19622
G1 X80.814 Y194.696 E0.19622
G1 X85.304 Y196.771 E0.19622
G1 X89.891 Y198.622 E0.19622
G1 X94.564 Y200.244 E0.19622
G1 X99.311 Y201.632 E0.19622
G1 X104.122 Y202.784 E0.19622
G1 X108.983 Y203.697 E0.19622
G1 X113.884 Y204.369 E0.19622
G1 X118.811 Y204.797 E0.19622
G1 X123.754 Y204.981 E0.19622
G1 X128.7 Y204.92 E0.19622
G1 X133.637 Y204.615 E0.19622
G1 X138.553 Y204.066 E0.19622
G1 X143.435 Y203.274 E0.19622
G1 X145.878 Y202.784 E0.09884
G1 X150.689 Y201.632 E0.19622
G1 X155.436 Y200.244 E0.19622
G1 X160.109 Y198.622 E0.19622
G1 X164.696 Y196.771 E0.19622
G1 X169.186 Y194.696 E0.19622
G1 X173.567 Y192.401 E0.19622
G1 X177.83 Y189.892 E0.19622
G1 X181.964 Y187.175 E0.19622
G1 X185.958 Y184.258 E0.19622
G1 X189.803 Y181.146 E0.19622
G1 X193.49 Y177.848 E0.19622
G1 X197.008 Y174.372 E0.19622
G1 X200.351 Y170.726 E0.19622
G1 X203.509 Y166.919 E0.19622
G1 X206.475 Y162.961 E0.19622
G1 X209.242 Y158.861 E0.19622
G1 X211.802 Y154.629 E0.19621
G1 X214.151 Y150.275 E0.19622
G1 X216.281 Y145.811 E0.19622
G1 X218.187 Y141.247 E0.19622
G1 X219.866 Y136.594 E0.19622
G1 X221.312 Y131.864 E0.19622
G1 X222.523 Y127.068 E0.19622
G1 X223.495 Y122.218 E0.19622
G1 X224.226 Y117.326 E0.19622
G1 X224.714 Y112.404 E0.19622
G1 X224.958 Y107.464 E0.19622
G1 X224.958 Y102.518 E0.19622
G1 X224.713 Y97.577 E0.19622
G1 X224.224 Y92.655 E0.19622
G1 X223.492 Y87.764 E0.19622
G1 X222.519 Y82.914 E0.19622
G1 X221.307 Y78.118 E0.19621
G1 X219.86 Y73.388 E0.19622
G1 X218.181 Y68.736 E0.19622
G1 X216.273 Y64.172 E0.19622
G1 X214.142 Y59.708 E0.19622
G1 X211.793 Y55.355 E0.19622
G1 X209.232 Y51.124 E0.19621
G1 X206.465 Y47.024 E0.19622
G1 X203.498 Y43.066 E0.19622
G1 X200.339 Y39.26 E0.19622
G1 X197.008 Y35.628 E0.19549
G1 X193.49 Y32.152 E0.19622
G1 X189.803 Y28.854 E0.19622
G1 X185.958 Y25.742 E0.19622
G1 X181.964 Y22.825 E0.19622
G1 X177.83 Y20.108 E0.19622
G1 X173.567 Y17.599 E0.19622
G1 X169.186 Y15.304 E0.19622
G1 X164.696 Y13.229 E0.19622
G1 X160.109 Y11.378 E0.19622
G1 X155.436 Y9.756 E0.19622
G1 X150.689 Y8.368 E0.19622
G1 X145.878 Y7.216 E0.19622
G1 X141.017 Y6.303 E0.19622
G1 X136.116 Y5.631 E0.19622
G1 X131.189 Y5.203 E0.19622
G1 X126.246 Y5.019 E0.19622
G1 X121.3 Y5.08 E0.19622
G1 X116.363 Y5.385 E0.19622
G1 X111.447 Y5.934 E0.19622
G1 X106.565 Y6.726 E0.19622
G1 X104.122 Y7.216 E0.09884
G1 X99.311 Y8.368 E0.19622
G1 X94.564 Y9.756 E0.19622
G1 X89.891 Y11.378 E0.19622
G1 X85.304 Y13.229 E0.19622
G1 X80.814 Y15.304 E0.19622
G1 X76.433 Y17.599 E0.19622
G1 X72.17 Y20.108 E0.19622
G1 X68.036 Y22.825 E0.19622
G1 X64.042 Y25.742 E0.19622
G1 X60.197 Y28.854 E0.19622
G1 X56.51 Y32.152 E0.19622
G1 X52.992 Y35.628 E0.19622
G1 X49.649 Y39.274 E0.19622
G1 X48.746 Y40.363 E0.05612
;WIPE_START
G1 F8640
G1 X46.644 Y42.896 E-0.76
;WIPE_END
G1 E-0.04 F2100
G1 Z0.6 F10800
; printing object shortSide (1).stl id:0 copy 0
EXCLUDE_OBJECT_START NAME=shortSide_1_stl_id_0_copy_0
; acceleration to travel
M204 S1500
G1 X94.925 Y79.741
; decel to extrusion
M204 S800
G1 X104.26 Y86.865
; end travel
G1 Z0.2
G1 E0.8 F2100
;TYPE:Internal perimeter
;WIDTH:0.42
G1 F900
G1 X103.464 Y87.815 E0.03888
G1 X102.67 Y88.86 E0.04112
G1 X101.928 Y89.94 E0.04112
G1 X101.237 Y91.055 E0.04112
G1 X100.6 Y92.202 E0.04112
G1 X100.019 Y93.377 E0.04112
G1 X99.494 Y94.579 E0.04112
G1 X99.027 Y95.805 E0.04112
G1 X98.619 Y97.051 E0.04112
G1 X98.271 Y98.316 E0.04112
G1 X97.983 Y99.595 E0.04112
G1 X97.761 Y100.861 E0.0403
G1 X97.592 Y102.187 E0.04193
G1 X97.489 Y103.495 E0.04113
G1 X97.448 Y104.806 E0.04112
G1 X97.47 Y106.117 E0.04109
G1 X97.555 Y107.425 E0.0411
G1 X97.701 Y108.727 E0.04109
G1 X97.909 Y110.021 E0.0411
G1 X98.179 Y111.304 E0.04112
G1 X98.509 Y112.574 E0.04112
G1 X98.899 Y113.826 E0.04112
G1 X99.349 Y115.058 E0.04112
G1 X99.857 Y116.267 E0.04112
G1 X100.421 Y117.451 E0.04112
G1 X101.042 Y118.606 E0.04112
G1 X101.716 Y119.731 E0.04112
G1 X102.444 Y120.822 E0.04112
G1 X103.222 Y121.877 E0.04112
G1 X104.05 Y122.895 E0.04112
G1 X104.925 Y123.871 E0.04112
G1 X105.846 Y124.805 E0.04112
G1 X106.81 Y125.694 E0.04112
G1 X107.815 Y126.536 E0.04112
G1 X108.86 Y127.33 E0.04112
G1 X109.94 Y128.072 E0.04112
G1 X111.055 Y128.763 E0.04112
G1 X112.202 Y129.4 E0.04112
G1 X113.377 Y129.981 E0.04112
G1 X114.579 Y130.506 E0.04112
G1 X115.805 Y130.973 E0.04112
G1 X117.051 Y131.381 E0.04112
G1 X118.316 Y131.729 E0.04112
G1 X119.595 Y132.017 E0.04112
G1 X120.887 Y132.244 E0.04112
G1 X122.188 Y132.408 E0.04112
G1 X123.495 Y132.511 E0.04112
G1 X124.806 Y132.552 E0.04112
G1 X126.117 Y132.53 E0.04109
G1 X127.425 Y132.445 E0.0411
G1 X128.727 Y132.299 E0.04109
G1 X130.021 Y132.091 E0.0411
G1 X131.304 Y131.821 E0.04112
G1 X132.574 Y131.491 E0.04112
G1 X133.826 Y131.101 E0.04112
G1 X135.058 Y130.651 E0.04112
G1 X136.267 Y130.143 E0.04112
G1 X137.451 Y129.579 E0.04112
G1 X138.606 Y128.958 E0.04112
G1 X139.731 Y128.284 E0.04112
G1 X140.822 Y127.556 E0.04112
G1 X141.877 Y126.778 E0.04112
G1 X142.895 Y125.95 E0.04112
G1 X143.871 Y125.075 E0.04112
G1 X144.805 Y124.154 E0.04112
G1 X145.694 Y123.19 E0.04112
G1 X146.536 Y122.185 E0.04112
G1 X147.33 Y121.14 E0.04112
G1 X148.072 Y120.06 E0.04112
G1 X148.763 Y118.945 E0.04112
G1 X149.4 Y117.798 E0.04112
G1 X149.981 Y116.623 E0.04112
G1 X150.506 Y115.421 E0.04112
G1 X150.973 Y114.195 E0.04112
G1 X151.381 Y112.949 E0.04112
G1 X151.729 Y111.684 E0.04112
G1 X152.017 Y110.405 E0.04112
G1 X152.244 Y109.113 E0.04112
G1 X152.408 Y107.812 E0.04112
G1 X152.511 Y106.505 E0.04112
G1 X152.552 Y105.194 E0.04112
G1 X152.53 Y103.883 E0.04109
G1 X152.445 Y102.575 E0.0411
G1 X152.299 Y101.273 E0.04109
G1 X152.091 Y99.979 E0.0411
G1 X151.821 Y98.696 E0.04112
G1 X151.491 Y97.426 E0.04112
G1 X151.101 Y96.174 E0.04112
G1 X150.651 Y94.942 E0.04112
G1 X150.143 Y93.733 E0.04112
G1 X149.579 Y92.549 E0.04112
G1 X148.958 Y91.394 E0.04112
G1 X148.284 Y90.269 E0.04112
G1 X147.556 Y89.178 E0.04112
G1 X146.778 Y88.123 E0.04112
G1 X145.95 Y87.105 E0.04112
G1 X145.075 Y86.129 E0.04112
G1 X144.154 Y85.195 E0.04112
G1 X143.19 Y84.306 E0.04112
G1 X142.185 Y83.464 E0.04112
G1 X141.14 Y82.67 E0.04112
G1 X140.06 Y81.928 E0.04112
G1 X138.945 Y81.237 E0.04112
G1 X137.798 Y80.6 E0.04112
G1 X136.623 Y80.019 E0.04112
G1 X135.421 Y79.494 E0.04112
G1 X134.195 Y79.027 E0.04112
G1 X132.949 Y78.619 E0.04112
G1 X131.684 Y78.271 E0.04112
G1 X130.405 Y77.983 E0.04112
G1 X129.113 Y77.756 E0.04112
G1 X127.812 Y77.592 E0.04112
G1 X126.505 Y77.489 E0.04112
G1 X125.194 Y77.448 E0.04112
G1 X124.759 Y77.456 E0.01363
G1 X123.909 Y77.47 E0.02667
G1 X122.576 Y77.555 E0.04187
G1 X121.273 Y77.701 E0.0411
G1 X119.979 Y77.909 E0.0411
G1 X118.696 Y78.179 E0.04112
G1 X117.426 Y78.509 E0.04112
G1 X116.174 Y78.899 E0.04112
G1 X114.942 Y79.349 E0.04112
G1 X113.733 Y79.857 E0.04112
G1 X112.549 Y80.421 E0.04112
G1 X111.394 Y81.042 E0.04112
G1 X110.269 Y81.716 E0.04112
G1 X109.178 Y82.444 E0.04112
G1 X108.123 Y83.222 E0.04112
G1 X107.105 Y84.05 E0.04112
G1 X106.129 Y84.925 E0.04112
G1 X105.195 Y85.846 E0.04112
G1 X104.298 Y86.819 E0.04148
G1 X104.549 Y87.107 F10800
;TYPE:External perimeter
G1 F900
G1 X103.759 Y88.05 E0.0386
G1 X102.976 Y89.08 E0.04056
G1 X102.243 Y90.147 E0.04056
G1 X101.562 Y91.246 E0.04056
G1 X100.934 Y92.377 E0.04056
G1 X100.361 Y93.537 E0.04056
G1 X99.843 Y94.722 E0.04056
G1 X99.383 Y95.931 E0.04056
G1 X98.98 Y97.16 E0.04056
G1 X98.637 Y98.407 E0.04056
G1 X98.353 Y99.669 E0.04056
G1 X98.134 Y100.918 E0.03975
G1 X97.967 Y102.226 E0.04136
G1 X97.865 Y103.516 E0.04056
G1 X97.826 Y104.809 E0.04056
G1 X97.847 Y106.101 E0.04053
G1 X97.93 Y107.391 E0.04053
G1 X98.075 Y108.676 E0.04053
G1 X98.28 Y109.952 E0.04053
G1 X98.546 Y111.218 E0.04056
G1 X98.872 Y112.47 E0.04056
G1 X99.257 Y113.705 E0.04056
G1 X99.7 Y114.92 E0.04056
G1 X100.201 Y116.113 E0.04056
M73 P0 R196
G1 X100.758 Y117.28 E0.04056
G1 X101.37 Y118.42 E0.04056
G1 X102.035 Y119.529 E0.04056
G1 X102.752 Y120.605 E0.04056
G1 X103.52 Y121.646 E0.04056
G1 X104.337 Y122.65 E0.04056
G1 X105.2 Y123.613 E0.04056
G1 X106.108 Y124.534 E0.04056
G1 X107.059 Y125.411 E0.04056
G1 X108.05 Y126.241 E0.04056
G1 X109.08 Y127.024 E0.04056
G1 X110.147 Y127.757 E0.04056
G1 X111.246 Y128.438 E0.04056
G1 X112.377 Y129.066 E0.04056
G1 X113.537 Y129.639 E0.04056
G1 X114.722 Y130.157 E0.04056
G1 X115.931 Y130.617 E0.04056
G1 X117.16 Y131.02 E0.04056
G1 X118.407 Y131.363 E0.04056
G1 X119.669 Y131.647 E0.04056
G1 X120.943 Y131.871 E0.04056
G1 X122.226 Y132.033 E0.04056
G1 X123.516 Y132.135 E0.04056
G1 X124.809 Y132.174 E0.04056
G1 X126.101 Y132.153 E0.04053
G1 X127.391 Y132.07 E0.04053
G1 X128.676 Y131.925 E0.04053
G1 X129.952 Y131.72 E0.04053
G1 X131.218 Y131.454 E0.04056
G1 X132.47 Y131.128 E0.04056
G1 X133.705 Y130.743 E0.04056
G1 X134.92 Y130.3 E0.04056
G1 X136.113 Y129.799 E0.04056
G1 X137.28 Y129.242 E0.04056
G1 X138.42 Y128.63 E0.04056
G1 X139.529 Y127.965 E0.04056
G1 X140.605 Y127.248 E0.04056
G1 X141.646 Y126.48 E0.04056
G1 X142.65 Y125.663 E0.04056
G1 X143.613 Y124.8 E0.04056
G1 X144.534 Y123.892 E0.04056
G1 X145.411 Y122.941 E0.04056
G1 X146.241 Y121.95 E0.04056
G1 X147.024 Y120.92 E0.04056
G1 X147.757 Y119.853 E0.04056
G1 X148.438 Y118.754 E0.04056
G1 X149.066 Y117.623 E0.04056
G1 X149.639 Y116.463 E0.04056
G1 X150.157 Y115.278 E0.04056
G1 X150.617 Y114.069 E0.04056
G1 X151.02 Y112.84 E0.04056
