; generated by SuperSlicer 2.3.57 on 2022-05-23 at 20:18:52 UTC

; 

; external perimeters extrusion width = 0.45mm
; perimeters extrusion width = 0.45mm
; infill extrusion width = 0.45mm
; solid infill extrusion width = 0.45mm
; top infill extrusion width = 0.40mm
; first layer extrusion width = 0.42mm

; object:{"name":"square_tower","id":"square_tower.stl id:0 copy 0","object_center":[125.000000,105.000000,0.000000],"boundingbox_center":[125.000000,105.000000,25.000000],"boundingbox_size":[66.000000,65.945206,50.000000]}
; Total objects to print: 1
M486 T1
; plater:{"center":[125.000000,105.000000,0.000000],"boundingbox_center":[125.000000,105.000000,25.000000],"boundingbox_size":[66.000000,65.945206,50.000000]}

M73 P0 R61
M73 Q0 S61
;TYPE:Custom
M104 S0
M140 S0
PRINT_START EXTRUDER_TEMP=245 BED_TEMP=85
M107
G21 ; set units to millimeters
G90 ; use absolute coordinates
M83 ; use relative distances for extrusion
M900 K0.08 ; Filament gcode LA 1.5
M900 K45 ; Filament gcode LA 1.0
M107
;LAYER_CHANGE
;Z:0.2
;HEIGHT:0.2
;BEFORE_LAYER_CHANGE
G92 E0.0
;0.2


G1 E-1 F2100
G1 Z0.2 F6000
G1 Z0.2
;AFTER_LAYER_CHANGE
;0.2
G1 Z0.4
M204 P1500
G1 X91.287 Y72.568
G1 Z0.2
G1 E1 F2100
;TYPE:Skirt
;WIDTH:0.52
G1 F1200
G1 X90.319 Y74.229 E0.07626
G1 X89.916 Y75.511 E0.0533
G1 X89.762 Y76.945 E0.0572
G1 X89.762 Y133.031 E2.22492
G1 X89.921 Y134.51 E0.05901
G1 X90.389 Y135.949 E0.06003
G1 X91.145 Y137.256 E0.05988
G1 X92.163 Y138.385 E0.06032
G1 X93.36 Y139.256 E0.05871
G1 X94.571 Y139.812 E0.05287
G1 X96.411 Y140.21 E0.07467
G1 X153.555 Y140.211 E2.26688
G1 X155.193 Y139.898 E0.06613
G1 X156.562 Y139.3 E0.05929
G1 X157.814 Y138.405 E0.06105
G1 X158.713 Y137.432 E0.05256
G1 X159.681 Y135.771 E0.07626
G1 X160.084 Y134.489 E0.0533
G1 X160.238 Y133.055 E0.0572
G1 X160.232 Y76.829 E2.23048
G1 X160.075 Y75.472 E0.05418
G1 X159.612 Y74.054 E0.05915
G1 X158.87 Y72.765 E0.05901
G1 X157.967 Y71.741 E0.05418
G1 X156.669 Y70.761 E0.06452
G1 X155.446 Y70.195 E0.05344
G1 X153.526 Y69.789 E0.07784
G1 X96.378 Y69.791 E2.26703
G1 X94.793 Y70.106 E0.0641
G1 X93.428 Y70.705 E0.05915
G1 X92.186 Y71.595 E0.06061
G1 X91.328 Y72.524 E0.05018
; INIT printing object square_tower.stl id:0 copy 0
M104 S245 ; set temperature
;WIPE_START
G1 F4800
M204 P1000
G1 X90.319 Y74.229 E-0.82337
G1 X90.227 Y74.52 E-0.12663
;WIPE_END
G1 E-0.05 F2100
G1 Z0.4 F6000
; printing object square_tower.stl id:0 copy 0
M486 S0
M204 P1500
G1 X94.72 Y76.866
M204 P1000
G1 X99.213 Y79.213
G1 Z0.2
G1 E1 F2100
;TYPE:Internal perimeter
;WIDTH:0.42
G1 F1200
G1 X99.213 Y99.213 E0.62709
G1 X98.713 Y99.213 E0.01568
G1 X98.713 Y102.787 E0.11207
G1 X99.213 Y102.787 E0.01568
G1 X99.213 Y130.787 E0.87792
G1 X123.213 Y130.787 E0.7525
G1 X123.213 Y131.287 E0.01568
G1 X126.787 Y131.287 E0.11207
G1 X126.787 Y130.787 E0.01568
G1 X150.787 Y130.787 E0.7525
G1 X150.787 Y106.787 E0.7525
G1 X151.287 Y106.787 E0.01568
G1 X151.287 Y103.213 E0.11207
G1 X150.787 Y103.213 E0.01568
G1 X150.787 Y79.213 E0.7525
G1 X126.787 Y79.213 E0.7525
G1 X126.787 Y78.713 E0.01568
G1 X123.213 Y78.713 E0.11207
G1 X123.213 Y79.213 E0.01568
G1 X99.273 Y79.213 E0.75062
M204 P1500
G1 X99.431 Y79.401 F6000
M204 P1000
G1 X99.59 Y79.59
;TYPE:External perimeter
G1 F1200
G1 X99.59 Y99.59 E0.62709
G1 X99.09 Y99.59 E0.01568
G1 X99.09 Y102.41 E0.08842
G1 X99.59 Y102.41 E0.01568
G1 X99.59 Y130.41 E0.87792
G1 X123.59 Y130.41 E0.7525
G1 X123.59 Y130.91 E0.01568
G1 X126.41 Y130.91 E0.08842
G1 X126.41 Y130.41 E0.01568
G1 X150.41 Y130.41 E0.7525
G1 X150.41 Y106.41 E0.7525
G1 X150.91 Y106.41 E0.01568
G1 X150.91 Y103.59 E0.08842
G1 X150.41 Y103.59 E0.01568
G1 X150.41 Y79.59 E0.7525
G1 X126.41 Y79.59 E0.7525
G1 X126.41 Y79.09 E0.01568
G1 X123.59 Y79.09 E0.08842
G1 X123.59 Y79.59 E0.01568
G1 X99.65 Y79.59 E0.75062
;WIPE_START
G1 X99.19 Y79.59 F6000
;WIPE_END
;WIPE_START
G1 F4800
G1 X99.213 Y81.876 E-0.95
;WIPE_END
G1 E-0.05 F2100
G1 Z0.4 F6000
M204 P1500
G1 X97.5 Y81.459
M204 P1000
M73 Q1 S61
G1 X95.787 Y81.042
M73 P1 R61
G1 Z0.2
G1 E1 F2100
;TYPE:Internal perimeter
G1 F1200
G1 X94.896 Y80.645 E0.03059
G1 X94.184 Y80.128 E0.02759
G1 X93.595 Y79.474 E0.02759
G1 X93.155 Y78.712 E0.02759
G1 X92.883 Y77.875 E0.02759
G1 X92.791 Y77 E0.02759
G1 X92.883 Y76.125 E0.02759
G1 X93.155 Y75.288 E0.02759
G1 X93.595 Y74.526 E0.02759
G1 X94.184 Y73.872 E0.02759
G1 X94.896 Y73.355 E0.02759
G1 X95.699 Y72.997 E0.02759
G1 X96.56 Y72.814 E0.02759
G1 X97.44 Y72.814 E0.02759
G1 X97.7 Y72.87 E0.00833
G1 X98.301 Y72.997 E0.01926
G1 X99.104 Y73.355 E0.02759
G1 X99.816 Y73.872 E0.02759
G1 X100.405 Y74.526 E0.02759
G1 X100.845 Y75.288 E0.02759
G1 X101.007 Y75.787 E0.01645
G1 X148.992 Y75.787 E1.50455
G1 X149.155 Y75.289 E0.01644
G1 X149.595 Y74.526 E0.0276
G1 X150.184 Y73.872 E0.02759
G1 X150.896 Y73.355 E0.02759
G1 X151.699 Y72.997 E0.02759
G1 X152.56 Y72.814 E0.02759
G1 X153.44 Y72.814 E0.02758
G1 X154.301 Y72.997 E0.02759
G1 X155.104 Y73.355 E0.02759
G1 X155.816 Y73.872 E0.02759
G1 X156.405 Y74.526 E0.02759
G1 X156.845 Y75.288 E0.02759
G1 X157.117 Y76.125 E0.02759
G1 X157.209 Y77 E0.02759
G1 X157.117 Y77.875 E0.02759
G1 X156.845 Y78.712 E0.02759
G1 X156.405 Y79.474 E0.02759
G1 X155.816 Y80.128 E0.02759
G1 X155.104 Y80.645 E0.02759
G1 X154.213 Y81.042 E0.03059
G1 X154.213 Y128.958 E1.5024
G1 X155.104 Y129.355 E0.03059
G1 X155.816 Y129.872 E0.02759
G1 X156.405 Y130.526 E0.02759
G1 X156.845 Y131.288 E0.02759
G1 X157.117 Y132.125 E0.02759
G1 X157.209 Y133 E0.02759
G1 X157.117 Y133.875 E0.02759
G1 X156.845 Y134.712 E0.02759
G1 X156.405 Y135.474 E0.02759
G1 X155.816 Y136.128 E0.02759
G1 X155.104 Y136.645 E0.02759
G1 X154.301 Y137.003 E0.02759
G1 X153.44 Y137.186 E0.02759
G1 X152.56 Y137.186 E0.02758
G1 X151.699 Y137.003 E0.02759
G1 X150.896 Y136.645 E0.02759
G1 X150.184 Y136.128 E0.02759
G1 X149.595 Y135.474 E0.02759
G1 X149.155 Y134.711 E0.0276
G1 X148.992 Y134.213 E0.01644
G1 X101.007 Y134.213 E1.50456
G1 X100.845 Y134.712 E0.01645
G1 X100.405 Y135.474 E0.02758
G1 X99.816 Y136.128 E0.02759
G1 X99.104 Y136.645 E0.02759
G1 X98.301 Y137.003 E0.02759
G1 X97.44 Y137.186 E0.02759
G1 X96.56 Y137.186 E0.02759
G1 X95.699 Y137.003 E0.02759
G1 X94.896 Y136.645 E0.02759
G1 X94.184 Y136.128 E0.02759
G1 X93.595 Y135.474 E0.02759
G1 X93.155 Y134.712 E0.02759
G1 X92.883 Y133.875 E0.02759
G1 X92.791 Y133 E0.02759
G1 X92.883 Y132.125 E0.02759
G1 X93.155 Y131.288 E0.02759
G1 X93.595 Y130.526 E0.02759
G1 X94.184 Y129.872 E0.02759
G1 X94.896 Y129.355 E0.02759
G1 X95.787 Y128.958 E0.03059
G1 X95.787 Y81.102 E1.50052
M204 P1500
G1 X95.599 Y81.194 F6000
M204 P1000
G1 X95.41 Y81.286
;TYPE:External perimeter
G1 F1200
G1 X94.706 Y80.973 E0.02416
G1 X93.93 Y80.409 E0.03007
G1 X93.288 Y79.697 E0.03007
G1 X92.809 Y78.866 E0.03007
G1 X92.513 Y77.954 E0.03007
G1 X92.412 Y77 E0.03007
G1 X92.513 Y76.046 E0.03007
G1 X92.809 Y75.134 E0.03007
G1 X93.288 Y74.303 E0.03007
G1 X93.93 Y73.591 E0.03007
G1 X94.706 Y73.027 E0.03007
G1 X95.582 Y72.637 E0.03007
G1 X96.52 Y72.437 E0.03007
G1 X97.48 Y72.437 E0.03007
G1 X97.778 Y72.501 E0.00957
G1 X98.418 Y72.637 E0.0205
G1 X99.294 Y73.027 E0.03007
G1 X100.07 Y73.591 E0.03007
G1 X100.712 Y74.303 E0.03007
G1 X101.191 Y75.134 E0.03007
G1 X101.281 Y75.41 E0.0091
G1 X148.719 Y75.41 E1.48738
G1 X148.809 Y75.134 E0.00909
G1 X149.288 Y74.303 E0.03008
G1 X149.93 Y73.591 E0.03007
G1 X150.706 Y73.027 E0.03007
G1 X151.582 Y72.637 E0.03007
G1 X152.52 Y72.437 E0.03007
G1 X153.48 Y72.437 E0.03007
G1 X154.418 Y72.637 E0.03007
G1 X155.294 Y73.027 E0.03007
G1 X156.07 Y73.591 E0.03007
G1 X156.712 Y74.303 E0.03007
G1 X157.191 Y75.134 E0.03007
G1 X157.487 Y76.046 E0.03007
G1 X157.588 Y77 E0.03007
G1 X157.487 Y77.954 E0.03007
G1 X157.191 Y78.866 E0.03007
G1 X156.712 Y79.697 E0.03007
G1 X156.07 Y80.409 E0.03007
G1 X155.294 Y80.973 E0.03007
G1 X154.59 Y81.286 E0.02416
G1 X154.59 Y128.714 E1.48704
M73 P1 R60
G1 X155.294 Y129.027 E0.02416
G1 X156.07 Y129.591 E0.03007
G1 X156.712 Y130.303 E0.03007
G1 X157.191 Y131.134 E0.03007
G1 X157.487 Y132.046 E0.03007
G1 X157.588 Y133 E0.03007
G1 X157.487 Y133.954 E0.03007
G1 X157.191 Y134.866 E0.03007
G1 X156.712 Y135.697 E0.03007
G1 X156.07 Y136.409 E0.03007
M73 Q1 S60
G1 X155.294 Y136.973 E0.03007
G1 X154.418 Y137.363 E0.03007
G1 X153.48 Y137.563 E0.03007
G1 X152.52 Y137.563 E0.03007
G1 X151.582 Y137.363 E0.03007
G1 X150.706 Y136.973 E0.03007
G1 X149.93 Y136.409 E0.03007
G1 X149.288 Y135.697 E0.03007
G1 X148.809 Y134.866 E0.03008
G1 X148.719 Y134.59 E0.0091
G1 X101.281 Y134.59 E1.48739
G1 X101.191 Y134.866 E0.0091
G1 X100.712 Y135.697 E0.03007
G1 X100.07 Y136.409 E0.03007
G1 X99.294 Y136.973 E0.03007
G1 X98.418 Y137.363 E0.03007
G1 X97.48 Y137.563 E0.03007
G1 X96.52 Y137.563 E0.03007
G1 X95.582 Y137.363 E0.03007
G1 X94.706 Y136.973 E0.03007
G1 X93.93 Y136.409 E0.03007
G1 X93.288 Y135.697 E0.03007
G1 X92.809 Y134.866 E0.03007
G1 X92.513 Y133.954 E0.03007
G1 X92.412 Y133 E0.03007
G1 X92.513 Y132.046 E0.03007
G1 X92.809 Y131.134 E0.03007
G1 X93.288 Y130.303 E0.03007
G1 X93.93 Y129.591 E0.03007
G1 X94.706 Y129.027 E0.03007
G1 X95.41 Y128.714 E0.02416
G1 X95.41 Y81.346 E1.48516
;WIPE_START
G1 X95.52 Y80.902 F6000
;WIPE_END
;WIPE_START
G1 F4800
G1 X94.807 Y80.799 E-0.29965
G1 X94.065 Y80.26 E-0.38115
G1 X93.631 Y79.779 E-0.26919
;WIPE_END
G1 E-0.05 F2100
G1 Z0.4 F6000
M204 P1500
G1 X125.093 Y77.395
M204 P1000
G1 X156.554 Y75.011
G1 Z0.2
G1 E1 F2100
;TYPE:Solid infill
;WIDTH:0.422297
G1 F1200
G1 X155.596 Y74.052 E0.04273
G1 X154.966 Y73.595 E0.02454
G1 X154.315 Y73.305 E0.02246
G1 X156.679 Y75.669 E0.1054
G1 X156.846 Y76.183 E0.01702
G1 X156.868 Y76.391 E0.00661
G1 X153.608 Y73.132 E0.14532
G1 X153.411 Y73.09 E0.00636
G1 X153.033 Y73.09 E0.01191
G1 X156.93 Y76.987 E0.17376
G1 X156.882 Y77.472 E0.01537
G1 X152.515 Y73.105 E0.19469
G1 X152.076 Y73.199 E0.01417
G1 X156.809 Y77.932 E0.21102
G1 X156.678 Y78.334 E0.01334
G1 X151.66 Y73.316 E0.22373
G1 X151.291 Y73.481 E0.01273
G1 X156.525 Y78.715 E0.23336
G1 X156.33 Y79.053 E0.01231
G1 X150.94 Y73.663 E0.2403
G1 X150.631 Y73.888 E0.01204
G1 X156.121 Y79.377 E0.24476
G1 X155.869 Y79.658 E0.0119
G1 X150.331 Y74.12 E0.24689
G1 X150.078 Y74.401 E0.0119
G1 X155.613 Y79.935 E0.24674
G1 X155.304 Y80.16 E0.01204
G1 X149.826 Y74.682 E0.24423
G1 X149.629 Y75.018 E0.01229
G1 X154.995 Y80.384 E0.23923
G1 X154.966 Y80.405 E0.00112
G1 X154.631 Y80.554 E0.01154
G1 X149.434 Y75.356 E0.23173
G1 X149.408 Y75.401 E0.00164
G1 X149.294 Y75.75 E0.01155
G1 X154.262 Y80.718 E0.22151
G1 X153.938 Y80.863 E0.01121
G1 X153.938 Y80.927 E0.00202
G1 X149.073 Y76.062 E0.21688
G1 X148.54 Y76.062 E0.01681
G1 X153.938 Y81.46 E0.24065
G1 X153.938 Y81.993 E0.01681
G1 X148.007 Y76.062 E0.26443
G1 X147.473 Y76.062 E0.01681
G1 X150.349 Y78.938 E0.12819
G1 X149.815 Y78.938 E0.01681
G1 X146.94 Y76.062 E0.12819
G1 X146.407 Y76.062 E0.01681
G1 X149.282 Y78.938 E0.12819
G1 X148.749 Y78.938 E0.01681
G1 X145.874 Y76.062 E0.12819
G1 X145.34 Y76.062 E0.01681
G1 X148.216 Y78.938 E0.12819
G1 X147.682 Y78.938 E0.01681
G1 X144.807 Y76.062 E0.12819
G1 X144.274 Y76.062 E0.01681
G1 X147.149 Y78.938 E0.12819
G1 X146.616 Y78.938 E0.01681
G1 X143.74 Y76.062 E0.12819
G1 X143.207 Y76.062 E0.01681
G1 X146.083 Y78.938 E0.12819
G1 X145.549 Y78.938 E0.01681
G1 X142.674 Y76.062 E0.12819
G1 X142.141 Y76.062 E0.01681
M73 P2 R60
M73 Q2 S60
G1 X145.016 Y78.938 E0.12819
G1 X144.483 Y78.938 E0.01681
G1 X141.607 Y76.062 E0.12819
G1 X141.074 Y76.062 E0.01681
G1 X143.949 Y78.938 E0.12819
G1 X143.416 Y78.938 E0.01681
G1 X140.541 Y76.062 E0.12819
G1 X140.008 Y76.062 E0.01681
G1 X142.883 Y78.938 E0.12819
G1 X142.35 Y78.938 E0.01681
G1 X139.474 Y76.062 E0.12819
G1 X138.941 Y76.062 E0.01681
G1 X141.816 Y78.938 E0.12819
G1 X141.283 Y78.938 E0.01681
G1 X138.408 Y76.062 E0.12819
G1 X137.875 Y76.062 E0.01681
G1 X140.75 Y78.938 E0.12819
G1 X140.217 Y78.938 E0.01681
G1 X137.341 Y76.062 E0.12819
G1 X136.808 Y76.062 E0.01681
G1 X139.683 Y78.938 E0.12819
G1 X139.15 Y78.938 E0.01681
G1 X136.275 Y76.062 E0.12819
G1 X135.741 Y76.062 E0.01681
G1 X138.617 Y78.938 E0.12819
G1 X138.084 Y78.938 E0.01681
G1 X135.208 Y76.062 E0.12819
G1 X134.675 Y76.062 E0.01681
G1 X137.55 Y78.938 E0.12819
G1 X137.017 Y78.938 E0.01681
G1 X134.142 Y76.062 E0.12819
G1 X133.608 Y76.062 E0.01681
G1 X136.484 Y78.938 E0.12819
G1 X135.95 Y78.938 E0.01681
G1 X133.075 Y76.062 E0.12819
G1 X132.542 Y76.062 E0.01681
G1 X135.417 Y78.938 E0.12819
G1 X134.884 Y78.938 E0.01681
G1 X132.009 Y76.062 E0.12819
G1 X131.475 Y76.062 E0.01681
G1 X134.351 Y78.938 E0.12819
G1 X133.817 Y78.938 E0.01681
G1 X130.942 Y76.062 E0.12819
G1 X130.409 Y76.062 E0.01681
G1 X133.284 Y78.938 E0.12819
G1 X132.751 Y78.938 E0.01681
G1 X129.875 Y76.062 E0.12819
G1 X129.342 Y76.062 E0.01681
G1 X132.218 Y78.938 E0.12819
G1 X131.684 Y78.938 E0.01681
G1 X128.809 Y76.062 E0.12819
G1 X128.276 Y76.062 E0.01681
G1 X131.151 Y78.938 E0.12819
G1 X130.618 Y78.938 E0.01681
G1 X127.742 Y76.062 E0.12819
G1 X127.209 Y76.062 E0.01681
G1 X130.084 Y78.938 E0.12819
G1 X129.551 Y78.938 E0.01681
G1 X126.676 Y76.062 E0.12819
G1 X126.143 Y76.062 E0.01681
G1 X129.018 Y78.938 E0.12819
G1 X128.485 Y78.938 E0.01681
G1 X125.609 Y76.062 E0.12819
G1 X125.076 Y76.062 E0.01681
G1 X127.951 Y78.938 E0.12819
G1 X127.418 Y78.938 E0.01681
G1 X124.543 Y76.062 E0.12819
G1 X124.009 Y76.062 E0.01681
G1 X126.385 Y78.438 E0.1059
G1 X125.852 Y78.438 E0.01681
G1 X123.476 Y76.062 E0.1059
G1 X122.943 Y76.062 E0.01681
G1 X125.318 Y78.438 E0.1059
G1 X124.785 Y78.438 E0.01681
G1 X122.41 Y76.062 E0.1059
G1 X121.876 Y76.062 E0.01681
G1 X124.252 Y78.438 E0.1059
G1 X123.718 Y78.438 E0.01681
G1 X121.343 Y76.062 E0.1059
G1 X120.81 Y76.062 E0.01681
G1 X123.185 Y78.438 E0.1059
G1 X122.938 Y78.438 E0.0078
G1 X122.938 Y78.723 E0.00901
G1 X120.277 Y76.062 E0.11864
G1 X119.743 Y76.062 E0.01681
G1 X122.619 Y78.938 E0.12819
G1 X122.085 Y78.938 E0.01681
G1 X119.21 Y76.062 E0.12819
G1 X118.677 Y76.062 E0.01681
G1 X121.552 Y78.938 E0.12819
G1 X121.019 Y78.938 E0.01681
G1 X118.144 Y76.062 E0.12819
G1 X117.61 Y76.062 E0.01681
G1 X120.486 Y78.938 E0.12819
G1 X119.952 Y78.938 E0.01681
G1 X117.077 Y76.062 E0.12819
G1 X116.544 Y76.062 E0.01681
G1 X119.419 Y78.938 E0.12819
G1 X118.886 Y78.938 E0.01681
G1 X116.01 Y76.062 E0.12819
G1 X115.477 Y76.062 E0.01681
G1 X118.353 Y78.938 E0.12819
G1 X117.819 Y78.938 E0.01681
G1 X114.944 Y76.062 E0.12819
G1 X114.411 Y76.062 E0.01681
G1 X117.286 Y78.938 E0.12819
G1 X116.753 Y78.938 E0.01681
G1 X113.877 Y76.062 E0.12819
G1 X113.344 Y76.062 E0.01681
G1 X116.219 Y78.938 E0.12819
G1 X115.686 Y78.938 E0.01681
G1 X112.811 Y76.062 E0.12819
G1 X112.278 Y76.062 E0.01681
G1 X115.153 Y78.938 E0.12819
G1 X114.62 Y78.938 E0.01681
G1 X111.744 Y76.062 E0.12819
G1 X111.211 Y76.062 E0.01681
G1 X114.086 Y78.938 E0.12819
G1 X113.553 Y78.938 E0.01681
G1 X110.678 Y76.062 E0.12819
G1 X110.144 Y76.062 E0.01681
G1 X113.02 Y78.938 E0.12819
G1 X112.487 Y78.938 E0.01681
G1 X109.611 Y76.062 E0.12819
G1 X109.078 Y76.062 E0.01681
G1 X111.953 Y78.938 E0.12819
G1 X111.42 Y78.938 E0.01681
G1 X108.545 Y76.062 E0.12819
G1 X108.011 Y76.062 E0.01681
G1 X110.887 Y78.938 E0.12819
G1 X110.353 Y78.938 E0.01681
G1 X107.478 Y76.062 E0.12819
G1 X106.945 Y76.062 E0.01681
G1 X109.82 Y78.938 E0.12819
G1 X109.287 Y78.938 E0.01681
G1 X106.412 Y76.062 E0.12819
G1 X105.878 Y76.062 E0.01681
G1 X108.754 Y78.938 E0.12819
G1 X108.22 Y78.938 E0.01681
G1 X105.345 Y76.062 E0.12819
G1 X104.812 Y76.062 E0.01681
G1 X107.687 Y78.938 E0.12819
G1 X107.154 Y78.938 E0.01681
G1 X104.278 Y76.062 E0.12819
G1 X103.745 Y76.062 E0.01681
G1 X106.621 Y78.938 E0.12819
G1 X106.087 Y78.938 E0.01681
G1 X103.212 Y76.062 E0.12819
G1 X102.679 Y76.062 E0.01681
G1 X105.554 Y78.938 E0.12819
G1 X105.021 Y78.938 E0.01681
G1 X102.145 Y76.062 E0.12819
G1 X101.612 Y76.062 E0.01681
G1 X104.65 Y79.1 E0.13542
;WIPE_START
G1 F4800
G1 X103.033 Y77.484 E-0.95
;WIPE_END
G1 E-0.05 F2100
G1 Z0.4 F6000
M204 P1500
G1 X101.789 Y76.239
M204 P1000
G1 X100.545 Y74.995
G1 Z0.2
G1 E1 F2100
G1 F1200
G1 X99.62 Y74.07 E0.04124
G1 X98.966 Y73.595 E0.02549
G1 X98.327 Y73.31 E0.02205
G1 X103.954 Y78.938 E0.25088
G1 X103.421 Y78.938 E0.01681
G1 X97.617 Y73.133 E0.25878
G1 X97.411 Y73.09 E0.00663
