; generated by SuperSlicer 2.5.59 on 2022-10-24 at 07:42:07 UTC

; TODO: check the size of the extruder and the y-bar clearance. Optimize & test supports.

; external perimeters extrusion width = 0.42mm
; perimeters extrusion width = 0.44mm
; infill extrusion width = 0.44mm
; solid infill extrusion width = 0.44mm
; top infill extrusion width = 0.44mm
; first layer extrusion width = 0.56mm

; object:{"name":"StairwellMagnet (1)","id":"StairwellMagnet (1) id:0 copy 0","object_center":[125.000000,105.000000,0.000000],"boundingbox_center":[125.000000,105.000000,3.000000],"boundingbox_size":[57.003399,48.071543,6.000000]}
; plater:{"center":[125.000000,105.000000,0.000000],"boundingbox_center":[125.000000,105.000000,3.000000],"boundingbox_size":[57.003399,48.071543,6.000000]}

M73 P0 R29


; Pre-Processed for Cancel-Object support by preprocess_cancellation v0.2.0
; 1 known objects
EXCLUDE_OBJECT_DEFINE NAME=StairwellMagnet_1_id_0_copy_0 CENTER=125.028,104.966 POLYGON=[[96.708,81.174],[96.708,128.826],[153.292,128.826],[153.292,81.174]]
M73 C18
;TYPE:Custom
Start : M104 S0
M140 S0
PRINT_START EXTRUDER_TEMP=230 BED_TEMP=70
M107
G21 ; set units to millimeters
G90 ; use absolute coordinates
M83 ; use relative distances for extrusion
M900 K0.05 ; Filament gcode LA 1.5
M900 K30 ; Filament gcode LA 1.0
;_TOOLCHANGE 0
M104 S230 ; set temperature
M109 S230 ; set temperature and wait for it to be reached
M107
;LAYER_CHANGE
;Z:0.2
;HEIGHT:0.2
;BEFORE_LAYER_CHANGE
G92 E0.0
;0.2
TIMELAPSE_TAKE_FRAME

G1 E-0.8 F2100
M73 P1 R29
M73 C0
G1 Z0.4 F9000
;AFTER_LAYER_CHANGE
;0.2
G1 Z0.6
M204 S1000
G1 X96.294 Y85.926
G1 Z0.2
G1 E0.8 F2100
;TYPE:Skirt
;WIDTH:0.44
G1 F1500
G1 X95.581 Y86.826 E0.03792
G1 X94.704 Y88.132 E0.05194
G1 X94.075 Y89.261 E0.04267
G1 X93.425 Y90.696 E0.05201
G1 X92.682 Y93.034 E0.081
M73 P1 R28
G1 X92.382 Y94.601 E0.05266
G1 X92.255 Y95.766 E0.03869
G1 X92.248 Y98.398 E0.08692
G1 X92.386 Y99.874 E0.04895
G1 X92.606 Y101.217 E0.04493
G1 X92.915 Y102.516 E0.04408
G1 X93.313 Y103.767 E0.04335
G1 X93.981 Y105.353 E0.05682
G1 X94.961 Y107.091 E0.06588
G1 X96.01 Y108.525 E0.05863
G1 X97.148 Y109.776 E0.05586
G1 X121.5 Y131.572 E1.07904
G1 X122.681 Y132.395 E0.04754
G1 X124.006 Y132.973 E0.04772
G1 X124.703 Y133.16 E0.02384
G1 X125.846 Y133.313 E0.03809
G1 X128.827 Y133.246 E0.09845
G1 X131.331 Y133.081 E0.08283
G1 X135.041 Y132.654 E0.12332
G1 X137.546 Y132.222 E0.08392
G1 X140.506 Y131.53 E0.10038
G1 X143.278 Y130.656 E0.09596
G1 X144.914 Y130.01 E0.05805
G1 X147.015 Y129.046 E0.07632
G1 X149.638 Y127.561 E0.09953
G1 X151.087 Y126.565 E0.05806
G1 X152.414 Y125.436 E0.05752
G1 X153.61 Y124.186 E0.05712
G1 X154.669 Y122.827 E0.05687
G1 X155.657 Y121.246 E0.06157
G1 X156.575 Y119.304 E0.07091
G1 X157.133 Y117.669 E0.05705
G1 X157.551 Y115.827 E0.06235
G1 X157.755 Y114.083 E0.05798
G1 X157.774 Y112.07 E0.06646
G1 X157.614 Y110.126 E0.06443
G1 X157.224 Y108.016 E0.07083
G1 X156.687 Y106.233 E0.06149
G1 X155.881 Y104.369 E0.06703
G1 X154.976 Y102.812 E0.05947
G1 X153.725 Y101.16 E0.06841
G1 X152.3 Y99.699 E0.06741
G1 X128.5 Y78.428 E1.05388
G1 X127.319 Y77.605 E0.04754
G1 X126.266 Y77.121 E0.03827
G1 X124.872 Y76.762 E0.04754
G1 X123.864 Y76.677 E0.03338
G1 X119.919 Y76.825 E0.13035
G1 X116.094 Y77.191 E0.12685
G1 X112.454 Y77.778 E0.12175
G1 X108.914 Y78.633 E0.12024
G1 X106.092 Y79.579 E0.09827
G1 X102.985 Y80.954 E0.11218
G1 X99.866 Y82.755 E0.11893
G1 X98.014 Y84.174 E0.07701
G1 X97.173 Y84.968 E0.03821
G1 X96.335 Y85.882 E0.04094
G1 X96.619 Y86.161 F9000
G1 F1500
G1 X96.6 Y86.18 E0.00088
G1 X95.903 Y87.058 E0.03704
G1 X95.04 Y88.342 E0.05107
G1 X94.431 Y89.437 E0.04136
G1 X93.792 Y90.848 E0.05113
G1 X93.07 Y93.122 E0.0788
G1 X92.774 Y94.662 E0.05177
G1 X92.651 Y95.8 E0.03779
G1 X92.645 Y98.378 E0.08513
G1 X92.779 Y99.82 E0.04782
G1 X92.994 Y101.136 E0.04401
G1 X93.296 Y102.406 E0.04312
G1 X93.685 Y103.629 E0.04235
G1 X94.337 Y105.177 E0.05545
G1 X95.296 Y106.878 E0.06449
G1 X96.314 Y108.27 E0.05694
G1 X97.423 Y109.489 E0.05441
G1 X121.764 Y131.275 E1.07856
G1 X122.881 Y132.053 E0.04495
G1 X124.135 Y132.597 E0.04512
G1 X124.794 Y132.773 E0.02254
G1 X125.86 Y132.916 E0.0355
G1 X128.812 Y132.85 E0.09748
G1 X131.377 Y132.678 E0.08488
G1 X134.987 Y132.26 E0.12002
G1 X137.467 Y131.833 E0.08306
G1 X140.399 Y131.147 E0.09945
G1 X143.146 Y130.282 E0.09508
G1 X144.76 Y129.644 E0.0573
G1 X146.821 Y128.699 E0.07486
G1 X149.435 Y127.22 E0.09916
G1 X150.85 Y126.247 E0.05669
G1 X152.145 Y125.144 E0.05618
G1 X153.313 Y123.922 E0.05579
G1 X154.347 Y122.595 E0.05556
G1 X155.307 Y121.058 E0.05983
G1 X156.208 Y119.152 E0.0696
G1 X156.752 Y117.555 E0.05573
G1 X157.159 Y115.766 E0.06057
G1 X157.359 Y114.062 E0.05663
G1 X157.377 Y112.082 E0.06538
G1 X157.221 Y110.18 E0.06303
G1 X156.837 Y108.107 E0.0696
G1 X156.315 Y106.371 E0.05984
G1 X155.525 Y104.546 E0.06566
G1 X154.646 Y103.034 E0.05774
G1 X153.427 Y101.422 E0.06673
G1 X152.035 Y99.995 E0.06584
G1 X128.236 Y78.725 E1.05386
G1 X127.119 Y77.947 E0.04496
G1 X126.137 Y77.496 E0.03567
G1 X124.819 Y77.155 E0.04495
G1 X123.851 Y77.074 E0.03208
G1 X119.942 Y77.222 E0.12915
G1 X116.148 Y77.584 E0.12582
M73 P2 R28
G1 X112.533 Y78.167 E0.12089
G1 X109.027 Y79.014 E0.1191
G1 X106.239 Y79.949 E0.09711
G1 X103.179 Y81.301 E0.11045
G1 X100.081 Y83.089 E0.11811
G1 X98.273 Y84.475 E0.0752
G1 X96.661 Y86.118 E0.07601
G1 X96.943 Y86.395 F9000
G1 F1500
G1 X96.906 Y86.433 E0.00175
G1 X96.225 Y87.291 E0.03617
G1 X95.377 Y88.553 E0.0502
G1 X94.787 Y89.612 E0.04005
G1 X94.159 Y90.999 E0.05026
G1 X93.457 Y93.21 E0.0766
G1 X93.167 Y94.724 E0.05088
G1 X93.047 Y95.834 E0.03689
G1 X93.042 Y98.358 E0.08333
G1 X93.173 Y99.766 E0.04668
G1 X93.383 Y101.054 E0.0431
G1 X93.678 Y102.297 E0.04216
G1 X94.058 Y103.49 E0.04135
G1 X94.693 Y105 E0.05408
G1 X95.631 Y106.665 E0.06311
G1 X96.619 Y108.015 E0.05524
G1 X97.698 Y109.203 E0.05297
G1 X122.028 Y130.979 E1.07807
G1 X123.082 Y131.71 E0.04237
G1 X124.264 Y132.222 E0.04252
G1 X124.886 Y132.387 E0.02124
G1 X125.874 Y132.519 E0.03292
G1 X128.796 Y132.453 E0.0965
G1 X131.339 Y132.283 E0.08417
G1 X134.934 Y131.867 E0.11947
G1 X137.387 Y131.444 E0.0822
G1 X140.292 Y130.765 E0.09852
G1 X143.076 Y129.885 E0.09639
G1 X144.675 Y129.249 E0.05682
G1 X146.628 Y128.352 E0.07094
G1 X149.232 Y126.879 E0.09879
G1 X150.612 Y125.929 E0.05533
G1 X151.876 Y124.852 E0.05483
G1 X153.015 Y123.659 E0.05447
G1 X154.025 Y122.363 E0.05424
G1 X154.957 Y120.871 E0.05809
G1 X155.841 Y119.001 E0.06829
G1 X156.372 Y117.441 E0.05441
G1 X156.766 Y115.704 E0.05879
G1 X156.962 Y114.042 E0.05528
G1 X156.98 Y112.094 E0.06431
G1 X156.827 Y110.234 E0.06162
G1 X156.451 Y108.198 E0.06838
G1 X155.942 Y106.51 E0.0582
G1 X155.17 Y104.722 E0.06429
G1 X154.317 Y103.256 E0.05601
G1 X153.129 Y101.684 E0.06505
G1 X151.77 Y100.291 E0.06426
G1 X127.972 Y79.021 E1.05384
G1 X126.918 Y78.29 E0.04237
G1 X126.008 Y77.872 E0.03307
G1 X124.766 Y77.549 E0.04237
G1 X123.837 Y77.471 E0.03078
G1 X119.965 Y77.618 E0.12794
G1 X116.202 Y77.978 E0.12479
G1 X112.613 Y78.556 E0.12004
G1 X109.14 Y79.394 E0.11796
G1 X106.385 Y80.318 E0.09595
G1 X103.372 Y81.648 E0.10872
G1 X100.296 Y83.423 E0.11728
G1 X98.532 Y84.776 E0.07339
G1 X96.985 Y86.352 E0.07292
G1 X97.268 Y86.629 F9000
G1 F1500
G1 X97.212 Y86.686 E0.00263
G1 X96.547 Y87.523 E0.03529
G1 X95.714 Y88.763 E0.04932
G1 X95.143 Y89.788 E0.03874
G1 X94.526 Y91.151 E0.04939
G1 X93.844 Y93.298 E0.0744
G1 X93.559 Y94.785 E0.04999
G1 X93.442 Y95.869 E0.03599
G1 X93.442 Y98.405 E0.08375
G1 X93.772 Y100.973 E0.08547
G1 X94.06 Y102.187 E0.0412
G1 X94.541 Y103.651 E0.0509
G1 X95.186 Y105.101 E0.05238
G1 X95.966 Y106.452 E0.05151
G1 X96.924 Y107.761 E0.05355
G1 X97.973 Y108.916 E0.05152
G1 X122.292 Y130.682 E1.07759
G1 X123.283 Y131.368 E0.03978
G1 X124.393 Y131.846 E0.03991
G1 X124.977 Y132 E0.01994
G1 X125.887 Y132.122 E0.03033
G1 X128.835 Y132.053 E0.09735
G1 X132.463 Y131.777 E0.12013
G1 X136.071 Y131.283 E0.12025
G1 X138.429 Y130.818 E0.07937
G1 X141.253 Y130.075 E0.0964
G1 X143.412 Y129.335 E0.07536
G1 X146.434 Y128.006 E0.10901
G1 X149.029 Y126.538 E0.09842
G1 X150.462 Y125.544 E0.05759
G1 X151.685 Y124.485 E0.05343
G1 X152.788 Y123.314 E0.0531
G1 X153.764 Y122.043 E0.0529
G1 X154.808 Y120.307 E0.06691
G1 X155.513 Y118.75 E0.05642
G1 X156.021 Y117.223 E0.05312
G1 X156.441 Y115.215 E0.06774
G1 X156.588 Y113.584 E0.05406
G1 X156.562 Y111.662 E0.06348
G1 X156.375 Y109.863 E0.05972
G1 X156.045 Y108.212 E0.05556
G1 X155.459 Y106.349 E0.06451
G1 X154.776 Y104.824 E0.05517
G1 X153.818 Y103.227 E0.06148
G1 X152.831 Y101.947 E0.05339
G1 X151.506 Y100.587 E0.06268
G1 X127.708 Y79.318 E1.05381
G1 X126.717 Y78.632 E0.03978
G1 X125.879 Y78.247 E0.03046
G1 X124.713 Y77.942 E0.03978
G1 X123.823 Y77.868 E0.02948
G1 X119.988 Y78.015 E0.12674
G1 X116.256 Y78.371 E0.12376
G1 X112.693 Y78.945 E0.11918
G1 X109.302 Y79.761 E0.11516
G1 X106.531 Y80.687 E0.09645
G1 X103.566 Y81.994 E0.107
G1 X100.511 Y83.756 E0.11645
G1 X98.791 Y85.077 E0.07159
G1 X97.31 Y86.586 E0.06982
;WIPE_START
G1 F7200
M204 S1250
G1 X97.212 Y86.686 E-0.03868
G1 X96.547 Y87.523 E-0.29614
G1 X95.714 Y88.763 E-0.41393
G1 X95.694 Y88.798 E-0.01125
;WIPE_END
G1 E-0.04 F2100
G1 Z0.6 F9000
; printing object StairwellMagnet (1) id:0 copy 0
EXCLUDE_OBJECT_START NAME=StairwellMagnet_1_id_0_copy_0
; acceleration to travel
M204 S1500
G1 X128.451 Y107.299
; decel to extrusion
M204 S1000
G1 X136.537 Y111.866
; end travel
G1 Z0.2
G1 E0.8 F2100
;TYPE:Internal perimeter
;WIDTH:0.56
G1 F1500
G1 X136.353 Y112.172 E0.01535
G1 X136.19 Y112.518 E0.01645
G1 X136.061 Y112.878 E0.01645
G1 X135.968 Y113.249 E0.01645
G1 X135.912 Y113.628 E0.01645
G1 X135.893 Y114.01 E0.01645
G1 X135.912 Y114.392 E0.01645
G1 X135.968 Y114.77 E0.01645
G1 X136.061 Y115.141 E0.01645
G1 X136.19 Y115.502 E0.01645
G1 X136.353 Y115.847 E0.01645
G1 X136.55 Y116.175 E0.01645
G1 X136.778 Y116.483 E0.01645
G1 X137.035 Y116.766 E0.01645
G1 X137.318 Y117.023 E0.01645
G1 X137.626 Y117.251 E0.01645
G1 X137.954 Y117.448 E0.01645
G1 X138.299 Y117.611 E0.01645
G1 X138.66 Y117.74 E0.01645
G1 X139.031 Y117.833 E0.01645
G1 X139.409 Y117.889 E0.01645
G1 X139.791 Y117.908 E0.01645
G1 X140.173 Y117.889 E0.01645
G1 X140.552 Y117.833 E0.01645
G1 X140.923 Y117.74 E0.01645
G1 X141.283 Y117.611 E0.01645
G1 X141.629 Y117.448 E0.01645
G1 X141.957 Y117.251 E0.01645
G1 X142.264 Y117.023 E0.01645
G1 X142.548 Y116.766 E0.01645
G1 X142.805 Y116.483 E0.01645
G1 X143.032 Y116.175 E0.01645
G1 X143.229 Y115.847 E0.01645
G1 X143.393 Y115.502 E0.01645
G1 X143.521 Y115.141 E0.01645
G1 X143.614 Y114.77 E0.01645
G1 X143.671 Y114.392 E0.01645
G1 X143.689 Y114.01 E0.01645
G1 X143.671 Y113.628 E0.01645
G1 X143.614 Y113.249 E0.01645
G1 X143.521 Y112.878 E0.01645
G1 X143.393 Y112.518 E0.01645
G1 X143.229 Y112.172 E0.01645
G1 X143.032 Y111.844 E0.01645
G1 X142.805 Y111.537 E0.01645
G1 X142.548 Y111.253 E0.01645
G1 X142.264 Y110.997 E0.01645
G1 X141.957 Y110.769 E0.01645
G1 X141.629 Y110.572 E0.01645
G1 X141.283 Y110.408 E0.01645
G1 X140.923 Y110.28 E0.01645
G1 X140.552 Y110.187 E0.01645
G1 X140.173 Y110.13 E0.01645
G1 X139.791 Y110.112 E0.01645
G1 X139.409 Y110.13 E0.01645
G1 X139.031 Y110.187 E0.01645
G1 X138.66 Y110.28 E0.01645
G1 X138.299 Y110.408 E0.01645
G1 X137.954 Y110.572 E0.01645
G1 X137.626 Y110.769 E0.01645
G1 X137.318 Y110.997 E0.01645
G1 X137.035 Y111.253 E0.01645
G1 X136.778 Y111.537 E0.01645
G1 X136.571 Y111.816 E0.01496
G1 X136.981 Y112.132 F9000
;TYPE:External perimeter
G1 F1500
G1 X136.81 Y112.416 E0.01426
G1 X136.668 Y112.716 E0.01426
G1 X136.556 Y113.028 E0.01426
G1 X136.476 Y113.35 E0.01426
G1 X136.427 Y113.678 E0.01426
G1 X136.411 Y114.01 E0.01426
G1 X136.427 Y114.341 E0.01426
G1 X136.476 Y114.669 E0.01426
G1 X136.556 Y114.991 E0.01426
G1 X136.668 Y115.303 E0.01426
G1 X136.81 Y115.603 E0.01426
G1 X136.981 Y115.888 E0.01426
G1 X137.178 Y116.154 E0.01426
G1 X137.401 Y116.4 E0.01426
G1 X137.647 Y116.623 E0.01426
G1 X137.913 Y116.82 E0.01426
G1 X138.198 Y116.991 E0.01426
G1 X138.498 Y117.133 E0.01426
G1 X138.81 Y117.245 E0.01426
G1 X139.132 Y117.325 E0.01426
G1 X139.46 Y117.374 E0.01426
G1 X139.791 Y117.39 E0.01426
M73 P3 R28
G1 X140.123 Y117.374 E0.01426
G1 X140.451 Y117.325 E0.01426
G1 X140.773 Y117.245 E0.01426
G1 X141.085 Y117.133 E0.01426
G1 X141.385 Y116.991 E0.01426
G1 X141.669 Y116.82 E0.01426
G1 X141.936 Y116.623 E0.01426
G1 X142.182 Y116.4 E0.01426
G1 X142.404 Y116.154 E0.01426
G1 X142.602 Y115.888 E0.01426
G1 X142.772 Y115.603 E0.01426
G1 X142.914 Y115.303 E0.01426
G1 X143.026 Y114.991 E0.01426
G1 X143.107 Y114.669 E0.01426
G1 X143.155 Y114.341 E0.01426
G1 X143.172 Y114.01 E0.01426
G1 X143.155 Y113.678 E0.01426
G1 X143.107 Y113.35 E0.01426
G1 X143.026 Y113.029 E0.01426
G1 X142.914 Y112.716 E0.01426
G1 X142.772 Y112.416 E0.01426
G1 X142.602 Y112.132 E0.01426
G1 X142.404 Y111.865 E0.01426
G1 X142.182 Y111.619 E0.01426
G1 X141.936 Y111.397 E0.01426
G1 X141.669 Y111.199 E0.01426
G1 X141.385 Y111.029 E0.01426
G1 X141.085 Y110.887 E0.01426
G1 X140.773 Y110.775 E0.01426
G1 X140.451 Y110.694 E0.01426
G1 X140.123 Y110.646 E0.01426
G1 X139.791 Y110.629 E0.01426
G1 X139.46 Y110.646 E0.01426
G1 X139.132 Y110.694 E0.01426
G1 X138.81 Y110.775 E0.01426
G1 X138.498 Y110.887 E0.01426
G1 X138.198 Y111.029 E0.01426
G1 X137.913 Y111.199 E0.01426
G1 X137.647 Y111.397 E0.01426
G1 X137.401 Y111.619 E0.01426
G1 X137.178 Y111.865 E0.01426
G1 X137.016 Y112.084 E0.01168
;WIPE_START
M204 S1250
G1 X136.581 Y112.112 F9000
;WIPE_END
;WIPE_START
G1 F7200
G1 X136.483 Y112.64 E-0.14864
G1 X136.365 Y112.97 E-0.09736
G1 X136.279 Y113.311 E-0.09737
G1 X136.228 Y113.659 E-0.09737
G1 X136.211 Y114.01 E-0.09736
G1 X136.228 Y114.361 E-0.09736
G1 X136.279 Y114.708 E-0.09737
G1 X136.303 Y114.803 E-0.02718
;WIPE_END
G1 E-0.04 F2100
G1 Z0.6 F9000
; acceleration to travel
M204 S1500
G1 X118.231 Y101.322
; decel to extrusion
M204 S1000
G1 X113.769 Y97.994
; end travel
G1 Z0.2
G1 E0.8 F2100
;TYPE:Internal perimeter
G1 F1500
G1 X113.953 Y97.687 E0.01535
G1 X114.117 Y97.341 E0.01645
G1 X114.245 Y96.981 E0.01645
G1 X114.338 Y96.61 E0.01645
G1 X114.395 Y96.232 E0.01645
G1 X114.413 Y95.85 E0.01645
G1 X114.395 Y95.468 E0.01645
G1 X114.338 Y95.089 E0.01645
G1 X114.245 Y94.718 E0.01645
G1 X114.117 Y94.358 E0.01645
G1 X113.953 Y94.012 E0.01645
G1 X113.756 Y93.684 E0.01645
G1 X113.529 Y93.377 E0.01645
G1 X113.272 Y93.093 E0.01645
G1 X112.988 Y92.836 E0.01645
G1 X112.681 Y92.608 E0.01645
G1 X112.353 Y92.412 E0.01645
G1 X112.007 Y92.248 E0.01645
G1 X111.647 Y92.119 E0.01645
G1 X111.276 Y92.026 E0.01645
G1 X110.897 Y91.97 E0.01645
G1 X110.515 Y91.952 E0.01645
G1 X110.133 Y91.97 E0.01645
G1 X109.755 Y92.026 E0.01645
G1 X109.384 Y92.119 E0.01645
G1 X109.024 Y92.248 E0.01645
G1 X108.678 Y92.412 E0.01645
G1 X108.35 Y92.608 E0.01645
G1 X108.042 Y92.836 E0.01645
G1 X107.759 Y93.093 E0.01645
G1 X107.502 Y93.377 E0.01645
G1 X107.274 Y93.684 E0.01645
G1 X107.077 Y94.012 E0.01645
G1 X106.914 Y94.358 E0.01645
G1 X106.785 Y94.718 E0.01645
G1 X106.692 Y95.089 E0.01645
G1 X106.636 Y95.468 E0.01645
G1 X106.617 Y95.85 E0.01645
G1 X106.636 Y96.232 E0.01645
G1 X106.692 Y96.61 E0.01645
G1 X106.785 Y96.981 E0.01645
G1 X106.914 Y97.341 E0.01645
G1 X107.077 Y97.687 E0.01645
G1 X107.274 Y98.015 E0.01645
G1 X107.502 Y98.323 E0.01645
G1 X107.759 Y98.606 E0.01645
G1 X108.042 Y98.863 E0.01645
G1 X108.35 Y99.091 E0.01645
G1 X108.678 Y99.287 E0.01645
G1 X109.024 Y99.451 E0.01645
G1 X109.384 Y99.58 E0.01645
G1 X109.755 Y99.673 E0.01645
G1 X110.133 Y99.729 E0.01645
G1 X110.515 Y99.748 E0.01645
G1 X110.897 Y99.729 E0.01645
G1 X111.276 Y99.673 E0.01645
G1 X111.647 Y99.58 E0.01645
G1 X112.007 Y99.451 E0.01645
G1 X112.353 Y99.287 E0.01645
G1 X112.681 Y99.091 E0.01645
G1 X112.988 Y98.863 E0.01645
G1 X113.272 Y98.606 E0.01645
G1 X113.529 Y98.323 E0.01645
G1 X113.736 Y98.043 E0.01496
G1 X113.326 Y97.728 F9000
;TYPE:External perimeter
G1 F1500
G1 X113.496 Y97.443 E0.01426
G1 X113.638 Y97.143 E0.01426
G1 X113.75 Y96.831 E0.01426
G1 X113.831 Y96.509 E0.01426
G1 X113.879 Y96.181 E0.01426
G1 X113.896 Y95.85 E0.01426
G1 X113.879 Y95.518 E0.01426
G1 X113.831 Y95.19 E0.01426
