; generated by SuperSlicer 2.5.59 on 2022-10-10 at 19:45:54 UTC

; 

; external perimeters extrusion width = 0.45mm
; perimeters extrusion width = 0.45mm
; infill extrusion width = 0.45mm
; solid infill extrusion width = 0.45mm
; top infill extrusion width = 0.40mm
; first layer extrusion width = 0.42mm

; object:{"name":"Tpu mountquiet","id":"Tpu mountquiet.stl id:0 copy 0","object_center":[124.970501,105.000000,0.000000],"boundingbox_center":[124.970501,105.000000,14.000252],"boundingbox_size":[65.222170,53.899778,28.000505]}
; plater:{"center":[124.970501,105.000000,0.000000],"boundingbox_center":[124.970501,105.000000,14.000252],"boundingbox_size":[65.222170,53.899778,28.000505]}

M73 P0 R117


; Pre-Processed for Cancel-Object support by preprocess_cancellation v0.2.0
; 1 known objects
EXCLUDE_OBJECT_DEFINE NAME=Tpu_mountquiet_stl_id_0_copy_0 CENTER=124.705,105.509 POLYGON=[[123.035,78.275],[121.491,78.318],[119.983,78.447],[118.473,78.663],[116.782,79.011],[115.177,79.449],[113.74,79.935],[112.299,80.516],[110.767,81.245],[109.796,81.772],[108.894,82.308],[95.806,90.771],[95.174,91.28],[94.509,91.952],[94.087,92.479],[93.512,93.39],[93.164,94.127],[92.936,94.761],[92.763,95.415],[92.632,96.215],[92.587,96.888],[92.61,97.7],[92.693,98.37],[92.869,99.159],[97.955,114.293],[98.621,115.923],[99.175,117.084],[100.001,118.591],[100.666,119.659],[101.51,120.871],[102.481,122.109],[103.513,123.276],[104.538,124.312],[105.699,125.359],[106.856,126.289],[108.158,127.217],[109.477,128.044],[110.794,128.769],[112.226,129.452],[113.602,130.014],[115.073,130.519],[116.473,130.913],[118.121,131.274],[119.698,131.519],[121.13,131.659],[122.384,131.718],[123.552,131.72],[124.534,131.682],[125.709,131.589],[127.534,131.34],[128.868,131.076],[129.968,130.804],[131.712,130.27],[152.489,123.023],[157.295,109.288],[145.332,90.3],[144.377,88.944],[143.426,87.751],[142.315,86.516],[141.169,85.389],[139.874,84.265],[138.502,83.221],[137.076,82.274],[135.825,81.546],[134.415,80.829],[132.845,80.149],[131.229,79.569],[129.568,79.091],[127.887,78.723],[126.18,78.463],[124.727,78.33],[123.035,78.275]]
;TYPE:Custom
Start : M104 S0
M140 S0
PRINT_START EXTRUDER_TEMP=220 BED_TEMP=50
M107
G21 ; set units to millimeters
G90 ; use absolute coordinates
M83 ; use relative distances for extrusion
M900 K0
;_TOOLCHANGE 0
M104 S220 ; set temperature
M109 S220 ; set temperature and wait for it to be reached
M107
;LAYER_CHANGE
;Z:0.2
;HEIGHT:0.2
;BEFORE_LAYER_CHANGE
G92 E0.0
;0.2
TIMELAPSE_TAKE_FRAME

G1 Z0.4 F10800
;AFTER_LAYER_CHANGE
;0.2
G1 Z0.6
M204 S1000
G1 X94.503 Y90.589
G1 Z0.2
;TYPE:Skirt
;WIDTH:0.52
G1 F754.591
G1 X93.333 Y91.88 E0.0795
G1 X92.441 Y93.379 E0.07959
G1 X91.848 Y95.099 E0.08299
G1 X91.623 Y96.891 E0.08241
G1 X91.666 Y97.953 E0.04847
G1 X91.949 Y99.443 E0.0692
G1 X97.221 Y115.074 E0.75254
G1 X98.115 Y117.114 E0.10163
G1 X99.17 Y119.079 E0.10173
G1 X100.636 Y121.309 E0.12174
G1 X102.023 Y123.058 E0.10185
G1 X103.872 Y125.007 E0.12255
G1 X106.232 Y127.025 E0.14165
G1 X108.434 Y128.54 E0.12195
G1 X111.158 Y130.022 E0.14146
G1 X113.64 Y131.054 E0.12264
G1 X116.615 Y131.939 E0.14159
G1 X119.685 Y132.488 E0.14228
G1 X122.376 Y132.681 E0.12305
G1 X124.583 Y132.644 E0.10073
G1 X126.803 Y132.428 E0.10176
G1 X128.568 Y132.125 E0.0817
G1 X130.722 Y131.593 E0.1012
G1 X152.867 Y124.007 E1.0679
G1 X153.324 Y123.553 E0.0294
G1 X158.279 Y109.395 E0.6843
G1 X158.205 Y108.754 E0.0294
G1 X146.12 Y89.747 E1.02754
G1 X145.357 Y88.649 E0.06099
G1 X143.7 Y86.597 E0.12033
G1 X141.807 Y84.667 E0.1233
G1 X139.773 Y82.961 E0.12111
G1 X137.927 Y81.672 E0.10275
G1 X135.613 Y80.345 E0.12168
G1 X133.193 Y79.251 E0.12114
G1 X131.079 Y78.513 E0.10214
G1 X128.504 Y77.862 E0.12118
G1 X126.275 Y77.505 E0.10299
G1 X123.614 Y77.318 E0.12168
G1 X121.832 Y77.337 E0.08132
G1 X119.611 Y77.521 E0.10164
G1 X117.431 Y77.88 E0.10083
G1 X115.697 Y78.295 E0.08132
G1 X113.579 Y78.968 E0.10137
G1 X111.918 Y79.631 E0.08158
G1 X110.293 Y80.406 E0.08213
G1 X108.732 Y81.278 E0.08159
G1 X95.847 Y89.59 E0.69949
G1 X94.551 Y90.553 E0.07365
G1 Z0.6 F10800
; printing object Tpu mountquiet.stl id:0 copy 0
EXCLUDE_OBJECT_START NAME=Tpu_mountquiet_stl_id_0_copy_0
; acceleration to travel
M204 S1500
G1 X100.987 Y90.833
; decel to extrusion
M204 S800
G1 X104.426 Y90.983
; end travel
G1 Z0.2
;TYPE:Internal perimeter
;WIDTH:0.42
G1 F900
G1 X104.432 Y91.245 E0.00943
G1 X104.478 Y91.554 E0.01127
G1 X104.558 Y91.829 E0.01032
G1 X104.685 Y92.118 E0.01139
G1 X104.854 Y92.394 E0.01167
G1 X105.485 Y93.138 E0.03516
G1 X105.92 Y93.781 E0.028
G1 X106.274 Y94.471 E0.02796
G1 X106.426 Y94.878 E0.01566
G1 X106.111 Y95.4 E0.02198
G1 X105.641 Y96.28 E0.03598
G1 X105.419 Y96.232 E0.00818
G1 X105.404 Y96.015 E0.00786
G1 X105.294 Y95.396 E0.02267
G1 X105.151 Y94.882 E0.01924
G1 X104.926 Y94.298 E0.02254
G1 X104.688 Y93.821 E0.01924
G1 X104.354 Y93.288 E0.02266
G1 X103.967 Y92.793 E0.02267
G1 X103.599 Y92.407 E0.01924
G1 X103.124 Y91.995 E0.02267
G1 X102.609 Y91.635 E0.02267
G1 X102.144 Y91.372 E0.01924
G1 X101.57 Y91.117 E0.02267
G1 X100.972 Y90.924 E0.02266
G1 X100.451 Y90.809 E0.01924
G1 X99.83 Y90.733 E0.02254
G1 X99.297 Y90.719 E0.01924
G1 X98.985 Y90.742 E0.01127
G1 X98.67 Y90.764 E0.01139
G1 X98.051 Y90.874 E0.02267
G1 X97.537 Y91.017 E0.01924
G1 X96.953 Y91.241 E0.02254
G1 X96.476 Y91.48 E0.01924
G1 X95.943 Y91.813 E0.02267
G1 X95.445 Y92.204 E0.02283
G1 X95.257 Y91.99 E0.01026
G1 X95.553 Y91.697 E0.01503
G1 X96.141 Y91.223 E0.02723
G1 X96.659 Y90.883 E0.02235
G1 X97.33 Y90.528 E0.02735
G1 X97.903 Y90.292 E0.02235
G1 X98.629 Y90.072 E0.02735
G1 X99.239 Y89.948 E0.02247
G1 X99.862 Y89.878 E0.02258
G1 X100.634 Y89.859 E0.02787
G1 X100.968 Y89.821 E0.0121
G1 X101.376 Y89.7 E0.01536
G1 X101.752 Y89.507 E0.01523
G1 X102.012 Y89.313 E0.01172
G1 X102.229 Y89.1 E0.01095
G1 X103.13 Y87.995 E0.05139
G1 X103.976 Y87.053 E0.04568
G1 X104.559 Y86.454 E0.03014
G1 X105.478 Y85.582 E0.04567
G1 X106.436 Y84.759 E0.04555
G1 X107.433 Y83.982 E0.04555
G1 X108.465 Y83.254 E0.04555
G1 X109.535 Y82.576 E0.04567
G1 X110.261 Y82.155 E0.03025
G1 X111.003 Y81.756 E0.03037
G1 X111.754 Y81.383 E0.03026
G1 X112.913 Y80.865 E0.04578
G1 X113.692 Y80.553 E0.03026
G1 X114.481 Y80.267 E0.03026
G1 X115.691 Y79.882 E0.04578
G1 X116.501 Y79.661 E0.03026
G1 X117.32 Y79.464 E0.03037
G1 X118.145 Y79.294 E0.03037
G1 X118.974 Y79.151 E0.03037
G1 X119.809 Y79.034 E0.03037
G1 X120.646 Y78.944 E0.03037
G1 X121.483 Y78.882 E0.03025
G1 X122.752 Y78.839 E0.04578
G1 X123.17 Y78.841 E0.01507
G1 X123.588 Y78.844 E0.01507
G1 X124.853 Y78.902 E0.04567
G1 X126.111 Y79.021 E0.04555
G1 X127.364 Y79.202 E0.04567
G1 X128.186 Y79.354 E0.03014
G1 X129.421 Y79.634 E0.04567
G1 X130.638 Y79.973 E0.04555
G1 X131.841 Y80.372 E0.04567
G1 X132.623 Y80.666 E0.03014
G1 X133.789 Y81.16 E0.04567
G1 X134.928 Y81.708 E0.04555
G1 X136.038 Y82.31 E0.04555
G1 X137.121 Y82.967 E0.04567
G1 X137.818 Y83.429 E0.03014
G1 X138.844 Y84.171 E0.04567
G1 X139.831 Y84.96 E0.04555
G1 X140.779 Y85.795 E0.04555
G1 X141.685 Y86.675 E0.04555
G1 X142.548 Y87.598 E0.04556
G1 X143.366 Y88.561 E0.04555
G1 X144.136 Y89.563 E0.04556
G1 X144.856 Y90.601 E0.04555
G1 X145.526 Y91.672 E0.04555
G1 X146.143 Y92.774 E0.04555
G1 X146.707 Y93.908 E0.04566
G1 X147.05 Y94.671 E0.03015
G1 X147.523 Y95.849 E0.04578
G1 X147.802 Y96.637 E0.03014
G1 X148.178 Y97.846 E0.04567
G1 X148.494 Y99.07 E0.04556
G1 X148.751 Y100.307 E0.04555
G1 X148.948 Y101.559 E0.04573
G1 X149.123 Y103.174 E0.05856
G1 X149.253 Y103.849 E0.02479
G1 X149.418 Y104.412 E0.02117
G1 X149.63 Y104.956 E0.02105
G1 X149.889 Y105.479 E0.02104
G1 X150.196 Y105.984 E0.02129
G1 X150.687 Y106.628 E0.02921
G1 X151.257 Y107.213 E0.02946
G1 X151.895 Y107.724 E0.02946
G1 X152.581 Y108.148 E0.02909
G1 X153.009 Y108.359 E0.0172
G1 X153.43 Y108.531 E0.01639
G1 X156.579 Y109.633 E0.1203
G1 X152.144 Y122.306 E0.48412
G1 X148.98 Y121.2 E0.12088
G1 X148.209 Y120.997 E0.02872
G1 X147.509 Y120.896 E0.0255
G1 X146.696 Y120.871 E0.02933
G1 X145.883 Y120.945 E0.02946
G1 X145.088 Y121.117 E0.02933
G1 X144.424 Y121.342 E0.02525
G1 X143.886 Y121.584 E0.0213
G1 X143.283 Y121.928 E0.025
G1 X142.801 Y122.268 E0.02129
G1 X142.28 Y122.716 E0.02477
G1 X141.141 Y123.864 E0.05833
G1 X140.205 Y124.72 E0.04572
G1 X139.231 Y125.529 E0.04567
G1 X138.564 Y126.039 E0.03026
G1 X137.882 Y126.527 E0.03025
G1 X136.822 Y127.221 E0.04567
G1 X135.733 Y127.862 E0.04555
G1 X134.615 Y128.449 E0.04555
G1 X133.469 Y128.982 E0.04555
G1 X132.299 Y129.459 E0.04555
G1 X131.108 Y129.879 E0.04555
G1 X129.894 Y130.241 E0.04567
G1 X129.086 Y130.448 E0.03009
G1 X128.265 Y130.63 E0.03033
G1 X127.013 Y130.855 E0.04587
G1 X126.181 Y130.97 E0.03026
G1 X125.344 Y131.059 E0.03037
G1 X124.504 Y131.12 E0.03037
G1 X123.665 Y131.155 E0.03026
G1 X122.399 Y131.155 E0.04567
G1 X121.137 Y131.095 E0.04556
G1 X119.876 Y130.974 E0.04566
G1 X119.045 Y130.86 E0.03026
G1 X118.217 Y130.72 E0.03026
G1 X116.978 Y130.457 E0.04567
G1 X115.756 Y130.136 E0.04556
G1 X114.549 Y129.756 E0.04567
G1 X113.759 Y129.472 E0.03026
G1 X112.979 Y129.162 E0.03026
G1 X111.819 Y128.647 E0.04578
G1 X111.066 Y128.276 E0.03026
G1 X110.326 Y127.881 E0.03026
G1 X109.233 Y127.24 E0.04567
G1 X108.176 Y126.549 E0.04555
G1 X107.153 Y125.808 E0.04556
G1 X106.167 Y125.018 E0.04555
G1 X105.22 Y124.181 E0.04555
G1 X104.313 Y123.298 E0.04567
G1 X103.735 Y122.689 E0.03026
G1 X103.178 Y122.061 E0.03025
G1 X102.376 Y121.081 E0.04567
G1 X101.621 Y120.064 E0.04567
G1 X101.151 Y119.373 E0.03014
G1 X100.48 Y118.295 E0.04578
G1 X100.066 Y117.569 E0.03014
G1 X99.485 Y116.443 E0.04567
G1 X98.959 Y115.291 E0.04567
G1 X98.642 Y114.518 E0.03014
G1 X98.21 Y113.327 E0.04567
G1 X97.837 Y112.12 E0.04555
G1 X97.523 Y110.896 E0.04555
G1 X97.268 Y109.659 E0.04555
G1 X97.073 Y108.411 E0.04555
G1 X96.939 Y107.155 E0.04555
G1 X96.865 Y105.893 E0.04557
G1 X96.849 Y104.44 E0.05239
G1 X96.757 Y103.93 E0.01868
G1 X96.553 Y103.461 E0.01844
G1 X96.271 Y103.071 E0.01736
G1 X95.291 Y102.204 E0.04719
G1 X94.949 Y101.843 E0.01793
G1 X94.716 Y101.565 E0.01307
G1 X94.274 Y100.944 E0.02748
G1 X93.899 Y100.281 E0.02748
G1 X93.746 Y99.952 E0.01307
G1 X93.561 Y99.483 E0.0182
G1 X93.412 Y99.009 E0.01792
G1 X93.246 Y98.267 E0.02741
G1 X93.212 Y98.01 E0.00934
G1 X93.489 Y97.954 E0.01019
G1 X93.67 Y98.628 E0.02514
G1 X93.898 Y99.217 E0.02279
G1 X94.183 Y99.777 E0.02267
G1 X94.469 Y100.224 E0.01912
G1 X94.792 Y100.644 E0.01911
G1 X95.221 Y101.104 E0.02267
G1 X95.696 Y101.516 E0.02266
G1 X96.13 Y101.825 E0.01924
G1 X96.672 Y102.137 E0.02254
G1 X97.158 Y102.358 E0.01924
G1 X97.749 Y102.561 E0.02254
G1 X98.268 Y102.685 E0.01924
G1 X98.891 Y102.772 E0.02267
G1 X99.522 Y102.793 E0.02279
G1 X100.153 Y102.749 E0.02279
G1 X100.775 Y102.638 E0.02279
G1 X101.379 Y102.465 E0.02266
G1 X101.872 Y102.27 E0.01912
G1 X102.347 Y102.033 E0.01912
G1 X102.879 Y101.699 E0.02267
G1 X103.374 Y101.312 E0.02266
G1 X103.801 Y100.906 E0.02123
G1 X103.994 Y101.013 E0.00797
G1 X103.865 Y101.654 E0.02357
G1 X103.737 Y102.572 E0.03343
G1 X103.449 Y102.748 E0.01218
G1 X102.747 Y103.078 E0.02795
G1 X102.011 Y103.32 E0.02793
G1 X100.869 Y103.558 E0.04208
G1 X100.43 Y103.753 E0.01732
G1 X100.051 Y104.029 E0.0169
G1 X99.794 Y104.299 E0.01345
G1 X99.574 Y104.624 E0.01415
G1 X99.423 Y104.957 E0.0132
G1 X99.318 Y105.347 E0.01455
G1 X99.288 Y105.794 E0.01614
G1 X99.363 Y107.037 E0.0449
G1 X99.448 Y107.856 E0.02971
G1 X99.626 Y109.065 E0.04406
G1 X99.867 Y110.267 E0.04419
G1 X100.169 Y111.454 E0.04419
G1 X100.532 Y112.621 E0.04406
G1 X100.809 Y113.394 E0.02958
G1 X101.112 Y114.156 E0.02958
G1 X101.612 Y115.271 E0.04407
G1 X102.171 Y116.362 E0.04419
G1 X102.783 Y117.419 E0.04406
G1 X103.226 Y118.114 E0.0297
G1 X103.925 Y119.112 E0.04394
G1 X104.427 Y119.766 E0.02971
G1 X105.211 Y120.703 E0.04406
G1 X106.045 Y121.6 E0.04415
G1 X106.743 Y122.281 E0.03517
G1 X107.034 Y122.487 E0.01288
G1 X107.354 Y122.645 E0.01285
G1 X107.691 Y122.75 E0.01272
G1 X108.01 Y122.801 E0.01166
G1 X108.363 Y122.804 E0.01272
G1 X108.715 Y122.752 E0.01284
G1 X109.055 Y122.646 E0.01284
G1 X109.375 Y122.488 E0.01284
G1 X109.666 Y122.283 E0.01285
G1 X109.908 Y122.048 E0.01218
G1 X111.235 Y120.448 E0.07492
G1 X111.685 Y120.796 E0.02053
G1 X112.812 Y121.546 E0.04879
G1 X113.698 Y122.06 E0.03694
G1 X114.204 Y122.314 E0.0204
G1 X113.35 Y124.175 E0.07383
G1 X113.249 Y124.457 E0.0108
G1 X113.181 Y124.8 E0.01259
G1 X113.165 Y125.119 E0.01154
G1 X113.193 Y125.435 E0.01142
G1 X113.266 Y125.747 E0.01154
G1 X113.393 Y126.072 E0.0126
G1 X113.553 Y126.349 E0.01154
G1 X113.749 Y126.602 E0.01154
G1 X114.001 Y126.844 E0.0126
G1 X114.268 Y127.032 E0.01176
G1 X114.592 Y127.194 E0.01305
G1 X115.412 Y127.487 E0.03141
G1 X116.185 Y127.734 E0.02928
G1 X116.967 Y127.954 E0.02926
G1 X117.755 Y128.148 E0.02927
G1 X118.553 Y128.315 E0.02939
G1 X119.747 Y128.512 E0.04365
G1 X120.556 Y128.61 E0.02939
G1 X121.368 Y128.68 E0.02939
G1 X122.581 Y128.733 E0.04378
G1 X123.798 Y128.724 E0.0439
G1 X125.014 Y128.653 E0.04391
G1 X126.274 Y128.513 E0.0457
G1 X126.572 Y128.445 E0.01103
G1 X126.878 Y128.33 E0.01179
G1 X127.246 Y128.117 E0.01533
G1 X127.574 Y127.831 E0.0157
G1 X127.843 Y127.489 E0.0157
G1 X128.037 Y127.111 E0.01533
G1 X128.136 Y126.803 E0.01166
G1 X128.186 Y126.527 E0.01011
G1 X128.203 Y126.247 E0.01011
G1 X128.181 Y125.936 E0.01123
G1 X127.746 Y123.84 E0.07717
G1 X128.3 Y123.705 E0.02056
G1 X129.592 Y123.29 E0.04892
G1 X130.849 Y122.788 E0.0488
G1 X131.06 Y122.688 E0.00843
G1 X131.98 Y124.51 E0.07359
G1 X132.134 Y124.759 E0.01055
G1 X132.313 Y124.979 E0.01024
G1 X132.538 Y125.192 E0.01117
G1 X132.768 Y125.358 E0.01024
G1 X133.043 Y125.508 E0.01129
G1 X133.34 Y125.619 E0.01142
G1 X133.649 Y125.688 E0.01141
G1 X133.964 Y125.714 E0.01142
G1 X134.28 Y125.697 E0.01142
G1 X134.614 Y125.631 E0.01226
G1 X135.102 Y125.429 E0.01907
G1 X136.194 Y124.741 E0.04654
G1 X137.189 Y124.039 E0.04391
G1 X138.147 Y123.287 E0.0439
G1 X139.065 Y122.487 E0.0439
G1 X139.938 Y121.643 E0.04377
G1 X140.501 Y121.05 E0.02951
G1 X141.299 Y120.135 E0.04378
G1 X142.049 Y119.18 E0.04378
G1 X142.524 Y118.518 E0.02939
G1 X142.975 Y117.843 E0.02927
G1 X143.434 Y117.101 E0.03144
G1 X143.591 Y116.761 E0.01352
G1 X143.693 Y116.379 E0.01427
G1 X143.728 Y115.985 E0.01427
G1 X143.694 Y115.587 E0.0144
G1 X143.579 Y115.167 E0.0157
G1 X143.368 Y114.749 E0.01688
G1 X143.098 Y114.403 E0.01582
G1 X142.775 Y114.123 E0.01543
G1 X142.495 Y113.954 E0.01176
G1 X140.694 Y113.045 E0.07275
G1 X140.933 Y112.528 E0.02052
G1 X141.414 Y111.26 E0.04892
G1 X141.805 Y109.964 E0.04879
G1 X141.859 Y109.737 E0.00843
G1 X143.874 Y110.157 E0.0742
G1 X144.332 Y110.192 E0.01657
G1 X144.66 Y110.157 E0.01191
G1 X144.956 Y110.086 E0.01098
G1 X145.422 Y109.879 E0.01837
G1 X145.696 Y109.689 E0.01203
G1 X145.921 Y109.484 E0.01098
G1 X146.236 Y109.071 E0.01874
G1 X146.424 Y108.667 E0.01605
G1 X146.523 Y108.274 E0.0146
G1 X146.628 Y107.403 E0.03166
G1 X146.72 Y106.195 E0.04367
G1 X146.747 Y105.381 E0.02939
G1 X146.746 Y104.569 E0.02927
G1 X146.717 Y103.758 E0.02927
G1 X146.661 Y102.948 E0.02927
G1 X146.577 Y102.141 E0.02927
G1 X146.465 Y101.337 E0.02927
G1 X146.326 Y100.534 E0.02939
G1 X146.067 Y99.348 E0.04378
G1 X145.747 Y98.173 E0.0439
G1 X145.368 Y97.018 E0.04384
G1 X145.155 Y96.461 E0.02152
M73 P0 R116
G1 X145.014 Y96.208 E0.01042
G1 X144.83 Y95.959 E0.01117
G1 X144.633 Y95.755 E0.01024
G1 X144.389 Y95.559 E0.01129
G1 X144.119 Y95.399 E0.01129
G1 X143.858 Y95.287 E0.01024
G1 X143.56 Y95.203 E0.01117
G1 X143.279 Y95.161 E0.01024
G1 X142.97 Y95.156 E0.01117
G1 X142.668 Y95.19 E0.01095
G1 X142.206 Y95.33 E0.01741
G1 X140.333 Y96.189 E0.0743
G1 X140.23 Y95.979 E0.00843
G1 X139.56 Y94.803 E0.0488
G1 X138.809 Y93.673 E0.04892
G1 X138.459 Y93.22 E0.02062
G1 X140.185 Y91.779 E0.08108
G1 X140.421 Y91.487 E0.01353
G1 X140.613 Y91.149 E0.01402
G1 X140.738 Y90.808 E0.01309
G1 X140.812 Y90.419 E0.01427
G1 X140.814 Y89.987 E0.01558
G1 X140.734 Y89.563 E0.01558
G1 X140.59 Y89.187 E0.01452
G1 X140.362 Y88.815 E0.01572
G1 X139.908 Y88.327 E0.02403
G1 X139.322 Y87.753 E0.02957
G1 X138.419 Y86.942 E0.04378
G1 X137.473 Y86.176 E0.0439
G1 X136.489 Y85.459 E0.0439
