; generated by SuperSlicer 2.5.59 on 2022-10-02 at 07:48:18 UTC

; 

; external perimeters extrusion width = 0.45mm
; perimeters extrusion width = 0.45mm
; infill extrusion width = 0.45mm
; solid infill extrusion width = 0.45mm
; top infill extrusion width = 0.40mm
; first layer extrusion width = 0.42mm

; object:{"name":"Triple twist vase","id":"Triple twist vase.stl id:0 copy 0","object_center":[125.000000,105.000000,0.000000],"boundingbox_center":[125.000000,105.000000,95.884499],"boundingbox_size":[114.419678,114.434998,191.768997]}
; plater:{"center":[125.000000,105.000000,0.000000],"boundingbox_center":[125.000000,105.000000,95.884499],"boundingbox_size":[114.419678,114.434998,191.768997]}

M73 P0 R194


; Pre-Processed for Cancel-Object support by preprocess_cancellation v0.2.0
; 1 known objects
EXCLUDE_OBJECT_DEFINE NAME=Triple_twist_vase_stl_id_0_copy_0 CENTER=124.964,104.955 POLYGON=[[125.0,48.009],[120.145,48.274],[116.203,48.845],[115.131,49.045],[112.315,49.666],[108.513,50.84],[105.702,51.93],[104.818,52.295],[101.238,53.976],[97.845,56.026],[94.636,58.328],[91.607,60.825],[88.81,63.563],[82.231,70.254],[79.582,73.144],[77.215,76.273],[75.059,79.575],[73.166,83.047],[71.57,86.671],[70.21,90.408],[69.207,94.253],[69.013,95.136],[68.554,98.166],[68.307,100.067],[68.153,102.12],[68.031,104.999],[68.025,106.096],[68.182,109.805],[68.844,114.893],[69.958,119.627],[71.197,123.408],[71.565,124.381],[72.686,127.091],[75.354,132.605],[75.839,133.53],[77.362,136.029],[78.404,137.653],[79.604,139.31],[81.38,141.622],[82.06,142.442],[84.679,145.298],[88.345,148.654],[92.241,151.567],[95.622,153.669],[99.131,155.533],[104.722,158.044],[105.604,158.408],[108.464,159.372],[110.305,159.948],[112.291,160.448],[115.11,161.074],[116.187,161.267],[120.193,161.788],[125.0,161.991],[129.855,161.726],[133.797,161.155],[134.869,160.955],[137.686,160.334],[141.487,159.16],[144.298,158.07],[145.182,157.705],[148.763,156.024],[152.155,153.974],[155.365,151.671],[158.393,149.175],[161.191,146.436],[167.769,139.745],[170.419,136.855],[172.786,133.726],[174.941,130.424],[176.834,126.952],[178.431,123.328],[179.791,119.591],[180.793,115.746],[180.987,114.864],[181.446,111.832],[181.693,109.933],[181.847,107.879],[181.969,105.0],[181.975,103.903],[181.818,100.195],[181.156,95.107],[180.041,90.373],[178.803,86.591],[178.435,85.619],[177.314,82.908],[174.646,77.395],[174.161,76.47],[172.638,73.972],[171.595,72.347],[170.396,70.69],[168.62,68.378],[167.94,67.558],[165.321,64.702],[161.655,61.346],[157.759,58.433],[154.378,56.332],[150.869,54.466],[145.278,51.955],[144.396,51.591],[141.536,50.628],[139.695,50.052],[137.709,49.553],[134.89,48.926],[133.813,48.733],[129.807,48.212],[125.0,48.009]]
;TYPE:Custom
Start : M104 S0
M140 S0
PRINT_START EXTRUDER_TEMP=230 BED_TEMP=70
M107
G21 ; set units to millimeters
G90 ; use absolute coordinates
M83 ; use relative distances for extrusion
M900 K0.05 ; Filament gcode LA 1.5
M900 K30 ; Filament gcode LA 1.0
;_TOOLCHANGE 0
M104 S230 ; set temperature
M109 S230 ; set temperature and wait for it to be reached
M107
;LAYER_CHANGE
;Z:0.2
;HEIGHT:0.2
;BEFORE_LAYER_CHANGE
G92 E0.0
;0.2
TIMELAPSE_TAKE_FRAME

G1 Z0.2 F10800
;AFTER_LAYER_CHANGE
;0.2
M73 P0 R193
G1 E-0.8 F2100
G1 Z0.6 F10800
M204 S1000
G1 X102.308 Y86.087
G1 Z0.2
G1 E0.8 F2100
;TYPE:Skirt
;WIDTH:0.52
G1 F900
G1 X104.044 Y84.181 E0.10229
G1 X105.937 Y82.433 E0.10222
G1 X108.134 Y80.748 E0.10982
G1 X110.314 Y79.367 E0.10236
G1 X112.606 Y78.184 E0.10232
G1 X114.99 Y77.207 E0.10222
G1 X117.448 Y76.441 E0.10214
G1 X119.968 Y75.891 E0.10232
G1 X122.331 Y75.581 E0.09451
G1 X124.901 Y75.46 E0.10209
G1 X127.477 Y75.565 E0.10226
G1 X130.032 Y75.891 E0.10216
G1 X132.552 Y76.441 E0.10232
G1 X135.193 Y77.273 E0.10985
G1 X137.571 Y78.267 E0.10227
G1 X139.858 Y79.466 E0.10241
G1 X141.866 Y80.748 E0.09452
G1 X143.912 Y82.306 E0.10202
G1 X145.819 Y84.043 E0.10234
G1 X147.566 Y85.937 E0.1022
G1 X149.251 Y88.133 E0.10981
G1 X150.632 Y90.313 E0.10237
G1 X151.815 Y92.606 E0.10234
G1 X152.792 Y94.99 E0.1022
G1 X153.557 Y97.447 E0.10208
G1 X154.109 Y99.967 E0.10235
G1 X154.418 Y102.33 E0.09455
G1 X154.539 Y104.901 E0.1021
G1 X154.435 Y107.476 E0.10223
G1 X154.109 Y110.031 E0.10218
G1 X153.557 Y112.551 E0.10234
G1 X152.726 Y115.19 E0.10976
G1 X151.732 Y117.571 E0.10234
G1 X150.533 Y119.857 E0.10241
G1 X149.251 Y121.865 E0.0945
G1 X147.693 Y123.911 E0.10202
G1 X145.956 Y125.818 E0.1023
G1 X144.063 Y127.565 E0.10221
G1 X141.866 Y129.251 E0.10984
G1 X139.687 Y130.631 E0.10232
G1 X137.394 Y131.815 E0.10238
G1 X135.01 Y132.791 E0.1022
G1 X132.552 Y133.557 E0.10212
G1 X130.032 Y134.108 E0.10233
G1 X127.669 Y134.417 E0.09451
G1 X125.098 Y134.538 E0.1021
G1 X122.523 Y134.434 E0.10224
G1 X119.968 Y134.108 E0.10217
G1 X117.448 Y133.557 E0.10233
G1 X114.808 Y132.725 E0.10981
G1 X112.428 Y131.732 E0.1023
G1 X110.143 Y130.532 E0.10239
G1 X108.134 Y129.251 E0.09451
G1 X106.088 Y127.691 E0.10206
G1 X104.181 Y125.955 E0.1023
G1 X102.434 Y124.062 E0.10219
G1 X100.749 Y121.865 E0.10982
G1 X99.368 Y119.686 E0.10236
G1 X98.184 Y117.393 E0.10235
G1 X97.208 Y115.008 E0.10222
G1 X96.443 Y112.551 E0.10208
G1 X95.891 Y110.031 E0.10234
G1 X95.582 Y107.668 E0.09452
G1 X95.461 Y105.098 E0.10209
G1 X95.565 Y102.523 E0.10224
G1 X95.891 Y99.967 E0.1022
G1 X96.443 Y97.447 E0.10235
G1 X97.274 Y94.807 E0.10977
G1 X98.268 Y92.428 E0.1023
G1 X99.467 Y90.142 E0.1024
G1 X100.749 Y88.133 E0.09453
G1 X102.271 Y86.135 E0.09965
;WIPE_START
G1 F8640
G1 X104.044 Y84.181 E-0.60919
G1 X104.524 Y83.738 E-0.15081
;WIPE_END
G1 E-0.04 F2100
G1 Z0.6 F10800
; printing object Triple twist vase.stl id:0 copy 0
EXCLUDE_OBJECT_START NAME=Triple_twist_vase_stl_id_0_copy_0
; acceleration to travel
M204 S1500
G1 X104.811 Y87.414
; decel to extrusion
M204 S800
G1 X104.866 Y88.125
; end travel
G1 Z0.2
G1 E0.8 F2100
;TYPE:Internal perimeter
;WIDTH:0.42
G1 F900
G1 X106.424 Y86.424 E0.07233
G1 X108.114 Y84.874 E0.07188
G1 X109.931 Y83.481 E0.0718
G1 X111.864 Y82.247 E0.07189
G1 X113.898 Y81.189 E0.07189
G1 X116.016 Y80.313 E0.07188
G1 X118.2 Y79.624 E0.07181
G1 X120.438 Y79.128 E0.07187
G1 X122.711 Y78.83 E0.07188
G1 X125 Y78.729 E0.07182
G1 X125.414 Y78.747 E0.01301
G1 X127.289 Y78.83 E0.05883
G1 X129.562 Y79.128 E0.07188
G1 X131.8 Y79.624 E0.07187
G1 X133.984 Y80.313 E0.07181
G1 X136.102 Y81.189 E0.07188
G1 X138.136 Y82.247 E0.07189
G1 X140.069 Y83.481 E0.07189
G1 X141.886 Y84.874 E0.0718
G1 X143.576 Y86.424 E0.07188
G1 X145.125 Y88.113 E0.07187
G1 X146.518 Y89.931 E0.07181
G1 X147.752 Y91.863 E0.0719
G1 X148.811 Y93.897 E0.07188
G1 X149.686 Y96.016 E0.07189
G1 X150.375 Y98.2 E0.0718
G1 X150.872 Y100.437 E0.07186
G1 X151.17 Y102.711 E0.0719
G1 X151.27 Y105 E0.07183
G1 X151.17 Y107.288 E0.07182
G1 X150.872 Y109.561 E0.07188
G1 X150.375 Y111.798 E0.07186
G1 X149.686 Y113.982 E0.07181
G1 X148.811 Y116.102 E0.0719
G1 X147.752 Y118.135 E0.07187
G1 X146.518 Y120.067 E0.07188
G1 X145.125 Y121.886 E0.07182
G1 X143.576 Y123.575 E0.07186
G1 X141.886 Y125.124 E0.07187
G1 X140.069 Y126.518 E0.07181
G1 X138.136 Y127.751 E0.07189
G1 X136.102 Y128.81 E0.0719
G1 X133.984 Y129.686 E0.07187
G1 X131.8 Y130.374 E0.07181
G1 X129.562 Y130.871 E0.07187
G1 X127.289 Y131.169 E0.07187
G1 X125 Y131.269 E0.07183
G1 X122.711 Y131.169 E0.07183
G1 X120.438 Y130.871 E0.07187
G1 X118.2 Y130.374 E0.07187
G1 X116.016 Y129.686 E0.07181
G1 X113.898 Y128.81 E0.07187
G1 X111.864 Y127.751 E0.0719
G1 X109.931 Y126.518 E0.07189
G1 X108.114 Y125.124 E0.07181
G1 X106.424 Y123.575 E0.07187
G1 X104.875 Y121.886 E0.07186
G1 X103.482 Y120.067 E0.07182
G1 X102.248 Y118.135 E0.07188
G1 X101.189 Y116.102 E0.07187
G1 X100.314 Y113.982 E0.0719
G1 X99.625 Y111.798 E0.07181
G1 X99.128 Y109.561 E0.07186
G1 X98.83 Y107.288 E0.07188
G1 X98.73 Y105 E0.07182
G1 X98.83 Y102.711 E0.07183
G1 X99.128 Y100.437 E0.0719
G1 X99.625 Y98.2 E0.07186
G1 X100.314 Y96.016 E0.0718
G1 X101.189 Y93.897 E0.07189
G1 X102.248 Y91.863 E0.07187
G1 X103.482 Y89.931 E0.0719
G1 X104.83 Y88.172 E0.06947
G1 X104.567 Y87.895 F10800
;TYPE:External perimeter
G1 F900
G1 X104.586 Y87.87 E0.00098
G1 X106.157 Y86.157 E0.0729
G1 X107.871 Y84.585 E0.07291
G1 X109.714 Y83.172 E0.07283
G1 X111.675 Y81.92 E0.07292
G1 X113.738 Y80.847 E0.07293
G1 X115.887 Y79.958 E0.07292
G1 X118.103 Y79.259 E0.07284
G1 X120.373 Y78.756 E0.0729
G1 X122.678 Y78.454 E0.07291
G1 X125 Y78.351 E0.07286
G1 X125.431 Y78.371 E0.01353
G1 X127.322 Y78.454 E0.05934
G1 X129.627 Y78.756 E0.07291
G1 X131.897 Y79.259 E0.0729
G1 X134.113 Y79.958 E0.07284
G1 X136.262 Y80.847 E0.07292
G1 X138.325 Y81.92 E0.07293
G1 X140.286 Y83.172 E0.07292
G1 X142.129 Y84.585 E0.07283
G1 X143.843 Y86.157 E0.07291
G1 X145.414 Y87.87 E0.0729
G1 X146.827 Y89.714 E0.07283
G1 X148.079 Y91.674 E0.07293
G1 X149.153 Y93.737 E0.07292
G1 X150.041 Y95.887 E0.07292
G1 X150.739 Y98.102 E0.07283
G1 X151.244 Y100.371 E0.07289
G1 X151.546 Y102.678 E0.07293
G1 X151.648 Y105 E0.07286
G1 X151.546 Y107.321 E0.07285
G1 X151.244 Y109.627 E0.07292
G1 X150.739 Y111.896 E0.07289
G1 X150.041 Y114.111 E0.07283
G1 X149.153 Y116.261 E0.07294
G1 X148.079 Y118.324 E0.07292
G1 X146.827 Y120.284 E0.07291
G1 X145.414 Y122.128 E0.07285
G1 X143.843 Y123.842 E0.07289
G1 X142.129 Y125.413 E0.0729
G1 X140.286 Y126.827 E0.07284
G1 X138.325 Y128.078 E0.07292
G1 X136.262 Y129.152 E0.07294
G1 X134.113 Y130.04 E0.07291
G1 X131.897 Y130.739 E0.07284
G1 X129.627 Y131.243 E0.07291
G1 X127.322 Y131.545 E0.0729
G1 X125 Y131.647 E0.07286
G1 X122.678 Y131.545 E0.07286
G1 X120.373 Y131.243 E0.07291
G1 X118.103 Y130.739 E0.07291
G1 X115.887 Y130.04 E0.07284
G1 X113.738 Y129.152 E0.07291
G1 X111.675 Y128.078 E0.07294
G1 X109.714 Y126.827 E0.07292
G1 X107.871 Y125.413 E0.07284
G1 X106.157 Y123.842 E0.0729
G1 X104.586 Y122.128 E0.07289
G1 X103.173 Y120.284 E0.07285
G1 X101.921 Y118.324 E0.07291
G1 X100.847 Y116.261 E0.07292
G1 X99.959 Y114.111 E0.07294
G1 X99.261 Y111.896 E0.07283
G1 X98.756 Y109.627 E0.07289
G1 X98.454 Y107.321 E0.07292
G1 X98.352 Y105 E0.07285
G1 X98.454 Y102.678 E0.07286
G1 X98.756 Y100.371 E0.07293
G1 X99.261 Y98.102 E0.07289
G1 X99.959 Y95.887 E0.07283
G1 X100.847 Y93.737 E0.07292
G1 X101.921 Y91.674 E0.07292
G1 X103.173 Y89.714 E0.07293
G1 X104.531 Y87.943 E0.06997
;WIPE_START
M204 S1000
G1 X104.964 Y87.947 F10800
;WIPE_END
;WIPE_START
G1 F8640
G1 X106.299 Y86.298 E-0.48994
G1 X107.161 Y85.508 E-0.27006
;WIPE_END
G1 E-0.04 F2100
G1 Z0.6 F10800
; acceleration to travel
M204 S1500
G1 X134.692 Y84.802
; decel to extrusion
M204 S1000
G1 X141.382 Y84.63
; end travel
G1 Z0.2
G1 E0.8 F2100
;TYPE:Solid infill
;WIDTH:0.420385
G1 F1200
G1 X143.497 Y86.745 E0.09384
G1 X144.914 Y88.29 E0.06581
G1 X146.244 Y90.025 E0.0686
G1 X139.973 Y83.754 E0.27833
G1 X139.911 Y83.707 E0.00244
G1 X138.476 Y82.791 E0.05341
G1 X147.208 Y91.523 E0.38754
G1 X147.514 Y92.001 E0.01781
G1 X147.905 Y92.753 E0.02659
G1 X137.247 Y82.095 E0.47302
G1 X136.135 Y81.516 E0.03934
G1 X148.484 Y93.865 E0.54805
G1 X148.561 Y94.013 E0.00525
G1 X148.886 Y94.801 E0.02675
G1 X135.199 Y81.113 E0.60749
G1 X134.289 Y80.737 E0.03088
G1 X149.262 Y95.709 E0.66452
G1 X149.427 Y96.11 E0.01359
G1 X149.565 Y96.546 E0.01434
G1 X133.453 Y80.434 E0.71508
G1 X132.674 Y80.188 E0.02563
G1 X149.81 Y97.324 E0.76055
M73 P0 R192
G1 X150.056 Y98.103 E0.02563
G1 X131.895 Y79.942 E0.80602
G1 X131.728 Y79.89 E0.00549
G1 X131.19 Y79.77 E0.01731
G1 X150.228 Y98.809 E0.84497
G1 X150.381 Y99.494 E0.02204
G1 X130.505 Y79.619 E0.88214
G1 X129.82 Y79.467 E0.02202
G1 X150.533 Y100.18 E0.91931
G1 X150.601 Y100.485 E0.00979
G1 X150.645 Y100.826 E0.01079
G1 X129.174 Y79.354 E0.95295
G1 X128.56 Y79.274 E0.01942
G1 X150.726 Y101.439 E0.98375
G1 X150.806 Y102.053 E0.01942
G1 X127.947 Y79.194 E1.01455
G1 X127.333 Y79.113 E0.01942
G1 X150.886 Y102.667 E1.04535
G1 X150.895 Y102.735 E0.00216
G1 X150.917 Y103.231 E0.01558
G1 X126.769 Y79.082 E1.07175
G1 X126.211 Y79.058 E0.01752
G1 X150.942 Y103.788 E1.0976
G1 X150.966 Y104.346 E0.01752
G1 X125.653 Y79.033 E1.12345
G1 X125.402 Y79.022 E0.0079
G1 X125.095 Y79.008 E0.00964
G1 X150.991 Y104.904 E1.14931
G1 X150.995 Y104.999 E0.003
G1 X150.976 Y105.423 E0.0133
G1 X124.576 Y79.023 E1.17169
G1 X124.066 Y79.045 E0.01604
G1 X150.954 Y105.934 E1.19336
G1 X150.931 Y106.444 E0.01605
G1 X123.555 Y79.068 E1.21503
G1 X123.044 Y79.091 E0.01604
G1 X150.909 Y106.955 E1.2367
G1 X150.895 Y107.264 E0.0097
G1 X150.871 Y107.45 E0.0059
G1 X122.549 Y79.129 E1.25699
G1 X122.078 Y79.19 E0.01492
G1 X150.809 Y107.922 E1.27517
G1 X150.747 Y108.393 E0.01492
G1 X121.606 Y79.252 E1.29336
G1 X121.135 Y79.314 E0.01492
G1 X150.686 Y108.865 E1.31154
G1 X150.624 Y109.336 E0.01492
G1 X120.663 Y79.376 E1.32973
G1 X120.486 Y79.399 E0.0056
G1 X120.213 Y79.459 E0.00876
G1 X150.54 Y109.786 E1.34597
G1 X150.443 Y110.222 E0.01403
G1 X119.777 Y79.556 E1.36104
G1 X119.34 Y79.653 E0.01403
G1 X150.346 Y110.659 E1.37611
G1 X150.249 Y111.095 E0.01403
G1 X118.904 Y79.75 E1.39118
G1 X118.467 Y79.846 E0.01403
G1 X150.152 Y111.531 E1.40625
G1 X150.109 Y111.727 E0.00629
G1 X150.038 Y111.951 E0.00736
G1 X118.048 Y79.96 E1.4198
G1 X117.643 Y80.088 E0.01334
G1 X149.91 Y112.356 E1.43212
M73 P1 R192
G1 X149.783 Y112.761 E0.01334
G1 X117.237 Y80.216 E1.44444
G1 X116.832 Y80.344 E0.01334
G1 X149.655 Y113.167 E1.45676
G1 X149.527 Y113.572 E0.01334
G1 X116.426 Y80.472 E1.46908
M73 P1 R191
G1 X116.11 Y80.571 E0.0104
G1 X116.027 Y80.606 E0.00282
G1 X149.393 Y113.972 E1.48085
G1 X149.237 Y114.349 E0.01281
G1 X115.65 Y80.762 E1.49067
G1 X115.273 Y80.918 E0.01281
G1 X149.081 Y114.726 E1.5005
G1 X148.925 Y115.104 E0.01281
G1 X114.895 Y81.074 E1.51032
G1 X114.518 Y81.23 E0.01281
G1 X148.769 Y115.481 E1.52014
G1 X148.613 Y115.858 E0.01281
G1 X114.141 Y81.386 E1.52997
G1 X114.014 Y81.439 E0.00431
G1 X113.781 Y81.56 E0.00823
G1 X148.44 Y116.218 E1.53823
G1 X148.257 Y116.569 E0.01241
G1 X113.431 Y81.742 E1.54569
G1 X113.08 Y81.925 E0.01241
G1 X148.075 Y116.92 E1.55316
G1 X147.892 Y117.27 E0.01241
G1 X112.729 Y82.107 E1.56062
G1 X112.378 Y82.29 E0.01241
G1 X147.71 Y117.621 E1.56809
G1 X147.527 Y117.972 E0.01241
G1 X112.028 Y82.472 E1.57555
G1 X112.001 Y82.486 E0.00092
G1 X111.7 Y82.678 E0.01122
G1 X147.321 Y118.299 E1.58094
G1 X147.113 Y118.624 E0.01212
G1 X111.375 Y82.886 E1.58616
G1 X111.049 Y83.094 E0.01212
G1 X146.905 Y118.95 E1.59139
G1 X146.698 Y119.275 E0.01212
G1 X110.724 Y83.301 E1.59661
G1 X110.398 Y83.509 E0.01212
G1 X146.49 Y119.601 E1.60183
G1 X146.293 Y119.909 E0.01149
G1 X146.281 Y119.925 E0.00062
G1 X110.074 Y83.718 E1.60694
G1 X109.772 Y83.95 E0.01194
G1 X146.049 Y120.227 E1.61007
G1 X145.818 Y120.529 E0.01194
G1 X109.47 Y84.181 E1.6132
G1 X109.168 Y84.412 E0.01194
G1 X145.587 Y120.831 E1.61633
G1 X145.355 Y121.133 E0.01194
G1 X108.866 Y84.644 E1.61946
G1 X108.565 Y84.875 E0.01194
G1 X145.124 Y121.434 E1.62258
G1 X144.914 Y121.708 E0.01084
G1 X144.89 Y121.734 E0.00109
G1 X108.265 Y85.109 E1.62552
M73 P1 R190
G1 X107.987 Y85.364 E0.01184
G1 X144.635 Y122.012 E1.62654
G1 X144.38 Y122.29 E0.01184
G1 X107.709 Y85.619 E1.62756
G1 X107.43 Y85.874 E0.01184
G1 X144.125 Y122.569 E1.62859
G1 X143.87 Y122.847 E0.01184
G1 X107.152 Y86.129 E1.62961
G1 X106.874 Y86.384 E0.01184
G1 X143.615 Y123.125 E1.63064
G1 X143.381 Y123.38 E0.01085
G1 X143.358 Y123.401 E0.00099
G1 X106.598 Y86.641 E1.63149
G1 X106.343 Y86.92 E0.01185
G1 X143.08 Y123.656 E1.63046
G1 X142.801 Y123.911 E0.01184
G1 X106.088 Y87.198 E1.62944
G1 X105.833 Y87.476 E0.01185
G1 X142.523 Y124.167 E1.62841
G1 X142.245 Y124.422 E0.01184
G1 X105.578 Y87.754 E1.62739
G1 X105.323 Y88.032 E0.01185
G1 X141.967 Y124.677 E1.62636
G1 X141.709 Y124.913 E0.01097
G1 X141.687 Y124.93 E0.00088
G1 X105.069 Y88.312 E1.62518
G1 X104.838 Y88.614 E0.01194
G1 X141.385 Y125.162 E1.62205
G1 X141.083 Y125.393 E0.01194
G1 X104.606 Y88.916 E1.61893
G1 X104.375 Y89.218 E0.01194
G1 X140.781 Y125.624 E1.61581
G1 X140.48 Y125.856 E0.01194
G1 X104.144 Y89.52 E1.61268
G1 X103.912 Y89.822 E0.01194
G1 X140.178 Y126.087 E1.60956
G1 X139.911 Y126.292 E0.01056
G1 X139.873 Y126.316 E0.0014
G1 X103.683 Y90.126 E1.60619
M73 P2 R190
G1 X103.476 Y90.452 E0.01212
