; generated by SuperSlicer 2.3.57 on 2022-05-24 at 16:34:27 UTC

; 

; external perimeters extrusion width = 0.45mm
; perimeters extrusion width = 0.45mm
; infill extrusion width = 0.45mm
; solid infill extrusion width = 0.45mm
; top infill extrusion width = 0.40mm
; first layer extrusion width = 0.42mm

; object:{"name":"Voron_Design_Cube_v7","id":"Voron_Design_Cube_v7.stl id:0 copy 0","object_center":[125.000000,105.000000,0.000000],"boundingbox_center":[125.000000,105.000000,15.000000],"boundingbox_size":[30.000000,30.000000,30.000000]}
; Total objects to print: 1
M486 T1
; plater:{"center":[125.000000,105.000000,0.000000],"boundingbox_center":[125.000000,105.000000,15.000000],"boundingbox_size":[30.000000,30.000000,30.000000]}

M73 P0 R72
M73 Q0 S73
;TYPE:Custom
M104 S0
M140 S0
PRINT_START EXTRUDER_TEMP=245 BED_TEMP=85
M107
G21 ; set units to millimeters
G90 ; use absolute coordinates
M83 ; use relative distances for extrusion
M900 K0.08 ; Filament gcode LA 1.5
M900 K45 ; Filament gcode LA 1.0
;LAYER_CHANGE
;Z:0.2
;HEIGHT:0.2
;BEFORE_LAYER_CHANGE
G92 E0.0
;0.2


G1 E-1 F2100
G1 Z0.2 F10800
G1 Z0.2
;AFTER_LAYER_CHANGE
;0.2
G1 Z0.4
M204 P1500
G1 X108.405 Y93.929
G1 Z0.2
G1 E1 F2100
;TYPE:Skirt
;WIDTH:0.52
G1 F1200
G1 X108.07 Y94.365 E0.02179
G1 X107.843 Y94.901 E0.0231
G1 X107.762 Y95.474 E0.02296
G1 X107.761 Y114.506 E0.75498
G1 X107.817 Y114.997 E0.01961
G1 X108.026 Y115.556 E0.02368
G1 X108.373 Y116.038 E0.02354
G1 X113.929 Y121.595 E0.31173
G1 X114.365 Y121.93 E0.02179
G1 X114.901 Y122.157 E0.0231
G1 X115.474 Y122.238 E0.02296
G1 X134.506 Y122.239 E0.75498
G1 X134.997 Y122.183 E0.01961
G1 X135.556 Y121.974 E0.02368
G1 X136.038 Y121.627 E0.02354
G1 X141.595 Y116.071 E0.31173
G1 X141.93 Y115.635 E0.02179
G1 X142.157 Y115.099 E0.0231
G1 X142.238 Y114.526 E0.02296
G1 X142.239 Y95.49 E0.75513
G1 X142.163 Y94.924 E0.02267
G1 X141.958 Y94.414 E0.02179
G1 X141.634 Y93.97 E0.02179
G1 X136.028 Y88.364 E0.31451
G1 X135.323 Y87.918 E0.03309
G1 X134.504 Y87.761 E0.03309
G1 X115.494 Y87.761 E0.75411
G1 X114.956 Y87.829 E0.0215
G1 X114.424 Y88.037 E0.02267
G1 X113.959 Y88.376 E0.02281
G1 X108.447 Y93.887 E0.3092
; INIT printing object Voron_Design_Cube_v7.stl id:0 copy 0
M104 S245 ; set temperature
;WIPE_START
G1 F8640
M204 P1000
G1 X108.07 Y94.365 E-0.1406
G1 X107.843 Y94.901 E-0.13447
G1 X107.762 Y95.474 E-0.13362
G1 X107.762 Y97.818 E-0.54131
;WIPE_END
G1 E-0.05 F2100
G1 Z0.4 F10800
; printing object Voron_Design_Cube_v7.stl id:0 copy 0
M486 S0
M204 P1500
G1 X112.784 Y99.11
M204 P1000
G1 X117.807 Y100.401
G1 Z0.2
G1 E1 F2100
;TYPE:Internal perimeter
;WIDTH:0.42
G1 F1200
G1 X117.372 Y101.166 E0.02759
G1 X117.099 Y101.77 E0.02078
G1 X116.869 Y102.396 E0.0209
G1 X116.644 Y103.247 E0.02759
G1 X116.508 Y104.119 E0.02768
G1 X116.462 Y105 E0.02767
G1 X116.508 Y105.881 E0.02767
G1 X116.644 Y106.753 E0.02768
G1 X116.87 Y107.607 E0.02767
G1 X117.182 Y108.432 E0.02767
G1 X117.578 Y109.221 E0.02767
G1 X118.054 Y109.965 E0.02767
G1 X118.602 Y110.653 E0.02759
G1 X119.064 Y111.133 E0.0209
G1 X119.556 Y111.577 E0.02079
G1 X120.262 Y112.103 E0.02758
G1 X121.021 Y112.554 E0.02767
G1 X121.822 Y112.924 E0.02767
G1 X122.657 Y113.21 E0.02767
G1 X123.517 Y113.408 E0.02767
G1 X124.393 Y113.516 E0.02767
G1 X125.275 Y113.533 E0.02767
G1 X126.155 Y113.459 E0.02767
G1 X127.022 Y113.295 E0.02767
G1 X127.864 Y113.043 E0.02757
G1 X128.483 Y112.793 E0.02092
G1 X129.079 Y112.5 E0.0208
G1 X129.828 Y112.041 E0.02757
G1 X130.529 Y111.505 E0.02767
G1 X131.171 Y110.899 E0.02767
G1 X131.748 Y110.231 E0.02767
G1 X132.251 Y109.506 E0.02767
G1 X132.678 Y108.733 E0.02767
G1 X133.022 Y107.921 E0.02767
G1 X133.281 Y107.077 E0.02767
G1 X133.451 Y106.211 E0.02767
G1 X133.53 Y105.336 E0.02755
G1 X133.53 Y104.664 E0.02105
G1 X133.451 Y103.789 E0.02755
G1 X133.281 Y102.923 E0.02767
G1 X133.023 Y102.083 E0.02756
G1 X132.772 Y101.468 E0.02081
G1 X132.473 Y100.872 E0.02093
G1 X132.009 Y100.125 E0.02756
G1 X131.468 Y99.428 E0.02767
G1 X130.858 Y98.79 E0.02767
G1 X130.186 Y98.218 E0.02767
G1 X129.458 Y97.719 E0.02767
G1 X128.685 Y97.299 E0.02757
G1 X128.076 Y97.037 E0.0208
G1 X127.445 Y96.82 E0.02092
G1 X126.591 Y96.612 E0.02757
G1 X125.716 Y96.492 E0.02767
G1 X124.834 Y96.464 E0.02767
G1 X123.954 Y96.527 E0.02767
G1 X123.084 Y96.68 E0.02767
G1 X122.239 Y96.921 E0.02758
G1 X121.621 Y97.162 E0.02079
G1 X121.018 Y97.448 E0.02091
G1 X120.262 Y97.897 E0.02758
G1 X119.554 Y98.424 E0.02767
G1 X118.904 Y99.022 E0.02767
G1 X118.32 Y99.683 E0.02767
G1 X117.841 Y100.352 E0.02579
M204 P1500
G1 X117.995 Y100.462 F10800
M204 P1000
G1 X118.148 Y100.572
;TYPE:External perimeter
G1 F1200
G1 X118.125 Y100.605 E0.00127
G1 X117.708 Y101.337 E0.02642
G1 X117.449 Y101.913 E0.01981
G1 X117.229 Y102.509 E0.01992
G1 X117.014 Y103.324 E0.02642
G1 X116.883 Y104.158 E0.02645
G1 X116.84 Y105 E0.02645
G1 X116.883 Y105.842 E0.02645
G1 X117.014 Y106.676 E0.02645
G1 X117.229 Y107.491 E0.02645
G1 X117.528 Y108.28 E0.02645
G1 X117.907 Y109.034 E0.02645
G1 X118.361 Y109.745 E0.02645
G1 X118.886 Y110.404 E0.02642
G1 X119.326 Y110.862 E0.01993
G1 X119.796 Y111.285 E0.01981
G1 X120.472 Y111.789 E0.02642
G1 X121.197 Y112.22 E0.02645
G1 X121.962 Y112.574 E0.02645
G1 X122.761 Y112.847 E0.02645
G1 X123.583 Y113.036 E0.02645
G1 X124.42 Y113.14 E0.02645
G1 X125.263 Y113.156 E0.02645
G1 X126.104 Y113.085 E0.02645
G1 X126.933 Y112.928 E0.02645
G1 X127.74 Y112.686 E0.02641
G1 X128.329 Y112.449 E0.01993
G1 X128.896 Y112.17 E0.01982
G1 X129.615 Y111.73 E0.02641
G1 X130.285 Y111.217 E0.02645
G1 X130.899 Y110.638 E0.02645
G1 X131.449 Y109.999 E0.02645
G1 X131.931 Y109.307 E0.02645
G1 X132.338 Y108.568 E0.02645
G1 X132.667 Y107.792 E0.02645
G1 X132.915 Y106.985 E0.02645
G1 X133.077 Y106.157 E0.02645
G1 X133.153 Y105.319 E0.02641
G1 X133.153 Y104.681 E0.01998
G1 X133.077 Y103.843 E0.02641
G1 X132.915 Y103.015 E0.02645
G1 X132.668 Y102.21 E0.02641
G1 X132.428 Y101.625 E0.01982
G1 X132.143 Y101.056 E0.01994
G1 X131.699 Y100.341 E0.02641
G1 X131.182 Y99.674 E0.02645
G1 X130.599 Y99.064 E0.02645
G1 X129.957 Y98.518 E0.02645
G1 X129.261 Y98.041 E0.02645
G1 X128.521 Y97.639 E0.02641
G1 X127.94 Y97.389 E0.01982
G1 X127.339 Y97.182 E0.01993
G1 X126.52 Y96.983 E0.02641
G1 X125.684 Y96.869 E0.02645
G1 X124.841 Y96.841 E0.02645
G1 X124 Y96.901 E0.02645
G1 X123.169 Y97.048 E0.02645
G1 X122.359 Y97.279 E0.02642
G1 X121.77 Y97.508 E0.01982
G1 X121.196 Y97.781 E0.01993
G1 X120.472 Y98.211 E0.02642
G1 X119.795 Y98.715 E0.02645
G1 X119.174 Y99.286 E0.02645
G1 X118.615 Y99.918 E0.02645
G1 X118.183 Y100.523 E0.0233
;WIPE_START
G1 X118.108 Y100.568 F10800
;WIPE_END
;WIPE_START
G1 F8640
G1 X117.53 Y101.246 E-0.20588
G1 X117.263 Y101.837 E-0.1497
G1 X117.038 Y102.449 E-0.15053
G1 X116.818 Y103.283 E-0.19914
G1 X116.684 Y104.137 E-0.19958
G1 X116.674 Y104.332 E-0.04518
;WIPE_END
G1 E-0.05 F2100
G1 Z0.4 F10800
M204 P1500
G1 X113.781 Y102.45
M204 P1000
G1 X110.887 Y100.568
G1 Z0.2
G1 E1 F2100
;TYPE:Internal perimeter
G1 F1200
G1 X110.887 Y96.236 E0.13583
G1 X116.236 Y90.887 E0.23716
G1 X133.764 Y90.887 E0.5496
G1 X139.113 Y96.236 E0.23716
G1 X139.113 Y113.764 E0.5496
G1 X133.764 Y119.113 E0.23716
G1 X116.236 Y119.113 E0.5496
G1 X110.887 Y113.764 E0.23716
G1 X110.887 Y100.628 E0.41189
M204 P1500
G1 X110.699 Y100.628 F10800
M204 P1000
G1 X110.51 Y100.628
;TYPE:External perimeter
G1 F1200
G1 X110.51 Y96.079 E0.14261
G1 X116.079 Y90.51 E0.24696
G1 X133.921 Y90.51 E0.55939
M73 P0 R71
G1 X134.142 Y90.732 E0.00983
G1 X139.49 Y96.079 E0.23713
G1 X139.49 Y113.921 E0.55939
G1 X133.921 Y119.49 E0.24696
G1 X116.079 Y119.49 E0.55939
G1 X110.51 Y113.921 E0.24696
G1 X110.51 Y100.688 E0.41491
;WIPE_START
G1 X110.856 Y100.428 F10800
;WIPE_END
;WIPE_START
G1 F8640
G1 X110.715 Y96.316 E-0.95
;WIPE_END
G1 E-0.05 F2100
G1 Z0.4 F10800
M204 P1500
G1 X122.096 Y93.658
M204 P1000
G1 X133.477 Y91
G1 Z0.2
G1 E1 F2100
;TYPE:Solid infill
;WIDTH:0.421356
G1 F1200
G1 X138.838 Y96.36 E0.23845
G1 X138.838 Y96.894 E0.01677
G1 X133.106 Y91.162 E0.25496
G1 X132.573 Y91.162 E0.01677
G1 X138.838 Y97.427 E0.27868
G1 X138.838 Y97.96 E0.01677
G1 X132.04 Y91.162 E0.3024
G1 X131.507 Y91.162 E0.01677
G1 X138.838 Y98.493 E0.32613
G1 X138.838 Y99.027 E0.01677
G1 X130.973 Y91.162 E0.34985
G1 X130.44 Y91.162 E0.01677
G1 X138.838 Y99.56 E0.37357
M73 Q0 S72
G1 X138.838 Y100.093 E0.01677
G1 X129.907 Y91.162 E0.39729
G1 X129.373 Y91.162 E0.01677
G1 X138.838 Y100.627 E0.42101
G1 X138.838 Y101.16 E0.01677
G1 X128.84 Y91.162 E0.44474
G1 X128.307 Y91.162 E0.01677
G1 X138.838 Y101.693 E0.46846
G1 X138.838 Y102.226 E0.01677
G1 X127.774 Y91.162 E0.49218
G1 X127.24 Y91.162 E0.01677
G1 X138.838 Y102.76 E0.5159
G1 X138.838 Y103.293 E0.01677
G1 X126.707 Y91.162 E0.53963
G1 X126.174 Y91.162 E0.01677
G1 X138.838 Y103.826 E0.56335
G1 X138.838 Y104.359 E0.01677
G1 X125.641 Y91.162 E0.58707
G1 X125.107 Y91.162 E0.01677
G1 X138.838 Y104.893 E0.61079
G1 X138.838 Y105.426 E0.01677
G1 X124.574 Y91.162 E0.63452
G1 X124.041 Y91.162 E0.01677
G1 X138.838 Y105.959 E0.65824
G1 X138.838 Y106.493 E0.01677
G1 X123.507 Y91.162 E0.68196
G1 X122.974 Y91.162 E0.01677
G1 X128.931 Y97.119 E0.26499
G1 X128.806 Y97.051 E0.00449
G1 X128.175 Y96.78 E0.02159
G1 X127.998 Y96.719 E0.00589
G1 X122.441 Y91.162 E0.2472
G1 X121.908 Y91.162 E0.01677
G1 X127.23 Y96.484 E0.23675
G1 X126.642 Y96.341 E0.01903
G1 X126.539 Y96.327 E0.00327
G1 X121.374 Y91.162 E0.22975
G1 X120.841 Y91.162 E0.01677
G1 X125.921 Y96.243 E0.22599
G1 X125.739 Y96.218 E0.00578
G1 X125.351 Y96.205 E0.01223
G1 X120.308 Y91.162 E0.22433
G1 X119.775 Y91.162 E0.01677
G1 X124.802 Y96.19 E0.22366
G1 X124.305 Y96.226 E0.0157
G1 X119.241 Y91.162 E0.22524
G1 X118.708 Y91.162 E0.01677
G1 X123.817 Y96.271 E0.22727
M73 P1 R71
G1 X123.364 Y96.351 E0.01448
G1 X118.175 Y91.162 E0.23082
M73 Q1 S72
G1 X117.641 Y91.162 E0.01677
G1 X122.92 Y96.441 E0.2348
G1 X122.505 Y96.559 E0.01357
G1 X117.108 Y91.162 E0.24007
G1 X116.575 Y91.162 E0.01677
G1 X122.095 Y96.682 E0.24554
G1 X121.711 Y96.831 E0.01296
G1 X116.196 Y91.316 E0.24533
G1 X115.929 Y91.583 E0.01186
G1 X121.338 Y96.991 E0.24059
G1 X120.976 Y97.163 E0.01259
G1 X115.662 Y91.85 E0.23637
G1 X115.396 Y92.116 E0.01186
G1 X120.635 Y97.355 E0.23306
G1 X120.301 Y97.554 E0.01224
G1 X115.129 Y92.383 E0.23005
G1 X114.862 Y92.649 E0.01186
G1 X119.978 Y97.765 E0.22758
G1 X119.673 Y97.993 E0.01199
G1 X114.596 Y92.916 E0.22584
G1 X114.329 Y93.183 E0.01186
G1 X119.368 Y98.222 E0.22415
G1 X119.09 Y98.477 E0.01187
G1 X114.063 Y93.449 E0.22365
G1 X113.796 Y93.716 E0.01186
G1 X118.812 Y98.732 E0.22316
G1 X118.708 Y98.829 E0.00448
G1 X118.552 Y99.005 E0.0074
G1 X113.529 Y93.983 E0.22342
G1 X113.263 Y94.249 E0.01186
G1 X118.302 Y99.288 E0.22415
G1 X118.104 Y99.511 E0.00937
G1 X118.057 Y99.577 E0.00254
G1 X112.996 Y94.516 E0.22514
G1 X112.729 Y94.783 E0.01186
G1 X117.835 Y99.888 E0.22712
G1 X117.613 Y100.199 E0.01202
G1 X112.463 Y95.049 E0.22909
G1 X112.196 Y95.316 E0.01186
G1 X117.414 Y100.534 E0.23213
G1 X117.221 Y100.874 E0.0123
G1 X111.93 Y95.582 E0.23539
G1 X111.663 Y95.849 E0.01186
G1 X117.042 Y101.228 E0.23928
G1 X116.876 Y101.596 E0.01269
G1 X111.396 Y96.116 E0.24378
G1 X111.162 Y96.35 E0.01041
G1 X111.162 Y96.415 E0.00206
G1 X116.728 Y101.981 E0.24761
G1 X116.606 Y102.313 E0.01112
G1 X116.59 Y102.376 E0.00204
G1 X111.162 Y96.948 E0.24143
G1 X111.162 Y97.482 E0.01677
G1 X116.478 Y102.797 E0.23647
G1 X116.374 Y103.19 E0.01277
G1 X116.369 Y103.222 E0.00102
G1 X111.162 Y98.015 E0.23163
G1 X111.162 Y98.548 E0.01677
G1 X116.297 Y103.683 E0.22842
G1 X116.234 Y104.09 E0.01296
G1 X116.23 Y104.15 E0.00187
G1 X111.162 Y99.081 E0.22546
G1 X111.162 Y99.615 E0.01677
G1 X116.204 Y104.657 E0.22429
G1 X116.186 Y105 E0.01082
G1 X116.196 Y105.182 E0.00572
G1 X111.162 Y100.148 E0.22392
G1 X111.162 Y100.681 E0.01677
G1 X116.225 Y105.744 E0.22521
G1 X116.234 Y105.91 E0.00523
G1 X116.303 Y106.355 E0.01419
G1 X111.162 Y101.215 E0.22869
G1 X111.162 Y101.748 E0.01677
G1 X116.428 Y107.014 E0.23425
G1 X116.607 Y107.691 E0.02203
G1 X116.629 Y107.747 E0.0019
G1 X111.162 Y102.281 E0.24317
G1 X111.162 Y102.814 E0.01677
G1 X117.334 Y108.986 E0.27454
;WIPE_START
G1 F8640
G1 X114.425 Y106.077 E-0.95
;WIPE_END
G1 E-0.05 F2100
G1 Z0.4 F10800
M204 P1500
G1 X123.451 Y103.372
M204 P1000
G1 X132.478 Y100.667
G1 Z0.2
G1 E1 F2100
G1 F1200
G1 X138.838 Y107.026 E0.28289
G1 X138.838 Y107.559 E0.01677
G1 X133.289 Y102.01 E0.24683
G1 X133.525 Y102.779 E0.0253
G1 X138.838 Y108.092 E0.23635
G1 X138.838 Y108.626 E0.01677
G1 X133.666 Y103.454 E0.23008
G1 X133.724 Y103.75 E0.00951
G1 X133.753 Y104.074 E0.01025
G1 X138.838 Y109.159 E0.22618
G1 X138.838 Y109.692 E0.01677
G1 X133.806 Y104.66 E0.22385
G1 X133.806 Y105.193 E0.01677
G1 X138.838 Y110.225 E0.22385
G1 X138.838 Y110.759 E0.01677
G1 X133.774 Y105.695 E0.22525
G1 X133.73 Y106.184 E0.01544
G1 X138.838 Y111.292 E0.22722
G1 X138.838 Y111.825 E0.01677
G1 X133.648 Y106.636 E0.23086
G1 X133.56 Y107.081 E0.01429
G1 X138.838 Y112.359 E0.23475
G1 X138.838 Y112.892 E0.01677
G1 X133.441 Y107.495 E0.24009
G1 X133.316 Y107.903 E0.01343
G1 X138.838 Y113.425 E0.24565
G1 X138.838 Y113.65 E0.00709
G1 X138.684 Y113.804 E0.00685
G1 X133.166 Y108.287 E0.24545
G1 X133.007 Y108.661 E0.0128
G1 X138.417 Y114.071 E0.24065
G1 X138.15 Y114.338 E0.01186
G1 X132.834 Y109.021 E0.23652
G1 X132.644 Y109.364 E0.01235
G1 X137.884 Y114.604 E0.23309
G1 X137.617 Y114.871 E0.01186
G1 X132.45 Y109.703 E0.22988
G1 X132.231 Y110.018 E0.01205
G1 X137.351 Y115.138 E0.22775
G1 X137.084 Y115.404 E0.01186
G1 X132.012 Y110.332 E0.22562
G1 X131.965 Y110.4 E0.00257
G1 X131.771 Y110.625 E0.00935
G1 X136.817 Y115.671 E0.22447
G1 X136.551 Y115.937 E0.01186
G1 X131.524 Y110.911 E0.22359
G1 X131.371 Y111.09 E0.00741
G1 X131.267 Y111.187 E0.00447
G1 X136.284 Y116.204 E0.22317
G1 X136.017 Y116.471 E0.01186
G1 X130.993 Y111.446 E0.22351
G1 X130.718 Y111.705 E0.01187
G1 X135.751 Y116.737 E0.22386
G1 X135.484 Y117.004 E0.01186
G1 X130.417 Y111.937 E0.22539
G1 X130.115 Y112.168 E0.01197
G1 X135.217 Y117.271 E0.22697
G1 X134.951 Y117.537 E0.01186
G1 X129.797 Y112.383 E0.22928
G1 X129.466 Y112.586 E0.0122
G1 X134.684 Y117.804 E0.23213
G1 X134.418 Y118.07 E0.01186
G1 X129.129 Y112.782 E0.23525
G1 X128.772 Y112.958 E0.01253
G1 X134.151 Y118.337 E0.23929
G1 X133.884 Y118.604 E0.01186
G1 X128.403 Y113.122 E0.24384
G1 X128.023 Y113.276 E0.01289
G1 X133.585 Y118.838 E0.24743
G1 X133.052 Y118.838 E0.01677
G1 X127.618 Y113.404 E0.24173
G1 X127.207 Y113.527 E0.01348
G1 X132.518 Y118.838 E0.23626
G1 X131.985 Y118.838 E0.01677
G1 X126.77 Y113.623 E0.23199
G1 X126.322 Y113.708 E0.01435
G1 X131.452 Y118.838 E0.2282
G1 X130.919 Y118.838 E0.01677
G1 X125.843 Y113.762 E0.2258
G1 X125.351 Y113.803 E0.01553
G1 X130.385 Y118.838 E0.22396
G1 X129.852 Y118.838 E0.01677
G1 X124.814 Y113.8 E0.22412
G1 X124.373 Y113.791 E0.01386
G1 X124.258 Y113.777 E0.00366
G1 X129.319 Y118.838 E0.22513
G1 X128.785 Y118.838 E0.01677
G1 X123.649 Y113.702 E0.22847
G1 X123.469 Y113.679 E0.00572
G1 X122.982 Y113.567 E0.01573
G1 X128.252 Y118.838 E0.23446
G1 X127.719 Y118.838 E0.01677
G1 X122.239 Y113.358 E0.24376
G1 X121.719 Y113.18 E0.01729
G1 X121.364 Y113.016 E0.01233
G1 X127.186 Y118.838 E0.25899
G1 X126.652 Y118.838 E0.01677
G1 X120.202 Y112.387 E0.28696
G1 X120.109 Y112.332 E0.00338
G1 X119.382 Y111.79 E0.02853
G1 X118.872 Y111.331 E0.02157
G1 X118.394 Y110.834 E0.02168
G1 X117.83 Y110.125 E0.02853
G1 X117.635 Y109.82 E0.01138
G1 X111.162 Y103.348 E0.28793
G1 X111.162 Y103.881 E0.01677
G1 X126.119 Y118.838 E0.66535
G1 X125.586 Y118.838 E0.01677
G1 X111.162 Y104.414 E0.64163
M73 P1 R70
G1 X111.162 Y104.947 E0.01677
G1 X125.053 Y118.838 E0.6179
G1 X124.519 Y118.838 E0.01677
G1 X111.162 Y105.481 E0.59418
G1 X111.162 Y106.014 E0.01677
G1 X123.986 Y118.838 E0.57046
G1 X123.453 Y118.838 E0.01677
G1 X111.162 Y106.547 E0.54674
G1 X111.162 Y107.081 E0.01677
G1 X122.919 Y118.838 E0.52302
G1 X122.386 Y118.838 E0.01677
G1 X111.162 Y107.614 E0.49929
G1 X111.162 Y108.147 E0.01677
G1 X121.853 Y118.838 E0.47557
G1 X121.32 Y118.838 E0.01677
G1 X111.162 Y108.68 E0.45185
M73 P2 R70
G1 X111.162 Y109.214 E0.01677
G1 X120.786 Y118.838 E0.42813
