; generated by SuperSlicer 2.5.59 on 2022-09-10 at 08:24:42 UTC

; 

; external perimeters extrusion width = 0.45mm
; perimeters extrusion width = 0.45mm
; infill extrusion width = 0.45mm
; solid infill extrusion width = 0.45mm
; top infill extrusion width = 0.40mm
; first layer extrusion width = 0.42mm

; object:{"name":"WAZERAbrHoze","id":"WAZERAbrHoze.stl id:0 copy 0","object_center":[125.000000,105.000000,0.000000],"boundingbox_center":[125.000000,105.000000,19.049999],"boundingbox_size":[24.700001,14.693244,38.099998]}
; plater:{"center":[125.000000,105.000000,0.000000],"boundingbox_center":[125.000000,105.000000,19.049999],"boundingbox_size":[24.700001,14.693244,38.099998]}

M73 P0 R34
;TYPE:Custom
Start : M104 S0
M140 S0
PRINT_START EXTRUDER_TEMP=215 BED_TEMP=60
M107
G21 ; set units to millimeters
G90 ; use absolute coordinates
M83 ; use relative distances for extrusion
M900 K0.05 ; Filament gcode LA 1.5
M900 K30 ; Filament gcode LA 1.0
;_TOOLCHANGE 0
M104 S215 ; set temperature
M109 S215 ; set temperature and wait for it to be reached
M107
;LAYER_CHANGE
;Z:0.2
;HEIGHT:0.2
;BEFORE_LAYER_CHANGE
G92 E0.0
;0.2


G1 E-0.8 F2100
G1 Z0.4 F10800
;AFTER_LAYER_CHANGE
;0.2
G1 Z0.6
M204 S1000
G1 X110.327 Y102.593
M73 P1 R34
G1 Z0.2
G1 E0.8 F2100
;TYPE:Skirt
;WIDTH:0.52
G1 F1200
G1 X109.934 Y104 E0.05793
G1 X109.934 Y106 E0.07934
G1 X110.484 Y107.638 E0.06856
G1 X111.646 Y108.523 E0.05793
G1 X126.603 Y114.473 E0.63853
G1 X127.713 Y114.8 E0.04591
G1 X128.609 Y114.967 E0.03616
G1 X130.182 Y115.062 E0.06253
G1 X131.993 Y114.864 E0.07225
G1 X133.738 Y114.344 E0.07225
G1 X135.361 Y113.517 E0.07225
G1 X136.808 Y112.411 E0.07225
G1 X137.614 Y111.58 E0.04591
G1 X138.675 Y110.1 E0.07225
G1 X139.365 Y108.683 E0.06253
G1 X139.726 Y107.584 E0.04591
G1 X140.033 Y105.788 E0.07225
G1 X140.01 Y103.967 E0.07225
G1 X139.726 Y102.416 E0.06253
G1 X139.101 Y100.706 E0.07225
G1 X138.548 Y99.689 E0.04591
G1 X137.614 Y98.42 E0.06253
G1 X136.303 Y97.155 E0.07225
G1 X134.786 Y96.147 E0.07225
G1 X133.738 Y95.656 E0.04591
G1 X132.233 Y95.187 E0.06253
G1 X130.428 Y94.946 E0.07225
G1 X129.516 Y94.948 E0.03616
G1 X128.366 Y95.07 E0.04591
G1 X126.603 Y95.527 E0.07225
G1 X111.646 Y101.477 E0.63853
G1 X110.373 Y102.555 E0.06618
G1 X110.803 Y102.736 F10800
G1 F1200
G1 X110.411 Y104 E0.05249
G1 X110.411 Y106 E0.07934
G1 X110.793 Y107.249 E0.05181
G1 X111.822 Y108.08 E0.05249
G1 X126.778 Y114.029 E0.63851
G1 X127.806 Y114.332 E0.04248
G1 X128.659 Y114.493 E0.03445
G1 X130.189 Y114.585 E0.06081
G1 X131.914 Y114.394 E0.06883
G1 X133.576 Y113.895 E0.06883
G1 X135.12 Y113.105 E0.06883
G1 X136.497 Y112.049 E0.06883
G1 X137.243 Y111.281 E0.04248
G1 X138.256 Y109.872 E0.06883
G1 X138.927 Y108.494 E0.06081
G1 X139.261 Y107.476 E0.04248
G1 X139.556 Y105.767 E0.06883
G1 X139.538 Y104.032 E0.06883
G1 X139.261 Y102.524 E0.06081
G1 X138.663 Y100.895 E0.06883
G1 X138.151 Y99.954 E0.04248
G1 X137.109 Y98.568 E0.06883
G1 X135.992 Y97.517 E0.06081
G1 X134.545 Y96.559 E0.06883
G1 X133.576 Y96.105 E0.04248
G1 X132.112 Y95.649 E0.06081
G1 X130.392 Y95.421 E0.06883
G1 X128.459 Y95.538 E0.07684
G1 X126.778 Y95.971 E0.06883
G1 X111.822 Y101.92 E0.63851
G1 X110.849 Y102.698 E0.04943
;WIPE_START
G1 F8640
G1 X110.411 Y104 E-0.31709
G1 X110.411 Y105.918 E-0.44291
;WIPE_END
G1 E-0.04 F2100
G1 Z0.6 F10800
; printing object WAZERAbrHoze.stl id:0 copy 0
; acceleration to travel
M204 S1500
G1 X121.598 Y104.842
; decel to extrusion
M204 S800
G1 X123.773 Y104.633
; end travel
G1 Z0.2
G1 E0.8 F2100
;TYPE:Internal perimeter
;WIDTH:0.285268
G1 F1200
G1 X123.769 Y104.7 E0.00137
G1 X123.773 Y105.367 E0.01344
G1 X123.378 Y105 E0.01088
G1 X123.729 Y104.674 E0.00967
G1 X124.129 Y104.415 F10800
;WIDTH:0.369864
G1 F1200
G1 X124.125 Y104.458 E0.00117
G1 X124.1 Y104.719 E0.00714
G1 X124.1 Y105.281 E0.01527
G1 X124.124 Y105.542 E0.00714
G1 X124.149 Y105.804 E0.00714
G1 X124.21 Y106.087 E0.00788
;WIDTH:0.327679
G1 X124.272 Y106.37 E0.00686
G1 X124.353 Y106.644 E0.00676
G1 X124.434 Y106.918 E0.00676
G1 X124.536 Y107.172 E0.0065
G1 X124.639 Y107.427 E0.0065
G1 X124.76 Y107.66 E0.00621
G1 X124.882 Y107.892 E0.00621
G1 X125.02 Y108.116 E0.00623
G1 X125.158 Y108.34 E0.00623
G1 X125.317 Y108.552 E0.00627
G1 X125.476 Y108.764 E0.00627
G1 X125.84 Y109.166 E0.01287
G1 X126.238 Y109.523 E0.01264
G1 X126.449 Y109.682 E0.00627
G1 X126.661 Y109.842 E0.00627
G1 X126.885 Y109.982 E0.00626
G1 X127.109 Y110.122 E0.00626
G1 X127.581 Y110.365 E0.01257
G1 X128.074 Y110.56 E0.01255
G1 X128.337 Y110.637 E0.00648
G1 X128.6 Y110.714 E0.00648
G1 X128.858 Y110.764 E0.00624
G1 X129.117 Y110.815 E0.00624
G1 X129.38 Y110.843 E0.00626
G1 X129.643 Y110.871 E0.00626
G1 X129.909 Y110.876 E0.00629
G1 X130.174 Y110.882 E0.00629
G1 X130.439 Y110.862 E0.00629
G1 X130.704 Y110.842 E0.00629
G1 X130.971 Y110.799 E0.00642
G1 X131.239 Y110.755 E0.00642
G1 X131.756 Y110.615 E0.01268
G1 X132.004 Y110.524 E0.00627
G1 X132.252 Y110.433 E0.00627
G1 X132.491 Y110.321 E0.00624
G1 X132.729 Y110.208 E0.00624
G1 X133.197 Y109.942 E0.01274
G1 X133.415 Y109.788 E0.00633
G1 X133.633 Y109.633 E0.00633
G1 X133.835 Y109.457 E0.00635
G1 X134.037 Y109.281 E0.00635
G1 X134.22 Y109.09 E0.00627
G1 X134.404 Y108.899 E0.00627
G1 X134.737 Y108.488 E0.01253
G1 X134.884 Y108.269 E0.00624
G1 X135.031 Y108.051 E0.00624
G1 X135.291 Y107.569 E0.01297
G1 X135.397 Y107.325 E0.00629
G1 X135.504 Y107.082 E0.00629
G1 X135.585 Y106.83 E0.00627
G1 X135.666 Y106.578 E0.00627
G1 X135.726 Y106.32 E0.00626
G1 X135.785 Y106.062 E0.00626
G1 X135.86 Y105.538 E0.01253
G1 X135.874 Y105.269 E0.00638
G1 X135.888 Y105 E0.00638
G1 X135.874 Y104.731 E0.00638
G1 X135.86 Y104.462 E0.00638
G1 X135.823 Y104.2 E0.00627
G1 X135.785 Y103.938 E0.00627
G1 X135.666 Y103.422 E0.01253
G1 X135.585 Y103.17 E0.00627
G1 X135.504 Y102.918 E0.00627
G1 X135.397 Y102.675 E0.00629
G1 X135.291 Y102.431 E0.00629
;WIDTH:0.330265
G1 X135.161 Y102.19 E0.00654
G1 X135.031 Y101.949 E0.00654
G1 X134.737 Y101.512 E0.01258
G1 X134.57 Y101.307 E0.00632
G1 X134.404 Y101.101 E0.00632
G1 X134.037 Y100.719 E0.01265
G1 X133.601 Y100.344 E0.01375
G1 X133.19 Y100.055 E0.01199
G1 X132.961 Y99.923 E0.00632
G1 X132.732 Y99.791 E0.00632
G1 X132.252 Y99.565 E0.01268
G1 X131.752 Y99.388 E0.01266
G1 X131.48 Y99.314 E0.00675
G1 X131.208 Y99.239 E0.00675
G1 X130.956 Y99.199 E0.0061
G1 X130.704 Y99.158 E0.0061
G1 X130.44 Y99.139 E0.00632
G1 X130.176 Y99.121 E0.00632
G1 X129.91 Y99.124 E0.00634
G1 X129.645 Y99.128 E0.00634
G1 X129.117 Y99.185 E0.01268
G1 X128.598 Y99.286 E0.01264
G1 X128.326 Y99.366 E0.00677
G1 X128.054 Y99.445 E0.00677
G1 X127.817 Y99.541 E0.0061
G1 X127.58 Y99.636 E0.0061
G1 X127.346 Y99.758 E0.0063
G1 X127.113 Y99.88 E0.0063
G1 X126.887 Y100.018 E0.00633
G1 X126.661 Y100.157 E0.00633
G1 X126.449 Y100.317 E0.00634
G1 X126.238 Y100.477 E0.00634
G1 X126.031 Y100.664 E0.00668
G1 X125.823 Y100.852 E0.00668
G1 X125.65 Y101.044 E0.00619
G1 X125.476 Y101.236 E0.00619
G1 X125.158 Y101.66 E0.01265
G1 X124.882 Y102.108 E0.01258
G1 X124.759 Y102.344 E0.00635
G1 X124.636 Y102.579 E0.00635
G1 X124.431 Y103.092 E0.0132
G1 X124.351 Y103.361 E0.0067
G1 X124.272 Y103.63 E0.0067
G1 X124.211 Y103.913 E0.00692
;WIDTH:0.369864
G1 X124.15 Y104.196 E0.00788
G1 X124.135 Y104.355 E0.00434
G1 X124.497 Y104.43 F10800
;WIDTH:0.377079
G1 F1200
G1 X124.492 Y104.465 E0.00098
G1 X124.463 Y105.032 E0.01579
G1 X124.517 Y105.741 E0.01975
G1 X124.611 Y106.271 E0.01498
G1 X124.788 Y106.869 E0.01732
G1 X124.988 Y107.343 E0.0143
G1 X125.34 Y107.989 E0.02043
G1 X125.736 Y108.528 E0.0186
G1 X126.129 Y108.958 E0.01618
G1 X126.6 Y109.369 E0.01737
G1 X127.114 Y109.724 E0.01737
G1 X127.66 Y110.017 E0.01721
G1 X128.172 Y110.222 E0.01533
G1 X128.848 Y110.415 E0.01951
G1 X129.467 Y110.51 E0.0174
G1 X130.083 Y110.535 E0.01715
G1 X130.648 Y110.495 E0.01573
G1 X131.213 Y110.401 E0.01592
G1 X131.815 Y110.23 E0.01737
G1 X132.557 Y109.901 E0.02256
G1 X133.03 Y109.632 E0.01512
G1 X133.451 Y109.329 E0.01441
G1 X133.916 Y108.913 E0.01735
G1 X134.333 Y108.447 E0.01737
G1 X134.722 Y107.885 E0.01899
G1 X135.036 Y107.292 E0.01864
G1 X135.232 Y106.81 E0.01446
G1 X135.403 Y106.209 E0.01736
G1 X135.509 Y105.518 E0.01942
G1 X135.537 Y104.968 E0.0153
G1 X135.498 Y104.344 E0.01737
G1 X135.389 Y103.729 E0.01737
G1 X135.212 Y103.131 E0.01732
G1 X134.981 Y102.598 E0.01615
G1 X134.66 Y102.011 E0.01857
G1 X134.293 Y101.503 E0.01742
G1 X133.804 Y100.983 E0.01983
G1 X133.4 Y100.631 E0.01489
G1 X132.886 Y100.276 E0.01737
G1 X132.34 Y99.983 E0.01721
G1 X131.654 Y99.727 E0.02035
G1 X131.152 Y99.585 E0.01447
G1 X130.533 Y99.49 E0.0174
G1 X129.917 Y99.465 E0.01715
G1 X129.402 Y99.497 E0.01432
G1 X128.692 Y99.625 E0.02005
G1 X128.185 Y99.77 E0.01464
G1 X127.599 Y100.012 E0.01762
G1 X126.97 Y100.368 E0.02009
G1 X126.471 Y100.74 E0.01732
G1 X126.084 Y101.087 E0.01443
G1 X125.667 Y101.553 E0.01737
G1 X125.301 Y102.073 E0.01767
G1 X124.961 Y102.714 E0.02016
G1 X124.768 Y103.19 E0.01428
G1 X124.568 Y103.961 E0.02214
G1 X124.506 Y104.37 E0.0115
G1 X124.868 Y104.486 F10800
;TYPE:External perimeter
G1 F1200
G1 X124.84 Y105.011 E0.0146
G1 X124.874 Y105.592 E0.01619
G1 X124.973 Y106.166 E0.01619
G1 X125.13 Y106.705 E0.01559
G1 X125.32 Y107.165 E0.01383
G1 X125.646 Y107.769 E0.01908
G1 X126.016 Y108.276 E0.01742
G1 X126.379 Y108.675 E0.01499
G1 X126.816 Y109.06 E0.01619
G1 X127.294 Y109.393 E0.01619
G1 X127.804 Y109.669 E0.01612
G1 X128.278 Y109.86 E0.01419
G1 X128.907 Y110.042 E0.0182
G1 X129.484 Y110.133 E0.01622
G1 X130.062 Y110.159 E0.01609
G1 X130.589 Y110.123 E0.01466
G1 X131.112 Y110.038 E0.01474
G1 X131.673 Y109.88 E0.01618
G1 X132.216 Y109.659 E0.0163
G1 X132.795 Y109.335 E0.01842
G1 X133.201 Y109.046 E0.01386
G1 X133.637 Y108.66 E0.01617
G1 X134.026 Y108.227 E0.01619
G1 X134.367 Y107.749 E0.01632
G1 X134.648 Y107.224 E0.01655
G1 X134.87 Y106.705 E0.01568
G1 X135.031 Y106.146 E0.01618
G1 X135.133 Y105.497 E0.01824
G1 X135.16 Y104.989 E0.01412
G1 X135.126 Y104.408 E0.01619
G1 X135.027 Y103.834 E0.01619
G1 X134.863 Y103.275 E0.01616
G1 X134.648 Y102.776 E0.01511
G1 X134.354 Y102.231 E0.01722
G1 X134.013 Y101.756 E0.01624
G1 X133.621 Y101.325 E0.01619
G1 X133.185 Y100.941 E0.01614
G1 X132.773 Y100.652 E0.01399
G1 X132.384 Y100.432 E0.01242
G1 X131.752 Y100.149 E0.01923
G1 X131.094 Y99.958 E0.01904
G1 X130.589 Y99.877 E0.01422
G1 X130.143 Y99.85 E0.01242
G1 X129.461 Y99.869 E0.01893
G1 X128.888 Y99.962 E0.01615
G1 X128.328 Y100.119 E0.01615
G1 X127.853 Y100.311 E0.01423
G1 X127.47 Y100.517 E0.01209
G1 X126.799 Y100.954 E0.02224
G1 X126.363 Y101.34 E0.01617
G1 X125.974 Y101.773 E0.01619
G1 X125.525 Y102.453 E0.02265
G1 X125.13 Y103.295 E0.02584
G1 X124.969 Y103.854 E0.01618
G1 X124.878 Y104.427 E0.0161
;WIPE_START
M204 S1000
G1 X125.196 Y104.716 F10800
;WIPE_END
;WIPE_START
G1 F8640
G1 X124.64 Y105.011 E-0.1454
G1 X124.675 Y105.615 E-0.13974
G1 X124.778 Y106.211 E-0.1397
G1 X124.941 Y106.771 E-0.13464
G1 X125.139 Y107.251 E-0.11986
G1 X125.305 Y107.558 E-0.08066
;WIPE_END
G1 E-0.04 F2100
G1 Z0.6 F10800
; acceleration to travel
M204 S1500
G1 X123.971 Y104.701
; decel to extrusion
M204 S800
G1 X123.712 Y104.145
; end travel
G1 Z0.2
G1 E0.8 F2100
;TYPE:Internal perimeter
;WIDTH:0.367699
G1 F1200
G1 X123.778 Y104.051 E0.00309
G1 X123.867 Y103.793 E0.00738
;WIDTH:0.323535
G1 X123.956 Y103.535 E0.00637
G1 X124.042 Y103.255 E0.00682
G1 X124.128 Y102.976 E0.00682
G1 X124.236 Y102.707 E0.00677
G1 X124.344 Y102.437 E0.00677
G1 X124.47 Y102.19 E0.00648
G1 X124.597 Y101.943 E0.00648
G1 X124.895 Y101.466 E0.01312
G1 X125.065 Y101.242 E0.00656
G1 X125.235 Y101.018 E0.00656
G1 X125.424 Y100.81 E0.00656
G1 X125.614 Y100.602 E0.00656
G1 X125.823 Y100.413 E0.00656
G1 X126.031 Y100.224 E0.00656
G1 X126.255 Y100.055 E0.00656
G1 X126.479 Y99.885 E0.00656
G1 X126.719 Y99.737 E0.00656
G1 X126.958 Y99.589 E0.00656
G1 X127.208 Y99.461 E0.00656
G1 X127.459 Y99.334 E0.00656
G1 X127.72 Y99.23 E0.00656
G1 X127.982 Y99.126 E0.00656
G1 X128.522 Y98.969 E0.01313
G1 X129.074 Y98.861 E0.01313
G1 X129.354 Y98.831 E0.00656
G1 X129.633 Y98.801 E0.00656
G1 X130.196 Y98.794 E0.01313
G1 X130.476 Y98.815 E0.00656
G1 X130.756 Y98.836 E0.00656
G1 X131.034 Y98.883 E0.00656
G1 X131.311 Y98.929 E0.00656
G1 X131.583 Y99.002 E0.00656
G1 X131.855 Y99.075 E0.00656
G1 X132.384 Y99.266 E0.01312
G1 X132.893 Y99.506 E0.01313
G1 X133.135 Y99.648 E0.00656
G1 X133.378 Y99.789 E0.00656
G1 X133.631 Y99.972 E0.00727
G1 X133.883 Y100.155 E0.00727
G1 X134.262 Y100.484 E0.0117
G1 X134.457 Y100.686 E0.00656
G1 X134.653 Y100.888 E0.00656
G1 X134.829 Y101.107 E0.00656
G1 X135.006 Y101.326 E0.00656
G1 X135.162 Y101.56 E0.00656
G1 X135.318 Y101.794 E0.00656
G1 X135.586 Y102.289 E0.01313
G1 X135.809 Y102.805 E0.01312
G1 X135.983 Y103.34 E0.01313
G1 X136.046 Y103.614 E0.00656
G1 X136.109 Y103.888 E0.00656
G1 X136.147 Y104.167 E0.00656
G1 X136.185 Y104.445 E0.00656
G1 X136.198 Y104.726 E0.00656
G1 X136.211 Y105.007 E0.00656
;WIDTH:0.330265
G1 X136.209 Y105.068 E0.00145
G1 X136.196 Y105.319 E0.00599
G1 X136.184 Y105.569 E0.00599
G1 X136.106 Y106.126 E0.01344
G1 X136.043 Y106.4 E0.00672
G1 X135.979 Y106.674 E0.00672
G1 X135.804 Y107.209 E0.01344
G1 X135.579 Y107.725 E0.01344
G1 X135.285 Y108.259 E0.01458
G1 X134.997 Y108.686 E0.0123
G1 X134.643 Y109.123 E0.01344
G1 X134.447 Y109.325 E0.00672
G1 X134.251 Y109.526 E0.00672
G1 X134.023 Y109.721 E0.00717
G1 X133.794 Y109.916 E0.00717
G1 X133.328 Y110.242 E0.01358
G1 X133.104 Y110.371 E0.00619
G1 X132.879 Y110.501 E0.00619
G1 X132.624 Y110.62 E0.00672
G1 X132.37 Y110.739 E0.00672
G1 X132.105 Y110.835 E0.00672
G1 X131.841 Y110.93 E0.00672
G1 X131.55 Y111.005 E0.00718
G1 X131.259 Y111.08 E0.00718
G1 X130.975 Y111.125 E0.00687
G1 X130.691 Y111.17 E0.00687
G1 X130.436 Y111.189 E0.00611
G1 X130.181 Y111.207 E0.00611
G1 X129.9 Y111.202 E0.00672
G1 X129.618 Y111.197 E0.00672
G1 X129.339 Y111.167 E0.00672
G1 X129.059 Y111.137 E0.00672
G1 X128.783 Y111.082 E0.00672
G1 X128.508 Y111.027 E0.00672
G1 X128.223 Y110.942 E0.0071
G1 X127.938 Y110.857 E0.0071
G1 X127.665 Y110.746 E0.00706
G1 X127.391 Y110.634 E0.00706
G1 X127.168 Y110.52 E0.006
G1 X126.944 Y110.405 E0.006
G1 X126.706 Y110.256 E0.00672
G1 X126.468 Y110.106 E0.00672
G1 X126.02 Y109.766 E0.01344
G1 X125.802 Y109.566 E0.00707
G1 X125.584 Y109.366 E0.00707
G1 X125.391 Y109.152 E0.00688
G1 X125.199 Y108.937 E0.00688
G1 X124.886 Y108.522 E0.01242
G1 X124.738 Y108.283 E0.00672
G1 X124.589 Y108.044 E0.00672
G1 X124.335 Y107.543 E0.01344
G1 X124.227 Y107.272 E0.00696
G1 X124.12 Y107.002 E0.00696
G1 X124.038 Y106.733 E0.0067
G1 X123.956 Y106.465 E0.0067
G1 X123.867 Y106.207 E0.00653
;WIDTH:0.367699
G1 X123.778 Y105.948 E0.00738
G1 X123.639 Y105.751 E0.00653
G1 X123.5 Y105.553 E0.00653
G1 X123.143 Y105.235 E0.01291
G1 X122.726 Y105 E0.01293
G1 X123.143 Y104.765 E0.01293
G1 X123.5 Y104.447 E0.01291
G1 X123.639 Y104.249 E0.00653
G1 X123.677 Y104.194 E0.00181
G1 X123.408 Y103.93 F10800
;WIDTH:0.377079
G1 F1200
G1 X123.465 Y103.849 E0.00275
G1 X123.541 Y103.639 E0.00621
G1 X123.618 Y103.429 E0.00621
G1 X123.841 Y102.747 E0.01994
G1 X124.067 Y102.206 E0.01629
G1 X124.297 Y101.755 E0.01406
G1 X124.614 Y101.253 E0.01651
G1 X124.975 Y100.781 E0.01651
G1 X125.446 Y100.281 E0.01907
G1 X125.818 Y99.944 E0.01396
G1 X126.293 Y99.587 E0.01651
G1 X126.798 Y99.273 E0.01652
G1 X127.329 Y99.007 E0.01651
G1 X127.964 Y98.766 E0.01886
G1 X128.453 Y98.624 E0.01416
G1 X129.037 Y98.51 E0.01652
G1 X129.628 Y98.449 E0.01651
G1 X130.222 Y98.443 E0.01652
G1 X130.815 Y98.49 E0.01651
G1 X131.467 Y98.608 E0.01841
G1 X131.975 Y98.743 E0.01461
G1 X132.533 Y98.948 E0.01651
G1 X133.07 Y99.202 E0.01652
G1 X133.582 Y99.503 E0.01651
G1 X134.122 Y99.899 E0.0186
G1 X134.576 Y100.303 E0.01688
G1 X134.927 Y100.667 E0.01404
G1 X135.299 Y101.131 E0.01651
G1 X135.627 Y101.626 E0.01651
G1 X135.978 Y102.309 E0.02134
G1 X136.169 Y102.776 E0.01402
G1 X136.326 Y103.261 E0.01416
G1 X136.458 Y103.84 E0.01651
G1 X136.536 Y104.429 E0.01651
G1 X136.561 Y105.023 E0.01651
G1 X136.535 Y105.594 E0.01587
G1 X136.455 Y106.183 E0.01652
G1 X136.321 Y106.762 E0.01652
G1 X136.136 Y107.327 E0.01652
G1 X135.9 Y107.872 E0.01652
