; generated by SuperSlicer 2.5.59 on 2022-10-03 at 18:57:44 UTC

; 

; external perimeters extrusion width = 0.45mm
; perimeters extrusion width = 0.45mm
; infill extrusion width = 0.45mm
; solid infill extrusion width = 0.45mm
; top infill extrusion width = 0.40mm
; first layer extrusion width = 0.42mm

; object:{"name":"Webcam_Stand_Single_Arm","id":"Webcam_Stand_Single_Arm.stl id:0 copy 0","object_center":[125.000000,105.000000,0.000000],"boundingbox_center":[125.000000,105.000000,16.000000],"boundingbox_size":[84.765648,134.086571,32.000000]}
; plater:{"center":[125.000000,105.000000,0.000000],"boundingbox_center":[125.000000,105.000000,16.000000],"boundingbox_size":[84.765648,134.086571,32.000000]}

M73 P0 R107


; Pre-Processed for Cancel-Object support by preprocess_cancellation v0.2.0
; 1 known objects
EXCLUDE_OBJECT_DEFINE NAME=Webcam_Stand_Single_Arm_stl_id_0_copy_0 CENTER=98.715,71.756 POLYGON=[[82.931,38.182],[82.931,171.818],[167.139,171.818],[167.139,38.182]]
;TYPE:Custom
Start : M104 S0
M140 S0
PRINT_START EXTRUDER_TEMP=230 BED_TEMP=70
M107
G21 ; set units to millimeters
G90 ; use absolute coordinates
M83 ; use relative distances for extrusion
M900 K0.05 ; Filament gcode LA 1.5
M900 K30 ; Filament gcode LA 1.0
;_TOOLCHANGE 0
M104 S230 ; set temperature
M109 S230 ; set temperature and wait for it to be reached
M107
;LAYER_CHANGE
;Z:0.2
;HEIGHT:0.2
;BEFORE_LAYER_CHANGE
G92 E0.0
;0.2
TIMELAPSE_TAKE_FRAME

G1 E-0.8 F2100
M73 P0 R106
G1 Z0.4 F10800
;AFTER_LAYER_CHANGE
;0.2
G1 Z0.6
M204 S1000
G1 X81.777 Y42.452
G1 Z0.2
G1 E0.8 F2100
;TYPE:Skirt
;WIDTH:0.52
G1 F1200
G1 X81.102 Y44.072 E0.06959
G1 X80.832 Y44.999 E0.03832
G1 X80.501 Y47.079 E0.08356
G1 X80.379 Y134.686 E3.4753
G1 X80.468 Y171.366 E1.4551
G1 X80.62 Y172.172 E0.03252
G1 X81.442 Y173.208 E0.05249
G1 X82.706 Y173.599 E0.05249
G1 X85.206 Y173.599 E0.09917
G1 X86.056 Y173.432 E0.03436
G1 X87.077 Y172.59 E0.05249
G1 X168.28 Y49.002 E5.86623
G1 X168.639 Y47.967 E0.04348
G1 X168.933 Y44.586 E0.13462
G1 X168.852 Y43.766 E0.03268
G1 X168.123 Y42.662 E0.05249
G1 X166.898 Y42.162 E0.05249
G1 X92.896 Y35.721 E2.9467
G1 X90.795 Y35.869 E0.08356
G1 X89.848 Y36.058 E0.03832
G1 X88.176 Y36.589 E0.06958
G1 X86.293 Y37.534 E0.08356
G1 X84.869 Y38.558 E0.06959
G1 X84.152 Y39.206 E0.03832
G1 X82.778 Y40.802 E0.08356
G1 X81.808 Y42.401 E0.0742
;WIPE_START
G1 F8640
G1 X81.102 Y44.072 E-0.41874
G1 X80.832 Y44.999 E-0.22304
G1 X80.751 Y45.505 E-0.11822
;WIPE_END
G1 E-0.04 F2100
G1 Z0.6 F10800
; printing object Webcam_Stand_Single_Arm.stl id:0 copy 0
EXCLUDE_OBJECT_START NAME=Webcam_Stand_Single_Arm_stl_id_0_copy_0
; acceleration to travel
M204 S1500
G1 X85.634 Y45.717
; decel to extrusion
M204 S800
G1 X86.583 Y45.758
; end travel
G1 Z0.2
G1 E0.8 F2100
;TYPE:Internal perimeter
;WIDTH:0.42
G1 F1200
G1 X86.487 Y45.895 E0.00523
G1 X86.013 Y46.685 E0.0289
G1 X85.596 Y47.507 E0.0289
G1 X85.24 Y48.357 E0.0289
G1 X84.947 Y49.231 E0.0289
G1 X84.717 Y50.123 E0.0289
G1 X84.551 Y51.03 E0.0289
G1 X84.452 Y51.946 E0.0289
G1 X84.419 Y52.853 E0.02845
G1 X84.419 Y125.41 E2.27496
G1 X84.459 Y125.903 E0.01552
G1 X84.584 Y126.414 E0.01651
G1 X84.789 Y126.899 E0.01651
G1 X85.07 Y127.345 E0.01651
G1 X85.417 Y127.741 E0.01651
G1 X85.823 Y128.076 E0.01651
G1 X86.278 Y128.341 E0.01651
G1 X86.769 Y128.531 E0.01651
G1 X87.284 Y128.641 E0.01651
G1 X87.81 Y128.666 E0.01651
G1 X88.333 Y128.607 E0.01651
G1 X88.84 Y128.466 E0.01651
G1 X89.319 Y128.246 E0.01651
G1 X89.755 Y127.952 E0.01651
G1 X90.117 Y127.613 E0.01552
G1 X159.99 Y50.798 E3.25585
G1 X160.29 Y50.41 E0.01537
G1 X160.54 Y49.953 E0.01635
G1 X160.715 Y49.461 E0.01635
G1 X160.809 Y48.949 E0.01635
G1 X160.822 Y48.427 E0.01635
G1 X160.752 Y47.911 E0.01635
G1 X160.601 Y47.411 E0.01635
G1 X160.373 Y46.942 E0.01635
G1 X160.074 Y46.515 E0.01635
G1 X159.712 Y46.141 E0.01635
G1 X159.294 Y45.828 E0.01635
G1 X158.832 Y45.585 E0.01635
G1 X158.338 Y45.419 E0.01635
G1 X157.855 Y45.337 E0.01537
G1 X98.307 Y40.128 E1.87423
G1 X97.4 Y40.081 E0.02845
G1 X96.94 Y40.091 E0.01445
G1 X96.479 Y40.1 E0.01445
G1 X95.561 Y40.186 E0.0289
G1 X94.652 Y40.337 E0.0289
G1 X93.756 Y40.554 E0.0289
G1 X92.878 Y40.834 E0.0289
G1 X92.023 Y41.177 E0.0289
G1 X91.194 Y41.581 E0.0289
G1 X90.397 Y42.043 E0.0289
G1 X89.635 Y42.562 E0.0289
G1 X88.912 Y43.134 E0.0289
G1 X88.233 Y43.757 E0.0289
G1 X87.6 Y44.427 E0.0289
G1 X87.017 Y45.141 E0.0289
G1 X86.617 Y45.709 E0.02179
G1 X86.891 Y45.975 F10800
;TYPE:External perimeter
G1 F1200
G1 X86.803 Y46.1 E0.0048
G1 X86.343 Y46.867 E0.02805
G1 X85.939 Y47.665 E0.02804
G1 X85.594 Y48.49 E0.02805
G1 X85.308 Y49.338 E0.02804
G1 X85.085 Y50.204 E0.02805
G1 X84.925 Y51.084 E0.02804
G1 X84.828 Y51.973 E0.02805
G1 X84.796 Y52.86 E0.02781
G1 X84.796 Y125.395 E2.27428
G1 X84.832 Y125.843 E0.01409
G1 X84.943 Y126.295 E0.01461
G1 X85.125 Y126.724 E0.01461
G1 X85.373 Y127.119 E0.01461
G1 X85.68 Y127.469 E0.01461
G1 X86.04 Y127.765 E0.01461
G1 X86.442 Y128.001 E0.01461
G1 X86.877 Y128.169 E0.01461
G1 X87.333 Y128.265 E0.01461
G1 X87.798 Y128.288 E0.01461
G1 X88.261 Y128.236 E0.01461
G1 X88.71 Y128.111 E0.01461
G1 X89.133 Y127.916 E0.01461
G1 X89.52 Y127.656 E0.01461
G1 X89.848 Y127.348 E0.01409
G1 X159.701 Y50.555 E3.25491
G1 X159.974 Y50.203 E0.01396
G1 X160.195 Y49.798 E0.01447
G1 X160.349 Y49.363 E0.01447
G1 X160.433 Y48.91 E0.01447
G1 X160.444 Y48.448 E0.01447
G1 X160.382 Y47.991 E0.01447
G1 X160.249 Y47.549 E0.01447
G1 X160.047 Y47.134 E0.01447
G1 X159.783 Y46.756 E0.01447
G1 X159.462 Y46.424 E0.01447
G1 X159.092 Y46.148 E0.01447
G1 X158.684 Y45.933 E0.01447
G1 X158.246 Y45.786 E0.01447
G1 X157.807 Y45.712 E0.01396
G1 X98.281 Y40.504 E1.87355
M73 P1 R106
G1 X97.395 Y40.458 E0.02781
G1 X96.947 Y40.468 E0.01402
G1 X96.5 Y40.477 E0.01402
G1 X95.61 Y40.56 E0.02804
G1 X94.727 Y40.707 E0.02805
G1 X93.858 Y40.917 E0.02805
G1 X93.006 Y41.189 E0.02804
G1 X92.176 Y41.522 E0.02805
G1 X91.372 Y41.914 E0.02804
G1 X90.598 Y42.363 E0.02805
G1 X89.858 Y42.866 E0.02804
G1 X89.157 Y43.421 E0.02804
G1 X88.498 Y44.026 E0.02805
G1 X87.884 Y44.676 E0.02805
G1 X87.318 Y45.369 E0.02804
G1 X86.926 Y45.926 E0.02136
;WIPE_START
M204 S1000
G1 X86.493 Y45.939 F10800
;WIPE_END
;WIPE_START
G1 F8640
G1 X86.168 Y46.77 E-0.20605
G1 X85.757 Y47.581 E-0.20986
G1 X85.406 Y48.42 E-0.20987
G1 X85.221 Y48.971 E-0.13422
;WIPE_END
G1 E-0.04 F2100
G1 Z0.6 F10800
; acceleration to travel
M204 S1500
G1 X84.214 Y45.57
; decel to extrusion
M204 S800
G1 X84.019 Y44.909
; end travel
G1 Z0.2
G1 E0.8 F2100
;TYPE:Internal perimeter
G1 F1200
G1 X84.203 Y44.413 E0.01658
G1 X84.508 Y43.754 E0.0228
G1 X84.866 Y43.12 E0.0228
G1 X85.271 Y42.517 E0.0228
G1 X85.724 Y41.947 E0.0228
G1 X86.219 Y41.415 E0.0228
G1 X86.755 Y40.924 E0.0228
G1 X87.329 Y40.477 E0.0228
G1 X87.935 Y40.076 E0.0228
G1 X88.572 Y39.724 E0.0228
G1 X89.234 Y39.423 E0.0228
G1 X89.918 Y39.176 E0.0228
G1 X90.619 Y38.984 E0.0228
G1 X91.333 Y38.847 E0.0228
G1 X92.056 Y38.767 E0.0228
G1 X92.783 Y38.744 E0.0228
G1 X93.525 Y38.78 E0.02329
G1 X165.145 Y45.046 E2.25419
G1 X164.87 Y48.295 E0.10224
G1 X84.419 Y136.739 E3.74873
G1 X84.419 Y169.863 E1.03859
M73 P1 R105
G1 X83.493 Y169.863 E0.02903
G1 X83.493 Y47.972 E3.82182
G1 X83.523 Y47.23 E0.02329
G1 X83.609 Y46.508 E0.0228
G1 X83.751 Y45.795 E0.0228
G1 X83.95 Y45.095 E0.0228
G1 X83.998 Y44.965 E0.00434
G1 X83.665 Y44.778 F10800
;TYPE:External perimeter
G1 F1200
G1 X83.854 Y44.268 E0.01705
G1 X84.173 Y43.581 E0.02373
G1 X84.544 Y42.922 E0.02373
G1 X84.967 Y42.294 E0.02373
G1 X85.438 Y41.701 E0.02373
G1 X85.954 Y41.147 E0.02373
G1 X86.512 Y40.636 E0.02373
G1 X87.108 Y40.17 E0.02373
G1 X87.74 Y39.753 E0.02373
G1 X88.402 Y39.387 E0.02373
G1 X89.092 Y39.074 E0.02373
G1 X89.804 Y38.817 E0.02373
G1 X90.534 Y38.616 E0.02373
G1 X91.277 Y38.474 E0.02374
G1 X92.029 Y38.391 E0.02373
G1 X92.786 Y38.367 E0.02373
G1 X93.55 Y38.404 E0.02399
G1 X165.553 Y44.703 E2.26622
G1 X165.235 Y48.454 E0.11804
G1 X84.796 Y136.885 E3.74816
G1 X84.796 Y170.24 E1.04584
G1 X83.116 Y170.24 E0.05268
G1 X83.116 Y47.964 E3.83388
G1 X83.146 Y47.2 E0.02399
G1 X83.236 Y46.448 E0.02373
G1 X83.384 Y45.706 E0.02373
G1 X83.591 Y44.978 E0.02373
G1 X83.644 Y44.834 E0.00481
;WIPE_START
M204 S1000
G1 X84.059 Y44.711 F10800
;WIPE_END
;WIPE_START
G1 F8640
G1 X84.351 Y43.673 E-0.24897
G1 X84.715 Y43.027 E-0.17113
G1 X85.128 Y42.412 E-0.17114
G1 X85.583 Y41.84 E-0.16876
;WIPE_END
G1 E-0.04 F2100
G1 Z0.6 F10800
; acceleration to travel
M204 S1500
G1 X148.821 Y44.443
; decel to extrusion
M204 S1000
G1 X164.188 Y45.076
; end travel
G1 Z0.2
G1 E0.8 F2100
;TYPE:Solid infill
;WIDTH:0.423501
G1 F1200
G1 X164.814 Y45.702 E0.02799
G1 X164.772 Y46.193 E0.0156
G1 X163.782 Y45.203 E0.04428
G1 X163.197 Y45.152 E0.01855
G1 X164.73 Y46.685 E0.06855
G1 X164.689 Y47.176 E0.0156
G1 X162.613 Y45.101 E0.09282
G1 X162.028 Y45.049 E0.01855
G1 X164.647 Y47.668 E0.11708
G1 X164.605 Y48.16 E0.0156
G1 X161.444 Y44.998 E0.14135
G1 X160.86 Y44.947 E0.01855
G1 X164.36 Y48.447 E0.15649
G1 X164.106 Y48.727 E0.01193
G1 X160.275 Y44.896 E0.17127
G1 X159.691 Y44.845 E0.01855
G1 X163.852 Y49.006 E0.18604
G1 X163.598 Y49.285 E0.01193
G1 X159.106 Y44.794 E0.20081
G1 X158.522 Y44.743 E0.01855
G1 X163.344 Y49.564 E0.21558
G1 X163.09 Y49.844 E0.01193
G1 X160.989 Y47.743 E0.09393
G1 X161.022 Y47.852 E0.0036
G1 X161.093 Y48.381 E0.01687
G1 X162.836 Y50.123 E0.07789
G1 X162.581 Y50.402 E0.01193
G1 X161.086 Y48.906 E0.06688
G1 X161.084 Y48.977 E0.00224
G1 X161.012 Y49.366 E0.0125
G1 X162.327 Y50.681 E0.05881
G1 X162.073 Y50.961 E0.01193
G1 X160.893 Y49.781 E0.05276
G1 X160.792 Y50.066 E0.00956
G1 X160.74 Y50.161 E0.00342
G1 X161.819 Y51.24 E0.04825
G1 X161.565 Y51.519 E0.01193
G1 X160.552 Y50.505 E0.04532
G1 X160.521 Y50.562 E0.00202
G1 X160.326 Y50.813 E0.01006
G1 X161.311 Y51.798 E0.04404
G1 X161.057 Y52.078 E0.01193
G1 X160.084 Y51.104 E0.04353
G1 X159.83 Y51.383 E0.01193
G1 X160.803 Y52.357 E0.04353
G1 X160.549 Y52.636 E0.01193
G1 X159.576 Y51.662 E0.04353
G1 X159.322 Y51.942 E0.01193
G1 X160.295 Y52.915 E0.04353
G1 X160.041 Y53.195 E0.01193
G1 X159.068 Y52.221 E0.04353
G1 X158.814 Y52.5 E0.01193
G1 X159.787 Y53.474 E0.04353
G1 X159.533 Y53.753 E0.01193
G1 X158.56 Y52.779 E0.04353
G1 X158.306 Y53.059 E0.01193
G1 X159.279 Y54.032 E0.04353
G1 X159.025 Y54.312 E0.01193
G1 X158.052 Y53.338 E0.04353
G1 X157.798 Y53.617 E0.01193
G1 X158.771 Y54.591 E0.04353
G1 X158.517 Y54.87 E0.01193
G1 X157.544 Y53.897 E0.04353
G1 X157.29 Y54.176 E0.01193
G1 X158.263 Y55.149 E0.04353
G1 X158.009 Y55.429 E0.01193
G1 X157.036 Y54.455 E0.04353
G1 X156.782 Y54.734 E0.01193
G1 X157.755 Y55.708 E0.04353
G1 X157.501 Y55.987 E0.01193
G1 X156.528 Y55.014 E0.04353
G1 X156.274 Y55.293 E0.01193
G1 X157.247 Y56.266 E0.04353
G1 X156.993 Y56.546 E0.01193
G1 X156.02 Y55.572 E0.04353
G1 X155.766 Y55.851 E0.01193
G1 X156.739 Y56.825 E0.04353
G1 X156.485 Y57.104 E0.01193
G1 X155.511 Y56.131 E0.04353
G1 X155.257 Y56.41 E0.01193
G1 X156.231 Y57.383 E0.04353
G1 X155.977 Y57.663 E0.01193
G1 X155.003 Y56.689 E0.04353
G1 X154.749 Y56.968 E0.01193
G1 X155.723 Y57.942 E0.04353
G1 X155.469 Y58.221 E0.01193
G1 X154.495 Y57.248 E0.04353
G1 X154.241 Y57.527 E0.01193
G1 X155.215 Y58.5 E0.04353
G1 X154.961 Y58.78 E0.01193
G1 X153.987 Y57.806 E0.04353
G1 X153.733 Y58.085 E0.01193
G1 X154.707 Y59.059 E0.04353
G1 X154.453 Y59.338 E0.01193
G1 X153.479 Y58.365 E0.04353
G1 X153.225 Y58.644 E0.01193
G1 X154.199 Y59.617 E0.04353
G1 X153.945 Y59.897 E0.01193
G1 X152.971 Y58.923 E0.04353
G1 X152.717 Y59.202 E0.01193
G1 X153.691 Y60.176 E0.04353
G1 X153.437 Y60.455 E0.01193
G1 X152.463 Y59.482 E0.04353
G1 X152.209 Y59.761 E0.01193
G1 X153.183 Y60.734 E0.04353
G1 X152.929 Y61.014 E0.01193
G1 X151.955 Y60.04 E0.04353
G1 X151.701 Y60.319 E0.01193
G1 X152.675 Y61.293 E0.04353
G1 X152.421 Y61.572 E0.01193
G1 X151.447 Y60.599 E0.04353
G1 X151.193 Y60.878 E0.01193
G1 X152.167 Y61.851 E0.04353
G1 X151.913 Y62.131 E0.01193
G1 X150.939 Y61.157 E0.04353
G1 X150.685 Y61.436 E0.01193
G1 X151.659 Y62.41 E0.04353
G1 X151.405 Y62.689 E0.01193
G1 X150.431 Y61.716 E0.04353
G1 X150.177 Y61.995 E0.01193
G1 X151.151 Y62.968 E0.04353
G1 X150.897 Y63.248 E0.01193
G1 X149.923 Y62.274 E0.04353
G1 X149.669 Y62.553 E0.01193
G1 X150.643 Y63.527 E0.04353
G1 X150.389 Y63.806 E0.01193
G1 X149.415 Y62.833 E0.04353
G1 X149.161 Y63.112 E0.01193
G1 X150.135 Y64.085 E0.04353
G1 X149.881 Y64.365 E0.01193
G1 X148.907 Y63.391 E0.04353
G1 X148.653 Y63.67 E0.01193
G1 X149.627 Y64.644 E0.04353
G1 X149.373 Y64.923 E0.01193
G1 X148.399 Y63.95 E0.04353
G1 X148.145 Y64.229 E0.01193
G1 X149.119 Y65.202 E0.04353
G1 X148.865 Y65.482 E0.01193
G1 X147.891 Y64.508 E0.04353
G1 X147.637 Y64.787 E0.01193
G1 X148.611 Y65.761 E0.04353
G1 X148.357 Y66.04 E0.01193
G1 X147.383 Y65.067 E0.04353
G1 X147.129 Y65.346 E0.01193
G1 X148.103 Y66.32 E0.04353
G1 X147.849 Y66.599 E0.01193
G1 X146.875 Y65.625 E0.04353
G1 X146.621 Y65.904 E0.01193
G1 X147.595 Y66.878 E0.04353
G1 X147.34 Y67.157 E0.01193
G1 X146.367 Y66.184 E0.04353
G1 X146.113 Y66.463 E0.01193
G1 X147.086 Y67.437 E0.04353
G1 X146.832 Y67.716 E0.01193
G1 X145.859 Y66.742 E0.04353
G1 X145.605 Y67.021 E0.01193
G1 X146.578 Y67.995 E0.04353
G1 X146.324 Y68.274 E0.01193
G1 X145.351 Y67.301 E0.04353
G1 X145.097 Y67.58 E0.01193
G1 X146.07 Y68.554 E0.04353
G1 X145.816 Y68.833 E0.01193
G1 X144.843 Y67.859 E0.04353
G1 X144.589 Y68.138 E0.01193
G1 X145.562 Y69.112 E0.04353
G1 X145.308 Y69.391 E0.01193
G1 X144.335 Y68.418 E0.04353
G1 X144.081 Y68.697 E0.01193
G1 X145.054 Y69.671 E0.04353
G1 X144.8 Y69.95 E0.01193
G1 X143.827 Y68.976 E0.04353
G1 X143.573 Y69.255 E0.01193
G1 X144.546 Y70.229 E0.04353
G1 X144.292 Y70.508 E0.01193
G1 X143.319 Y69.535 E0.04353
G1 X143.065 Y69.814 E0.01193
G1 X144.038 Y70.788 E0.04353
G1 X143.784 Y71.067 E0.01193
G1 X142.811 Y70.093 E0.04353
G1 X142.557 Y70.372 E0.01193
G1 X143.53 Y71.346 E0.04353
G1 X143.276 Y71.625 E0.01193
G1 X142.303 Y70.652 E0.04353
G1 X142.049 Y70.931 E0.01193
G1 X143.022 Y71.905 E0.04353
G1 X142.768 Y72.184 E0.01193
G1 X141.795 Y71.21 E0.04353
G1 X141.541 Y71.489 E0.01193
G1 X142.514 Y72.463 E0.04353
G1 X142.26 Y72.742 E0.01193
G1 X141.287 Y71.769 E0.04353
G1 X141.033 Y72.048 E0.01193
G1 X142.006 Y73.022 E0.04353
G1 X141.752 Y73.301 E0.01193
G1 X140.779 Y72.327 E0.04353
G1 X140.524 Y72.606 E0.01193
G1 X141.498 Y73.58 E0.04353
G1 X141.244 Y73.859 E0.01193
G1 X140.27 Y72.886 E0.04353
G1 X140.016 Y73.165 E0.01193
G1 X140.99 Y74.139 E0.04353
G1 X140.736 Y74.418 E0.01193
G1 X139.762 Y73.444 E0.04353
G1 X139.508 Y73.724 E0.01193
G1 X140.482 Y74.697 E0.04353
G1 X140.228 Y74.976 E0.01193
G1 X139.254 Y74.003 E0.04353
G1 X139 Y74.282 E0.01193
G1 X139.974 Y75.256 E0.04353
G1 X139.72 Y75.535 E0.01193
G1 X138.746 Y74.561 E0.04353
G1 X138.492 Y74.841 E0.01193
G1 X139.466 Y75.814 E0.04353
G1 X139.212 Y76.093 E0.01193
G1 X138.238 Y75.12 E0.04353
G1 X137.984 Y75.399 E0.01193
G1 X138.958 Y76.373 E0.04353
G1 X138.704 Y76.652 E0.01193
G1 X137.73 Y75.678 E0.04353
G1 X137.476 Y75.958 E0.01193
G1 X138.45 Y76.931 E0.04353
G1 X138.196 Y77.21 E0.01193
G1 X137.222 Y76.237 E0.04353
G1 X136.968 Y76.516 E0.01193
G1 X137.942 Y77.49 E0.04353
G1 X137.688 Y77.769 E0.01193
G1 X136.714 Y76.795 E0.04353
G1 X136.46 Y77.075 E0.01193
G1 X137.434 Y78.048 E0.04353
G1 X137.18 Y78.327 E0.01193
G1 X136.206 Y77.354 E0.04353
G1 X135.952 Y77.633 E0.01193
G1 X136.926 Y78.607 E0.04353
G1 X136.672 Y78.886 E0.01193
G1 X135.698 Y77.912 E0.04353
G1 X135.444 Y78.192 E0.01193
G1 X136.418 Y79.165 E0.04353
G1 X136.164 Y79.444 E0.01193
G1 X135.19 Y78.471 E0.04353
G1 X134.936 Y78.75 E0.01193
G1 X135.91 Y79.724 E0.04353
G1 X135.656 Y80.003 E0.01193
G1 X134.682 Y79.029 E0.04353
G1 X134.428 Y79.309 E0.01193
G1 X135.402 Y80.282 E0.04353
G1 X135.148 Y80.561 E0.01193
G1 X134.174 Y79.588 E0.04353
G1 X133.92 Y79.867 E0.01193
G1 X134.894 Y80.841 E0.04353
G1 X134.64 Y81.12 E0.01193
G1 X133.666 Y80.146 E0.04353
G1 X133.412 Y80.426 E0.01193
G1 X134.386 Y81.399 E0.04353
G1 X134.132 Y81.678 E0.01193
G1 X133.158 Y80.705 E0.04353
G1 X132.904 Y80.984 E0.01193
G1 X133.878 Y81.958 E0.04353
G1 X133.624 Y82.237 E0.01193
G1 X132.65 Y81.263 E0.04353
