; generated by SuperSlicer 2.4 on 2022-08-02 at 01:44:17 UTC

; 

; external perimeters extrusion width = 0.45mm
; perimeters extrusion width = 0.45mm
; infill extrusion width = 0.45mm
; solid infill extrusion width = 0.45mm
; top infill extrusion width = 0.40mm
; first layer extrusion width = 0.42mm

; object:{"name":"Wyze_Cam_Mount","id":"Wyze_Cam_Mount.stl id:0 copy 0","object_center":[125.000000,105.000000,0.000000],"boundingbox_center":[125.000000,105.000000,28.351498],"boundingbox_size":[57.000000,18.000999,56.702995]}
; plater:{"center":[125.000000,105.000000,0.000000],"boundingbox_center":[125.000000,105.000000,28.351498],"boundingbox_size":[57.000000,18.000999,56.702995]}

M73 P0 R141
;TYPE:Custom
Start : M104 S0
M140 S0
PRINT_START EXTRUDER_TEMP=230 BED_TEMP=65
M107
G21 ; set units to millimeters
G90 ; use absolute coordinates
M83 ; use relative distances for extrusion
; Filament gcode
SET_PRESSURE_ADVANCE ADVANCE=0.035
M104 S230 ; set temperature
M109 S230 ; set temperature and wait for it to be reached
M107
;LAYER_CHANGE
;Z:0.2
;HEIGHT:0.2
;BEFORE_LAYER_CHANGE
G92 E0.0
;0.2


G1 E-0.8 F2100
G1 Z0.4 F10800
;AFTER_LAYER_CHANGE
;0.2
G1 Z0.6
M204 S1000
G1 X96.094 Y94.735
G1 Z0.2
G1 E0.8 F2100
;TYPE:Skirt
;WIDTH:0.52
G1 F1200
G1 X95.703 Y95.999 E0.05249
G1 X95.703 Y111.337 E0.60844
G1 X95.837 Y112.1 E0.03071
G1 X96.068 Y112.736 E0.02685
G1 X96.555 Y113.521 E0.03666
G1 X97.319 Y114.198 E0.04047
G1 X97.792 Y114.477 E0.02181
G1 X98.593 Y114.761 E0.03369
G1 X99.41 Y114.862 E0.03267
G1 X150.517 Y114.894 E2.02737
G1 X151.719 Y114.648 E0.04869
G1 X152.534 Y114.273 E0.03556
G1 X153.398 Y113.55 E0.0447
G1 X154.068 Y112.498 E0.04948
G1 X154.358 Y111.264 E0.05029
G1 X154.591 Y103.999 E0.28834
G1 X154.591 Y95.999 E0.31735
G1 X154.439 Y95.189 E0.03273
G1 X153.616 Y94.152 E0.05249
G1 X152.352 Y93.761 E0.05249
G1 X97.942 Y93.761 E2.15842
G1 X97.131 Y93.913 E0.03273
G1 X96.141 Y94.698 E0.05011
; INIT printing object Wyze_Cam_Mount.stl id:0 copy 0
;WIPE_START
G1 F8640
G1 X96.094 Y94.735 E-0.01385
G1 X95.703 Y95.999 E-0.30553
G1 X95.703 Y97.908 E-0.44062
;WIPE_END
G1 E-0.04 F2100
G1 Z0.6 F10800
; printing object Wyze_Cam_Mount.stl id:0 copy 0
; acceleration to travel
M204 S1500
G1 X99.465 Y97.6
; decel to extrusion
M204 S800
G1 X100.197 Y97.541
; end travel
G1 Z0.2
G1 E0.8 F2100
;TYPE:Internal perimeter
;WIDTH:0.42
G1 F1200
G1 X150.207 Y97.541 E1.56805
G1 X150.207 Y102.458 E0.15419
G1 X149.718 Y102.458 E0.01534
G1 X149.718 Y110.209 E0.24302
G1 X143.619 Y110.195 E0.19122
G1 X134.834 Y110.107 E0.27548
G1 X134.45 Y110.192 E0.01232
G1 X130.1 Y110.109 E0.13642
G1 X125.582 Y110.195 E0.14168
G1 X123.816 Y110.195 E0.05536
G1 X117.23 Y110.109 E0.20653
G1 X114.908 Y110.19 E0.07286
G1 X113.848 Y110.004 E0.03373
G1 X100.309 Y110.169 E0.42453
G1 X100.28 Y102.458 E0.24177
G1 X100.197 Y102.458 E0.00261
G1 X100.197 Y97.601 E0.1523
G1 X99.82 Y97.164 F10800
G1 F1200
G1 X150.584 Y97.164 E1.59169
G1 X150.584 Y102.835 E0.17783
G1 X150.095 Y102.835 E0.01534
G1 X150.095 Y110.587 E0.24305
G1 X143.617 Y110.572 E0.20312
G1 X134.873 Y110.485 E0.27418
G1 X134.488 Y110.57 E0.01237
G1 X130.1 Y110.486 E0.13759
G1 X125.586 Y110.572 E0.14157
G1 X123.814 Y110.572 E0.05555
G1 X117.234 Y110.486 E0.20633
G1 X114.881 Y110.569 E0.07381
G1 X113.818 Y110.381 E0.03387
G1 X99.934 Y110.551 E0.43535
G1 X99.904 Y102.835 E0.24191
G1 X99.82 Y102.835 E0.00266
G1 X99.82 Y97.224 E0.17595
G1 X99.443 Y96.787 F10800
G1 F1200
G1 X150.962 Y96.787 E1.61534
G1 X150.962 Y103.212 E0.20148
G1 X150.472 Y103.212 E0.01534
G1 X150.472 Y110.805 E0.23805
G1 X150.372 Y110.965 E0.00592
G1 X143.615 Y110.949 E0.21187
G1 X134.912 Y110.862 E0.27288
G1 X134.525 Y110.948 E0.01242
G1 X130.1 Y110.863 E0.13877
G1 X125.589 Y110.949 E0.14146
G1 X123.812 Y110.949 E0.05574
G1 X117.238 Y110.863 E0.20612
G1 X114.855 Y110.947 E0.07477
G1 X113.787 Y110.759 E0.034
G1 X99.558 Y110.932 E0.44617
G1 X99.529 Y103.212 E0.24206
G1 X99.443 Y103.212 E0.0027
G1 X99.443 Y96.847 E0.1996
G1 X99.066 Y96.409 F10800
;TYPE:External perimeter
G1 F1200
G1 X151.339 Y96.409 E1.63899
G1 X151.339 Y103.59 E0.22512
G1 X150.849 Y103.59 E0.01534
G1 X150.849 Y110.913 E0.22963
G1 X150.6 Y111.311 E0.01471
G1 X150.512 Y111.342 E0.00292
G1 X143.612 Y111.326 E0.21635
G1 X134.951 Y111.24 E0.27158
G1 X134.562 Y111.325 E0.01248
G1 X130.1 Y111.24 E0.13994
G1 X125.593 Y111.326 E0.14134
G1 X123.809 Y111.326 E0.05593
G1 X117.242 Y111.24 E0.20591
G1 X114.829 Y111.325 E0.07573
G1 X113.756 Y111.136 E0.03414
G1 X100.246 Y111.296 E0.42364
G1 X100.238 Y111.313 E0.00061
G1 X99.507 Y111.31 E0.0229
G1 X99.313 Y111.204 E0.00693
G1 X99.262 Y111.126 E0.00294
G1 X99.181 Y110.937 E0.00645
G1 X99.153 Y103.59 E0.23037
G1 X99.066 Y103.59 E0.00275
G1 X99.066 Y96.469 E0.22324
;WIPE_START
M204 S1000
G1 X99.412 Y96.609 F10800
;WIPE_END
;WIPE_START
G1 F8640
G1 X102.703 Y96.609 E-0.76
;WIPE_END
G1 E-0.04 F2100
G1 Z0.6 F10800
; acceleration to travel
M204 S1500
G1 X140.83 Y98.063
; decel to extrusion
M204 S1000
G1 X150.094 Y98.416
; end travel
G1 Z0.2
G1 E0.8 F2100
;TYPE:Solid infill
;WIDTH:0.420561
G1 F1200
G1 X149.494 Y97.816 E0.02665
G1 X148.961 Y97.816 E0.01674
G1 X149.932 Y98.787 E0.04312
G1 X149.932 Y99.321 E0.01674
G1 X148.428 Y97.816 E0.0668
G1 X147.894 Y97.816 E0.01674
G1 X149.932 Y99.854 E0.09048
G1 X149.932 Y100.387 E0.01674
G1 X147.361 Y97.816 E0.11416
G1 X146.828 Y97.816 E0.01674
G1 X149.932 Y100.92 E0.13783
G1 X149.932 Y101.454 E0.01674
G1 X146.295 Y97.816 E0.16151
G1 X145.761 Y97.816 E0.01674
G1 X149.932 Y101.987 E0.18519
G1 X149.932 Y102.183 E0.00616
G1 X149.595 Y102.183 E0.01058
G1 X145.228 Y97.816 E0.1939
G1 X144.695 Y97.816 E0.01674
G1 X149.443 Y102.564 E0.21082
G1 X149.443 Y103.097 E0.01674
G1 X144.161 Y97.816 E0.2345
G1 X143.628 Y97.816 E0.01674
G1 X149.443 Y103.631 E0.25817
G1 X149.443 Y104.164 E0.01674
G1 X143.095 Y97.816 E0.28185
G1 X142.562 Y97.816 E0.01674
G1 X149.443 Y104.697 E0.30553
G1 X149.443 Y105.23 E0.01674
G1 X142.028 Y97.816 E0.32921
G1 X141.495 Y97.816 E0.01674
G1 X149.443 Y105.764 E0.35289
G1 X149.443 Y106.297 E0.01674
G1 X140.962 Y97.816 E0.37656
G1 X140.429 Y97.816 E0.01674
G1 X149.443 Y106.83 E0.40024
G1 X149.443 Y107.364 E0.01674
G1 X139.895 Y97.816 E0.42392
G1 X139.362 Y97.816 E0.01674
G1 X149.443 Y107.897 E0.4476
G1 X149.443 Y108.43 E0.01674
G1 X138.829 Y97.816 E0.47127
M73 P0 R140
G1 X138.295 Y97.816 E0.01674
G1 X149.443 Y108.963 E0.49495
G1 X149.443 Y109.497 E0.01674
G1 X137.762 Y97.816 E0.51863
G1 X137.229 Y97.816 E0.01674
G1 X149.347 Y109.934 E0.53803
G1 X148.813 Y109.933 E0.01676
G1 X136.696 Y97.816 E0.53801
G1 X136.162 Y97.816 E0.01674
G1 X148.279 Y109.933 E0.53799
G1 X147.745 Y109.932 E0.01676
G1 X135.629 Y97.816 E0.53797
G1 X135.096 Y97.816 E0.01674
G1 X147.212 Y109.932 E0.53795
G1 X146.678 Y109.931 E0.01676
G1 X134.563 Y97.816 E0.53794
G1 X134.029 Y97.816 E0.01674
G1 X146.144 Y109.931 E0.53792
G1 X145.611 Y109.931 E0.01676
G1 X133.496 Y97.816 E0.5379
G1 X132.963 Y97.816 E0.01674
G1 X145.077 Y109.93 E0.53788
G1 X144.543 Y109.93 E0.01676
G1 X132.43 Y97.816 E0.53786
G1 X131.896 Y97.816 E0.01674
G1 X144.01 Y109.929 E0.53784
G1 X143.476 Y109.929 E0.01676
G1 X131.363 Y97.816 E0.53782
G1 X130.83 Y97.816 E0.01674
G1 X142.942 Y109.928 E0.5378
G1 X142.408 Y109.928 E0.01676
G1 X130.296 Y97.816 E0.53778
G1 X129.763 Y97.816 E0.01674
G1 X141.875 Y109.928 E0.53776
G1 X141.341 Y109.927 E0.01676
G1 X129.23 Y97.816 E0.53774
G1 X128.697 Y97.816 E0.01674
G1 X140.807 Y109.927 E0.53772
G1 X140.274 Y109.926 E0.01676
G1 X128.163 Y97.816 E0.5377
G1 X127.63 Y97.816 E0.01674
G1 X139.74 Y109.926 E0.53769
G1 X139.206 Y109.925 E0.01676
G1 X127.097 Y97.816 E0.53767
G1 X126.564 Y97.816 E0.01674
G1 X138.672 Y109.925 E0.53765
G1 X138.139 Y109.924 E0.01676
G1 X126.03 Y97.816 E0.53763
G1 X125.497 Y97.816 E0.01674
G1 X137.605 Y109.924 E0.53761
G1 X137.071 Y109.924 E0.01676
G1 X124.964 Y97.816 E0.53759
G1 X124.43 Y97.816 E0.01674
G1 X136.538 Y109.923 E0.53757
G1 X136.004 Y109.923 E0.01676
G1 X123.897 Y97.816 E0.53755
G1 X123.364 Y97.816 E0.01674
G1 X135.47 Y109.922 E0.53753
G1 X134.937 Y109.922 E0.01676
G1 X122.831 Y97.816 E0.53751
G1 X122.297 Y97.816 E0.01674
G1 X134.403 Y109.921 E0.53749
G1 X133.869 Y109.921 E0.01676
G1 X121.764 Y97.816 E0.53747
G1 X121.231 Y97.816 E0.01674
G1 X133.335 Y109.921 E0.53745
G1 X132.802 Y109.92 E0.01676
G1 X120.698 Y97.816 E0.53744
G1 X120.164 Y97.816 E0.01674
G1 X132.268 Y109.92 E0.53742
G1 X131.734 Y109.919 E0.01676
G1 X119.631 Y97.816 E0.5374
G1 X119.098 Y97.816 E0.01674
G1 X131.201 Y109.919 E0.53738
G1 X130.667 Y109.918 E0.01676
G1 X118.564 Y97.816 E0.53736
G1 X118.031 Y97.816 E0.01674
G1 X130.133 Y109.918 E0.53734
G1 X129.6 Y109.918 E0.01676
G1 X117.498 Y97.816 E0.53732
G1 X116.965 Y97.816 E0.01674
G1 X129.066 Y109.917 E0.5373
G1 X128.532 Y109.917 E0.01676
G1 X116.431 Y97.816 E0.53728
G1 X115.898 Y97.816 E0.01674
G1 X127.998 Y109.916 E0.53726
G1 X127.465 Y109.916 E0.01676
G1 X115.365 Y97.816 E0.53724
G1 X114.832 Y97.816 E0.01674
G1 X126.931 Y109.915 E0.53722
M73 P1 R140
G1 X126.397 Y109.915 E0.01676
G1 X114.298 Y97.816 E0.5372
G1 X113.765 Y97.816 E0.01674
G1 X125.864 Y109.915 E0.53719
G1 X125.33 Y109.914 E0.01676
G1 X113.232 Y97.816 E0.53717
G1 X112.699 Y97.816 E0.01674
G1 X124.796 Y109.914 E0.53715
G1 X124.262 Y109.913 E0.01676
G1 X112.165 Y97.816 E0.53713
G1 X111.632 Y97.816 E0.01674
G1 X123.729 Y109.913 E0.53711
G1 X123.195 Y109.912 E0.01676
G1 X111.099 Y97.816 E0.53709
G1 X110.565 Y97.816 E0.01674
G1 X122.661 Y109.912 E0.53707
G1 X122.128 Y109.911 E0.01676
G1 X110.032 Y97.816 E0.53705
G1 X109.499 Y97.816 E0.01674
G1 X121.594 Y109.911 E0.53703
G1 X121.06 Y109.911 E0.01676
G1 X108.966 Y97.816 E0.53701
G1 X108.432 Y97.816 E0.01674
G1 X120.527 Y109.91 E0.53699
G1 X119.993 Y109.91 E0.01676
G1 X107.899 Y97.816 E0.53697
G1 X107.366 Y97.816 E0.01674
G1 X119.459 Y109.909 E0.53695
G1 X118.925 Y109.909 E0.01676
G1 X106.833 Y97.816 E0.53694
G1 X106.299 Y97.816 E0.01674
G1 X118.392 Y109.908 E0.53692
G1 X117.858 Y109.908 E0.01676
G1 X105.766 Y97.816 E0.5369
G1 X105.233 Y97.816 E0.01674
G1 X117.324 Y109.908 E0.53688
G1 X116.791 Y109.907 E0.01676
G1 X104.699 Y97.816 E0.53686
G1 X104.166 Y97.816 E0.01674
G1 X116.257 Y109.907 E0.53684
G1 X115.723 Y109.906 E0.01676
G1 X103.633 Y97.816 E0.53682
G1 X103.1 Y97.816 E0.01674
G1 X115.19 Y109.906 E0.5368
M73 P1 R139
G1 X114.656 Y109.905 E0.01676
G1 X102.566 Y97.816 E0.53678
G1 X102.033 Y97.816 E0.01674
G1 X114.122 Y109.905 E0.53676
G1 X113.588 Y109.905 E0.01676
G1 X101.5 Y97.816 E0.53674
G1 X100.967 Y97.816 E0.01674
G1 X113.055 Y109.904 E0.53672
G1 X112.521 Y109.904 E0.01676
G1 X100.475 Y97.858 E0.53486
G1 X100.48 Y98.396 E0.01689
G1 X111.987 Y109.903 E0.51095
G1 X111.454 Y109.903 E0.01676
G1 X100.484 Y98.934 E0.48704
G1 X100.489 Y99.472 E0.01689
G1 X110.92 Y109.902 E0.46313
G1 X110.386 Y109.902 E0.01676
G1 X100.494 Y100.01 E0.43922
G1 X100.499 Y100.548 E0.01689
G1 X109.852 Y109.902 E0.41531
G1 X109.319 Y109.901 E0.01676
G1 X100.504 Y101.086 E0.3914
G1 X100.508 Y101.624 E0.01689
G1 X108.785 Y109.901 E0.36749
G1 X108.251 Y109.9 E0.01676
G1 X100.513 Y102.162 E0.34358
G1 X100.518 Y102.7 E0.01689
G1 X107.718 Y109.9 E0.31967
G1 X107.184 Y109.899 E0.01676
G1 X100.523 Y103.238 E0.29576
G1 X100.528 Y103.776 E0.01689
G1 X106.65 Y109.899 E0.27185
G1 X106.117 Y109.898 E0.01676
G1 X100.532 Y104.314 E0.24794
G1 X100.537 Y104.852 E0.01689
G1 X105.583 Y109.898 E0.22403
G1 X105.049 Y109.898 E0.01676
G1 X100.542 Y105.39 E0.20012
G1 X100.547 Y105.929 E0.01689
G1 X104.515 Y109.897 E0.17621
G1 X103.982 Y109.897 E0.01676
G1 X100.552 Y106.467 E0.1523
G1 X100.556 Y107.005 E0.01689
G1 X103.448 Y109.896 E0.12839
G1 X102.914 Y109.896 E0.01676
G1 X100.561 Y107.543 E0.10448
G1 X100.566 Y108.081 E0.01689
G1 X102.381 Y109.895 E0.08057
G1 X101.847 Y109.895 E0.01676
G1 X100.571 Y108.619 E0.05666
G1 X100.576 Y109.157 E0.01689
G1 X101.313 Y109.895 E0.03275
G1 X100.78 Y109.894 E0.01676
G1 X100.417 Y109.531 E0.01611
; INIT stop printing object Wyze_Cam_Mount.stl id:0 copy 0
M106 S84.15
;LAYER_CHANGE
;Z:0.4
;HEIGHT:0.2
;BEFORE_LAYER_CHANGE
G92 E0.0
;0.4


;WIPE_START
G1 F8640
G1 X100.78 Y109.894 E-0.11845
G1 X101.313 Y109.895 E-0.12323
G1 X100.576 Y109.157 E-0.24087
G1 X100.571 Y108.619 E-0.12425
G1 X101.04 Y109.088 E-0.15319
;WIPE_END
G1 E-0.04 F2100
G1 Z0.6 F10800
; stop printing object Wyze_Cam_Mount.stl id:0 copy 0
;AFTER_LAYER_CHANGE
;0.4
M104 S225 ; set temperature
M140 S60 ; set bed temperature
G1 Z0.8
; acceleration to travel
M204 S1500
G1 X96.752 Y109.088
; decel to extrusion
M204 S1000
G1 X95.703 Y109.088
; end travel
G1 Z0.4
G1 E0.8 F2100
;TYPE:Skirt
;WIDTH:0.52
G1 F1500
G1 X95.703 Y111.337 E0.08922
G1 X95.837 Y112.1 E0.03071
G1 X96.068 Y112.736 E0.02685
G1 X96.555 Y113.521 E0.03666
G1 X97.319 Y114.198 E0.04047
G1 X97.792 Y114.477 E0.02181
G1 X98.593 Y114.761 E0.03369
G1 X99.41 Y114.862 E0.03267
G1 X150.517 Y114.894 E2.02737
G1 X151.719 Y114.648 E0.04869
G1 X152.534 Y114.273 E0.03556
G1 X153.398 Y113.55 E0.0447
G1 X154.068 Y112.498 E0.04948
G1 X154.358 Y111.264 E0.05029
G1 X154.591 Y103.999 E0.28834
G1 X154.591 Y95.999 E0.31735
G1 X154.439 Y95.189 E0.03273
G1 X153.616 Y94.152 E0.05249
G1 X152.352 Y93.761 E0.05249
G1 X97.942 Y93.761 E2.15842
G1 X97.131 Y93.913 E0.03273
G1 X96.094 Y94.735 E0.05249
G1 X95.703 Y95.999 E0.05249
G1 X95.703 Y109.028 E0.51683
; INIT printing object Wyze_Cam_Mount.stl id:0 copy 0
;WIPE_START
G1 F8640
G1 X95.703 Y111.337 E-0.5332
G1 X95.837 Y112.1 E-0.17874
G1 X95.908 Y112.295 E-0.04806
;WIPE_END
G1 E-0.04 F2100
G1 Z0.8 F10800
; printing object Wyze_Cam_Mount.stl id:0 copy 0
; acceleration to travel
M204 S1500
G1 X141.088 Y105.221
; decel to extrusion
M204 S800
G1 X150.341 Y103.773
; end travel
G1 Z0.4
G1 E0.8 F2100
;TYPE:Internal perimeter
;WIDTH:0.45
G1 F2700
G1 X150.331 Y110.844 E0.23937
G1 X144.056 Y110.816 E0.21239
G1 X137.859 Y110.816 E0.20976
G1 X135.2 Y110.782 E0.09002
G1 X132.543 Y110.816 E0.08995
G1 X128.55 Y110.805 E0.13513
G1 X125 Y110.75 E0.12019
G1 X121.448 Y110.805 E0.12025
G1 X116.978 Y110.829 E0.15129
G1 X111.706 Y110.8 E0.17844
G1 X111.245 Y110.719 E0.01585
G1 X103.424 Y110.811 E0.26475
G1 X103.447 Y110.839 E0.0012
G1 X99.691 Y110.832 E0.12711
G1 X99.691 Y110.287 E0.01843
G1 X99.715 Y109.807 E0.01629
G1 X99.751 Y102.553 E0.24552
G1 X99.691 Y102.553 E0.00201
G1 X99.691 Y97.446 E0.17288
G1 X150.642 Y97.446 E1.72462
G1 X150.642 Y102.553 E0.17288
G1 X150.343 Y102.553 E0.01012
G1 X150.341 Y103.713 E0.03925
G1 X150.748 Y103.773 F10800
G1 F2700
G1 X150.738 Y110.999 E0.24457
G1 X150.57 Y111.2 E0.00887
G1 X150.371 Y111.252 E0.00697
G1 X144.055 Y111.223 E0.21378
G1 X137.857 Y111.223 E0.20981
G1 X135.2 Y111.189 E0.08993
G1 X132.545 Y111.223 E0.08988
G1 X128.547 Y111.212 E0.13533
G1 X125 Y111.157 E0.12007
G1 X121.452 Y111.212 E0.12011
G1 X116.978 Y111.236 E0.15144
G1 X111.67 Y111.207 E0.17968
G1 X111.212 Y111.126 E0.01573
G1 X104.273 Y111.208 E0.23491
G1 X104.304 Y111.247 E0.00171
G1 X99.62 Y111.239 E0.15856
G1 X99.391 Y111.186 E0.00796
G1 X99.31 Y111.081 E0.00448
G1 X99.284 Y111.008 E0.00264
G1 X99.284 Y110.277 E0.02472
G1 X99.308 Y109.796 E0.01632
G1 X99.341 Y102.96 E0.23137
G1 X99.284 Y102.96 E0.00194
G1 X99.284 Y97.039 E0.20044
G1 X151.049 Y97.039 E1.75218
G1 X151.049 Y102.96 E0.20044
G1 X150.749 Y102.96 E0.01014
G1 X150.748 Y103.713 E0.02549
G1 X151.155 Y103.774 F10800
G1 F2700
G1 X151.144 Y111.094 E0.24779
G1 X151.129 Y111.153 E0.00205
G1 X151.084 Y111.219 E0.00273
G1 X150.882 Y111.479 E0.01112
G1 X150.799 Y111.562 E0.00397
G1 X150.421 Y111.659 E0.0132
G1 X144.054 Y111.63 E0.21553
G1 X137.854 Y111.63 E0.20986
G1 X135.2 Y111.597 E0.08985
G1 X132.547 Y111.63 E0.08982
G1 X128.543 Y111.619 E0.13552
G1 X125 Y111.564 E0.11994
G1 X121.456 Y111.619 E0.11997
G1 X116.978 Y111.643 E0.15158
G1 X111.633 Y111.614 E0.18092
G1 X111.179 Y111.534 E0.01561
G1 X105.121 Y111.605 E0.20507
G1 X105.162 Y111.656 E0.00221
G1 X99.573 Y111.646 E0.18919
G1 X99.27 Y111.575 E0.01054
G1 X99.14 Y111.526 E0.00469
G1 X98.948 Y111.278 E0.01062
G1 X98.877 Y111.077 E0.00724
G1 X98.877 Y110.267 E0.0274
G1 X98.901 Y109.785 E0.01636
G1 X98.932 Y103.367 E0.21721
G1 X98.877 Y103.367 E0.00187
