; generated by SuperSlicer 2.5.59 on 2022-09-30 at 00:48:46 UTC

; 

; external perimeters extrusion width = 0.45mm
; perimeters extrusion width = 0.45mm
; infill extrusion width = 0.45mm
; solid infill extrusion width = 0.45mm
; top infill extrusion width = 0.40mm
; first layer extrusion width = 0.42mm

; external perimeters extrusion width = 0.45mm
; perimeters extrusion width = 0.45mm
; infill extrusion width = 0.45mm
; solid infill extrusion width = 0.45mm
; top infill extrusion width = 0.40mm
; first layer extrusion width = 0.42mm

; external perimeters extrusion width = 0.45mm
; perimeters extrusion width = 0.45mm
; infill extrusion width = 0.45mm
; solid infill extrusion width = 0.45mm
; top infill extrusion width = 0.40mm
; first layer extrusion width = 0.42mm

; object:{"name":"y_end_caps","id":"y_end_caps.stl id:0 copy 0","object_center":[101.566180,127.950001,0.000000],"boundingbox_center":[101.566180,127.950001,3.700000],"boundingbox_size":[44.799999,39.900002,7.400000]}
; object:{"name":"z_end_caps","id":"z_end_caps.stl id:1 copy 0","object_center":[150.400000,84.008590,0.000000],"boundingbox_center":[150.400000,84.008590,4.200000],"boundingbox_size":[44.799997,39.900002,8.400000]}
; object:{"name":"y_end_caps","id":"y_end_caps.stl id:2 copy 0","object_center":[99.600002,82.050001,0.000000],"boundingbox_center":[99.600002,82.050001,3.700000],"boundingbox_size":[44.799999,39.900002,7.400000]}
; plater:{"center":[125.000001,105.000001,0.000000],"boundingbox_center":[125.000001,105.000001,4.200000],"boundingbox_size":[95.599996,85.800002,8.400000]}

M73 P0 R91


; Pre-Processed for Cancel-Object support by preprocess_cancellation v0.2.0
; 3 known objects
EXCLUDE_OBJECT_DEFINE NAME=y_end_caps_stl_id_0_copy_0 CENTER=101.366,126.254 POLYGON=[[79.88,108.225],[79.658,108.275],[79.533,108.364],[79.441,108.492],[79.391,108.714],[79.391,147.186],[79.441,147.408],[79.532,147.534],[79.658,147.625],[79.88,147.675],[123.252,147.675],[123.479,147.623],[123.599,147.536],[123.692,147.408],[123.741,147.186],[123.741,108.709],[123.701,108.515],[123.6,108.366],[123.42,108.252],[123.255,108.225],[79.88,108.225]]
EXCLUDE_OBJECT_DEFINE NAME=y_end_caps_stl_id_2_copy_0 CENTER=99.578,80.376 POLYGON=[[77.914,62.325],[77.692,62.375],[77.567,62.464],[77.475,62.592],[77.425,62.814],[77.425,101.286],[77.475,101.508],[77.564,101.633],[77.692,101.725],[77.914,101.775],[121.286,101.775],[121.508,101.725],[121.633,101.636],[121.725,101.508],[121.775,101.286],[121.775,62.809],[121.738,62.624],[121.634,62.466],[121.454,62.352],[121.289,62.325],[77.914,62.325]]
EXCLUDE_OBJECT_DEFINE NAME=z_end_caps_stl_id_1_copy_0 CENTER=150.315,82.531 POLYGON=[[128.517,64.284],[128.225,64.293],[128.235,103.734],[172.575,103.724],[172.575,64.293],[128.517,64.284]]
;TYPE:Custom
Start : M104 S0
M140 S0
PRINT_START EXTRUDER_TEMP=215 BED_TEMP=60
M107
G21 ; set units to millimeters
G90 ; use absolute coordinates
M83 ; use relative distances for extrusion
M900 K0.05 ; Filament gcode LA 1.5
M900 K30 ; Filament gcode LA 1.0
;_TOOLCHANGE 0
M104 S215 ; set temperature
M109 S215 ; set temperature and wait for it to be reached
M107
;LAYER_CHANGE
;Z:0.2
;HEIGHT:0.2
;BEFORE_LAYER_CHANGE
G92 E0.0
;0.2
TIMELAPSE_TAKE_FRAME

G1 E-0.8 F2100
G1 Z0.4 F10800
;AFTER_LAYER_CHANGE
;0.2
G1 Z0.6
M204 S1000
G1 X75.936 Y61.346
G1 Z0.2
G1 E0.8 F2100
;TYPE:Skirt
;WIDTH:0.52
G1 F1200
G1 X75.52 Y62.078 E0.03338
G1 X75.311 Y63.187 E0.04479
G1 X75.314 Y101.009 E1.50034
G1 X77.28 Y146.909 E1.82249
G1 X77.428 Y147.756 E0.03412
G1 X77.78 Y148.485 E0.03213
G1 X78.412 Y149.164 E0.0368
G1 X79.145 Y149.58 E0.03343
G1 X80.253 Y149.789 E0.04475
G1 X122.879 Y149.789 E1.69092
G1 X123.987 Y149.58 E0.04475
G1 X124.952 Y148.973 E0.0452
G1 X170.803 Y105.585 E2.50417
G1 X174.383 Y102.006 E0.2008
G1 X175.039 Y100.423 E0.06797
G1 X175.039 Y67.594 E1.3023
G1 X174.383 Y66.011 E0.06797
G1 X170.847 Y62.476 E0.19835
G1 X169.339 Y61.821 E0.06523
G1 X121.005 Y60.213 E1.91842
G1 X78.269 Y60.212 E1.69532
G1 X77.146 Y60.435 E0.04544
G1 X76.462 Y60.819 E0.03109
G1 X75.978 Y61.304 E0.02718
;WIPE_START
G1 F8640
G1 X75.52 Y62.078 E-0.20771
G1 X75.311 Y63.187 E-0.26068
G1 X75.312 Y64.45 E-0.29161
;WIPE_END
G1 E-0.04 F2100
G1 Z0.6 F10800
; printing object y_end_caps.stl id:0 copy 0
EXCLUDE_OBJECT_START NAME=y_end_caps_stl_id_0_copy_0
; acceleration to travel
M204 S1500
G1 X83.289 Y106.348
; decel to extrusion
M204 S800
G1 X84.84 Y114.493
; end travel
G1 Z0.2
G1 E0.8 F2100
;TYPE:Internal perimeter
;WIDTH:0.42
G1 F1200
G1 X84.818 Y114.494 E0.0007
G1 X84.534 Y114.545 E0.00903
G1 X84.057 Y114.716 E0.01589
G1 X83.682 Y114.927 E0.01348
G1 X83.249 Y115.266 E0.01726
G1 X82.935 Y115.589 E0.01412
G1 X82.651 Y115.951 E0.01443
G1 X82.394 Y116.358 E0.01506
G1 X82.168 Y116.806 E0.01575
G1 X81.976 Y117.296 E0.01651
G1 X81.82 Y117.833 E0.01754
G1 X81.714 Y118.528 E0.02203
G1 X81.702 Y119.062 E0.01674
G1 X81.76 Y119.72 E0.02073
G1 X81.887 Y120.354 E0.02026
G1 X82.148 Y121.197 E0.02768
G1 X82.354 Y121.714 E0.01743
G1 X82.737 Y122.56 E0.02914
G1 X82.87 Y122.926 E0.0122
G1 X82.953 Y123.312 E0.01237
G1 X82.956 Y123.675 E0.01141
G1 X82.894 Y124.025 E0.01113
G1 X82.697 Y124.58 E0.01849
G1 X81.692 Y126.705 E0.07369
G1 X81.411 Y127.427 E0.02431
G1 X81.275 Y127.943 E0.01672
G1 X81.193 Y128.457 E0.01633
G1 X81.164 Y128.975 E0.01626
G1 X81.19 Y129.504 E0.01661
G1 X81.328 Y130.257 E0.02399
G1 X81.497 Y130.78 E0.01723
G1 X81.814 Y131.481 E0.02413
G1 X82.519 Y132.777 E0.04626
G1 X82.704 Y133.159 E0.0133
G1 X82.905 Y133.713 E0.01847
G1 X82.962 Y134.014 E0.00962
G1 X82.964 Y134.261 E0.00773
G1 X82.887 Y134.659 E0.01271
G1 X82.793 Y134.939 E0.00927
G1 X82.274 Y136.257 E0.0444
G1 X82.087 Y136.975 E0.02328
G1 X82.008 Y137.537 E0.01779
G1 X81.987 Y138.067 E0.01661
G1 X82.026 Y138.563 E0.01562
G1 X82.073 Y138.824 E0.0083
G1 X82.139 Y139.081 E0.00831
G1 X82.31 Y139.53 E0.01509
G1 X82.556 Y139.959 E0.01549
G1 X82.866 Y140.346 E0.01555
G1 X83.233 Y140.69 E0.01578
G1 X83.632 Y140.979 E0.01543
G1 X83.932 Y141.15 E0.01084
G1 X84.373 Y141.335 E0.01499
G1 X84.843 Y141.455 E0.01521
G1 X85.319 Y141.503 E0.01501
G1 X85.909 Y141.488 E0.01851
G1 X86.477 Y141.414 E0.01794
G1 X86.93 Y141.293 E0.01472
G1 X87.399 Y141.117 E0.01571
G1 X88.41 Y140.635 E0.0351
G1 X88.856 Y140.449 E0.01514
G1 X89.037 Y140.397 E0.00592
G1 X89.134 Y140.39 E0.00305
G1 X89.224 Y140.403 E0.00282
G1 X89.451 Y140.476 E0.0075
G1 X89.819 Y140.634 E0.01254
G1 X90.833 Y141.117 E0.03521
G1 X91.296 Y141.29 E0.01549
G1 X91.601 Y141.378 E0.00995
G1 X91.903 Y141.441 E0.0097
G1 X92.331 Y141.489 E0.01347
G1 X92.913 Y141.503 E0.01827
G1 X93.38 Y141.456 E0.0147
G1 X93.714 Y141.38 E0.01076
G1 X94.162 Y141.217 E0.01493
G1 X94.594 Y140.985 E0.01538
G1 X94.999 Y140.691 E0.01571
G1 X95.366 Y140.346 E0.01578
G1 X95.676 Y139.959 E0.01555
G1 X95.922 Y139.53 E0.01549
G1 X96.099 Y139.067 E0.01554
G1 X96.206 Y138.577 E0.01572
G1 X96.246 Y138.067 E0.01606
G1 X96.225 Y137.537 E0.01661
G1 X96.146 Y136.975 E0.01779
G1 X95.958 Y136.257 E0.02328
G1 X95.44 Y134.939 E0.0444
G1 X95.346 Y134.659 E0.00927
G1 X95.269 Y134.261 E0.01271
G1 X95.271 Y134.014 E0.00773
G1 X95.327 Y133.713 E0.00962
G1 X95.528 Y133.159 E0.01847
G1 X95.714 Y132.775 E0.01336
G1 X96.531 Y131.254 E0.05413
G1 X96.828 Y130.52 E0.02482
G1 X97.008 Y129.763 E0.02443
G1 X97.062 Y129.235 E0.01665
G1 X97.061 Y128.706 E0.01658
G1 X96.959 Y127.944 E0.02412
G1 X96.741 Y127.189 E0.02463
G1 X96.429 Y126.462 E0.02478
G1 X95.629 Y124.797 E0.05792
G1 X95.389 Y124.193 E0.0204
G1 X95.292 Y123.812 E0.01232
G1 X95.27 Y123.427 E0.01208
G1 X95.301 Y123.168 E0.00819
G1 X95.388 Y122.841 E0.0106
G1 X95.494 Y122.562 E0.00936
G1 X95.979 Y121.471 E0.03745
G1 X96.177 Y120.931 E0.01804
G1 X96.347 Y120.347 E0.01904
G1 X96.47 Y119.732 E0.01968
G1 X96.511 Y119.388 E0.01086
G1 X96.533 Y118.884 E0.0158
G1 X96.502 Y118.351 E0.01674
G1 X96.369 Y117.663 E0.02197
G1 X96.254 Y117.29 E0.01224
G1 X96.062 Y116.801 E0.0165
G1 X95.763 Y116.229 E0.02024
G1 X95.578 Y115.946 E0.01058
G1 X95.302 Y115.595 E0.014
G1 X95.089 Y115.368 E0.00976
G1 X94.777 Y115.092 E0.01306
G1 X94.536 Y114.919 E0.00931
G1 X94.193 Y114.726 E0.01234
G1 X93.925 Y114.614 E0.0091
G1 X93.542 Y114.511 E0.01246
G1 X92.916 Y114.462 E0.01967
G1 X92.429 Y114.558 E0.01557
G1 X91.847 Y114.808 E0.01985
G1 X90.499 Y115.631 E0.04954
G1 X89.789 Y115.992 E0.02499
G1 X89.34 Y116.145 E0.01486
G1 X89.107 Y116.178 E0.00738
G1 X88.99 Y116.166 E0.0037
G1 X88.804 Y116.123 E0.00598
G1 X88.305 Y115.929 E0.01677
G1 X87.644 Y115.579 E0.02347
G1 X86.5 Y114.871 E0.04217
G1 X85.939 Y114.607 E0.01944
G1 X85.671 Y114.524 E0.00878
G1 X85.311 Y114.464 E0.01146
G1 X84.9 Y114.489 E0.01291
G1 X84.863 Y114.869 F10800
;TYPE:External perimeter
G1 F1200
G1 X84.632 Y114.911 E0.00736
G1 X84.214 Y115.06 E0.01391
G1 X83.892 Y115.241 E0.01159
G1 X83.501 Y115.547 E0.01557
G1 X83.219 Y115.837 E0.01269
G1 X82.96 Y116.169 E0.0132
G1 X82.723 Y116.544 E0.01389
G1 X82.513 Y116.96 E0.01463
G1 X82.333 Y117.418 E0.01542
G1 X82.189 Y117.915 E0.01623
G1 X82.09 Y118.561 E0.02049
G1 X82.079 Y119.049 E0.01532
G1 X82.134 Y119.667 E0.01943
G1 X82.253 Y120.261 E0.01901
G1 X82.504 Y121.071 E0.0266
G1 X82.701 Y121.566 E0.01669
G1 X83.087 Y122.418 E0.02932
G1 X83.234 Y122.821 E0.01346
G1 X83.33 Y123.27 E0.01439
G1 X83.334 Y123.707 E0.01371
G1 X83.26 Y124.122 E0.0132
G1 X83.046 Y124.725 E0.02006
G1 X82.038 Y126.854 E0.07386
G1 X81.77 Y127.544 E0.02321
G1 X81.645 Y128.021 E0.01547
G1 X81.568 Y128.498 E0.01513
G1 X81.542 Y128.976 E0.01503
G1 X81.566 Y129.461 E0.0152
G1 X81.695 Y130.165 E0.02244
G1 X81.849 Y130.644 E0.01579
G1 X82.152 Y131.313 E0.02302
G1 X82.855 Y132.605 E0.04611
G1 X83.052 Y133.012 E0.01418
G1 X83.27 Y133.613 E0.02005
G1 X83.338 Y133.978 E0.01164
G1 X83.341 Y134.295 E0.00996
G1 X83.252 Y134.755 E0.01468
G1 X83.147 Y135.068 E0.01036
G1 X82.634 Y136.374 E0.044
G1 X82.457 Y137.05 E0.02189
G1 X82.384 Y137.571 E0.01652
G1 X82.364 Y138.06 E0.01532
G1 X82.4 Y138.515 E0.01432
G1 X82.441 Y138.743 E0.00728
G1 X82.498 Y138.966 E0.00721
G1 X82.652 Y139.368 E0.01349
G1 X82.869 Y139.746 E0.01365
G1 X83.144 Y140.089 E0.0138
G1 X83.474 Y140.399 E0.01419
G1 X83.836 Y140.662 E0.01402
G1 X84.099 Y140.811 E0.00948
G1 X84.493 Y140.977 E0.01341
G1 X84.909 Y141.083 E0.01345
G1 X85.334 Y141.125 E0.01339
G1 X85.88 Y141.112 E0.01714
G1 X86.403 Y141.043 E0.01654
G1 X86.815 Y140.933 E0.01338
G1 X87.252 Y140.769 E0.01462
G1 X88.256 Y140.291 E0.03489
G1 X88.731 Y140.093 E0.01612
G1 X88.972 Y140.024 E0.00785
G1 X89.148 Y140.011 E0.00554
G1 X89.308 Y140.034 E0.00509
G1 X89.584 Y140.123 E0.00907
G1 X89.975 Y140.29 E0.01333
G1 X90.981 Y140.769 E0.03495
G1 X91.414 Y140.932 E0.01451
G1 X91.691 Y141.011 E0.00904
G1 X91.963 Y141.068 E0.00871
G1 X92.356 Y141.112 E0.0124
G1 X92.899 Y141.125 E0.01702
G1 X93.319 Y141.083 E0.01323
G1 X93.607 Y141.017 E0.00929
G1 X94.007 Y140.872 E0.01334
G1 X94.393 Y140.665 E0.01373
G1 X94.759 Y140.399 E0.01417
G1 X95.088 Y140.089 E0.01419
G1 X95.363 Y139.746 E0.0138
G1 X95.58 Y139.368 E0.01365
G1 X95.737 Y138.959 E0.01372
G1 X95.832 Y138.522 E0.01402
G1 X95.868 Y138.06 E0.01455
G1 X95.849 Y137.571 E0.01532
G1 X95.775 Y137.05 E0.01652
G1 X95.599 Y136.374 E0.02189
G1 X95.085 Y135.068 E0.044
G1 X94.98 Y134.755 E0.01036
G1 X94.891 Y134.295 E0.01468
G1 X94.894 Y133.978 E0.00996
G1 X94.962 Y133.613 E0.01163
G1 X95.181 Y133.012 E0.02005
G1 X95.378 Y132.604 E0.01422
G1 X96.189 Y131.094 E0.05373
G1 X96.467 Y130.406 E0.02328
G1 X96.636 Y129.699 E0.02276
G1 X96.685 Y129.216 E0.01524
G1 X96.684 Y128.732 E0.01518
G1 X96.589 Y128.021 E0.02247
G1 X96.385 Y127.316 E0.02303
G1 X96.086 Y126.618 E0.02379
G1 X95.283 Y124.949 E0.05808
G1 X95.03 Y124.309 E0.02157
G1 X94.917 Y123.87 E0.01423
G1 X94.892 Y123.415 E0.01428
G1 X94.93 Y123.096 E0.01008
G1 X95.029 Y122.726 E0.01203
G1 X95.145 Y122.419 E0.01028
G1 X95.629 Y121.329 E0.0374
G1 X95.819 Y120.813 E0.01725
G1 X95.981 Y120.258 E0.01813
G1 X96.097 Y119.673 E0.0187
G1 X96.135 Y119.357 E0.00996
G1 X96.155 Y118.887 E0.01476
G1 X96.127 Y118.398 E0.01536
G1 X96.003 Y117.755 E0.02054
G1 X95.898 Y117.415 E0.01116
G1 X95.718 Y116.957 E0.01542
G1 X95.437 Y116.42 E0.01903
G1 X95.271 Y116.166 E0.0095
G1 X95.016 Y115.84 E0.01298
G1 X94.827 Y115.638 E0.00868
G1 X94.542 Y115.387 E0.0119
G1 X94.333 Y115.237 E0.00807
G1 X94.028 Y115.065 E0.01099
G1 X93.803 Y114.972 E0.00762
G1 X93.477 Y114.884 E0.01058
G1 X92.939 Y114.842 E0.01695
G1 X92.541 Y114.92 E0.0127
G1 X92.021 Y115.144 E0.01775
G1 X90.683 Y115.96 E0.04915
G1 X89.936 Y116.341 E0.02629
G1 X89.428 Y116.514 E0.01683
G1 X89.113 Y116.558 E0.00996
G1 X88.927 Y116.538 E0.00586
G1 X88.693 Y116.484 E0.00754
G1 X88.148 Y116.273 E0.01832
G1 X87.456 Y115.906 E0.02456
G1 X86.32 Y115.203 E0.04188
G1 X85.802 Y114.959 E0.01795
G1 X85.584 Y114.892 E0.00715
G1 X85.291 Y114.843 E0.00931
G1 X84.923 Y114.865 E0.01158
;WIPE_START
M204 S1000
G1 X84.617 Y114.554 F10800
;WIPE_END
;WIPE_START
G1 F8640
G1 X84.131 Y114.877 E-0.13482
G1 X83.781 Y115.075 E-0.09274
G1 X83.367 Y115.398 E-0.12126
G1 X83.068 Y115.706 E-0.09903
G1 X82.796 Y116.054 E-0.10203
G1 X82.549 Y116.445 E-0.10688
G1 X82.348 Y116.844 E-0.10325
;WIPE_END
G1 E-0.04 F2100
G1 Z0.6 F10800
; acceleration to travel
M204 S1500
G1 X80.87 Y115.19
; decel to extrusion
M204 S800
G1 X80.583 Y114.869
; end travel
G1 Z0.2
G1 E0.8 F2100
;TYPE:Internal perimeter
G1 F1200
G1 X80.583 Y109.417 E0.17094
G1 X81.024 Y109.417 E0.01382
G1 X97.649 Y109.417 E0.52127
G1 X97.649 Y146.483 E1.16217
G1 X80.583 Y146.483 E0.53509
G1 X80.583 Y114.929 E0.98935
G1 X80.206 Y114.869 F10800
;TYPE:External perimeter
G1 F1200
G1 X80.206 Y109.39 E0.17178
G1 X80.241 Y109.199 E0.00611
G1 X80.293 Y109.127 E0.00278
G1 X80.357 Y109.081 E0.00246
G1 X80.551 Y109.04 E0.00623
G1 X81.024 Y109.04 E0.01483
G1 X97.685 Y109.04 E0.52238
G1 X97.773 Y109.048 E0.00279
G1 X97.899 Y109.096 E0.00423
G1 X97.994 Y109.206 E0.00458
G1 X98.026 Y109.394 E0.00595
G1 X98.026 Y146.51 E1.16375
M73 P1 R91
G1 X97.991 Y146.701 E0.00611
G1 X97.939 Y146.773 E0.00278
G1 X97.876 Y146.819 E0.00246
G1 X97.681 Y146.86 E0.00623
G1 X80.557 Y146.86 E0.53693
G1 X80.365 Y146.825 E0.00611
G1 X80.293 Y146.773 E0.00278
G1 X80.247 Y146.709 E0.00246
G1 X80.206 Y146.515 E0.00623
G1 X80.206 Y114.929 E0.99036
;WIPE_START
M204 S1000
G1 X80.553 Y114.669 F10800
;WIPE_END
;WIPE_START
G1 F8640
G1 X80.461 Y111.379 E-0.76
;WIPE_END
G1 E-0.04 F2100
G1 Z0.6 F10800
; acceleration to travel
M204 S1500
G1 X93.585 Y109.892
; decel to extrusion
M204 S1000
G1 X96.774 Y109.53
; end travel
G1 Z0.2
G1 E0.8 F2100
;TYPE:Solid infill
;WIDTH:0.421079
G1 F1200
G1 X97.374 Y110.13 E0.02668
G1 X97.374 Y110.664 E0.01676
G1 X96.403 Y109.692 E0.04318
G1 X95.869 Y109.692 E0.01676
G1 X97.374 Y111.197 E0.06688
M73 P1 R90
G1 X97.374 Y111.73 E0.01676
G1 X95.336 Y109.692 E0.09059
G1 X94.803 Y109.692 E0.01676
G1 X97.374 Y112.263 E0.1143
G1 X97.374 Y112.797 E0.01676
G1 X94.27 Y109.692 E0.13801
G1 X93.736 Y109.692 E0.01676
G1 X97.374 Y113.33 E0.16171
G1 X97.374 Y113.863 E0.01676
G1 X93.203 Y109.692 E0.18542
G1 X92.67 Y109.692 E0.01676
G1 X97.374 Y114.397 E0.20913
G1 X97.374 Y114.93 E0.01676
G1 X92.136 Y109.692 E0.23283
G1 X91.603 Y109.692 E0.01676
G1 X97.374 Y115.463 E0.25654
G1 X97.374 Y115.996 E0.01676
G1 X91.07 Y109.692 E0.28025
G1 X90.537 Y109.692 E0.01676
G1 X97.374 Y116.53 E0.30395
G1 X97.374 Y117.063 E0.01676
G1 X90.003 Y109.692 E0.32766
G1 X89.47 Y109.692 E0.01676
G1 X94.243 Y114.465 E0.21217
G1 X94.686 Y114.686 E0.01557
G1 X95.283 Y115.17 E0.02416
G1 X95.805 Y115.788 E0.02542
G1 X96.117 Y116.339 E0.0199
G1 X97.374 Y117.596 E0.05589
G1 X97.374 Y118.129 E0.01676
G1 X96.525 Y117.281 E0.03773
G1 X96.636 Y117.591 E0.01035
G1 X96.715 Y118.004 E0.01323
G1 X97.374 Y118.663 E0.02928
G1 X97.374 Y119.196 E0.01676
G1 X96.793 Y118.615 E0.02583
G1 X96.808 Y118.882 E0.00842
G1 X96.797 Y119.152 E0.00848
G1 X97.374 Y119.729 E0.02566
G1 X97.374 Y120.262 E0.01676
G1 X96.748 Y119.636 E0.02783
G1 X96.67 Y120.092 E0.01453
G1 X97.374 Y120.796 E0.03129
G1 X97.374 Y121.329 E0.01676
G1 X96.577 Y120.532 E0.03544
G1 X96.445 Y120.933 E0.01329
G1 X97.374 Y121.862 E0.0413
G1 X97.374 Y122.396 E0.01676
