; G-Code originally generated by Simplify3D(R) Version 4.1.2
; This calibration test gcode modified by the Teaching Tech Calibration website: https://teachingtechyt.github.io/calibration.html
;M80 ; power supply on
G90
M82
M106 S0
M140 S110 ; custom bed temp
M190 S110 ; custom bed temp
M104 S200 T0 ; custom hot end temp minus 50 degrees
G28 ; home all axes
;G29 ; probe ABL
;M420 S1 ; restore ABL mesh
M109 S250 T0 ; custom hot end temp 
; custom start gcode
print_start EXTRUDER=255 BED=110 CHAMBER=50
G0 Z3; fix for delta printers that home at max
M220 S100 ; custom speed A - 70 mm/sec
;layer 1, Z = 0.200
T0
G92 E0.0000
G1 E-.75 F3000 ; custom retraction
;fan1;
G1 Z0.200 F1200
G1 X131.9710 Y126.1830 F7000 ; custom feedrate
G1 E0 F3000 ; custom un-retraction/prime
G92 E0.0000
G1 X133.4630 Y124.4270 E0.0993 F2100 ; custom feedrate
G1 X133.5690 Y124.3150 E0.1060
G1 X135.2420 Y122.7300 E0.2053
G1 X135.3600 Y122.6300 E0.2120
G1 X137.1940 Y121.2360 E0.3113
G1 X137.3220 Y121.1490 E0.3179
G1 X139.2960 Y119.9610 E0.4172
G1 X139.4330 Y119.8890 E0.4239
G1 X141.5240 Y118.9210 E0.5232
G1 X141.6680 Y118.8640 E0.5299
G1 X143.8510 Y118.1280 E0.6292
G1 X144.0000 Y118.0870 E0.6359
G1 X146.2500 Y117.5920 E0.7352
G1 X146.4030 Y117.5670 E0.7419
G1 X148.6930 Y117.3180 E0.8412
G1 X148.8480 Y117.3090 E0.8479
G1 X151.1520 Y117.3090 E0.9472
G1 X151.3070 Y117.3180 E0.9538
G1 X153.5970 Y117.5670 E1.0531
G1 X153.7500 Y117.5920 E1.0598
G1 X156.0000 Y118.0870 E1.1591
G1 X156.1490 Y118.1280 E1.1658
G1 X158.3320 Y118.8640 E1.2651
G1 X158.4760 Y118.9210 E1.2718
G1 X160.5670 Y119.8890 E1.3711
G1 X160.7040 Y119.9610 E1.3778
G1 X162.6780 Y121.1490 E1.4771
G1 X162.8060 Y121.2360 E1.4838
G1 X164.6400 Y122.6300 E1.5831
G1 X164.7580 Y122.7300 E1.5897
G1 X166.4310 Y124.3150 E1.6890
G1 X166.5370 Y124.4270 E1.6957
G1 X168.0290 Y126.1830 E1.7950
G1 X168.1230 Y126.3060 E1.8017
G1 X169.4150 Y128.2130 E1.9010
G1 X169.4950 Y128.3460 E1.9077
G1 X170.5740 Y130.3810 E2.0070
G1 X170.6390 Y130.5220 E2.0137
G1 X171.4920 Y132.6620 E2.1130
G1 X171.5420 Y132.8090 E2.1197
G1 X172.1580 Y135.0290 E2.2190
G1 X172.1910 Y135.1800 E2.2256
G1 X172.5640 Y137.4530 E2.3249
G1 X172.5810 Y137.6080 E2.3316
G1 X172.7030 Y139.8690 E2.4292
G1 X172.7050 Y139.9460 E2.4326
G1 X172.7050 Y142.3030 E2.5342
G1 X171.1340 Y143.9610 E2.6326
G1 X169.4640 Y144.0500 E2.7047
G1 X168.7760 Y144.1480 E2.7346
G1 X168.1500 Y144.3060 E2.7625
G1 X167.5010 Y144.5460 E2.7923
G1 X166.9250 Y144.8310 E2.8200
G1 X166.3600 Y145.1880 E2.8488
G1 X165.8380 Y145.6020 E2.8775
G1 X165.3620 Y146.0680 E2.9063
G1 X164.9390 Y146.5830 E2.9350
G1 X164.5720 Y147.1390 E2.9637
G1 X164.2660 Y147.7310 E2.9924
G1 X164.0250 Y148.3520 E3.0212
G1 X163.8500 Y148.9950 E3.0499
G1 X163.7450 Y149.6480 E3.0784
G1 X163.7100 Y150.3600 E3.1091
G1 X163.7440 Y150.9820 E3.1360
G1 X163.8500 Y151.6420 E3.1648
G1 X164.0250 Y152.2870 E3.1936
G1 X164.2500 Y152.8680 E3.2204
G1 X164.6010 Y153.5440 E3.2533
G1 X164.9390 Y154.0540 E3.2796
G1 X165.3430 Y154.5470 E3.3071
G1 X165.8410 Y155.0380 E3.3372
G1 X166.3600 Y155.4490 E3.3658
G1 X166.9250 Y155.8060 E3.3946
G1 X167.5010 Y156.0920 E3.4223
G1 X168.1500 Y156.3310 E3.4521
G1 X168.7770 Y156.4890 E3.4800
G1 X169.4640 Y156.5880 E3.5099
G1 X171.1340 Y156.6770 E3.5820
G1 X172.7050 Y158.3340 E3.6805
G1 X172.7050 Y161.1560 E3.8021
G1 X172.2690 Y162.2090 E3.8512
G1 X164.8260 Y169.6520 E4.3050
G1 X172.2690 Y177.0950 E4.7587
G1 X172.7050 Y178.1480 E4.8078
G1 X172.7050 Y181.0130 E4.9313
G1 X171.0280 Y182.6910 E5.0336
G1 X167.0510 Y182.6910 E5.2050
G1 X166.5830 Y182.3110 E5.2310
G1 X166.1150 Y182.6910 E5.2569
G1 X159.2460 Y182.6910 E5.5530
G1 X158.4170 Y182.3470 E5.5917
G1 X157.5870 Y182.6910 E5.6304
G1 X154.9630 Y182.6910 E5.7436
G1 X154.8880 Y182.6890 E5.7468
G1 X154.2690 Y182.6560 E5.7735
G1 X154.1200 Y182.6410 E5.7799
G1 X153.4710 Y182.5380 E5.8083
G1 X153.3250 Y182.5070 E5.8147
G1 X152.6900 Y182.3370 E5.8430
G1 X152.5480 Y182.2900 E5.8495
G1 X151.9340 Y182.0550 E5.8778
G1 X151.7970 Y181.9940 E5.8843
G1 X151.2650 Y181.7230 E5.9100
G1 X151.1470 Y181.6550 E5.9159
G1 X150.5490 Y181.2750 E5.9464
G1 X150.4160 Y181.1790 E5.9535
G1 X149.9000 Y180.7620 E5.9821
G1 X149.7880 Y180.6610 E5.9886
G1 X149.3240 Y180.1970 E6.0169
G1 X149.2240 Y180.0850 E6.0234
G1 X148.8480 Y179.6210 E6.0491
G1 X148.7670 Y179.5120 E6.0550
G1 X148.3750 Y178.9210 E6.0855
G1 X148.2930 Y178.7790 E6.0926
G1 X147.9910 Y178.1880 E6.1212
G1 X147.9300 Y178.0510 E6.1277
G1 X147.6950 Y177.4380 E6.1560
G1 X147.6490 Y177.2950 E6.1624
G1 X147.4790 Y176.6610 E6.1908
G1 X147.4470 Y176.5140 E6.1972
G1 X147.3450 Y175.8650 E6.2255
G1 X147.3290 Y175.7160 E6.2320
G1 X147.2970 Y175.0980 E6.2587
G1 X147.2950 Y175.0230 E6.2619
G1 X147.2950 Y165.0600 E6.6913
G1 X147.2780 Y164.7460 E6.7049
G1 X147.2410 Y164.5090 E6.7153
G1 X147.1790 Y164.2770 E6.7256
G1 X147.0930 Y164.0540 E6.7359
G1 X146.9840 Y163.8400 E6.7463
G1 X146.8530 Y163.6390 E6.7566
G1 X146.7020 Y163.4520 E6.7669
G1 X146.5330 Y163.2830 E6.7773
G1 X146.3460 Y163.1320 E6.7876
G1 X146.1450 Y163.0010 E6.7979
G1 X145.9320 Y162.8930 E6.8083
G1 X145.7080 Y162.8070 E6.8186
G1 X145.4760 Y162.7450 E6.8290
G1 X145.2390 Y162.7070 E6.8393
G1 X144.9250 Y162.6910 E6.8529
G1 X128.9720 Y162.6910 E7.5405
G1 X127.2950 Y161.0130 E7.6428
G1 X127.2950 Y139.9470 E8.5508
G1 X127.2970 Y139.8690 E8.5542
G1 X127.4190 Y137.6080 E8.6518
G1 X127.4360 Y137.4530 E8.6585
G1 X127.8090 Y135.1800 E8.7578
G1 X127.8420 Y135.0290 E8.7645
G1 X128.4580 Y132.8090 E8.8638
G1 X128.5080 Y132.6620 E8.8705
G1 X129.3610 Y130.5220 E8.9698
G1 X129.4260 Y130.3810 E8.9764
G1 X130.5050 Y128.3460 E9.0757
G1 X130.5850 Y128.2130 E9.0824
G1 X131.8770 Y126.3060 E9.1817
G1 X131.9710 Y126.1830 E9.1884
G92 E0.0000
G1 E-.75 F3000 ; custom retraction
G91;
G1 Z.4 F1200; custom z hop
G90;
G1 X132.4210 Y126.5440 F7000 ; custom feedrate
G1 Z0.200 F1200
G1 E0 F3000 ; custom un-retraction/prime
G92 E0.0000
G1 X133.8920 Y124.8120 E0.0979 F2100 ; custom feedrate
G1 X133.9770 Y124.7220 E0.1033
G1 X135.6270 Y123.1590 E0.2012
G1 X135.7210 Y123.0790 E0.2066
G1 X137.5300 Y121.7040 E0.3045
G1 X137.6330 Y121.6340 E0.3099
G1 X139.5800 Y120.4630 E0.4078
G1 X139.6890 Y120.4050 E0.4132
G1 X141.7520 Y119.4510 E0.5111
G1 X141.8670 Y119.4050 E0.5165
G1 X144.0200 Y118.6790 E0.6144
G1 X144.1400 Y118.6460 E0.6198
G1 X146.3590 Y118.1580 E0.7177
G1 X146.4810 Y118.1380 E0.7230
G1 X148.7400 Y117.8920 E0.8210
G1 X148.8640 Y117.8850 E0.8263
G1 X151.1360 Y117.8850 E0.9243
G1 X151.2600 Y117.8920 E0.9296
G1 X153.5190 Y118.1380 E1.0276
G1 X153.6410 Y118.1580 E1.0329
G1 X155.8600 Y118.6460 E1.1309
G1 X155.9800 Y118.6790 E1.1362
G1 X158.1330 Y119.4050 E1.2342
G1 X158.2480 Y119.4510 E1.2395
G1 X160.3110 Y120.4050 E1.3375
G1 X160.4200 Y120.4630 E1.3428
G1 X162.3670 Y121.6340 E1.4408
G1 X162.4700 Y121.7040 E1.4461
G1 X164.2790 Y123.0790 E1.5440
G1 X164.3730 Y123.1590 E1.5494
G1 X166.0230 Y124.7220 E1.6473
G1 X166.1080 Y124.8120 E1.6527
G1 X167.5790 Y126.5440 E1.7506
G1 X167.6540 Y126.6430 E1.7560
G1 X168.9300 Y128.5230 E1.8539
G1 X168.9940 Y128.6300 E1.8593
G1 X170.0580 Y130.6370 E1.9572
G1 X170.1100 Y130.7500 E1.9626
G1 X170.9510 Y132.8610 E2.0605
G1 X170.9910 Y132.9780 E2.0659
G1 X171.5990 Y135.1680 E2.1638
G1 X171.6250 Y135.2890 E2.1691
G1 X171.9930 Y137.5310 E2.2671
G1 X172.0060 Y137.6540 E2.2724
G1 X172.1280 Y139.8920 E2.3691
G1 X172.1290 Y139.9540 E2.3717
G1 X172.1290 Y142.0740 E2.4631
G1 X170.8740 Y143.3980 E2.5417
G1 X169.4080 Y143.4760 E2.6050
G1 X168.6650 Y143.5820 E2.6374
G1 X167.9790 Y143.7550 E2.6678
G1 X167.2730 Y144.0160 E2.7003
G1 X166.6420 Y144.3280 E2.7306
G1 X166.0260 Y144.7170 E2.7620
G1 X165.4560 Y145.1690 E2.7934
G1 X164.9370 Y145.6790 E2.8247
G1 X164.4750 Y146.2400 E2.8561
G1 X164.0740 Y146.8480 E2.8875
G1 X163.7400 Y147.4940 E2.9188
G1 X163.4770 Y148.1720 E2.9502
G1 X163.2860 Y148.8740 E2.9815
G1 X163.1720 Y149.5880 E3.0127
G1 X163.1340 Y150.3610 E3.0461
G1 X163.1710 Y151.0440 E3.0755
G1 X163.2860 Y151.7630 E3.1070
G1 X163.4770 Y152.4670 E3.1384
G1 X163.7250 Y153.1060 E3.1679
G1 X164.1040 Y153.8370 E3.2034
G1 X164.4740 Y154.3970 E3.2324
G1 X164.9170 Y154.9360 E3.2624
G1 X165.4580 Y155.4700 E3.2952
G1 X166.0270 Y155.9200 E3.3264
G1 X166.6420 Y156.3090 E3.3578
G1 X167.2730 Y156.6210 E3.3882
G1 X167.9790 Y156.8820 E3.4206
G1 X168.6650 Y157.0550 E3.4511
G1 X169.4080 Y157.1610 E3.4835
G1 X170.8740 Y157.2400 E3.5467
G1 X172.1290 Y158.5640 E3.6254
G1 X172.1290 Y161.0410 E3.7322
G1 X171.7810 Y161.8820 E3.7714
G1 X164.0110 Y169.6520 E4.2451
G1 X171.7810 Y177.4220 E4.7187
G1 X172.1290 Y178.2630 E4.7579
G1 X172.1290 Y180.7740 E4.8662
G1 X170.7890 Y182.1150 E4.9479
G1 X167.2550 Y182.1150 E5.1002
G1 X166.5830 Y181.5700 E5.1375
G1 X165.9110 Y182.1150 E5.1748
G1 X159.3610 Y182.1150 E5.4572
G1 X158.5200 Y181.7660 E5.4964
G1 X158.4170 Y181.6630 E5.5027
G1 X158.3140 Y181.7660 E5.5090
G1 X157.4730 Y182.1150 E5.5482
G1 X154.9700 Y182.1150 E5.6561
G1 X154.9100 Y182.1130 E5.6587
G1 X154.3140 Y182.0820 E5.6844
G1 X154.1950 Y182.0690 E5.6895
G1 X153.5760 Y181.9710 E5.7166
G1 X153.4590 Y181.9460 E5.7217
G1 X152.8540 Y181.7840 E5.7487
G1 X152.7400 Y181.7470 E5.7539
G1 X152.1550 Y181.5230 E5.7809
G1 X152.0450 Y181.4740 E5.7861
G1 X151.5390 Y181.2160 E5.8106
G1 X151.4450 Y181.1620 E5.8153
G1 X150.8720 Y180.7980 E5.8445
G1 X150.7650 Y180.7210 E5.8502
G1 X150.2740 Y180.3240 E5.8774
G1 X150.1850 Y180.2430 E5.8826
G1 X149.7420 Y179.8000 E5.9096
G1 X149.6620 Y179.7110 E5.9148
G1 X149.3040 Y179.2690 E5.9393
G1 X149.2400 Y179.1820 E5.9439
G1 X148.8640 Y178.6160 E5.9732
G1 X148.7980 Y178.5030 E5.9788
G1 X148.5110 Y177.9400 E6.0061
G1 X148.4630 Y177.8300 E6.0113
G1 X148.2380 Y177.2450 E6.0383
G1 X148.2010 Y177.1310 E6.0434
G1 X148.0390 Y176.5260 E6.0704
G1 X148.0140 Y176.4090 E6.0756
G1 X147.9160 Y175.7900 E6.1026
G1 X147.9030 Y175.6710 E6.1078
G1 X147.8720 Y175.0750 E6.1335
G1 X147.8710 Y175.0150 E6.1361
G1 X147.8710 Y165.0450 E6.5658
G1 X147.8520 Y164.6860 E6.5814
G1 X147.8050 Y164.3890 E6.5943
G1 X147.7270 Y164.0990 E6.6072
G1 X147.6200 Y163.8190 E6.6202
G1 X147.4830 Y163.5510 E6.6331
G1 X147.3200 Y163.3000 E6.6461
G1 X147.1310 Y163.0670 E6.6590
G1 X146.9190 Y162.8540 E6.6719
G1 X146.6850 Y162.6650 E6.6849
G1 X146.4340 Y162.5020 E6.6978
G1 X146.1660 Y162.3660 E6.7107
G1 X145.8860 Y162.2580 E6.7237
G1 X145.5960 Y162.1800 E6.7366
G1 X145.3000 Y162.1330 E6.7496
G1 X144.9400 Y162.1150 E6.7651
G1 X129.2110 Y162.1150 E7.4431
G1 X127.8710 Y160.7740 E7.5248
G1 X127.8710 Y139.9540 E8.4222
G1 X127.8720 Y139.8920 E8.4249
G1 X127.9940 Y137.6540 E8.5215
G1 X128.0070 Y137.5310 E8.5269
G1 X128.3750 Y135.2890 E8.6248
G1 X128.4010 Y135.1680 E8.6302
G1 X129.0090 Y132.9780 E8.7281
G1 X129.0490 Y132.8610 E8.7335
G1 X129.8900 Y130.7500 E8.8314
G1 X129.9420 Y130.6370 E8.8367
G1 X131.0060 Y128.6300 E8.9347
G1 X131.0700 Y128.5230 E8.9400
G1 X132.3450 Y126.6430 E9.0380
G1 X132.4210 Y126.5440 E9.0433
G92 E0.0000
G1 E-.75 F3000 ; custom retraction
G91;
G1 Z.4 F1200; custom z hop
G90;
G1 X134.4340 Y128.1520 F7000 ; custom feedrate
G1 Z0.200 F1200
G1 E0 F3000 ; custom un-retraction/prime
G92 E0.0000
G1 X135.8050 Y126.5390 E0.0913 F2100 ; custom feedrate
G1 X137.1960 Y125.2210 E0.1739
G1 X137.3420 Y125.0830 E0.1825
G1 X139.0270 Y123.8020 E0.2738
G1 X140.8410 Y122.7100 E0.3650
G1 X142.7630 Y121.8210 E0.4563
G1 X144.7690 Y121.1450 E0.5476
G1 X146.8370 Y120.6900 E0.6388
G1 X148.9410 Y120.4610 E0.7301
G1 X151.0590 Y120.4610 E0.8213
G1 X153.1630 Y120.6900 E0.9126
G1 X155.2310 Y121.1450 E1.0039
G1 X157.2370 Y121.8210 E1.0951
G1 X159.1590 Y122.7100 E1.1864
G1 X160.9730 Y123.8020 E1.2776
G1 X162.6580 Y125.0830 E1.3689
G1 X164.1950 Y126.5390 E1.4602
G1 X165.4360 Y127.9990 E1.5428
G1 X165.5660 Y128.1520 E1.5514
G1 X166.7540 Y129.9050 E1.6427
G1 X167.7460 Y131.7750 E1.7339
G1 X168.5290 Y133.7420 E1.8252
G1 X169.0960 Y135.7820 E1.9165
G1 X169.4380 Y137.8710 E2.0077
G1 X169.5530 Y139.9930 E2.0993
G1 X169.5530 Y140.8880 E2.1379
G1 X169.1560 Y140.9100 E2.1551
G1 X168.1660 Y141.0520 E2.1982
G1 X167.2160 Y141.2910 E2.2404
G1 X166.2540 Y141.6470 E2.2846
G1 X165.3790 Y142.0790 E2.3267
G1 X164.5340 Y142.6130 E2.3698
G1 X163.7500 Y143.2350 E2.4129
G1 X163.0350 Y143.9360 E2.4561
G1 X162.3990 Y144.7080 E2.4992
G1 X161.8480 Y145.5440 E2.5423
G1 X161.3890 Y146.4330 E2.5855
G1 X161.0260 Y147.3650 E2.6286
G1 X160.7640 Y148.3310 E2.6717
G1 X160.6060 Y149.3200 E2.7149
G1 X160.5540 Y150.3680 E2.7601
G1 X160.6060 Y151.3180 E2.8011
G1 X160.7640 Y152.3060 E2.8443
G1 X161.0260 Y153.2720 E2.8874
G1 X161.3730 Y154.1670 E2.9288
G1 X161.8800 Y155.1440 E2.9762
G1 X162.3990 Y155.9290 E3.0168
G1 X163.0130 Y156.6760 E3.0584
G1 X163.7490 Y157.4020 E3.1030
G1 X164.5340 Y158.0240 E3.1462
G1 X165.3790 Y158.5590 E3.1893
G1 X166.2540 Y158.9910 E3.2314
G1 X167.2160 Y159.3460 E3.2756
G1 X168.1660 Y159.5860 E3.3178
G1 X169.1560 Y159.7280 E3.3609
G1 X169.5530 Y159.7490 E3.3781
G1 X169.5530 Y160.4670 E3.4090
G1 X160.3680 Y169.6520 E3.9689
G1 X169.5530 Y178.8370 E4.5289
G1 X169.5530 Y179.5390 E4.5591
G1 X168.2990 Y179.5390 E4.6131
G1 X168.2780 Y179.4350 E4.6177
G1 X168.1610 Y179.1580 E4.6307
G1 X168.0010 Y178.9070 E4.6435
G1 X167.8010 Y178.6860 E4.6563
G1 X167.5680 Y178.5010 E4.6692
G1 X167.3070 Y178.3580 E4.6820
G1 X167.0250 Y178.2600 E4.6948
G1 X166.7280 Y178.2100 E4.7079
G1 X166.4330 Y178.2110 E4.7206
G1 X166.1230 Y178.2660 E4.7341
G1 X165.8600 Y178.3580 E4.7462
G1 X165.5990 Y178.5010 E4.7590
G1 X165.3710 Y178.6810 E4.7715
G1 X165.1660 Y178.9060 E4.7846
G1 X165.0060 Y179.1580 E4.7975
G1 X164.8890 Y179.4350 E4.8105
G1 X164.8670 Y179.5390 E4.8150
G1 X163.6130 Y179.5390 E4.8691
G1 X163.6130 Y178.2050 E4.9265
G1 X161.3870 Y178.2050 E5.0225
G1 X161.3870 Y179.5390 E5.0800
G1 X159.9350 Y179.5390 E5.1426
G1 X158.4170 Y178.0200 E5.2351
G1 X156.8980 Y179.5390 E5.3277
G1 X155.0080 Y179.5390 E5.4092
G1 X154.5240 Y179.5130 E5.4300
G1 X154.0530 Y179.4390 E5.4506
G1 X153.5930 Y179.3150 E5.4711
G1 X153.1480 Y179.1450 E5.4917
G1 X152.7690 Y178.9510 E5.5100
G1 X152.3230 Y178.6680 E5.5328
G1 X151.9540 Y178.3690 E5.5533
G1 X151.6170 Y178.0320 E5.5738
G1 X151.3490 Y177.7010 E5.5922
G1 X151.0560 Y177.2610 E5.6150
G1 X150.8410 Y176.8370 E5.6354
G1 X150.6700 Y176.3920 E5.6560
G1 X150.5470 Y175.9320 E5.6765
G1 X150.4720 Y175.4610 E5.6971
G1 X150.4470 Y174.9780 E5.7179
G1 X150.4470 Y164.9780 E6.1490
G1 X150.4170 Y164.4160 E6.1732
G1 X150.3280 Y163.8530 E6.1978
G1 X150.1800 Y163.3020 E6.2224
G1 X149.9760 Y162.7700 E6.2470
G1 X149.7170 Y162.2620 E6.2715
G1 X149.4070 Y161.7840 E6.2961
G1 X149.0480 Y161.3410 E6.3207
G1 X148.6450 Y160.9370 E6.3453
G1 X148.2020 Y160.5790 E6.3699
G1 X147.7240 Y160.2680 E6.3944
G1 X147.2160 Y160.0090 E6.4190
G1 X146.6830 Y159.8050 E6.4436
G1 X146.1330 Y159.6570 E6.4682
G1 X145.5690 Y159.5680 E6.4927
G1 X145.0080 Y159.5390 E6.5170
G1 X130.4470 Y159.5390 E7.1446
G1 X130.4470 Y139.9930 E7.9871
G1 X130.5620 Y137.8710 E8.0787
G1 X130.9040 Y135.7820 E8.1700
G1 X131.4710 Y133.7420 E8.2613
G1 X132.2540 Y131.7750 E8.3525
G1 X133.2460 Y129.9050 E8.4438
G1 X134.4340 Y128.1520 E8.5350
G1 X160.6930 Y124.0370 F7000 ; custom feedrate
G92 E0.0000
G1 X165.8630 Y129.2070 E0.3152 F1680 ; custom feedrate
G1 X166.4570 Y130.0830 E0.3608
G1 X167.0580 Y131.2160 E0.4161
G1 X158.7380 Y122.8960 E0.9233
G1 X157.2220 Y122.1950 E0.9953
G1 X167.7520 Y132.7250 E1.6372
G1 X168.2010 Y133.8530 E1.6895
G1 X168.2540 Y134.0410 E1.6979
G1 X155.9720 Y121.7600 E2.4466
G1 X155.1380 Y121.4790 E2.4845
G1 X154.8030 Y121.4050 E2.4994
G1 X168.5670 Y135.1690 E3.3384
G1 X168.7580 Y135.8560 E3.3692
G1 X168.8200 Y136.2370 E3.3858
G1 X153.7580 Y121.1750 E4.3039
G1 X153.1070 Y121.0320 E4.3327
G1 X152.7630 Y120.9940 E4.3476
G1 X168.9800 Y137.2110 E5.3362
G1 X169.0940 Y137.9090 E5.3666
G1 X169.1070 Y138.1530 E5.3772
G1 X151.8490 Y120.8950 E6.4293
G1 X151.0400 Y120.8070 E6.4643
G1 X150.9460 Y120.8070 E6.4684
G1 X169.1540 Y139.0140 E7.5783
G1 X169.2010 Y139.8760 E7.6155
G1 X150.1320 Y120.8070 E8.7779
G1 X149.3170 Y120.8070 E8.8130
G1 X169.0820 Y140.5710 E10.0179
G1 X168.3690 Y140.6730 E10.0489
G1 X148.5480 Y120.8520 E11.2572
G1 X147.8130 Y120.9310 E11.2891
G1 X167.6950 Y140.8140 E12.5011
G1 X167.1140 Y140.9600 E12.5270
G1 X167.0510 Y140.9840 E12.5299
G1 X147.0780 Y121.0110 E13.7474
G1 X146.8930 Y121.0320 E13.7554
G1 X146.3940 Y121.1410 E13.7774
G1 X166.4560 Y141.2030 E15.0004
G1 X166.1170 Y141.3290 E15.0160
G1 X165.8820 Y141.4450 E15.0273
G1 X145.7260 Y121.2880 E16.2560
G1 X145.0580 Y121.4350 E16.2855
G1 X165.3370 Y141.7140 E17.5217
G1 X165.2100 Y141.7770 E17.5278
G1 X164.8270 Y142.0190 E17.5473
G1 X144.4320 Y121.6230 E18.7906
G1 X143.8230 Y121.8290 E18.8183
G1 X164.3290 Y142.3350 E20.0684
G1 X163.8740 Y142.6950 E20.0934
G1 X143.2130 Y122.0340 E21.3528
G1 X142.8910 Y122.1430 E21.3675
G1 X142.6290 Y122.2640 E21.3800
G1 X163.4290 Y143.0650 E22.6480
G1 X163.0180 Y143.4680 E22.6728
G1 X142.0720 Y122.5220 E23.9497
G1 X141.5150 Y122.7790 E23.9762
G1 X162.6250 Y143.8900 E25.2631
G1 X162.2580 Y144.3370 E25.2880
G1 X140.9620 Y123.0410 E26.5862
G1 X140.4530 Y123.3470 E26.6118
G1 X161.9170 Y144.8110 E27.9202
G1 X161.5940 Y145.3020 E27.9456
G1 X139.9450 Y123.6530 E29.2653
G1 X139.4360 Y123.9590 E29.2909
G1 X161.3100 Y145.8330 E30.6243
G1 X161.0740 Y146.2910 E30.6465
G1 X161.0400 Y146.3770 E30.6505
G1 X138.9540 Y124.2910 E31.9969
G1 X138.4910 Y124.6430 E32.0220
G1 X160.8120 Y146.9640 E33.3826
G1 X160.6980 Y147.2570 E33.3962
G1 X160.6110 Y147.5770 E33.4105
G1 X138.0280 Y124.9950 E34.7871
G1 X137.5660 Y125.3470 E34.8122
G1 X160.4370 Y148.2180 E36.2064
G1 X160.4260 Y148.2580 E36.2082
G1 X160.3210 Y148.9160 E36.2369
G1 X137.1470 Y125.7430 E37.6496
G1 X136.7290 Y126.1390 E37.6744
G1 X160.2430 Y149.6540 E39.1078
G1 X160.2080 Y150.3690 E39.1387
G1 X160.2120 Y150.4370 E39.1416
G1 X136.3110 Y126.5360 E40.5986
G1 X136.0560 Y126.7770 E40.6138
G1 X135.9100 Y126.9490 E40.6235
G1 X160.2590 Y151.2980 E42.1078
G1 X160.2620 Y151.3550 E42.1103
G1 X160.4070 Y152.2610 E42.1498
G1 X135.5350 Y127.3900 E43.6660
G1 X135.1610 Y127.8300 E43.6909
G1 X160.6920 Y153.3610 E45.2473
G1 X160.6970 Y153.3800 E45.2481
G1 X161.0580 Y154.3100 E45.2911
G1 X161.3080 Y154.7910 E45.3145
G1 X134.7870 Y128.2710 E46.9311
G1 X134.7100 Y128.3620 E46.9363
G1 X134.4490 Y128.7470 E46.9563
G1 X167.6170 Y161.9150 E48.9783
G1 X167.2100 Y162.3220 E49.0031
G1 X134.1200 Y129.2320 E51.0203
G1 X133.7900 Y129.7180 E51.0455
G1 X166.8020 Y162.7290 E53.0579
G1 X166.3950 Y163.1370 E53.0828
G1 X133.4730 Y130.2150 E55.0897
G1 X133.1910 Y130.7470 E55.1157
G1 X165.9880 Y163.5440 E57.1150
G1 X165.5800 Y163.9510 E57.1398
G1 X132.9080 Y131.2790 E59.1315
G1 X132.6260 Y131.8120 E59.1574
G1 X165.1730 Y164.3580 E61.1415
G1 X164.7660 Y164.7660 E61.1663
G1 X132.3840 Y132.3840 E63.1403
G1 X132.1520 Y132.9660 E63.1673
G1 X164.3580 Y165.1730 E65.1307
G1 X163.9510 Y165.5800 E65.1555
G1 X131.9200 Y133.5490 E67.1081
G1 X131.7990 Y133.8530 E67.1222
G1 X131.7140 Y134.1580 E67.1359
G1 X163.5440 Y165.9880 E69.0762
G1 X163.1370 Y166.3950 E69.1010
G1 X131.5370 Y134.7950 E71.0274
G1 X131.3600 Y135.4330 E71.0559
G1 X162.7290 Y166.8020 E72.9682
G1 X162.3220 Y167.2100 E72.9930
G1 X131.2040 Y136.0910 E74.8899
G1 X131.0890 Y136.7910 E74.9205
G1 X161.9150 Y167.6170 E76.7996
G1 X161.5070 Y168.0240 E76.8245
G1 X130.9740 Y137.4910 E78.6858
G1 X130.9060 Y137.9090 E78.7040
G1 X130.8890 Y138.2200 E78.7175
G1 X161.1000 Y168.4310 E80.5591
G1 X160.6930 Y168.8390 E80.5840
G1 X130.8470 Y138.9930 E82.4034
G1 X130.8050 Y139.7660 E82.4367
G1 X160.2860 Y169.2460 E84.2338
G1 X159.8800 Y169.6520 E84.2586
G1 X169.2080 Y178.9830 E84.8273
G1 X130.7920 Y140.5670 E87.1691
G1 X130.7920 Y141.3820 E87.2042
G1 X167.4560 Y178.0450 E89.4392
G1 X167.4480 Y178.0410 E89.4396
G1 X167.1110 Y177.9240 E89.4550
G1 X166.7560 Y177.8650 E89.4705
G1 X166.4610 Y177.8650 E89.4833
G1 X130.7920 Y142.1960 E91.6576
G1 X130.7920 Y143.0110 E91.6927
G1 X147.5970 Y159.8160 E92.7171
G1 X147.3560 Y159.6930 E92.7287
G1 X146.7900 Y159.4760 E92.7549
G1 X146.3150 Y159.3480 E92.7761
G1 X130.7920 Y143.8260 E93.7223
G1 X130.7920 Y144.6400 E93.7575
G1 X145.3630 Y159.2110 E94.6457
G1 X145.0170 Y159.1930 E94.6607
G1 X144.5300 Y159.1930 E94.6816
G1 X130.7920 Y145.4550 E95.5191
G1 X130.7920 Y146.2690 E95.5542
G1 X143.7160 Y159.1930 E96.3420
G1 X142.9010 Y159.1930 E96.3771
G1 X130.7920 Y147.0840 E97.1153
G1 X130.7920 Y147.8990 E97.1504
G1 X142.0870 Y159.1930 E97.8389
G1 X141.2720 Y159.1930 E97.8740
G1 X130.7920 Y148.7130 E98.5129
G1 X130.7920 Y149.5280 E98.5480
G1 X140.4580 Y159.1930 E99.1372
G1 X139.6430 Y159.1930 E99.1723
G1 X130.7920 Y150.3420 E99.7118
G1 X130.7920 Y151.1570 E99.7469
G1 X138.8280 Y159.1930 E100.2368
G1 X138.0140 Y159.1930 E100.2719
G1 X130.7920 Y151.9720 E100.7122
G1 X130.7920 Y152.7860 E100.7473
G1 X137.1990 Y159.1930 E101.1378
G1 X136.3850 Y159.1930 E101.1729
G1 X130.7920 Y153.6010 E101.5139
G1 X130.7920 Y154.4150 E101.5490
G1 X135.5700 Y159.1930 E101.8402
G1 X134.7550 Y159.1930 E101.8753
G1 X130.7920 Y155.2300 E102.1169
G1 X130.7920 Y156.0440 E102.1520
G1 X133.9410 Y159.1930 E102.3440
G1 X133.1260 Y159.1930 E102.3791
G1 X130.7920 Y156.8590 E102.5214
G1 X130.7920 Y157.6740 E102.5565
G1 X132.3120 Y159.1930 E102.6491
G1 X131.4970 Y159.1930 E102.6842
G1 X130.7920 Y158.4880 E102.7272
G1 X136.0110 Y159.5390 F7000 ; custom feedrate
G1 X145.0080 Y159.5390
G1 X145.5690 Y159.5680
G1 X146.1330 Y159.6570
G1 X146.6830 Y159.8050
G1 X147.2160 Y160.0090
G1 X147.7240 Y160.2680
G1 X148.2020 Y160.5790
G1 X148.6450 Y160.9370
G1 X149.0480 Y161.3410
G1 X149.4070 Y161.7840
G1 X149.7170 Y162.2620
G1 X149.7380 Y162.3020
G1 X150.1700 Y162.3890
G92 E0.0000
G1 X165.7950 Y178.0140 E0.9525 F1680 ; custom feedrate
G1 X165.7190 Y178.0410 E0.9561
G1 X165.4080 Y178.2120 E0.9713
G1 X165.2790 Y178.3130 E0.9784
G1 X150.6370 Y163.6700 E1.8710
G1 X150.6670 Y163.7810 E1.8759
G1 X150.7610 Y164.3800 E1.9021
G1 X150.7740 Y164.6220 E1.9125
G1 X164.8740 Y178.7220 E2.7720
G1 X164.6990 Y178.9970 E2.7861
G1 X164.6160 Y179.1930 E2.7953
G1 X164.5300 Y179.1930 E2.7990
G1 X163.9590 Y178.6220 E2.8338
G1 X163.9590 Y177.8600 E2.8666
G1 X163.1970 Y177.8600 E2.8995
G1 X150.7920 Y165.4550 E3.6557
G1 X150.7920 Y166.2690 E3.6908
G1 X162.3830 Y177.8600 E4.3973
G1 X161.5680 Y177.8600 E4.4324
G1 X150.7920 Y167.0840 E5.0893
G1 X150.7920 Y167.8990 E5.1244
G1 X161.0410 Y178.1470 E5.7492
G1 X161.0410 Y178.9620 E5.7843
G1 X150.7920 Y168.7130 E6.4091
G1 X150.7920 Y169.5280 E6.4442
G1 X160.4580 Y179.1930 E7.0334
G1 X160.0780 Y179.1930 E7.0497
G1 X158.4170 Y177.5320 E7.1510
G1 X158.1990 Y177.7490 E7.1643
G1 X150.7920 Y170.3420 E7.6158
G1 X150.7920 Y171.1570 E7.6509
G1 X157.7920 Y178.1560 E8.0776
G1 X157.3840 Y178.5640 E8.1024
G1 X150.7920 Y171.9720 E8.5043
G1 X150.7920 Y172.7860 E8.5394
G1 X156.9770 Y178.9710 E8.9164
G1 X156.7550 Y179.1930 E8.9300
G1 X156.3850 Y179.1930 E8.9459
G1 X150.7920 Y173.6010 E9.2868
G1 X150.7920 Y174.4150 E9.3220
G1 X155.5700 Y179.1930 E9.6132
G1 X155.0170 Y179.1930 E9.6371
G1 X154.7410 Y179.1790 E9.6490
G1 X150.8070 Y175.2440 E9.8888
G1 X150.8160 Y175.4250 E9.8966
G1 X150.8850 Y175.8600 E9.9156
G1 X150.9870 Y176.2390 E9.9325
G1 X153.7470 Y178.9990 E10.1007
G1 X157.4130 Y179.0240 F7000 ; custom feedrate
G1 X158.4170 Y178.0200
G1 X159.4350 Y179.0380
G1 X161.3870 Y179.0520
G1 X161.3870 Y178.2050
G1 X163.6130 Y178.2050
G1 X163.6130 Y179.0670
G1 X165.0570 Y179.0770
G1 X165.1660 Y178.9060
G1 X165.3710 Y178.6810
G1 X165.5990 Y178.5010
G1 X165.8600 Y178.3580
G1 X166.1230 Y178.2660
G1 X166.4330 Y178.2110
G1 X166.7280 Y178.2100
G1 X167.0250 Y178.2600
G1 X167.3070 Y178.3580
G1 X167.5680 Y178.5010
G1 X167.8010 Y178.6860
G1 X168.0010 Y178.9070
G1 X168.1230 Y179.0990
G1 X168.5120 Y179.1010
G92 E0.0000
G1 X168.6030 Y179.1930 E0.0056 F1680 ; custom feedrate
G1 X168.6310 Y177.9150 F7000 ; custom feedrate
G1 X160.3680 Y169.6520
G1 X168.9970 Y161.0240
G1 X169.0170 Y160.0570
G92 E0.0000
G1 X169.2080 Y160.2470 E0.0116 F1680 ; custom feedrate
G1 X169.2080 Y160.3240 E0.0149
G1 X168.8390 Y160.6930 E0.0374
G1 X168.0620 Y159.9160 E0.0848
G1 X167.1140 Y159.6770 E0.1269
G1 X166.9460 Y159.6150 E0.1346
G1 X168.4310 Y161.1000 E0.2251
G1 X168.0240 Y161.5070 E0.2499
G1 X165.5410 Y159.0240 E0.4013
;layer 2, Z = 0.400
M106 S153; custom fan 60% from layer 2
G1 X165.4200 Y158.4860 F7000 ; custom feedrate
G92 E0.0000
G1 X166.2390 Y158.8930 Z0.201 E0.0165 F4200 ; custom feedrate
G1 X167.2400 Y159.2660 Z0.202 E0.0359
G1 X168.1400 Y159.4950 Z0.203 E0.0528
G1 X169.1250 Y159.6410 Z0.204 E0.0710
G1 X169.6370 Y159.6680 Z0.204 E0.0804
G1 X169.6370 Y160.5010 Z0.205 E0.0958
G1 X160.4860 Y169.6520 Z0.218 E0.3495
G1 X169.6370 Y178.8030 Z0.231 E0.6184
G1 X169.6370 Y179.6220 Z0.232 E0.6354
G1 X168.2300 Y179.6220 Z0.234 E0.6649
G1 X168.1990 Y179.4630 Z0.234 E0.6683
G1 X168.0960 Y179.2160 Z0.234 E0.6740
G1 X167.9350 Y178.9590 Z0.234 E0.6804
G1 X167.7630 Y178.7650 Z0.235 E0.6858
G1 X167.5260 Y178.5740 Z0.235 E0.6922
G1 X167.2730 Y178.4340 Z0.235 E0.6983
G1 X167.0050 Y178.3410 Z0.235 E0.7043
G1 X166.7250 Y178.2940 Z0.236 E0.7104
G1 X166.4380 Y178.2940 Z0.236 E0.7164
G1 X166.1090 Y178.3580 Z0.236 E0.7235
G1 X165.8930 Y178.4340 Z0.237 E0.7284
G1 X165.6460 Y178.5700 Z0.237 E0.7344
G1 X165.4380 Y178.7330 Z0.237 E0.7400
G1 X165.2320 Y178.9570 Z0.237 E0.7465
G1 X165.0700 Y179.2160 Z0.238 E0.7531
G1 X164.9680 Y179.4630 Z0.238 E0.7588
G1 X164.9360 Y179.6220 Z0.238 E0.7622
G1 X163.5300 Y179.6220 Z0.240 E0.7925
G1 X163.5300 Y178.2890 Z0.241 E0.8213
G1 X161.4700 Y178.2890 Z0.243 E0.8663
G1 X161.4700 Y179.6220 Z0.244 E0.8956
G1 X159.9010 Y179.6220 Z0.246 E0.9302
G1 X158.4170 Y178.1380 Z0.248 E0.9770
G1 X156.9330 Y179.6220 Z0.250 E1.0241
G1 X155.0060 Y179.6220 Z0.252 E1.0678
G1 X154.5150 Y179.5960 Z0.253 E1.0789
G1 X154.0360 Y179.5200 Z0.253 E1.0899
G1 X153.5670 Y179.3950 Z0.254 E1.1010
G1 X153.1140 Y179.2210 Z0.254 E1.1121
G1 X152.8110 Y179.0660 Z0.254 E1.1199
G1 X152.6820 Y179.0000 Z0.255 E1.1232
G1 X152.2750 Y178.7360 Z0.255 E1.1343
G1 X151.8980 Y178.4310 Z0.256 E1.1454
G1 X151.5550 Y178.0880 Z0.256 E1.1566
G1 X151.3400 Y177.8230 Z0.256 E1.1644
G1 X151.2490 Y177.7100 Z0.257 E1.1677
G1 X150.9850 Y177.3030 Z0.257 E1.1789
G1 X150.7650 Y176.8710 Z0.258 E1.1902
G1 X150.5910 Y176.4180 Z0.258 E1.2014
G1 X150.4650 Y175.9490 Z0.258 E1.2127
G1 X150.3890 Y175.4700 Z0.259 E1.2240
G1 X150.3630 Y174.9790 Z0.259 E1.2354
G1 X150.3630 Y164.9790 Z0.270 E1.4775
G1 X150.3340 Y164.4250 Z0.270 E1.4909
G1 X150.2470 Y163.8700 Z0.271 E1.5046
G1 X150.1010 Y163.3280 Z0.271 E1.5182
G1 X149.9000 Y162.8040 Z0.272 E1.5319
G1 X149.6450 Y162.3030 Z0.272 E1.5457
G1 X149.3390 Y161.8330 Z0.273 E1.5594
G1 X148.9860 Y161.3960 Z0.273 E1.5732
G1 X148.5890 Y160.9990 Z0.274 E1.5870
G1 X148.1530 Y160.6460 Z0.275 E1.6009
G1 X147.6820 Y160.3400 Z0.275 E1.6148
G1 X147.1820 Y160.0850 Z0.276 E1.6287
G1 X146.6570 Y159.8840 Z0.276 E1.6426
G1 X146.1150 Y159.7390 Z0.277 E1.6566
G1 X145.5610 Y159.6510 Z0.277 E1.6705
G1 X145.0060 Y159.6220 Z0.278 E1.6844
G1 X130.3630 Y159.6220 Z0.293 E2.0694
G1 X130.3630 Y139.9920 Z0.313 E2.6202
G1 X130.4790 Y137.8620 Z0.315 E2.6805
G1 X130.8230 Y135.7640 Z0.317 E2.7410
G1 X131.3920 Y133.7150 Z0.319 E2.8019
G1 X132.1790 Y131.7400 Z0.321 E2.8632
G1 X133.1750 Y129.8620 Z0.323 E2.9249
G1 X134.3680 Y128.1020 Z0.325 E2.9870
G1 X135.7440 Y126.4820 Z0.327 E3.0496
G1 X136.8260 Y125.4570 Z0.329 E3.0936
G1 X137.2880 Y125.0190 Z0.330 E3.1124
G1 X138.9800 Y123.7330 Z0.332 E3.1758
G1 X140.8020 Y122.6360 Z0.334 E3.2395
G1 X142.7320 Y121.7440 Z0.336 E3.3037
G1 X144.7470 Y121.0650 Z0.338 E3.3683
G1 X146.8230 Y120.6080 Z0.340 E3.4332
G1 X148.9370 Y120.3780 Z0.342 E3.4986
G1 X151.0630 Y120.3780 Z0.345 E3.5644
G1 X153.1770 Y120.6080 Z0.347 E3.6306
G1 X155.2530 Y121.0650 Z0.349 E3.6973
G1 X157.2680 Y121.7440 Z0.351 E3.7643
G1 X159.1980 Y122.6360 Z0.353 E3.8317
G1 X161.0200 Y123.7330 Z0.355 E3.8996
G1 X162.7120 Y125.0190 Z0.357 E3.9678
G1 X164.2560 Y126.4820 Z0.360 E4.0365
G1 X165.6320 Y128.1020 Z0.362 E4.1055
G1 X166.8250 Y129.8620 Z0.364 E4.1750
G1 X167.8210 Y131.7400 Z0.366 E4.2449
G1 X168.6080 Y133.7150 Z0.368 E4.3152
G1 X169.1770 Y135.7640 Z0.370 E4.3859
G1 X169.5210 Y137.8620 Z0.372 E4.4570
G1 X169.6370 Y139.9920 Z0.375 E4.5288
G1 X169.6370 Y140.9690 Z0.376 E4.5617
G1 X169.1250 Y140.9960 Z0.376 E4.5790
G1 X168.1400 Y141.1420 Z0.377 E4.6128
G1 X167.2400 Y141.3710 Z0.378 E4.6443
G1 X166.2390 Y141.7440 Z0.379 E4.6806
G1 X165.4200 Y142.1510 Z0.380 E4.7119
G1 X164.5820 Y142.6810 Z0.381 E4.7458
G1 X163.8050 Y143.2970 Z0.382 E4.7798
G1 X163.0970 Y143.9920 Z0.383 E4.8139
G1 X162.4660 Y144.7580 Z0.384 E4.8481
G1 X161.9200 Y145.5860 Z0.385 E4.8824
G1 X161.4650 Y146.4670 Z0.386 E4.9168
G1 X161.1050 Y147.3920 Z0.387 E4.9513
G1 X160.8460 Y148.3490 Z0.388 E4.9858
G1 X160.6890 Y149.3280 Z0.389 E5.0205
G1 X160.6360 Y150.3180 Z0.390 E5.0552
G1 X160.6770 Y151.1630 Z0.391 E5.0849
G1 X160.7100 Y151.4670 Z0.391 E5.0956
G1 X160.8200 Y152.1520 Z0.392 E5.1201
G1 X160.8860 Y152.4500 Z0.392 E5.1308
G1 X161.1060 Y153.2460 Z0.393 E5.1600
G1 X161.4650 Y154.1700 Z0.394 E5.1950
G1 X161.8620 Y154.9470 Z0.395 E5.2260
G1 X162.0200 Y155.2090 Z0.395 E5.2368
G1 X162.4670 Y155.8800 Z0.396 E5.2655
G1 X163.0970 Y156.6450 Z0.397 E5.3008
G1 X163.8050 Y157.3400 Z0.398 E5.3363
G1 X164.5820 Y157.9560 Z0.399 E5.3718
G1 X165.4200 Y158.4860 Z0.400 E5.4074
;layer 3, Z = 0.600
G92 E0.0000
G1 X166.1930 Y158.8640 Z0.401 E0.0309 F4200 ; custom feedrate
G1 X167.1310 Y159.2140 Z0.402 E0.0669
G1 X168.1000 Y159.4650 Z0.403 E0.1028
G1 X169.0880 Y159.6100 Z0.404 E0.1387
G1 X169.6680 Y159.6370 Z0.404 E0.1596
G1 X169.6720 Y160.1960 Z0.405 E0.1796
G1 X169.6720 Y160.5160 Z0.405 E0.1911
G1 X160.5360 Y169.6520 Z0.418 E0.6552
G1 X169.6720 Y178.7880 Z0.431 E1.1193
G1 X169.6720 Y179.6570 Z0.432 E1.1505
G1 X168.2080 Y179.6570 Z0.434 E1.2031
G1 X168.1640 Y179.4700 Z0.434 E1.2100
G1 X168.0710 Y179.2450 Z0.434 E1.2188
G1 X167.9080 Y178.9810 Z0.434 E1.2299
G1 X167.7510 Y178.8030 Z0.435 E1.2385
G1 X167.5100 Y178.6050 Z0.435 E1.2497
G1 X167.2590 Y178.4660 Z0.435 E1.2600
G1 X166.9960 Y178.3750 Z0.436 E1.2699
G1 X166.7220 Y178.3290 Z0.436 E1.2799
G1 X166.4440 Y178.3290 Z0.436 E1.2899
G1 X166.1540 Y178.3790 Z0.436 E1.3005
G1 X165.8630 Y178.4880 Z0.437 E1.3117
G1 X165.6640 Y178.6000 Z0.437 E1.3199
G1 X165.4730 Y178.7490 Z0.437 E1.3286
G1 X165.2600 Y178.9790 Z0.438 E1.3398
G1 X165.0930 Y179.2480 Z0.438 E1.3512
G1 X164.9820 Y179.5450 Z0.438 E1.3626
G1 X164.9630 Y179.6570 Z0.438 E1.3667
G1 X163.4950 Y179.6570 Z0.440 E1.4194
G1 X163.4950 Y178.3240 Z0.441 E1.4673
G1 X161.5050 Y178.3240 Z0.443 E1.5388
G1 X161.5050 Y179.6570 Z0.444 E1.5867
G1 X159.8860 Y179.6570 Z0.446 E1.6448
G1 X158.4170 Y178.1880 Z0.448 E1.7195
G1 X156.9470 Y179.6570 Z0.450 E1.7941
G1 X155.0060 Y179.6570 Z0.452 E1.8638
G1 X154.5120 Y179.6310 Z0.453 E1.8816
G1 X154.0290 Y179.5550 Z0.453 E1.8992
G1 X153.5560 Y179.4280 Z0.454 E1.9168
G1 X153.1000 Y179.2530 Z0.454 E1.9343
G1 X152.8860 Y179.1440 Z0.454 E1.9429
G1 X152.6640 Y179.0310 Z0.455 E1.9519
G1 X152.2540 Y178.7650 Z0.455 E1.9695
G1 X151.8740 Y178.4570 Z0.456 E1.9870
G1 X151.5280 Y178.1110 Z0.456 E2.0046
G1 X151.2210 Y177.7310 Z0.457 E2.0221
G1 X150.9540 Y177.3210 Z0.457 E2.0397
G1 X150.7320 Y176.8850 Z0.458 E2.0573
G1 X150.5570 Y176.4290 Z0.458 E2.0748
G1 X150.4310 Y175.9570 Z0.459 E2.0924
G1 X150.3540 Y175.4740 Z0.459 E2.1100
G1 X150.3280 Y174.9790 Z0.460 E2.1278
G1 X150.3280 Y164.9790 Z0.470 E2.4870
G1 X150.2990 Y164.4280 Z0.470 E2.5068
G1 X150.2120 Y163.8770 Z0.471 E2.5268
G1 X150.0680 Y163.3390 Z0.471 E2.5468
G1 X149.8680 Y162.8180 Z0.472 E2.5669
G1 X149.6150 Y162.3210 Z0.472 E2.5869
G1 X149.4650 Y162.0910 Z0.473 E2.5968
G1 X149.3110 Y161.8530 Z0.473 E2.6069
G1 X148.9600 Y161.4200 Z0.474 E2.6270
G1 X148.5650 Y161.0250 Z0.474 E2.6470
G1 X148.1320 Y160.6740 Z0.475 E2.6671
G1 X147.6640 Y160.3710 Z0.475 E2.6871
G1 X147.1670 Y160.1180 Z0.476 E2.7071
G1 X146.6470 Y159.9180 Z0.476 E2.7272
G1 X146.1080 Y159.7730 Z0.477 E2.7472
G1 X145.5570 Y159.6860 Z0.477 E2.7672
G1 X145.0060 Y159.6570 Z0.478 E2.7870
G1 X130.3280 Y159.6570 Z0.493 E3.3143
G1 X130.3280 Y139.9920 Z0.513 E4.0207
G1 X130.4440 Y137.8580 Z0.515 E4.0974
G1 X130.7880 Y135.7570 Z0.517 E4.1739
G1 X131.3580 Y133.7040 Z0.519 E4.2505
G1 X132.1470 Y131.7260 Z0.521 E4.3270
G1 X133.1440 Y129.8440 Z0.523 E4.4035
G1 X134.3400 Y128.0810 Z0.525 E4.4800
G1 X135.7190 Y126.4570 Z0.528 E4.5565
G1 X136.4880 Y125.7280 Z0.529 E4.5946
G1 X137.2650 Y124.9920 Z0.530 E4.6330
G1 X138.9610 Y123.7030 Z0.532 E4.7095
G1 X140.7860 Y122.6050 Z0.534 E4.7860
G1 X142.7190 Y121.7110 Z0.536 E4.8625
G1 X144.7370 Y121.0310 Z0.538 E4.9391
G1 X146.8180 Y120.5730 Z0.540 E5.0156
G1 X148.9350 Y120.3430 Z0.543 E5.0921
G1 X151.0650 Y120.3430 Z0.545 E5.1686
G1 X153.1820 Y120.5730 Z0.547 E5.2451
G1 X155.2630 Y121.0310 Z0.549 E5.3216
G1 X157.2810 Y121.7110 Z0.551 E5.3981
G1 X159.2140 Y122.6050 Z0.553 E5.4746
G1 X161.0390 Y123.7030 Z0.555 E5.5511
G1 X162.7350 Y124.9920 Z0.558 E5.6277
G1 X164.2810 Y126.4570 Z0.560 E5.7042
G1 X165.6600 Y128.0810 Z0.562 E5.7807
G1 X166.8560 Y129.8440 Z0.564 E5.8572
G1 X167.8530 Y131.7260 Z0.566 E5.9337
G1 X168.6420 Y133.7040 Z0.568 E6.0102
G1 X169.2120 Y135.7570 Z0.570 E6.0867
G1 X169.5560 Y137.8580 Z0.573 E6.1632
G1 X169.6720 Y139.9920 Z0.575 E6.2400
G1 X169.6720 Y141.0040 Z0.576 E6.2763
G1 X169.0900 Y141.0350 Z0.576 E6.2973
G1 X168.1030 Y141.1860 Z0.577 E6.3331
G1 X167.1370 Y141.4410 Z0.578 E6.3690
G1 X166.2060 Y141.7980 Z0.579 E6.4048
G1 X165.4370 Y142.1820 Z0.580 E6.4357
G1 X164.6030 Y142.7100 Z0.581 E6.4712
G1 X163.8280 Y143.3240 Z0.582 E6.5067
G1 X163.1230 Y144.0160 Z0.583 E6.5422
G1 X162.4950 Y144.7790 Z0.584 E6.5777
G1 X161.9510 Y145.6040 Z0.585 E6.6132
G1 X161.4970 Y146.4820 Z0.586 E6.6487
G1 X161.1390 Y147.4030 Z0.587 E6.6842
G1 X160.8800 Y148.3560 Z0.588 E6.7196
G1 X160.7240 Y149.3320 Z0.589 E6.7551
G1 X160.6720 Y150.3180 Z0.590 E6.7906
G1 X160.7050 Y151.0630 Z0.591 E6.8174
G1 X160.7240 Y151.3080 Z0.591 E6.8262
G1 X160.8380 Y152.0560 Z0.592 E6.8534
G1 X160.9460 Y152.5460 Z0.592 E6.8714
G1 X161.1390 Y153.2360 Z0.593 E6.8972
G1 X161.4970 Y154.1550 Z0.594 E6.9326
G1 X161.8550 Y154.8620 Z0.595 E6.9611
G1 X162.1140 Y155.2920 Z0.595 E6.9791
G1 X162.4950 Y155.8590 Z0.596 E7.0036
G1 X163.1230 Y156.6210 Z0.597 E7.0391
G1 X163.8280 Y157.3130 Z0.598 E7.0746
G1 X164.6030 Y157.9270 Z0.599 E7.1101
G1 X165.4370 Y158.4550 Z0.600 E7.1456
;layer 4, Z = 0.800
G92 E0.0000
G1 X166.3300 Y158.8810 Z0.601 E0.0355 F4200 ; custom feedrate
G1 X167.2560 Y159.2160 Z0.602 E0.0709
G1 X168.0650 Y159.4220 Z0.603 E0.1009
G1 X169.0530 Y159.5710 Z0.604 E0.1368
G1 X169.7030 Y159.6020 Z0.604 E0.1602
G1 X169.7070 Y160.1450 Z0.605 E0.1797
G1 X169.7070 Y160.5310 Z0.605 E0.1935
G1 X160.5860 Y169.6520 Z0.618 E0.6569
G1 X169.7070 Y178.7730 Z0.631 E1.1203
G1 X169.7070 Y179.6920 Z0.632 E1.1533
G1 X168.1810 Y179.6920 Z0.634 E1.2081
G1 X168.1790 Y179.6740 Z0.634 E1.2087
G1 X168.1270 Y179.4710 Z0.634 E1.2163
G1 X168.0460 Y179.2740 Z0.634 E1.2239
G1 X167.8810 Y179.0030 Z0.635 E1.2353
G1 X167.7390 Y178.8410 Z0.635 E1.2431
G1 X167.4940 Y178.6360 Z0.635 E1.2545
G1 X167.2450 Y178.4990 Z0.635 E1.2647
G1 X166.9870 Y178.4090 Z0.636 E1.2745
G1 X166.7190 Y178.3640 Z0.636 E1.2843
G1 X166.4470 Y178.3640 Z0.636 E1.2941
G1 X166.1570 Y178.4150 Z0.636 E1.3047
G1 X165.8580 Y178.5300 Z0.637 E1.3161
G1 X165.6750 Y178.6360 Z0.637 E1.3238
G1 X165.5070 Y178.7660 Z0.637 E1.3314
G1 X165.2880 Y179.0000 Z0.638 E1.3429
G1 X165.1180 Y179.2790 Z0.638 E1.3546
G1 X165.0070 Y179.5860 Z0.638 E1.3664
G1 X164.9920 Y179.6920 Z0.638 E1.3702
G1 X163.4600 Y179.6920 Z0.640 E1.4253
G1 X163.4600 Y178.3590 Z0.641 E1.4732
G1 X161.5400 Y178.3590 Z0.643 E1.5421
G1 X161.5400 Y179.6920 Z0.644 E1.5900
G1 X159.8710 Y179.6920 Z0.646 E1.6500
G1 X158.4170 Y178.2380 Z0.648 E1.7239
G1 X156.9620 Y179.6920 Z0.650 E1.7978
G1 X155.0060 Y179.6920 Z0.652 E1.8680
G1 X154.5080 Y179.6660 Z0.653 E1.8859
G1 X154.0210 Y179.5890 Z0.653 E1.9036
G1 X153.5460 Y179.4620 Z0.654 E1.9213
G1 X153.0860 Y179.2850 Z0.654 E1.9390
G1 X152.9620 Y179.2220 Z0.654 E1.9440
G1 X152.6470 Y179.0620 Z0.655 E1.9567
G1 X152.2330 Y178.7930 Z0.655 E1.9744
G1 X151.8510 Y178.4830 Z0.656 E1.9921
G1 X151.5020 Y178.1350 Z0.656 E2.0098
G1 X151.1920 Y177.7520 Z0.657 E2.0275
G1 X150.9240 Y177.3390 Z0.657 E2.0452
G1 X150.7000 Y176.9000 Z0.658 E2.0629
G1 X150.5240 Y176.4400 Z0.658 E2.0806
G1 X150.3960 Y175.9640 Z0.659 E2.0983
G1 X150.3190 Y175.4770 Z0.659 E2.1160
G1 X150.2930 Y174.9790 Z0.660 E2.1339
G1 X150.2930 Y164.9790 Z0.670 E2.4931
G1 X150.2640 Y164.4320 Z0.670 E2.5128
G1 X150.1780 Y163.8850 Z0.671 E2.5327
G1 X150.0340 Y163.3500 Z0.671 E2.5526
G1 X149.8360 Y162.8320 Z0.672 E2.5725
G1 X149.5840 Y162.3390 Z0.672 E2.5924
G1 X149.3780 Y162.0210 Z0.673 E2.6060
G1 X149.2820 Y161.8740 Z0.673 E2.6123
G1 X148.9340 Y161.4430 Z0.674 E2.6322
G1 X148.5420 Y161.0520 Z0.674 E2.6521
G1 X148.1110 Y160.7030 Z0.675 E2.6720
G1 X147.6470 Y160.4010 Z0.675 E2.6919
G1 X147.1530 Y160.1500 Z0.676 E2.7118
G1 X146.6360 Y159.9510 Z0.676 E2.7317
G1 X146.1010 Y159.8080 Z0.677 E2.7516
G1 X145.5530 Y159.7210 Z0.677 E2.7715
G1 X145.0060 Y159.6920 Z0.678 E2.7912
G1 X130.2930 Y159.6920 Z0.693 E3.3197
G1 X130.2930 Y139.9920 Z0.713 E4.0274
G1 X130.4090 Y137.8550 Z0.715 E4.1043
G1 X130.7540 Y135.7490 Z0.717 E4.1809
G1 X131.3250 Y133.6930 Z0.719 E4.2576
G1 X132.1150 Y131.7110 Z0.721 E4.3342
G1 X133.1140 Y129.8250 Z0.723 E4.4109
G1 X134.3120 Y128.0590 Z0.725 E4.4875
G1 X135.6930 Y126.4330 Z0.728 E4.5642
G1 X136.1510 Y125.9990 Z0.728 E4.5868
G1 X137.2420 Y124.9660 Z0.730 E4.6408
G1 X138.9410 Y123.6740 Z0.732 E4.7174
G1 X140.7690 Y122.5740 Z0.734 E4.7941
G1 X142.7060 Y121.6780 Z0.736 E4.8707
G1 X144.7280 Y120.9970 Z0.738 E4.9474
G1 X146.8120 Y120.5380 Z0.740 E5.0240
G1 X148.9330 Y120.3070 Z0.743 E5.1007
G1 X151.0670 Y120.3070 Z0.745 E5.1773
G1 X153.1880 Y120.5380 Z0.747 E5.2540
G1 X155.2720 Y120.9970 Z0.749 E5.3306
G1 X157.2940 Y121.6780 Z0.751 E5.4073
G1 X159.2310 Y122.5740 Z0.753 E5.4839
G1 X161.0590 Y123.6740 Z0.755 E5.5606
G1 X162.7580 Y124.9660 Z0.758 E5.6372
G1 X164.3070 Y126.4330 Z0.760 E5.7139
G1 X165.6880 Y128.0590 Z0.762 E5.7905
G1 X166.8860 Y129.8250 Z0.764 E5.8672
G1 X167.8850 Y131.7110 Z0.766 E5.9438
G1 X168.6750 Y133.6930 Z0.768 E6.0205
G1 X169.2460 Y135.7490 Z0.770 E6.0971
G1 X169.5910 Y137.8550 Z0.773 E6.1738
G1 X169.7070 Y139.9920 Z0.775 E6.2507
G1 X169.7070 Y141.0390 Z0.776 E6.2883
G1 X169.0540 Y141.0740 Z0.776 E6.3117
G1 X168.0690 Y141.2290 Z0.777 E6.3476
G1 X167.2610 Y141.4380 Z0.778 E6.3776
G1 X166.3380 Y141.7770 Z0.779 E6.4129
G1 X165.4550 Y142.2130 Z0.780 E6.4482
G1 X164.6230 Y142.7390 Z0.781 E6.4836
G1 X163.8510 Y143.3500 Z0.782 E6.5190
G1 X163.1490 Y144.0400 Z0.783 E6.5543
G1 X162.5230 Y144.8000 Z0.784 E6.5897
G1 X161.9810 Y145.6220 Z0.785 E6.6250
G1 X161.5290 Y146.4960 Z0.786 E6.6604
G1 X161.1720 Y147.4140 Z0.787 E6.6958
G1 X160.9150 Y148.3640 Z0.788 E6.7311
G1 X160.7590 Y149.3360 Z0.789 E6.7665
G1 X160.7070 Y150.3170 Z0.790 E6.8018
G1 X160.7320 Y150.9650 Z0.791 E6.8251
G1 X160.7590 Y151.3030 Z0.791 E6.8373
G1 X160.8550 Y151.9600 Z0.792 E6.8611
G1 X161.0060 Y152.6420 Z0.792 E6.8862
G1 X161.1730 Y153.2250 Z0.793 E6.9080
G1 X161.5290 Y154.1400 Z0.794 E6.9432
G1 X161.8480 Y154.7770 Z0.795 E6.9688
G1 X162.2080 Y155.3750 Z0.795 E6.9939
G1 X162.5240 Y155.8390 Z0.796 E7.0141
G1 X163.1490 Y156.5980 Z0.797 E7.0494
G1 X163.8510 Y157.2870 Z0.798 E7.0847
G1 X164.6230 Y157.8980 Z0.799 E7.1201
G1 X165.4550 Y158.4250 Z0.800 E7.1555
;layer 5, Z = 1.000
;
G92 E0.0000
G1 X166.3410 Y158.8540 Z0.801 E0.0353 F4200 ; custom feedrate
G1 X167.2650 Y159.1860 Z0.802 E0.0707
G1 X168.2220 Y159.4160 Z0.803 E0.1060
G1 X169.1930 Y159.5480 Z0.804 E0.1412
G1 X169.7390 Y159.5690 Z0.804 E0.1608
G1 X169.7420 Y160.0950 Z0.805 E0.1797
G1 X169.7420 Y160.5450 Z0.805 E0.1959
G1 X160.6360 Y169.6520 Z0.818 E0.6585
G1 X169.7420 Y178.7590 Z0.831 E1.1211
G1 X169.7420 Y179.7280 Z0.832 E1.1559
G1 X168.1480 Y179.7280 Z0.834 E1.2132
G1 X168.1400 Y179.6540 Z0.834 E1.2158
G1 X168.0380 Y179.3420 Z0.834 E1.2276
G1 X167.9490 Y179.1680 Z0.834 E1.2346
G1 X167.7330 Y178.8840 Z0.835 E1.2475
G1 X167.4770 Y178.6680 Z0.835 E1.2595
G1 X167.2300 Y178.5310 Z0.835 E1.2696
G1 X166.9790 Y178.4430 Z0.836 E1.2792
G1 X166.7120 Y178.3980 Z0.836 E1.2889
G1 X166.3400 Y178.4120 Z0.836 E1.3023
G1 X165.9890 Y178.5080 Z0.837 E1.3154
G1 X165.7050 Y178.6570 Z0.837 E1.3269
G1 X165.4950 Y178.8240 Z0.837 E1.3365
G1 X165.3140 Y179.0240 Z0.838 E1.3462
G1 X165.1410 Y179.3100 Z0.838 E1.3582
G1 X165.0260 Y179.6530 Z0.838 E1.3712
G1 X165.0180 Y179.7280 Z0.838 E1.3739
G1 X163.4240 Y179.7280 Z0.840 E1.4312
G1 X163.4240 Y178.3940 Z0.841 E1.4791
G1 X161.5760 Y178.3940 Z0.843 E1.5455
G1 X161.5760 Y179.7280 Z0.844 E1.5934
G1 X159.8570 Y179.7280 Z0.846 E1.6551
G1 X158.4170 Y178.2880 Z0.848 E1.7283
G1 X156.9770 Y179.7280 Z0.850 E1.8014
G1 X155.0060 Y179.7280 Z0.852 E1.8722
G1 X154.5040 Y179.7010 Z0.853 E1.8902
G1 X154.0140 Y179.6240 Z0.853 E1.9081
G1 X153.5360 Y179.4960 Z0.854 E1.9259
G1 X153.0270 Y179.2950 Z0.854 E1.9455
G1 X152.6290 Y179.0920 Z0.855 E1.9616
G1 X152.2130 Y178.8220 Z0.855 E1.9794
G1 X151.8270 Y178.5090 Z0.856 E1.9972
G1 X151.4760 Y178.1580 Z0.856 E2.0150
G1 X151.1640 Y177.7730 Z0.857 E2.0329
G1 X150.8930 Y177.3560 Z0.857 E2.0507
G1 X150.6680 Y176.9140 Z0.858 E2.0685
G1 X150.4900 Y176.4510 Z0.858 E2.0864
G1 X150.3620 Y175.9710 Z0.859 E2.1042
G1 X150.2840 Y175.4810 Z0.859 E2.1220
G1 X150.2580 Y174.9790 Z0.860 E2.1401
G1 X150.2580 Y164.9790 Z0.870 E2.4993
G1 X150.2290 Y164.4360 Z0.870 E2.5188
G1 X150.1430 Y163.8920 Z0.871 E2.5386
G1 X150.0010 Y163.3610 Z0.871 E2.5584
G1 X149.8030 Y162.8470 Z0.872 E2.5781
G1 X149.5540 Y162.3560 Z0.873 E2.5979
G1 X149.2840 Y161.9410 Z0.873 E2.6157
G1 X148.9080 Y161.4680 Z0.874 E2.6374
G1 X148.5180 Y161.0780 Z0.874 E2.6572
G1 X148.0910 Y160.7320 Z0.875 E2.6770
G1 X147.6290 Y160.4320 Z0.875 E2.6967
G1 X147.1390 Y160.1820 Z0.876 E2.7165
G1 X146.6250 Y159.9850 Z0.876 E2.7363
G1 X146.0930 Y159.8420 Z0.877 E2.7560
G1 X145.5500 Y159.7560 Z0.877 E2.7758
G1 X145.0060 Y159.7280 Z0.878 E2.7954
G1 X130.2580 Y159.7280 Z0.893 E3.3251
G1 X130.2580 Y139.9920 Z0.913 E4.0341
G1 X130.3740 Y137.8510 Z0.915 E4.1111
G1 X130.7200 Y135.7410 Z0.917 E4.1879
G1 X131.2910 Y133.6820 Z0.919 E4.2647
G1 X132.0830 Y131.6960 Z0.921 E4.3415
G1 X133.0840 Y129.8070 Z0.923 E4.4182
G1 X134.2840 Y128.0380 Z0.925 E4.4950
G1 X135.6670 Y126.4090 Z0.928 E4.5718
G1 X135.8140 Y126.2700 Z0.928 E4.5791
G1 X137.2190 Y124.9390 Z0.930 E4.6486
G1 X138.9210 Y123.6450 Z0.932 E4.7254
G1 X140.7530 Y122.5430 Z0.934 E4.8022
G1 X142.6930 Y121.6450 Z0.936 E4.8790
G1 X144.7180 Y120.9630 Z0.938 E4.9557
G1 X146.8060 Y120.5030 Z0.940 E5.0325
G1 X148.9310 Y120.2720 Z0.943 E5.1093
G1 X151.0690 Y120.2720 Z0.945 E5.1861
G1 X153.1940 Y120.5030 Z0.947 E5.2629
G1 X155.2820 Y120.9630 Z0.949 E5.3397
G1 X157.3070 Y121.6450 Z0.951 E5.4165
G1 X159.2470 Y122.5430 Z0.953 E5.4932
G1 X161.0790 Y123.6450 Z0.955 E5.5700
G1 X162.7810 Y124.9390 Z0.958 E5.6468
G1 X164.3330 Y126.4090 Z0.960 E5.7236
G1 X165.7160 Y128.0380 Z0.962 E5.8004
G1 X166.9160 Y129.8070 Z0.964 E5.8772
G1 X167.9170 Y131.6960 Z0.966 E5.9539
G1 X168.7090 Y133.6820 Z0.968 E6.0307
G1 X169.2800 Y135.7410 Z0.970 E6.1075
G1 X169.6260 Y137.8510 Z0.973 E6.1843
G1 X169.7420 Y139.9920 Z0.975 E6.2613
G1 X169.7420 Y141.0720 Z0.976 E6.3001
G1 X169.1930 Y141.0960 Z0.976 E6.3199
G1 X168.2230 Y141.2330 Z0.977 E6.3550
G1 X167.2720 Y141.4720 Z0.978 E6.3903
G1 X166.3520 Y141.8100 Z0.979 E6.4255
G1 X165.4720 Y142.2430 Z0.980 E6.4607
G1 X164.6430 Y142.7680 Z0.981 E6.4959
G1 X163.8780 Y143.3740 Z0.982 E6.5310
G1 X163.6560 Y143.5770 Z0.983 E6.5418
G1 X163.1760 Y144.0620 Z0.983 E6.5663
G1 X162.9660 Y144.3010 Z0.984 E6.5777
G1 X162.5530 Y144.8190 Z0.984 E6.6016
G1 X162.3580 Y145.0940 Z0.985 E6.6137
G1 X162.0130 Y145.6380 Z0.985 E6.6368
G1 X161.8390 Y145.9490 Z0.986 E6.6496
G1 X161.5620 Y146.5090 Z0.986 E6.6721
G1 X161.4160 Y146.8550 Z0.987 E6.6855
G1 X161.2070 Y147.4230 Z0.987 E6.7073
G1 X161.0920 Y147.8010 Z0.988 E6.7215
G1 X160.9500 Y148.3700 Z0.988 E6.7425
G1 X160.8730 Y148.7760 Z0.989 E6.7574
G1 X160.7940 Y149.3390 Z0.989 E6.7778
G1 X160.7600 Y149.7700 Z0.990 E6.7933
G1 X160.7420 Y150.3190 Z0.990 E6.8131
G1 X160.7600 Y150.8680 Z0.991 E6.8328
G1 X160.7940 Y151.2980 Z0.991 E6.8483
G1 X160.8570 Y151.7640 Z0.992 E6.8652
G1 X160.9490 Y152.2670 Z0.992 E6.8835
G1 X161.0920 Y152.8370 Z0.993 E6.9046
G1 X161.2070 Y153.2140 Z0.993 E6.9188
G1 X161.4160 Y153.7830 Z0.994 E6.9406
G1 X161.5620 Y154.1280 Z0.994 E6.9540
G1 X161.7940 Y154.6010 Z0.995 E6.9730
G1 X162.0120 Y154.9980 Z0.995 E6.9893
G1 X162.3040 Y155.4610 Z0.996 E7.0089
G1 X162.5520 Y155.8170 Z0.996 E7.0245
G1 X162.9660 Y156.3370 Z0.997 E7.0484
G1 X163.1760 Y156.5750 Z0.997 E7.0598
G1 X163.5860 Y156.9910 Z0.998 E7.0807
G1 X163.8770 Y157.2630 Z0.998 E7.0950
G1 X164.6430 Y157.8700 Z0.999 E7.1302
G1 X165.4720 Y158.3940 Z1.000 E7.1654
;layer 6, Z = 1.200
G92 E0.0000
G1 X166.3530 Y158.8240 Z1.001 E0.0352 F4200 ; custom feedrate
G1 X167.2740 Y159.1590 Z1.002 E0.0704
G1 X168.2250 Y159.3940 Z1.003 E0.1056
G1 X169.1940 Y159.5280 Z1.004 E0.1408
G1 X169.7580 Y159.5500 Z1.004 E0.1610
G1 X169.7600 Y160.0730 Z1.005 E0.1798
G1 X169.7600 Y160.5530 Z1.005 E0.1970
G1 X160.6610 Y169.6520 Z1.018 E0.6593
G1 X169.7600 Y178.7510 Z1.031 E1.1215
G1 X169.7600 Y179.7450 Z1.032 E1.1572
G1 X168.1320 Y179.7450 Z1.034 E1.2157
G1 X168.1210 Y179.6470 Z1.034 E1.2193
G1 X168.0150 Y179.3300 Z1.034 E1.2313
G1 X167.9290 Y179.1680 Z1.035 E1.2379
G1 X167.7270 Y178.9020 Z1.035 E1.2499
G1 X167.4690 Y178.6830 Z1.035 E1.2620
G1 X167.2230 Y178.5470 Z1.035 E1.2721
G1 X166.9730 Y178.4600 Z1.036 E1.2816
G1 X166.6670 Y178.4130 Z1.036 E1.2927
G1 X166.3290 Y178.4310 Z1.036 E1.3049
G1 X166.0010 Y178.5220 Z1.037 E1.3171
G1 X165.7150 Y178.6720 Z1.037 E1.3287
G1 X165.5070 Y178.8370 Z1.037 E1.3382
G1 X165.3280 Y179.0350 Z1.038 E1.3478
G1 X165.1540 Y179.3240 Z1.038 E1.3600
G1 X165.0450 Y179.6470 Z1.038 E1.3722
G1 X165.0350 Y179.7450 Z1.038 E1.3757
G1 X163.4070 Y179.7450 Z1.040 E1.4342
G1 X163.4070 Y178.4120 Z1.041 E1.4821
G1 X161.5930 Y178.4120 Z1.043 E1.5473
G1 X161.5930 Y179.7450 Z1.044 E1.5952
G1 X159.8490 Y179.7450 Z1.046 E1.6578
G1 X158.4170 Y178.3130 Z1.048 E1.7306
G1 X156.9840 Y179.7450 Z1.050 E1.8034
G1 X155.0060 Y179.7450 Z1.052 E1.8744
G1 X154.5020 Y179.7190 Z1.053 E1.8925
G1 X154.0100 Y179.6410 Z1.053 E1.9104
G1 X153.5290 Y179.5120 Z1.054 E1.9283
G1 X153.0640 Y179.3340 Z1.054 E1.9462
G1 X152.6200 Y179.1070 Z1.055 E1.9641
G1 X152.2020 Y178.8360 Z1.055 E1.9820
G1 X151.8150 Y178.5220 Z1.056 E1.9999
G1 X151.4630 Y178.1700 Z1.056 E2.0178
G1 X151.1490 Y177.7830 Z1.057 E2.0357
G1 X150.8780 Y177.3650 Z1.057 E2.0536
G1 X150.6520 Y176.9210 Z1.058 E2.0715
G1 X150.4730 Y176.4560 Z1.058 E2.0894
G1 X150.3440 Y175.9750 Z1.059 E2.1073
G1 X150.2660 Y175.4830 Z1.059 E2.1252
G1 X150.2400 Y174.9790 Z1.060 E2.1433
G1 X150.2400 Y164.9790 Z1.070 E2.5025
G1 X150.2120 Y164.4380 Z1.070 E2.5220
G1 X150.1260 Y163.8960 Z1.071 E2.5417
G1 X149.9840 Y163.3660 Z1.071 E2.5614
G1 X149.7870 Y162.8540 Z1.072 E2.5811
G1 X149.5380 Y162.3650 Z1.073 E2.6008
G1 X149.2400 Y161.9050 Z1.073 E2.6205
G1 X148.8940 Y161.4790 Z1.074 E2.6402
G1 X148.5060 Y161.0910 Z1.074 E2.6599
G1 X148.0800 Y160.7460 Z1.075 E2.6796
G1 X147.6200 Y160.4470 Z1.075 E2.6993
G1 X147.1310 Y160.1980 Z1.076 E2.7190
G1 X146.6190 Y160.0010 Z1.076 E2.7387
G1 X146.0900 Y159.8600 Z1.077 E2.7584
G1 X145.5480 Y159.7740 Z1.077 E2.7781
G1 X145.0060 Y159.7450 Z1.078 E2.7976
G1 X130.2400 Y159.7450 Z1.093 E3.3280
G1 X130.2400 Y139.9920 Z1.113 E4.0376
G1 X130.3560 Y137.8490 Z1.115 E4.1147
G1 X130.7020 Y135.7380 Z1.117 E4.1915
G1 X131.2750 Y133.6760 Z1.119 E4.2684
G1 X132.0670 Y131.6880 Z1.121 E4.3452
G1 X133.0560 Y129.8220 Z1.123 E4.4211
G1 X134.2700 Y128.0270 Z1.125 E4.4989
G1 X135.6550 Y126.3970 Z1.128 E4.5758
G1 X137.2080 Y124.9250 Z1.130 E4.6526
G1 X138.9110 Y123.6310 Z1.132 E4.7295
G1 X140.7440 Y122.5270 Z1.134 E4.8064
G1 X142.6860 Y121.6290 Z1.136 E4.8832
G1 X144.7140 Y120.9460 Z1.138 E4.9601
G1 X146.8030 Y120.4860 Z1.140 E5.0369
G1 X148.9300 Y120.2550 Z1.143 E5.1138
G1 X151.0700 Y120.2550 Z1.145 E5.1906
G1 X153.1970 Y120.4860 Z1.147 E5.2675
G1 X155.2860 Y120.9460 Z1.149 E5.3443
G1 X157.3140 Y121.6290 Z1.151 E5.4212
G1 X159.2560 Y122.5270 Z1.153 E5.4980
G1 X161.0890 Y123.6310 Z1.155 E5.5749
G1 X162.7920 Y124.9250 Z1.158 E5.6517
G1 X164.3450 Y126.3970 Z1.160 E5.7286
G1 X165.7310 Y128.0270 Z1.162 E5.8055
G1 X166.9310 Y129.7980 Z1.164 E5.8823
G1 X167.9330 Y131.6880 Z1.166 E5.9592
G1 X168.7250 Y133.6760 Z1.168 E6.0360
G1 X169.2980 Y135.7380 Z1.170 E6.1129
G1 X169.6440 Y137.8490 Z1.173 E6.1897
G1 X169.7600 Y139.9920 Z1.175 E6.2668
G1 X169.7600 Y141.0890 Z1.176 E6.3062
G1 X169.1950 Y141.1140 Z1.176 E6.3265
G1 X168.2270 Y141.2500 Z1.177 E6.3617
G1 X167.2770 Y141.4890 Z1.178 E6.3968
G1 X166.3590 Y141.8260 Z1.179 E6.4320
G1 X165.4850 Y142.2570 Z1.180 E6.4670
G1 X165.2340 Y142.4030 Z1.181 E6.4774
G1 X164.6560 Y142.7810 Z1.181 E6.5022
G1 X164.4060 Y142.9640 Z1.182 E6.5133
G1 X163.8880 Y143.3890 Z1.182 E6.5374
G1 X163.6440 Y143.6120 Z1.183 E6.5493
G1 X163.1890 Y144.0740 Z1.183 E6.5726
G1 X162.9560 Y144.3380 Z1.184 E6.5852
G1 X162.5670 Y144.8300 Z1.184 E6.6078
G1 X162.3510 Y145.1350 Z1.185 E6.6212
G1 X162.0280 Y145.6470 Z1.185 E6.6429
G1 X161.8360 Y145.9920 Z1.186 E6.6571
G1 X161.5780 Y146.5170 Z1.186 E6.6781
G1 X161.4160 Y146.8990 Z1.187 E6.6930
G1 X161.2230 Y147.4290 Z1.187 E6.7133
G1 X161.0970 Y147.8470 Z1.188 E6.7290
G1 X160.9670 Y148.3740 Z1.188 E6.7485
G1 X160.8820 Y148.8240 Z1.189 E6.7649
G1 X160.8120 Y149.3410 Z1.189 E6.7837
G1 X160.7730 Y149.8190 Z1.190 E6.8009
G1 X160.7600 Y150.3190 Z1.190 E6.8188
G1 X160.7730 Y150.8190 Z1.191 E6.8368
G1 X160.8120 Y151.2960 Z1.191 E6.8540
G1 X160.8820 Y151.8130 Z1.192 E6.8727
G1 X160.9670 Y152.2630 Z1.192 E6.8892
G1 X161.0970 Y152.7900 Z1.193 E6.9087
G1 X161.2230 Y153.2080 Z1.193 E6.9244
G1 X161.4160 Y153.7380 Z1.194 E6.9446
G1 X161.5780 Y154.1200 Z1.194 E6.9596
G1 X161.8360 Y154.6460 Z1.195 E6.9806
G1 X162.0280 Y154.9900 Z1.195 E6.9947
G1 X162.3510 Y155.5030 Z1.196 E7.0165
G1 X162.5670 Y155.8070 Z1.196 E7.0299
G1 X162.9560 Y156.2990 Z1.197 E7.0525
G1 X163.1890 Y156.5630 Z1.197 E7.0651
G1 X163.6440 Y157.0250 Z1.198 E7.0884
G1 X163.8880 Y157.2490 Z1.198 E7.1003
G1 X164.4060 Y157.6730 Z1.199 E7.1243
G1 X164.6560 Y157.8560 Z1.199 E7.1355
G1 X165.2340 Y158.2350 Z1.200 E7.1603
G1 X165.4850 Y158.3800 Z1.200 E7.1707
;layer 7, Z = 1.400
G92 E0.0000
G1 X166.3590 Y158.8110 Z1.201 E0.0350 F4200 ; custom feedrate
G1 X167.2770 Y159.1490 Z1.202 E0.0702
G1 X168.2270 Y159.3870 Z1.203 E0.1053
G1 X169.1950 Y159.5240 Z1.204 E0.1404
G1 X169.7600 Y159.5480 Z1.204 E0.1608
G1 X169.7600 Y160.5530 Z1.205 E0.1968
G1 X160.6610 Y169.6520 Z1.218 E0.6591
G1 X169.7600 Y178.7510 Z1.231 E1.1213
G1 X169.7600 Y179.7450 Z1.232 E1.1570
G1 X168.1320 Y179.7450 Z1.234 E1.2155
G1 X168.1210 Y179.6470 Z1.234 E1.2191
G1 X168.0150 Y179.3300 Z1.234 E1.2311
G1 X167.9290 Y179.1680 Z1.235 E1.2377
G1 X167.7270 Y178.9020 Z1.235 E1.2496
G1 X167.4690 Y178.6830 Z1.235 E1.2618
G1 X167.2230 Y178.5470 Z1.235 E1.2719
G1 X166.9730 Y178.4600 Z1.236 E1.2814
G1 X166.6670 Y178.4130 Z1.236 E1.2925
G1 X166.3290 Y178.4310 Z1.236 E1.3047
G1 X166.0010 Y178.5220 Z1.237 E1.3169
G1 X165.7150 Y178.6720 Z1.237 E1.3285
G1 X165.5070 Y178.8370 Z1.237 E1.3380
G1 X165.3280 Y179.0350 Z1.238 E1.3476
G1 X165.1540 Y179.3240 Z1.238 E1.3598
G1 X165.0450 Y179.6470 Z1.238 E1.3720
G1 X165.0350 Y179.7450 Z1.238 E1.3755
G1 X163.4070 Y179.7450 Z1.240 E1.4340
G1 X163.4070 Y178.4120 Z1.241 E1.4819
G1 X161.5930 Y178.4120 Z1.243 E1.5471
G1 X161.5930 Y179.7450 Z1.244 E1.5950
G1 X159.8490 Y179.7450 Z1.246 E1.6576
G1 X158.4170 Y178.3130 Z1.248 E1.7304
G1 X156.9840 Y179.7450 Z1.250 E1.8032
G1 X155.0060 Y179.7450 Z1.252 E1.8742
G1 X154.5020 Y179.7190 Z1.253 E1.8923
G1 X154.0100 Y179.6410 Z1.253 E1.9102
G1 X153.5290 Y179.5120 Z1.254 E1.9281
G1 X153.0640 Y179.3340 Z1.254 E1.9460
G1 X152.6200 Y179.1070 Z1.255 E1.9639
G1 X152.2020 Y178.8360 Z1.255 E1.9818
G1 X151.8150 Y178.5220 Z1.256 E1.9997
G1 X151.4630 Y178.1700 Z1.256 E2.0176
G1 X151.1490 Y177.7830 Z1.257 E2.0355
G1 X150.8780 Y177.3650 Z1.257 E2.0534
G1 X150.6520 Y176.9210 Z1.258 E2.0713
G1 X150.4730 Y176.4560 Z1.258 E2.0892
G1 X150.3440 Y175.9750 Z1.259 E2.1071
G1 X150.2660 Y175.4830 Z1.259 E2.1250
G1 X150.2400 Y174.9790 Z1.260 E2.1431
G1 X150.2400 Y164.9790 Z1.270 E2.5023
G1 X150.2120 Y164.4380 Z1.270 E2.5218
G1 X150.1260 Y163.8960 Z1.271 E2.5415
G1 X149.9840 Y163.3660 Z1.271 E2.5612
G1 X149.7870 Y162.8540 Z1.272 E2.5809
G1 X149.5380 Y162.3650 Z1.273 E2.6006
G1 X149.2400 Y161.9050 Z1.273 E2.6203
G1 X148.8940 Y161.4790 Z1.274 E2.6400
G1 X148.5060 Y161.0910 Z1.274 E2.6597
G1 X148.0800 Y160.7460 Z1.275 E2.6794
G1 X147.6200 Y160.4470 Z1.275 E2.6991
G1 X147.1310 Y160.1980 Z1.276 E2.7188
G1 X146.6190 Y160.0010 Z1.276 E2.7385
G1 X146.0900 Y159.8600 Z1.277 E2.7582
G1 X145.5480 Y159.7740 Z1.277 E2.7779
G1 X145.0060 Y159.7450 Z1.278 E2.7974
G1 X130.2400 Y159.7450 Z1.293 E3.3278
G1 X130.2400 Y139.9920 Z1.313 E4.0374
G1 X130.3560 Y137.8490 Z1.315 E4.1145
G1 X130.7020 Y135.7380 Z1.317 E4.1913
G1 X131.2750 Y133.6760 Z1.319 E4.2682
G1 X132.0670 Y131.6880 Z1.321 E4.3450
G1 X133.0310 Y129.8700 Z1.323 E4.4190
G1 X134.2700 Y128.0270 Z1.325 E4.4987
G1 X135.6550 Y126.3970 Z1.328 E4.5756
G1 X137.2080 Y124.9250 Z1.330 E4.6524
G1 X138.9110 Y123.6310 Z1.332 E4.7293
G1 X140.7440 Y122.5270 Z1.334 E4.8061
G1 X142.6860 Y121.6290 Z1.336 E4.8830
G1 X144.7140 Y120.9460 Z1.338 E4.9598
G1 X146.8030 Y120.4860 Z1.340 E5.0367
G1 X148.9300 Y120.2550 Z1.343 E5.1136
G1 X151.0700 Y120.2550 Z1.345 E5.1904
G1 X153.1970 Y120.4860 Z1.347 E5.2673
G1 X155.2860 Y120.9460 Z1.349 E5.3441
G1 X157.3140 Y121.6290 Z1.351 E5.4210
G1 X159.2560 Y122.5270 Z1.353 E5.4978
G1 X161.0890 Y123.6310 Z1.355 E5.5747
G1 X162.7920 Y124.9250 Z1.358 E5.6515
G1 X164.3450 Y126.3970 Z1.360 E5.7284
G1 X165.7310 Y128.0270 Z1.362 E5.8052
G1 X166.9310 Y129.7980 Z1.364 E5.8821
G1 X167.9330 Y131.6880 Z1.366 E5.9589
G1 X168.7250 Y133.6760 Z1.368 E6.0358
G1 X169.2980 Y135.7380 Z1.370 E6.1127
G1 X169.6440 Y137.8490 Z1.373 E6.1895
G1 X169.7600 Y139.9920 Z1.375 E6.2666
G1 X169.7600 Y141.0890 Z1.376 E6.3060
G1 X169.1950 Y141.1140 Z1.376 E6.3263
G1 X168.2270 Y141.2500 Z1.377 E6.3614
G1 X167.2770 Y141.4890 Z1.378 E6.3966
G1 X166.3590 Y141.8260 Z1.379 E6.4318
G1 X165.4850 Y142.2570 Z1.380 E6.4668
G1 X165.2340 Y142.4030 Z1.381 E6.4772
G1 X164.6560 Y142.7810 Z1.381 E6.5020
G1 X164.4060 Y142.9640 Z1.382 E6.5131
G1 X163.8880 Y143.3890 Z1.382 E6.5372
G1 X163.6440 Y143.6120 Z1.383 E6.5491
G1 X163.1890 Y144.0740 Z1.383 E6.5724
G1 X162.9560 Y144.3380 Z1.384 E6.5850
G1 X162.5670 Y144.8300 Z1.384 E6.6075
G1 X162.3510 Y145.1350 Z1.385 E6.6209
G1 X162.0280 Y145.6470 Z1.385 E6.6427
G1 X161.8360 Y145.9920 Z1.386 E6.6569
G1 X161.5780 Y146.5170 Z1.386 E6.6779
G1 X161.4160 Y146.8990 Z1.387 E6.6928
G1 X161.2230 Y147.4290 Z1.387 E6.7131
G1 X161.0970 Y147.8470 Z1.388 E6.7288
G1 X160.9670 Y148.3740 Z1.388 E6.7483
G1 X160.8820 Y148.8240 Z1.389 E6.7647
G1 X160.8120 Y149.3410 Z1.389 E6.7834
G1 X160.7730 Y149.8190 Z1.390 E6.8007
G1 X160.7600 Y150.3190 Z1.390 E6.8186
G1 X160.7730 Y150.8190 Z1.391 E6.8366
G1 X160.8120 Y151.2960 Z1.391 E6.8538
G1 X160.8820 Y151.8130 Z1.392 E6.8725
G1 X160.9670 Y152.2630 Z1.392 E6.8890
G1 X161.0970 Y152.7900 Z1.393 E6.9085
G1 X161.2230 Y153.2080 Z1.393 E6.9242
G1 X161.4160 Y153.7380 Z1.394 E6.9444
G1 X161.5780 Y154.1200 Z1.394 E6.9593
G1 X161.8360 Y154.6460 Z1.395 E6.9804
G1 X162.0280 Y154.9900 Z1.395 E6.9945
G1 X162.3510 Y155.5030 Z1.396 E7.0163
G1 X162.5670 Y155.8070 Z1.396 E7.0297
G1 X162.9560 Y156.2990 Z1.397 E7.0522
G1 X163.1890 Y156.5630 Z1.397 E7.0649
G1 X163.6440 Y157.0250 Z1.398 E7.0882
G1 X163.8880 Y157.2490 Z1.398 E7.1001
G1 X164.4060 Y157.6730 Z1.399 E7.1241
G1 X164.6560 Y157.8560 Z1.399 E7.1352
G1 X165.2340 Y158.2350 Z1.400 E7.1601
G1 X165.4850 Y158.3800 Z1.400 E7.1705
;layer 8, Z = 1.600
G92 E0.0000
G1 X166.3590 Y158.8110 Z1.401 E0.0350 F4200 ; custom feedrate
G1 X167.2770 Y159.1490 Z1.402 E0.0702
G1 X168.2270 Y159.3870 Z1.403 E0.1053
G1 X169.1950 Y159.5240 Z1.404 E0.1404
G1 X169.7600 Y159.5480 Z1.404 E0.1608
G1 X169.7600 Y160.5530 Z1.405 E0.1968
G1 X160.6610 Y169.6520 Z1.418 E0.6591
G1 X169.7600 Y178.7510 Z1.431 E1.1213
G1 X169.7600 Y179.7450 Z1.432 E1.1570
G1 X168.1320 Y179.7450 Z1.434 E1.2155
G1 X168.1210 Y179.6470 Z1.434 E1.2191
G1 X168.0150 Y179.3300 Z1.434 E1.2311
G1 X167.9290 Y179.1680 Z1.435 E1.2377
G1 X167.7270 Y178.9020 Z1.435 E1.2496
G1 X167.4690 Y178.6830 Z1.435 E1.2618
G1 X167.2230 Y178.5470 Z1.435 E1.2719
G1 X166.9730 Y178.4600 Z1.436 E1.2814
G1 X166.6670 Y178.4130 Z1.436 E1.2925
G1 X166.3290 Y178.4310 Z1.436 E1.3047
G1 X166.0010 Y178.5220 Z1.437 E1.3169
G1 X165.7150 Y178.6720 Z1.437 E1.3285
G1 X165.5070 Y178.8370 Z1.437 E1.3380
G1 X165.3280 Y179.0350 Z1.438 E1.3476
G1 X165.1540 Y179.3240 Z1.438 E1.3598
G1 X165.0450 Y179.6470 Z1.438 E1.3720
G1 X165.0350 Y179.7450 Z1.438 E1.3755
G1 X163.4070 Y179.7450 Z1.440 E1.4340
G1 X163.4070 Y178.4120 Z1.441 E1.4819
G1 X161.5930 Y178.4120 Z1.443 E1.5471
G1 X161.5930 Y179.7450 Z1.444 E1.5950
G1 X159.8490 Y179.7450 Z1.446 E1.6576
G1 X158.4170 Y178.3130 Z1.448 E1.7304
G1 X156.9840 Y179.7450 Z1.450 E1.8032
G1 X155.0060 Y179.7450 Z1.452 E1.8742
G1 X154.5020 Y179.7190 Z1.453 E1.8923
G1 X154.0100 Y179.6410 Z1.453 E1.9102
G1 X153.5290 Y179.5120 Z1.454 E1.9281
G1 X153.0640 Y179.3340 Z1.454 E1.9460
G1 X152.6200 Y179.1070 Z1.455 E1.9639
G1 X152.2020 Y178.8360 Z1.455 E1.9818
G1 X151.8150 Y178.5220 Z1.456 E1.9997
G1 X151.4630 Y178.1700 Z1.456 E2.0176
G1 X151.1490 Y177.7830 Z1.457 E2.0355
G1 X150.8780 Y177.3650 Z1.457 E2.0534
G1 X150.6520 Y176.9210 Z1.458 E2.0713
G1 X150.4730 Y176.4560 Z1.458 E2.0892
G1 X150.3440 Y175.9750 Z1.459 E2.1071
G1 X150.2660 Y175.4830 Z1.459 E2.1250
G1 X150.2400 Y174.9790 Z1.460 E2.1431
G1 X150.2400 Y164.9790 Z1.470 E2.5023
G1 X150.2120 Y164.4380 Z1.470 E2.5218
G1 X150.1260 Y163.8960 Z1.471 E2.5415
G1 X149.9840 Y163.3660 Z1.471 E2.5612
G1 X149.7870 Y162.8540 Z1.472 E2.5809
G1 X149.5380 Y162.3650 Z1.473 E2.6006
G1 X149.2400 Y161.9050 Z1.473 E2.6203
G1 X148.8940 Y161.4790 Z1.474 E2.6400
G1 X148.5060 Y161.0910 Z1.474 E2.6597
G1 X148.0800 Y160.7460 Z1.475 E2.6794
G1 X147.6200 Y160.4470 Z1.475 E2.6991
G1 X147.1310 Y160.1980 Z1.476 E2.7188
G1 X146.6190 Y160.0010 Z1.476 E2.7385
G1 X146.0900 Y159.8600 Z1.477 E2.7582
G1 X145.5480 Y159.7740 Z1.477 E2.7779
G1 X145.0060 Y159.7450 Z1.478 E2.7974
G1 X130.2400 Y159.7450 Z1.493 E3.3278
G1 X130.2400 Y139.9920 Z1.513 E4.0374
G1 X130.3560 Y137.8490 Z1.515 E4.1145
G1 X130.7020 Y135.7380 Z1.517 E4.1913
G1 X131.2750 Y133.6760 Z1.519 E4.2682
G1 X132.0670 Y131.6880 Z1.521 E4.3450
G1 X133.0690 Y129.7980 Z1.523 E4.4219
G1 X134.2690 Y128.0270 Z1.525 E4.4987
G1 X135.6550 Y126.3970 Z1.528 E4.5756
G1 X137.2080 Y124.9250 Z1.530 E4.6524
G1 X138.9110 Y123.6310 Z1.532 E4.7293
G1 X140.7440 Y122.5270 Z1.534 E4.8062
G1 X142.6860 Y121.6290 Z1.536 E4.8830
G1 X144.7140 Y120.9460 Z1.538 E4.9599
G1 X146.8030 Y120.4860 Z1.540 E5.0367
G1 X148.9300 Y120.2550 Z1.543 E5.1136
G1 X151.0700 Y120.2550 Z1.545 E5.1904
G1 X153.1970 Y120.4860 Z1.547 E5.2673
G1 X155.2860 Y120.9460 Z1.549 E5.3441
G1 X157.3140 Y121.6290 Z1.551 E5.4210
G1 X159.2560 Y122.5270 Z1.553 E5.4978
G1 X161.0890 Y123.6310 Z1.555 E5.5747
G1 X162.7920 Y124.9250 Z1.558 E5.6515
G1 X164.3450 Y126.3970 Z1.560 E5.7284
G1 X165.7310 Y128.0270 Z1.562 E5.8053
G1 X166.9310 Y129.7980 Z1.564 E5.8821
G1 X167.9330 Y131.6880 Z1.566 E5.9590
G1 X168.7250 Y133.6760 Z1.568 E6.0358
G1 X169.2980 Y135.7380 Z1.570 E6.1127
G1 X169.6440 Y137.8490 Z1.573 E6.1895
G1 X169.7600 Y139.9920 Z1.575 E6.2666
G1 X169.7600 Y141.0890 Z1.576 E6.3060
G1 X169.1950 Y141.1140 Z1.576 E6.3263
G1 X168.2270 Y141.2500 Z1.577 E6.3615
G1 X167.2770 Y141.4890 Z1.578 E6.3966
G1 X166.3590 Y141.8260 Z1.579 E6.4318
G1 X165.4850 Y142.2570 Z1.580 E6.4668
G1 X165.2340 Y142.4030 Z1.581 E6.4772
G1 X164.6560 Y142.7810 Z1.581 E6.5020
G1 X164.4060 Y142.9640 Z1.582 E6.5131
G1 X163.8880 Y143.3890 Z1.582 E6.5372
G1 X163.6440 Y143.6120 Z1.583 E6.5491
G1 X163.1890 Y144.0740 Z1.583 E6.5724
G1 X162.9560 Y144.3380 Z1.584 E6.5850
G1 X162.5670 Y144.8300 Z1.584 E6.6076
G1 X162.3510 Y145.1350 Z1.585 E6.6210
G1 X162.0280 Y145.6470 Z1.585 E6.6427
G1 X161.8360 Y145.9920 Z1.586 E6.6569
G1 X161.5780 Y146.5170 Z1.586 E6.6779
G1 X161.4160 Y146.8990 Z1.587 E6.6928
G1 X161.2230 Y147.4290 Z1.587 E6.7131
G1 X161.0970 Y147.8470 Z1.588 E6.7288
G1 X160.9670 Y148.3740 Z1.588 E6.7483
G1 X160.8820 Y148.8240 Z1.589 E6.7647
G1 X160.8120 Y149.3410 Z1.589 E6.7835
G1 X160.7730 Y149.8190 Z1.590 E6.8007
G1 X160.7600 Y150.3190 Z1.590 E6.8186
G1 X160.7730 Y150.8190 Z1.591 E6.8366
G1 X160.8120 Y151.2960 Z1.591 E6.8538
G1 X160.8820 Y151.8130 Z1.592 E6.8726
G1 X160.9670 Y152.2630 Z1.592 E6.8890
G1 X161.0970 Y152.7900 Z1.593 E6.9085
G1 X161.2230 Y153.2080 Z1.593 E6.9242
G1 X161.4160 Y153.7380 Z1.594 E6.9444
G1 X161.5780 Y154.1200 Z1.594 E6.9594
G1 X161.8360 Y154.6460 Z1.595 E6.9804
G1 X162.0280 Y154.9900 Z1.595 E6.9945
G1 X162.3510 Y155.5030 Z1.596 E7.0163
G1 X162.5670 Y155.8070 Z1.596 E7.0297
G1 X162.9560 Y156.2990 Z1.597 E7.0523
G1 X163.1890 Y156.5630 Z1.597 E7.0649
G1 X163.6440 Y157.0250 Z1.598 E7.0882
G1 X163.8880 Y157.2490 Z1.598 E7.1001
G1 X164.4060 Y157.6730 Z1.599 E7.1241
G1 X164.6560 Y157.8560 Z1.599 E7.1353
G1 X165.2340 Y158.2350 Z1.600 E7.1601
G1 X165.4850 Y158.3800 Z1.600 E7.1705
;layer 9, Z = 1.800
G92 E0.0000
G1 X166.3590 Y158.8110 Z1.601 E0.0350 F4200 ; custom feedrate
G1 X167.2770 Y159.1490 Z1.602 E0.0702
G1 X168.2270 Y159.3870 Z1.603 E0.1053
G1 X169.1950 Y159.5240 Z1.604 E0.1404
G1 X169.7600 Y159.5480 Z1.604 E0.1608
G1 X169.7600 Y160.5530 Z1.605 E0.1968
G1 X160.6610 Y169.6520 Z1.618 E0.6591
G1 X169.7600 Y178.7510 Z1.631 E1.1213
G1 X169.7600 Y179.7450 Z1.632 E1.1570
G1 X168.1320 Y179.7450 Z1.634 E1.2155
G1 X168.1210 Y179.6470 Z1.634 E1.2191
G1 X168.0150 Y179.3300 Z1.634 E1.2311
G1 X167.9290 Y179.1680 Z1.635 E1.2377
G1 X167.7270 Y178.9020 Z1.635 E1.2496
G1 X167.4690 Y178.6830 Z1.635 E1.2618
G1 X167.2230 Y178.5470 Z1.635 E1.2719
G1 X166.9730 Y178.4600 Z1.636 E1.2814
G1 X166.6670 Y178.4130 Z1.636 E1.2925
G1 X166.3290 Y178.4310 Z1.636 E1.3047
G1 X166.0010 Y178.5220 Z1.637 E1.3169
G1 X165.7150 Y178.6720 Z1.637 E1.3285
G1 X165.5070 Y178.8370 Z1.637 E1.3380
G1 X165.3280 Y179.0350 Z1.638 E1.3476
G1 X165.1540 Y179.3240 Z1.638 E1.3598
G1 X165.0450 Y179.6470 Z1.638 E1.3720
G1 X165.0350 Y179.7450 Z1.638 E1.3755
G1 X163.4070 Y179.7450 Z1.640 E1.4340
G1 X163.4070 Y178.4120 Z1.641 E1.4819
G1 X161.5930 Y178.4120 Z1.643 E1.5471
G1 X161.5930 Y179.7450 Z1.644 E1.5950
G1 X159.8490 Y179.7450 Z1.646 E1.6576
G1 X158.4170 Y178.3130 Z1.648 E1.7304
G1 X156.9840 Y179.7450 Z1.650 E1.8032
G1 X155.0060 Y179.7450 Z1.652 E1.8742
G1 X154.5020 Y179.7190 Z1.653 E1.8923
G1 X154.0100 Y179.6410 Z1.653 E1.9102
G1 X153.5290 Y179.5120 Z1.654 E1.9281
G1 X153.0640 Y179.3340 Z1.654 E1.9460
G1 X152.6200 Y179.1070 Z1.655 E1.9639
G1 X152.2020 Y178.8360 Z1.655 E1.9818
G1 X151.8150 Y178.5220 Z1.656 E1.9997
G1 X151.4630 Y178.1700 Z1.656 E2.0176
G1 X151.1490 Y177.7830 Z1.657 E2.0355
G1 X150.8780 Y177.3650 Z1.657 E2.0534
G1 X150.6520 Y176.9210 Z1.658 E2.0713
G1 X150.4730 Y176.4560 Z1.658 E2.0892
G1 X150.3440 Y175.9750 Z1.659 E2.1071
G1 X150.2660 Y175.4830 Z1.659 E2.1250
G1 X150.2400 Y174.9790 Z1.660 E2.1431
G1 X150.2400 Y164.9790 Z1.670 E2.5023
G1 X150.2120 Y164.4380 Z1.670 E2.5218
G1 X150.1260 Y163.8960 Z1.671 E2.5415
G1 X149.9840 Y163.3660 Z1.671 E2.5612
G1 X149.7870 Y162.8540 Z1.672 E2.5809
G1 X149.5380 Y162.3650 Z1.673 E2.6006
G1 X149.2400 Y161.9050 Z1.673 E2.6203
G1 X148.8940 Y161.4790 Z1.674 E2.6400
G1 X148.5060 Y161.0910 Z1.674 E2.6597
G1 X148.0800 Y160.7460 Z1.675 E2.6794
G1 X147.6200 Y160.4470 Z1.675 E2.6991
G1 X147.1310 Y160.1980 Z1.676 E2.7188
G1 X146.6190 Y160.0010 Z1.676 E2.7385
G1 X146.0900 Y159.8600 Z1.677 E2.7582
G1 X145.5480 Y159.7740 Z1.677 E2.7779
G1 X145.0060 Y159.7450 Z1.678 E2.7974
G1 X130.2400 Y159.7450 Z1.693 E3.3278
G1 X130.2400 Y139.9920 Z1.713 E4.0374
G1 X130.3560 Y137.8490 Z1.715 E4.1145
G1 X130.7020 Y135.7380 Z1.717 E4.1913
G1 X131.2750 Y133.6760 Z1.719 E4.2682
G1 X132.0670 Y131.6880 Z1.721 E4.3450
G1 X133.0690 Y129.7980 Z1.723 E4.4219
G1 X134.2690 Y128.0270 Z1.725 E4.4987
G1 X135.6550 Y126.3970 Z1.728 E4.5756
G1 X137.2080 Y124.9250 Z1.730 E4.6524
G1 X138.9110 Y123.6310 Z1.732 E4.7293
G1 X140.7440 Y122.5270 Z1.734 E4.8062
G1 X142.6860 Y121.6290 Z1.736 E4.8830
G1 X144.7140 Y120.9460 Z1.738 E4.9599
G1 X146.8030 Y120.4860 Z1.740 E5.0367
G1 X148.9300 Y120.2550 Z1.743 E5.1136
G1 X151.0700 Y120.2550 Z1.745 E5.1904
G1 X153.1970 Y120.4860 Z1.747 E5.2673
G1 X155.2860 Y120.9460 Z1.749 E5.3441
G1 X157.3140 Y121.6290 Z1.751 E5.4210
G1 X159.2560 Y122.5270 Z1.753 E5.4978
G1 X161.0890 Y123.6310 Z1.755 E5.5747
G1 X162.7920 Y124.9250 Z1.758 E5.6515
G1 X164.3450 Y126.3970 Z1.760 E5.7284
G1 X165.7310 Y128.0270 Z1.762 E5.8053
G1 X166.9310 Y129.7980 Z1.764 E5.8821
G1 X167.9330 Y131.6880 Z1.766 E5.9590
G1 X168.7250 Y133.6760 Z1.768 E6.0358
G1 X169.2980 Y135.7380 Z1.770 E6.1127
G1 X169.6440 Y137.8490 Z1.773 E6.1895
G1 X169.7600 Y139.9920 Z1.775 E6.2666
G1 X169.7600 Y141.0890 Z1.776 E6.3060
G1 X169.1950 Y141.1140 Z1.776 E6.3263
G1 X168.2270 Y141.2500 Z1.777 E6.3615
G1 X167.2770 Y141.4890 Z1.778 E6.3966
G1 X166.3590 Y141.8260 Z1.779 E6.4318
G1 X165.4850 Y142.2570 Z1.780 E6.4668
G1 X165.2340 Y142.4030 Z1.781 E6.4772
G1 X164.6560 Y142.7810 Z1.781 E6.5020
G1 X164.4060 Y142.9640 Z1.782 E6.5131
G1 X163.8880 Y143.3890 Z1.782 E6.5372
G1 X163.6440 Y143.6120 Z1.783 E6.5491
G1 X163.1890 Y144.0740 Z1.783 E6.5724
G1 X162.9560 Y144.3380 Z1.784 E6.5850
G1 X162.5670 Y144.8300 Z1.784 E6.6076
G1 X162.3510 Y145.1350 Z1.785 E6.6210
G1 X162.0280 Y145.6470 Z1.785 E6.6427
G1 X161.8360 Y145.9920 Z1.786 E6.6569
G1 X161.5780 Y146.5170 Z1.786 E6.6779
G1 X161.4160 Y146.8990 Z1.787 E6.6928
G1 X161.2230 Y147.4290 Z1.787 E6.7131
G1 X161.0970 Y147.8470 Z1.788 E6.7288
G1 X160.9670 Y148.3740 Z1.788 E6.7483
G1 X160.8820 Y148.8240 Z1.789 E6.7647
G1 X160.8120 Y149.3410 Z1.789 E6.7835
G1 X160.7730 Y149.8190 Z1.790 E6.8007
G1 X160.7600 Y150.3190 Z1.790 E6.8186
G1 X160.7730 Y150.8190 Z1.791 E6.8366
G1 X160.8120 Y151.2960 Z1.791 E6.8538
G1 X160.8820 Y151.8130 Z1.792 E6.8726
G1 X160.9670 Y152.2630 Z1.792 E6.8890
G1 X161.0970 Y152.7900 Z1.793 E6.9085
G1 X161.2230 Y153.2080 Z1.793 E6.9242
G1 X161.4160 Y153.7380 Z1.794 E6.9444
G1 X161.5780 Y154.1200 Z1.794 E6.9594
G1 X161.8360 Y154.6460 Z1.795 E6.9804
G1 X162.0280 Y154.9900 Z1.795 E6.9945
G1 X162.3510 Y155.5030 Z1.796 E7.0163
G1 X162.5670 Y155.8070 Z1.796 E7.0297
G1 X162.9560 Y156.2990 Z1.797 E7.0523
G1 X163.1890 Y156.5630 Z1.797 E7.0649
G1 X163.6440 Y157.0250 Z1.798 E7.0882
G1 X163.8880 Y157.2490 Z1.798 E7.1001
G1 X164.4060 Y157.6730 Z1.799 E7.1241
G1 X164.6560 Y157.8560 Z1.799 E7.1353
G1 X165.2340 Y158.2350 Z1.800 E7.1601
G1 X165.4850 Y158.3800 Z1.800 E7.1705
;layer 10, Z = 2.000
G92 E0.0000
G1 X166.3590 Y158.8110 Z1.801 E0.0350 F4200 ; custom feedrate
G1 X167.2770 Y159.1490 Z1.802 E0.0702
G1 X168.2270 Y159.3870 Z1.803 E0.1053
G1 X169.1950 Y159.5240 Z1.804 E0.1404
G1 X169.7600 Y159.5480 Z1.804 E0.1608
G1 X169.7600 Y160.5530 Z1.805 E0.1968
G1 X160.6610 Y169.6520 Z1.818 E0.6591
G1 X169.7600 Y178.7510 Z1.831 E1.1213
G1 X169.7600 Y179.7450 Z1.832 E1.1570
G1 X168.1320 Y179.7450 Z1.834 E1.2155
G1 X168.1210 Y179.6470 Z1.834 E1.2191
G1 X168.0150 Y179.3300 Z1.834 E1.2311
G1 X167.9290 Y179.1680 Z1.835 E1.2377
G1 X167.7270 Y178.9020 Z1.835 E1.2496
G1 X167.4690 Y178.6830 Z1.835 E1.2618
G1 X167.2230 Y178.5470 Z1.835 E1.2719
G1 X166.9730 Y178.4600 Z1.836 E1.2814
G1 X166.6670 Y178.4130 Z1.836 E1.2925
G1 X166.3290 Y178.4310 Z1.836 E1.3047
G1 X166.0010 Y178.5220 Z1.837 E1.3169
G1 X165.7150 Y178.6720 Z1.837 E1.3285
G1 X165.5070 Y178.8370 Z1.837 E1.3380
G1 X165.3280 Y179.0350 Z1.838 E1.3476
G1 X165.1540 Y179.3240 Z1.838 E1.3598
G1 X165.0450 Y179.6470 Z1.838 E1.3720
G1 X165.0350 Y179.7450 Z1.838 E1.3755
G1 X163.4070 Y179.7450 Z1.840 E1.4340
G1 X163.4070 Y178.4120 Z1.841 E1.4819
G1 X161.5930 Y178.4120 Z1.843 E1.5471
G1 X161.5930 Y179.7450 Z1.844 E1.5950
G1 X159.8490 Y179.7450 Z1.846 E1.6576
G1 X158.4170 Y178.3130 Z1.848 E1.7304
G1 X156.9840 Y179.7450 Z1.850 E1.8032
G1 X155.0060 Y179.7450 Z1.852 E1.8742
G1 X154.5020 Y179.7190 Z1.853 E1.8923
G1 X154.0100 Y179.6410 Z1.853 E1.9102
G1 X153.5290 Y179.5120 Z1.854 E1.9281
G1 X153.0640 Y179.3340 Z1.854 E1.9460
G1 X152.6200 Y179.1070 Z1.855 E1.9639
G1 X152.2020 Y178.8360 Z1.855 E1.9818
G1 X151.8150 Y178.5220 Z1.856 E1.9997
G1 X151.4630 Y178.1700 Z1.856 E2.0176
G1 X151.1490 Y177.7830 Z1.857 E2.0355
G1 X150.8780 Y177.3650 Z1.857 E2.0534
G1 X150.6520 Y176.9210 Z1.858 E2.0713
G1 X150.4730 Y176.4560 Z1.858 E2.0892
G1 X150.3440 Y175.9750 Z1.859 E2.1071
G1 X150.2660 Y175.4830 Z1.859 E2.1250
G1 X150.2400 Y174.9790 Z1.860 E2.1431
G1 X150.2400 Y164.9790 Z1.870 E2.5023
G1 X150.2120 Y164.4380 Z1.870 E2.5218
G1 X150.1260 Y163.8960 Z1.871 E2.5415
G1 X149.9840 Y163.3660 Z1.871 E2.5612
G1 X149.7870 Y162.8540 Z1.872 E2.5809
G1 X149.5380 Y162.3650 Z1.873 E2.6006
G1 X149.2400 Y161.9050 Z1.873 E2.6203
G1 X148.8940 Y161.4790 Z1.874 E2.6400
G1 X148.5060 Y161.0910 Z1.874 E2.6597
G1 X148.0800 Y160.7460 Z1.875 E2.6794
G1 X147.6200 Y160.4470 Z1.875 E2.6991
G1 X147.1310 Y160.1980 Z1.876 E2.7188
G1 X146.6190 Y160.0010 Z1.876 E2.7385
G1 X146.0900 Y159.8600 Z1.877 E2.7582
G1 X145.5480 Y159.7740 Z1.877 E2.7779
G1 X145.0060 Y159.7450 Z1.878 E2.7974
G1 X130.2400 Y159.7450 Z1.893 E3.3278
G1 X130.2400 Y139.9920 Z1.913 E4.0374
G1 X130.3560 Y137.8490 Z1.915 E4.1145
G1 X130.7020 Y135.7380 Z1.917 E4.1913
G1 X131.2750 Y133.6760 Z1.919 E4.2682
G1 X132.0670 Y131.6880 Z1.921 E4.3450
G1 X133.0690 Y129.7980 Z1.923 E4.4219
G1 X134.2690 Y128.0270 Z1.925 E4.4987
G1 X135.6550 Y126.3970 Z1.928 E4.5756
G1 X137.2080 Y124.9250 Z1.930 E4.6524
G1 X138.9110 Y123.6310 Z1.932 E4.7293
G1 X140.7440 Y122.5270 Z1.934 E4.8062
G1 X142.6860 Y121.6290 Z1.936 E4.8830
G1 X144.7140 Y120.9460 Z1.938 E4.9599
G1 X146.8030 Y120.4860 Z1.940 E5.0367
G1 X148.9300 Y120.2550 Z1.943 E5.1136
G1 X151.0700 Y120.2550 Z1.945 E5.1904
G1 X153.1970 Y120.4860 Z1.947 E5.2673
G1 X155.2860 Y120.9460 Z1.949 E5.3441
G1 X157.3140 Y121.6290 Z1.951 E5.4210
G1 X159.2560 Y122.5270 Z1.953 E5.4978
G1 X161.0890 Y123.6310 Z1.955 E5.5747
G1 X162.7920 Y124.9250 Z1.958 E5.6515
G1 X164.3450 Y126.3970 Z1.960 E5.7284
G1 X165.7310 Y128.0270 Z1.962 E5.8053
G1 X166.9310 Y129.7980 Z1.964 E5.8821
G1 X167.9330 Y131.6880 Z1.966 E5.9590
G1 X168.7250 Y133.6760 Z1.968 E6.0358
G1 X169.2980 Y135.7380 Z1.970 E6.1127
G1 X169.6440 Y137.8490 Z1.973 E6.1895
G1 X169.7600 Y139.9920 Z1.975 E6.2666
G1 X169.7600 Y141.0890 Z1.976 E6.3060
G1 X169.1950 Y141.1140 Z1.976 E6.3263
G1 X168.2270 Y141.2500 Z1.977 E6.3615
G1 X167.2770 Y141.4890 Z1.978 E6.3966
G1 X166.3590 Y141.8260 Z1.979 E6.4318
G1 X165.4850 Y142.2570 Z1.980 E6.4668
G1 X165.2340 Y142.4030 Z1.981 E6.4772
G1 X164.6560 Y142.7810 Z1.981 E6.5020
G1 X164.4060 Y142.9640 Z1.982 E6.5131
G1 X163.8880 Y143.3890 Z1.982 E6.5372
G1 X163.6440 Y143.6120 Z1.983 E6.5491
G1 X163.1890 Y144.0740 Z1.983 E6.5724
G1 X162.9560 Y144.3380 Z1.984 E6.5850
G1 X162.5670 Y144.8300 Z1.984 E6.6076
G1 X162.3510 Y145.1350 Z1.985 E6.6210
G1 X162.0280 Y145.6470 Z1.985 E6.6427
G1 X161.8360 Y145.9920 Z1.986 E6.6569
G1 X161.5780 Y146.5170 Z1.986 E6.6779
G1 X161.4160 Y146.8990 Z1.987 E6.6928
G1 X161.2230 Y147.4290 Z1.987 E6.7131
G1 X161.0970 Y147.8470 Z1.988 E6.7288
G1 X160.9670 Y148.3740 Z1.988 E6.7483
G1 X160.8820 Y148.8240 Z1.989 E6.7647
G1 X160.8120 Y149.3410 Z1.989 E6.7835
G1 X160.7730 Y149.8190 Z1.990 E6.8007
G1 X160.7600 Y150.3190 Z1.990 E6.8186
G1 X160.7730 Y150.8190 Z1.991 E6.8366
G1 X160.8120 Y151.2960 Z1.991 E6.8538
G1 X160.8820 Y151.8130 Z1.992 E6.8726
G1 X160.9670 Y152.2630 Z1.992 E6.8890
G1 X161.0970 Y152.7900 Z1.993 E6.9085
G1 X161.2230 Y153.2080 Z1.993 E6.9242
G1 X161.4160 Y153.7380 Z1.994 E6.9444
G1 X161.5780 Y154.1200 Z1.994 E6.9594
G1 X161.8360 Y154.6460 Z1.995 E6.9804
G1 X162.0280 Y154.9900 Z1.995 E6.9945
G1 X162.3510 Y155.5030 Z1.996 E7.0163
G1 X162.5670 Y155.8070 Z1.996 E7.0297
G1 X162.9560 Y156.2990 Z1.997 E7.0523
G1 X163.1890 Y156.5630 Z1.997 E7.0649
G1 X163.6440 Y157.0250 Z1.998 E7.0882
G1 X163.8880 Y157.2490 Z1.998 E7.1001
G1 X164.4060 Y157.6730 Z1.999 E7.1241
G1 X164.6560 Y157.8560 Z1.999 E7.1353
G1 X165.2340 Y158.2350 Z2.000 E7.1601
G1 X165.4850 Y158.3800 Z2.000 E7.1705
;layer 11, Z = 2.200
G92 E0.0000
G1 X166.3590 Y158.8110 Z2.001 E0.0350 F4200 ; custom feedrate
G1 X167.2770 Y159.1490 Z2.002 E0.0702
G1 X168.2270 Y159.3870 Z2.003 E0.1053
G1 X169.1950 Y159.5240 Z2.004 E0.1404
G1 X169.7600 Y159.5480 Z2.004 E0.1608
G1 X169.7600 Y160.5530 Z2.005 E0.1968
G1 X160.6610 Y169.6520 Z2.018 E0.6591
G1 X169.7600 Y178.7510 Z2.031 E1.1213
G1 X169.7600 Y179.7450 Z2.032 E1.1570
G1 X168.1320 Y179.7450 Z2.034 E1.2155
G1 X168.1210 Y179.6470 Z2.034 E1.2191
G1 X168.0150 Y179.3300 Z2.034 E1.2311
G1 X167.9290 Y179.1680 Z2.035 E1.2377
G1 X167.7270 Y178.9020 Z2.035 E1.2496
G1 X167.4690 Y178.6830 Z2.035 E1.2618
G1 X167.2230 Y178.5470 Z2.035 E1.2719
G1 X166.9730 Y178.4600 Z2.036 E1.2814
G1 X166.6670 Y178.4130 Z2.036 E1.2925
G1 X166.3290 Y178.4310 Z2.036 E1.3047
G1 X166.0010 Y178.5220 Z2.037 E1.3169
G1 X165.7150 Y178.6720 Z2.037 E1.3285
G1 X165.5070 Y178.8370 Z2.037 E1.3380
G1 X165.3280 Y179.0350 Z2.038 E1.3476
G1 X165.1540 Y179.3240 Z2.038 E1.3598
G1 X165.0450 Y179.6470 Z2.038 E1.3720
G1 X165.0350 Y179.7450 Z2.038 E1.3755
G1 X163.4070 Y179.7450 Z2.040 E1.4340
G1 X163.4070 Y178.4120 Z2.041 E1.4819
G1 X161.5930 Y178.4120 Z2.043 E1.5471
G1 X161.5930 Y179.7450 Z2.044 E1.5950
G1 X159.8490 Y179.7450 Z2.046 E1.6576
G1 X158.4170 Y178.3130 Z2.048 E1.7304
G1 X156.9840 Y179.7450 Z2.050 E1.8032
G1 X155.0060 Y179.7450 Z2.052 E1.8742
G1 X154.5020 Y179.7190 Z2.053 E1.8923
G1 X154.0100 Y179.6410 Z2.053 E1.9102
G1 X153.5290 Y179.5120 Z2.054 E1.9281
G1 X153.0640 Y179.3340 Z2.054 E1.9460
G1 X152.6200 Y179.1070 Z2.055 E1.9639
G1 X152.2020 Y178.8360 Z2.055 E1.9818
G1 X151.8150 Y178.5220 Z2.056 E1.9997
G1 X151.4630 Y178.1700 Z2.056 E2.0176
G1 X151.1490 Y177.7830 Z2.057 E2.0355
G1 X150.8780 Y177.3650 Z2.057 E2.0534
G1 X150.6520 Y176.9210 Z2.058 E2.0713
G1 X150.4730 Y176.4560 Z2.058 E2.0892
G1 X150.3440 Y175.9750 Z2.059 E2.1071
G1 X150.2660 Y175.4830 Z2.059 E2.1250
G1 X150.2400 Y174.9790 Z2.060 E2.1431
G1 X150.2400 Y164.9790 Z2.070 E2.5023
G1 X150.2120 Y164.4380 Z2.070 E2.5218
G1 X150.1260 Y163.8960 Z2.071 E2.5415
G1 X149.9840 Y163.3660 Z2.071 E2.5612
G1 X149.7870 Y162.8540 Z2.072 E2.5809
G1 X149.5380 Y162.3650 Z2.073 E2.6006
G1 X149.2400 Y161.9050 Z2.073 E2.6203
G1 X148.8940 Y161.4790 Z2.074 E2.6400
G1 X148.5060 Y161.0910 Z2.074 E2.6597
G1 X148.0800 Y160.7460 Z2.075 E2.6794
G1 X147.6200 Y160.4470 Z2.075 E2.6991
G1 X147.1310 Y160.1980 Z2.076 E2.7188
G1 X146.6190 Y160.0010 Z2.076 E2.7385
G1 X146.0900 Y159.8600 Z2.077 E2.7582
G1 X145.5480 Y159.7740 Z2.077 E2.7779
G1 X145.0060 Y159.7450 Z2.078 E2.7974
G1 X130.2400 Y159.7450 Z2.093 E3.3278
G1 X130.2400 Y139.9920 Z2.113 E4.0374
G1 X130.3560 Y137.8490 Z2.115 E4.1145
G1 X130.7020 Y135.7380 Z2.117 E4.1913
G1 X131.2750 Y133.6760 Z2.119 E4.2682
G1 X132.0670 Y131.6880 Z2.121 E4.3450
G1 X133.0690 Y129.7980 Z2.123 E4.4219
G1 X134.2690 Y128.0270 Z2.125 E4.4987
G1 X135.6550 Y126.3970 Z2.128 E4.5756
G1 X137.2080 Y124.9250 Z2.130 E4.6524
G1 X138.9110 Y123.6310 Z2.132 E4.7293
G1 X140.7440 Y122.5270 Z2.134 E4.8062
G1 X142.6860 Y121.6290 Z2.136 E4.8830
G1 X144.7140 Y120.9460 Z2.138 E4.9599
G1 X146.8030 Y120.4860 Z2.140 E5.0367
G1 X148.9300 Y120.2550 Z2.143 E5.1136
G1 X151.0700 Y120.2550 Z2.145 E5.1904
G1 X153.1970 Y120.4860 Z2.147 E5.2673
G1 X155.2860 Y120.9460 Z2.149 E5.3441
G1 X157.3140 Y121.6290 Z2.151 E5.4210
G1 X159.2560 Y122.5270 Z2.153 E5.4978
G1 X161.0890 Y123.6310 Z2.155 E5.5747
G1 X162.7920 Y124.9250 Z2.158 E5.6515
G1 X164.3450 Y126.3970 Z2.160 E5.7284
G1 X165.7310 Y128.0270 Z2.162 E5.8053
G1 X166.9310 Y129.7980 Z2.164 E5.8821
G1 X167.9330 Y131.6880 Z2.166 E5.9590
G1 X168.7250 Y133.6760 Z2.168 E6.0358
G1 X169.2980 Y135.7380 Z2.170 E6.1127
G1 X169.6440 Y137.8490 Z2.173 E6.1895
G1 X169.7600 Y139.9920 Z2.175 E6.2666
G1 X169.7600 Y141.0890 Z2.176 E6.3060
G1 X169.1950 Y141.1140 Z2.176 E6.3263
G1 X168.2270 Y141.2500 Z2.177 E6.3615
G1 X167.2770 Y141.4890 Z2.178 E6.3966
G1 X166.3590 Y141.8260 Z2.179 E6.4318
G1 X165.4850 Y142.2570 Z2.180 E6.4668
G1 X165.2340 Y142.4030 Z2.181 E6.4772
G1 X164.6560 Y142.7810 Z2.181 E6.5020
G1 X164.4060 Y142.9640 Z2.182 E6.5131
G1 X163.8880 Y143.3890 Z2.182 E6.5372
G1 X163.6440 Y143.6120 Z2.183 E6.5491
G1 X163.1890 Y144.0740 Z2.183 E6.5724
G1 X162.9560 Y144.3380 Z2.184 E6.5850
G1 X162.5670 Y144.8300 Z2.184 E6.6076
G1 X162.3510 Y145.1350 Z2.185 E6.6210
G1 X162.0280 Y145.6470 Z2.185 E6.6427
G1 X161.8360 Y145.9920 Z2.186 E6.6569
G1 X161.5780 Y146.5170 Z2.186 E6.6779
G1 X161.4160 Y146.8990 Z2.187 E6.6928
G1 X161.2230 Y147.4290 Z2.187 E6.7131
G1 X161.0970 Y147.8470 Z2.188 E6.7288
G1 X160.9670 Y148.3740 Z2.188 E6.7483
G1 X160.8820 Y148.8240 Z2.189 E6.7647
G1 X160.8120 Y149.3410 Z2.189 E6.7835
G1 X160.7730 Y149.8190 Z2.190 E6.8007
G1 X160.7600 Y150.3190 Z2.190 E6.8186
G1 X160.7730 Y150.8190 Z2.191 E6.8366
G1 X160.8120 Y151.2960 Z2.191 E6.8538
G1 X160.8820 Y151.8130 Z2.192 E6.8726
G1 X160.9670 Y152.2630 Z2.192 E6.8890
G1 X161.0970 Y152.7900 Z2.193 E6.9085
G1 X161.2230 Y153.2080 Z2.193 E6.9242
G1 X161.4160 Y153.7380 Z2.194 E6.9444
G1 X161.5780 Y154.1200 Z2.194 E6.9594
G1 X161.8360 Y154.6460 Z2.195 E6.9804
G1 X162.0280 Y154.9900 Z2.195 E6.9945
G1 X162.3510 Y155.5030 Z2.196 E7.0163
G1 X162.5670 Y155.8070 Z2.196 E7.0297
G1 X162.9560 Y156.2990 Z2.197 E7.0523
G1 X163.1890 Y156.5630 Z2.197 E7.0649
G1 X163.6440 Y157.0250 Z2.198 E7.0882
G1 X163.8880 Y157.2490 Z2.198 E7.1001
G1 X164.4060 Y157.6730 Z2.199 E7.1241
G1 X164.6560 Y157.8560 Z2.199 E7.1353
G1 X165.2340 Y158.2350 Z2.200 E7.1601
G1 X165.4850 Y158.3800 Z2.200 E7.1705
;layer 12, Z = 2.400
G92 E0.0000
G1 X166.3590 Y158.8110 Z2.201 E0.0350 F4200 ; custom feedrate
G1 X167.2770 Y159.1490 Z2.202 E0.0702
G1 X168.2270 Y159.3870 Z2.203 E0.1053
G1 X169.1950 Y159.5240 Z2.204 E0.1404
G1 X169.7600 Y159.5480 Z2.204 E0.1608
G1 X169.7600 Y160.5530 Z2.205 E0.1968
G1 X160.6610 Y169.6520 Z2.218 E0.6591
G1 X169.7600 Y178.7510 Z2.231 E1.1213
G1 X169.7600 Y179.7450 Z2.232 E1.1570
G1 X168.1320 Y179.7450 Z2.234 E1.2155
G1 X168.1210 Y179.6470 Z2.234 E1.2191
G1 X168.0150 Y179.3300 Z2.234 E1.2311
G1 X167.9290 Y179.1680 Z2.235 E1.2377
G1 X167.7270 Y178.9020 Z2.235 E1.2496
G1 X167.4690 Y178.6830 Z2.235 E1.2618
G1 X167.2230 Y178.5470 Z2.235 E1.2719
G1 X166.9730 Y178.4600 Z2.236 E1.2814
G1 X166.6670 Y178.4130 Z2.236 E1.2925
G1 X166.3290 Y178.4310 Z2.236 E1.3047
G1 X166.0010 Y178.5220 Z2.237 E1.3169
G1 X165.7150 Y178.6720 Z2.237 E1.3285
G1 X165.5070 Y178.8370 Z2.237 E1.3380
G1 X165.3280 Y179.0350 Z2.238 E1.3476
G1 X165.1540 Y179.3240 Z2.238 E1.3598
G1 X165.0450 Y179.6470 Z2.238 E1.3720
G1 X165.0350 Y179.7450 Z2.238 E1.3755
G1 X163.4070 Y179.7450 Z2.240 E1.4340
G1 X163.4070 Y178.4120 Z2.241 E1.4819
G1 X161.5930 Y178.4120 Z2.243 E1.5471
G1 X161.5930 Y179.7450 Z2.244 E1.5950
G1 X159.8490 Y179.7450 Z2.246 E1.6576
G1 X158.4170 Y178.3130 Z2.248 E1.7304
G1 X156.9840 Y179.7450 Z2.250 E1.8032
G1 X155.0060 Y179.7450 Z2.252 E1.8742
G1 X154.5020 Y179.7190 Z2.253 E1.8923
G1 X154.0100 Y179.6410 Z2.253 E1.9102
G1 X153.5290 Y179.5120 Z2.254 E1.9281
G1 X153.0640 Y179.3340 Z2.254 E1.9460
G1 X152.6200 Y179.1070 Z2.255 E1.9639
G1 X152.2020 Y178.8360 Z2.255 E1.9818
G1 X151.8150 Y178.5220 Z2.256 E1.9997
G1 X151.4630 Y178.1700 Z2.256 E2.0176
G1 X151.1490 Y177.7830 Z2.257 E2.0355
G1 X150.8780 Y177.3650 Z2.257 E2.0534
G1 X150.6520 Y176.9210 Z2.258 E2.0713
G1 X150.4730 Y176.4560 Z2.258 E2.0892
G1 X150.3440 Y175.9750 Z2.259 E2.1071
G1 X150.2660 Y175.4830 Z2.259 E2.1250
G1 X150.2400 Y174.9790 Z2.260 E2.1431
G1 X150.2400 Y164.9790 Z2.270 E2.5023
G1 X150.2120 Y164.4380 Z2.270 E2.5218
G1 X150.1260 Y163.8960 Z2.271 E2.5415
G1 X149.9840 Y163.3660 Z2.271 E2.5612
G1 X149.7870 Y162.8540 Z2.272 E2.5809
G1 X149.5380 Y162.3650 Z2.273 E2.6006
G1 X149.2400 Y161.9050 Z2.273 E2.6203
G1 X148.8940 Y161.4790 Z2.274 E2.6400
G1 X148.5060 Y161.0910 Z2.274 E2.6597
G1 X148.0800 Y160.7460 Z2.275 E2.6794
G1 X147.6200 Y160.4470 Z2.275 E2.6991
G1 X147.1310 Y160.1980 Z2.276 E2.7188
G1 X146.6190 Y160.0010 Z2.276 E2.7385
G1 X146.0900 Y159.8600 Z2.277 E2.7582
G1 X145.5480 Y159.7740 Z2.277 E2.7779
G1 X145.0060 Y159.7450 Z2.278 E2.7974
G1 X130.2400 Y159.7450 Z2.293 E3.3278
G1 X130.2400 Y139.9920 Z2.313 E4.0374
G1 X130.3560 Y137.8490 Z2.315 E4.1145
G1 X130.7020 Y135.7380 Z2.317 E4.1913
G1 X131.2750 Y133.6760 Z2.319 E4.2682
G1 X132.0670 Y131.6880 Z2.321 E4.3450
G1 X133.0690 Y129.7980 Z2.323 E4.4219
G1 X134.2690 Y128.0270 Z2.325 E4.4987
G1 X135.6550 Y126.3970 Z2.328 E4.5756
G1 X137.2080 Y124.9250 Z2.330 E4.6524
G1 X138.9110 Y123.6310 Z2.332 E4.7293
G1 X140.7440 Y122.5270 Z2.334 E4.8062
G1 X142.6860 Y121.6290 Z2.336 E4.8830
G1 X144.7140 Y120.9460 Z2.338 E4.9599
G1 X146.8030 Y120.4860 Z2.340 E5.0367
G1 X148.9300 Y120.2550 Z2.343 E5.1136
G1 X151.0700 Y120.2550 Z2.345 E5.1904
G1 X153.1970 Y120.4860 Z2.347 E5.2673
G1 X155.2860 Y120.9460 Z2.349 E5.3441
G1 X157.3140 Y121.6290 Z2.351 E5.4210
G1 X159.2560 Y122.5270 Z2.353 E5.4978
G1 X161.0890 Y123.6310 Z2.355 E5.5747
G1 X162.7920 Y124.9250 Z2.358 E5.6515
G1 X164.3450 Y126.3970 Z2.360 E5.7284
G1 X165.7310 Y128.0270 Z2.362 E5.8053
G1 X166.9310 Y129.7980 Z2.364 E5.8821
G1 X167.9330 Y131.6880 Z2.366 E5.9590
G1 X168.7250 Y133.6760 Z2.368 E6.0358
G1 X169.2980 Y135.7380 Z2.370 E6.1127
G1 X169.6440 Y137.8490 Z2.373 E6.1895
G1 X169.7600 Y139.9920 Z2.375 E6.2666
G1 X169.7600 Y141.0890 Z2.376 E6.3060
G1 X169.1950 Y141.1140 Z2.376 E6.3263
G1 X168.2270 Y141.2500 Z2.377 E6.3615
G1 X167.2770 Y141.4890 Z2.378 E6.3966
G1 X166.3590 Y141.8260 Z2.379 E6.4318
G1 X165.4850 Y142.2570 Z2.380 E6.4668
G1 X165.2340 Y142.4030 Z2.381 E6.4772
G1 X164.6560 Y142.7810 Z2.381 E6.5020
G1 X164.4060 Y142.9640 Z2.382 E6.5131
G1 X163.8880 Y143.3890 Z2.382 E6.5372
G1 X163.6440 Y143.6120 Z2.383 E6.5491
G1 X163.1890 Y144.0740 Z2.383 E6.5724
G1 X162.9560 Y144.3380 Z2.384 E6.5850
G1 X162.5670 Y144.8300 Z2.384 E6.6076
G1 X162.3510 Y145.1350 Z2.385 E6.6210
G1 X162.0280 Y145.6470 Z2.385 E6.6427
G1 X161.8360 Y145.9920 Z2.386 E6.6569
G1 X161.5780 Y146.5170 Z2.386 E6.6779
G1 X161.4160 Y146.8990 Z2.387 E6.6928
G1 X161.2230 Y147.4290 Z2.387 E6.7131
G1 X161.0970 Y147.8470 Z2.388 E6.7288
G1 X160.9670 Y148.3740 Z2.388 E6.7483
G1 X160.8820 Y148.8240 Z2.389 E6.7647
G1 X160.8120 Y149.3410 Z2.389 E6.7835
G1 X160.7730 Y149.8190 Z2.390 E6.8007
G1 X160.7600 Y150.3190 Z2.390 E6.8186
G1 X160.7730 Y150.8190 Z2.391 E6.8366
G1 X160.8120 Y151.2960 Z2.391 E6.8538
G1 X160.8820 Y151.8130 Z2.392 E6.8726
G1 X160.9670 Y152.2630 Z2.392 E6.8890
G1 X161.0970 Y152.7900 Z2.393 E6.9085
G1 X161.2230 Y153.2080 Z2.393 E6.9242
G1 X161.4160 Y153.7380 Z2.394 E6.9444
G1 X161.5780 Y154.1200 Z2.394 E6.9594
G1 X161.8360 Y154.6460 Z2.395 E6.9804
G1 X162.0280 Y154.9900 Z2.395 E6.9945
G1 X162.3510 Y155.5030 Z2.396 E7.0163
G1 X162.5670 Y155.8070 Z2.396 E7.0297
G1 X162.9560 Y156.2990 Z2.397 E7.0523
G1 X163.1890 Y156.5630 Z2.397 E7.0649
G1 X163.6440 Y157.0250 Z2.398 E7.0882
G1 X163.8880 Y157.2490 Z2.398 E7.1001
G1 X164.4060 Y157.6730 Z2.399 E7.1241
G1 X164.6560 Y157.8560 Z2.399 E7.1353
G1 X165.2340 Y158.2350 Z2.400 E7.1601
G1 X165.4850 Y158.3800 Z2.400 E7.1705
;layer 13, Z = 2.600
G92 E0.0000
G1 X166.3590 Y158.8110 Z2.401 E0.0350 F4200 ; custom feedrate
G1 X167.2770 Y159.1490 Z2.402 E0.0702
G1 X168.2270 Y159.3870 Z2.403 E0.1053
G1 X169.1950 Y159.5240 Z2.404 E0.1404
G1 X169.7600 Y159.5480 Z2.404 E0.1608
G1 X169.7600 Y160.5530 Z2.405 E0.1968
G1 X160.6610 Y169.6520 Z2.418 E0.6591
G1 X169.7600 Y178.7510 Z2.431 E1.1213
G1 X169.7600 Y179.7450 Z2.432 E1.1570
G1 X168.1320 Y179.7450 Z2.434 E1.2155
G1 X168.1210 Y179.6470 Z2.434 E1.2191
G1 X168.0150 Y179.3300 Z2.434 E1.2311
G1 X167.9290 Y179.1680 Z2.435 E1.2377
G1 X167.7270 Y178.9020 Z2.435 E1.2496
G1 X167.4690 Y178.6830 Z2.435 E1.2618
G1 X167.2230 Y178.5470 Z2.435 E1.2719
G1 X166.9730 Y178.4600 Z2.436 E1.2814
G1 X166.6670 Y178.4130 Z2.436 E1.2925
G1 X166.3290 Y178.4310 Z2.436 E1.3047
G1 X166.0010 Y178.5220 Z2.437 E1.3169
G1 X165.7150 Y178.6720 Z2.437 E1.3285
G1 X165.5070 Y178.8370 Z2.437 E1.3380
G1 X165.3280 Y179.0350 Z2.438 E1.3476
G1 X165.1540 Y179.3240 Z2.438 E1.3598
G1 X165.0450 Y179.6470 Z2.438 E1.3720
G1 X165.0350 Y179.7450 Z2.438 E1.3755
G1 X163.4070 Y179.7450 Z2.440 E1.4340
G1 X163.4070 Y178.4120 Z2.441 E1.4819
G1 X161.5930 Y178.4120 Z2.443 E1.5471
G1 X161.5930 Y179.7450 Z2.444 E1.5950
G1 X159.8490 Y179.7450 Z2.446 E1.6576
G1 X158.4170 Y178.3130 Z2.448 E1.7304
G1 X156.9840 Y179.7450 Z2.450 E1.8032
G1 X155.0060 Y179.7450 Z2.452 E1.8742
G1 X154.5020 Y179.7190 Z2.453 E1.8923
G1 X154.0100 Y179.6410 Z2.453 E1.9102
G1 X153.5290 Y179.5120 Z2.454 E1.9281
G1 X153.0640 Y179.3340 Z2.454 E1.9460
G1 X152.6200 Y179.1070 Z2.455 E1.9639
G1 X152.2020 Y178.8360 Z2.455 E1.9818
G1 X151.8150 Y178.5220 Z2.456 E1.9997
G1 X151.4630 Y178.1700 Z2.456 E2.0176
G1 X151.1490 Y177.7830 Z2.457 E2.0355
G1 X150.8780 Y177.3650 Z2.457 E2.0534
G1 X150.6520 Y176.9210 Z2.458 E2.0713
G1 X150.4730 Y176.4560 Z2.458 E2.0892
G1 X150.3440 Y175.9750 Z2.459 E2.1071
G1 X150.2660 Y175.4830 Z2.459 E2.1250
G1 X150.2400 Y174.9790 Z2.460 E2.1431
G1 X150.2400 Y164.9790 Z2.470 E2.5023
G1 X150.2120 Y164.4380 Z2.470 E2.5218
G1 X150.1260 Y163.8960 Z2.471 E2.5415
G1 X149.9840 Y163.3660 Z2.471 E2.5612
G1 X149.7870 Y162.8540 Z2.472 E2.5809
G1 X149.5380 Y162.3650 Z2.473 E2.6006
G1 X149.2400 Y161.9050 Z2.473 E2.6203
G1 X148.8940 Y161.4790 Z2.474 E2.6400
G1 X148.5060 Y161.0910 Z2.474 E2.6597
G1 X148.0800 Y160.7460 Z2.475 E2.6794
G1 X147.6200 Y160.4470 Z2.475 E2.6991
G1 X147.1310 Y160.1980 Z2.476 E2.7188
G1 X146.6190 Y160.0010 Z2.476 E2.7385
G1 X146.0900 Y159.8600 Z2.477 E2.7582
G1 X145.5480 Y159.7740 Z2.477 E2.7779
G1 X145.0060 Y159.7450 Z2.478 E2.7974
G1 X130.2400 Y159.7450 Z2.493 E3.3278
G1 X130.2400 Y139.9920 Z2.513 E4.0374
G1 X130.3560 Y137.8490 Z2.515 E4.1145
G1 X130.7020 Y135.7380 Z2.517 E4.1913
G1 X131.2750 Y133.6760 Z2.519 E4.2682
G1 X132.0670 Y131.6880 Z2.521 E4.3450
G1 X133.0690 Y129.7980 Z2.523 E4.4219
G1 X134.2690 Y128.0270 Z2.525 E4.4987
G1 X135.6550 Y126.3970 Z2.528 E4.5756
G1 X137.2080 Y124.9250 Z2.530 E4.6524
G1 X138.9110 Y123.6310 Z2.532 E4.7293
G1 X140.7440 Y122.5270 Z2.534 E4.8062
G1 X142.6860 Y121.6290 Z2.536 E4.8830
G1 X144.7140 Y120.9460 Z2.538 E4.9599
G1 X146.8030 Y120.4860 Z2.540 E5.0367
G1 X148.9300 Y120.2550 Z2.543 E5.1136
G1 X151.0700 Y120.2550 Z2.545 E5.1904
G1 X153.1970 Y120.4860 Z2.547 E5.2673
G1 X155.2860 Y120.9460 Z2.549 E5.3441
G1 X157.3140 Y121.6290 Z2.551 E5.4210
G1 X159.2560 Y122.5270 Z2.553 E5.4978
G1 X161.0890 Y123.6310 Z2.555 E5.5747
G1 X162.7920 Y124.9250 Z2.558 E5.6515
G1 X164.3450 Y126.3970 Z2.560 E5.7284
G1 X165.7310 Y128.0270 Z2.562 E5.8053
G1 X166.9310 Y129.7980 Z2.564 E5.8821
G1 X167.9330 Y131.6880 Z2.566 E5.9590
G1 X168.7250 Y133.6760 Z2.568 E6.0358
G1 X169.2980 Y135.7380 Z2.570 E6.1127
G1 X169.6440 Y137.8490 Z2.573 E6.1895
G1 X169.7600 Y139.9920 Z2.575 E6.2666
G1 X169.7600 Y141.0890 Z2.576 E6.3060
G1 X169.1950 Y141.1140 Z2.576 E6.3263
G1 X168.2270 Y141.2500 Z2.577 E6.3615
G1 X167.2770 Y141.4890 Z2.578 E6.3966
G1 X166.3590 Y141.8260 Z2.579 E6.4318
G1 X165.4850 Y142.2570 Z2.580 E6.4668
G1 X165.2340 Y142.4030 Z2.581 E6.4772
G1 X164.6560 Y142.7810 Z2.581 E6.5020
G1 X164.4060 Y142.9640 Z2.582 E6.5131
G1 X163.8880 Y143.3890 Z2.582 E6.5372
G1 X163.6440 Y143.6120 Z2.583 E6.5491
G1 X163.1890 Y144.0740 Z2.583 E6.5724
G1 X162.9560 Y144.3380 Z2.584 E6.5850
G1 X162.5670 Y144.8300 Z2.584 E6.6076
G1 X162.3510 Y145.1350 Z2.585 E6.6210
G1 X162.0280 Y145.6470 Z2.585 E6.6427
G1 X161.8360 Y145.9920 Z2.586 E6.6569
G1 X161.5780 Y146.5170 Z2.586 E6.6779
G1 X161.4160 Y146.8990 Z2.587 E6.6928
G1 X161.2230 Y147.4290 Z2.587 E6.7131
G1 X161.0970 Y147.8470 Z2.588 E6.7288
G1 X160.9670 Y148.3740 Z2.588 E6.7483
G1 X160.8820 Y148.8240 Z2.589 E6.7647
G1 X160.8120 Y149.3410 Z2.589 E6.7835
G1 X160.7730 Y149.8190 Z2.590 E6.8007
G1 X160.7600 Y150.3190 Z2.590 E6.8186
G1 X160.7730 Y150.8190 Z2.591 E6.8366
G1 X160.8120 Y151.2960 Z2.591 E6.8538
G1 X160.8820 Y151.8130 Z2.592 E6.8726
G1 X160.9670 Y152.2630 Z2.592 E6.8890
G1 X161.0970 Y152.7900 Z2.593 E6.9085
G1 X161.2230 Y153.2080 Z2.593 E6.9242
G1 X161.4160 Y153.7380 Z2.594 E6.9444
G1 X161.5780 Y154.1200 Z2.594 E6.9594
G1 X161.8360 Y154.6460 Z2.595 E6.9804
G1 X162.0280 Y154.9900 Z2.595 E6.9945
G1 X162.3510 Y155.5030 Z2.596 E7.0163
G1 X162.5670 Y155.8070 Z2.596 E7.0297
G1 X162.9560 Y156.2990 Z2.597 E7.0523
G1 X163.1890 Y156.5630 Z2.597 E7.0649
G1 X163.6440 Y157.0250 Z2.598 E7.0882
G1 X163.8880 Y157.2490 Z2.598 E7.1001
G1 X164.4060 Y157.6730 Z2.599 E7.1241
G1 X164.6560 Y157.8560 Z2.599 E7.1353
G1 X165.2340 Y158.2350 Z2.600 E7.1601
G1 X165.4850 Y158.3800 Z2.600 E7.1705
;layer 14, Z = 2.800
G92 E0.0000
G1 X166.3590 Y158.8110 Z2.601 E0.0350 F4200 ; custom feedrate
G1 X167.2770 Y159.1490 Z2.602 E0.0702
G1 X168.2270 Y159.3870 Z2.603 E0.1053
G1 X169.1950 Y159.5240 Z2.604 E0.1404
G1 X169.7600 Y159.5480 Z2.604 E0.1608
G1 X169.7600 Y160.5530 Z2.605 E0.1968
G1 X160.6610 Y169.6520 Z2.618 E0.6591
G1 X169.7600 Y178.7510 Z2.631 E1.1213
G1 X169.7600 Y179.7450 Z2.632 E1.1570
G1 X168.1320 Y179.7450 Z2.634 E1.2155
G1 X168.1210 Y179.6470 Z2.634 E1.2191
G1 X168.0150 Y179.3300 Z2.634 E1.2311
G1 X167.9290 Y179.1680 Z2.635 E1.2377
G1 X167.7270 Y178.9020 Z2.635 E1.2496
G1 X167.4690 Y178.6830 Z2.635 E1.2618
G1 X167.2230 Y178.5470 Z2.635 E1.2719
G1 X166.9730 Y178.4600 Z2.636 E1.2814
G1 X166.6670 Y178.4130 Z2.636 E1.2925
G1 X166.3290 Y178.4310 Z2.636 E1.3047
G1 X166.0010 Y178.5220 Z2.637 E1.3169
G1 X165.7150 Y178.6720 Z2.637 E1.3285
G1 X165.5070 Y178.8370 Z2.637 E1.3380
G1 X165.3280 Y179.0350 Z2.638 E1.3476
G1 X165.1540 Y179.3240 Z2.638 E1.3598
G1 X165.0450 Y179.6470 Z2.638 E1.3720
G1 X165.0350 Y179.7450 Z2.638 E1.3755
G1 X163.4070 Y179.7450 Z2.640 E1.4340
G1 X163.4070 Y178.4120 Z2.641 E1.4819
G1 X161.5930 Y178.4120 Z2.643 E1.5471
G1 X161.5930 Y179.7450 Z2.644 E1.5950
G1 X159.8490 Y179.7450 Z2.646 E1.6576
G1 X158.4170 Y178.3130 Z2.648 E1.7304
G1 X156.9840 Y179.7450 Z2.650 E1.8032
G1 X155.0060 Y179.7450 Z2.652 E1.8742
G1 X154.5020 Y179.7190 Z2.653 E1.8923
G1 X154.0100 Y179.6410 Z2.653 E1.9102
G1 X153.5290 Y179.5120 Z2.654 E1.9281
G1 X153.0640 Y179.3340 Z2.654 E1.9460
G1 X152.6200 Y179.1070 Z2.655 E1.9639
G1 X152.2020 Y178.8360 Z2.655 E1.9818
G1 X151.8150 Y178.5220 Z2.656 E1.9997
G1 X151.4630 Y178.1700 Z2.656 E2.0176
G1 X151.1490 Y177.7830 Z2.657 E2.0355
G1 X150.8780 Y177.3650 Z2.657 E2.0534
G1 X150.6520 Y176.9210 Z2.658 E2.0713
G1 X150.4730 Y176.4560 Z2.658 E2.0892
G1 X150.3440 Y175.9750 Z2.659 E2.1071
G1 X150.2660 Y175.4830 Z2.659 E2.1250
G1 X150.2400 Y174.9790 Z2.660 E2.1431
G1 X150.2400 Y164.9790 Z2.670 E2.5023
G1 X150.2120 Y164.4380 Z2.670 E2.5218
G1 X150.1260 Y163.8960 Z2.671 E2.5415
G1 X149.9840 Y163.3660 Z2.671 E2.5612
G1 X149.7870 Y162.8540 Z2.672 E2.5809
G1 X149.5380 Y162.3650 Z2.673 E2.6006
G1 X149.2400 Y161.9050 Z2.673 E2.6203
G1 X148.8940 Y161.4790 Z2.674 E2.6400
G1 X148.5060 Y161.0910 Z2.674 E2.6597
G1 X148.0800 Y160.7460 Z2.675 E2.6794
G1 X147.6200 Y160.4470 Z2.675 E2.6991
G1 X147.1310 Y160.1980 Z2.676 E2.7188
G1 X146.6190 Y160.0010 Z2.676 E2.7385
G1 X146.0900 Y159.8600 Z2.677 E2.7582
G1 X145.5480 Y159.7740 Z2.677 E2.7779
G1 X145.0060 Y159.7450 Z2.678 E2.7974
G1 X130.2400 Y159.7450 Z2.693 E3.3278
G1 X130.2400 Y139.9920 Z2.713 E4.0374
G1 X130.3560 Y137.8490 Z2.715 E4.1145
G1 X130.7020 Y135.7380 Z2.717 E4.1913
G1 X131.2750 Y133.6760 Z2.719 E4.2682
G1 X132.0670 Y131.6880 Z2.721 E4.3450
G1 X133.0690 Y129.7980 Z2.723 E4.4219
G1 X134.2690 Y128.0270 Z2.725 E4.4987
G1 X135.6550 Y126.3970 Z2.728 E4.5756
G1 X137.2080 Y124.9250 Z2.730 E4.6524
G1 X138.9110 Y123.6310 Z2.732 E4.7293
G1 X140.7440 Y122.5270 Z2.734 E4.8062
G1 X142.6860 Y121.6290 Z2.736 E4.8830
G1 X144.7140 Y120.9460 Z2.738 E4.9599
G1 X146.8030 Y120.4860 Z2.740 E5.0367
G1 X148.9300 Y120.2550 Z2.743 E5.1136
G1 X151.0700 Y120.2550 Z2.745 E5.1904
G1 X153.1970 Y120.4860 Z2.747 E5.2673
G1 X155.2860 Y120.9460 Z2.749 E5.3441
G1 X157.3140 Y121.6290 Z2.751 E5.4210
G1 X159.2560 Y122.5270 Z2.753 E5.4978
G1 X161.0890 Y123.6310 Z2.755 E5.5747
G1 X162.7920 Y124.9250 Z2.758 E5.6515
G1 X164.3450 Y126.3970 Z2.760 E5.7284
G1 X165.7310 Y128.0270 Z2.762 E5.8053
G1 X166.9310 Y129.7980 Z2.764 E5.8821
G1 X167.9330 Y131.6880 Z2.766 E5.9590
G1 X168.7250 Y133.6760 Z2.768 E6.0358
G1 X169.2980 Y135.7380 Z2.770 E6.1127
G1 X169.6440 Y137.8490 Z2.773 E6.1895
G1 X169.7600 Y139.9920 Z2.775 E6.2666
G1 X169.7600 Y141.0890 Z2.776 E6.3060
G1 X169.1950 Y141.1140 Z2.776 E6.3263
G1 X168.2270 Y141.2500 Z2.777 E6.3615
G1 X167.2770 Y141.4890 Z2.778 E6.3966
G1 X166.3590 Y141.8260 Z2.779 E6.4318
G1 X165.4850 Y142.2570 Z2.780 E6.4668
G1 X165.2340 Y142.4030 Z2.781 E6.4772
G1 X164.6560 Y142.7810 Z2.781 E6.5020
G1 X164.4060 Y142.9640 Z2.782 E6.5131
G1 X163.8880 Y143.3890 Z2.782 E6.5372
G1 X163.6440 Y143.6120 Z2.783 E6.5491
G1 X163.1890 Y144.0740 Z2.783 E6.5724
G1 X162.9560 Y144.3380 Z2.784 E6.5850
G1 X162.5670 Y144.8300 Z2.784 E6.6076
G1 X162.3510 Y145.1350 Z2.785 E6.6210
G1 X162.0280 Y145.6470 Z2.785 E6.6427
G1 X161.8360 Y145.9920 Z2.786 E6.6569
G1 X161.5780 Y146.5170 Z2.786 E6.6779
G1 X161.4160 Y146.8990 Z2.787 E6.6928
G1 X161.2230 Y147.4290 Z2.787 E6.7131
G1 X161.0970 Y147.8470 Z2.788 E6.7288
G1 X160.9670 Y148.3740 Z2.788 E6.7483
G1 X160.8820 Y148.8240 Z2.789 E6.7647
G1 X160.8120 Y149.3410 Z2.789 E6.7835
G1 X160.7730 Y149.8190 Z2.790 E6.8007
G1 X160.7600 Y150.3190 Z2.790 E6.8186
G1 X160.7730 Y150.8190 Z2.791 E6.8366
G1 X160.8120 Y151.2960 Z2.791 E6.8538
G1 X160.8820 Y151.8130 Z2.792 E6.8726
G1 X160.9670 Y152.2630 Z2.792 E6.8890
G1 X161.0970 Y152.7900 Z2.793 E6.9085
G1 X161.2230 Y153.2080 Z2.793 E6.9242
G1 X161.4160 Y153.7380 Z2.794 E6.9444
G1 X161.5780 Y154.1200 Z2.794 E6.9594
G1 X161.8360 Y154.6460 Z2.795 E6.9804
G1 X162.0280 Y154.9900 Z2.795 E6.9945
G1 X162.3510 Y155.5030 Z2.796 E7.0163
G1 X162.5670 Y155.8070 Z2.796 E7.0297
G1 X162.9560 Y156.2990 Z2.797 E7.0523
G1 X163.1890 Y156.5630 Z2.797 E7.0649
G1 X163.6440 Y157.0250 Z2.798 E7.0882
G1 X163.8880 Y157.2490 Z2.798 E7.1001
G1 X164.4060 Y157.6730 Z2.799 E7.1241
G1 X164.6560 Y157.8560 Z2.799 E7.1353
G1 X165.2340 Y158.2350 Z2.800 E7.1601
G1 X165.4850 Y158.3800 Z2.800 E7.1705
;layer 15, Z = 3.000
G92 E0.0000
G1 X166.3590 Y158.8110 Z2.801 E0.0350 F4200 ; custom feedrate
G1 X167.2770 Y159.1490 Z2.802 E0.0702
G1 X168.2270 Y159.3870 Z2.803 E0.1053
G1 X169.1950 Y159.5240 Z2.804 E0.1404
G1 X169.7600 Y159.5480 Z2.804 E0.1608
G1 X169.7600 Y160.5530 Z2.805 E0.1968
G1 X160.6610 Y169.6520 Z2.818 E0.6591
G1 X169.7600 Y178.7510 Z2.831 E1.1213
G1 X169.7600 Y179.7450 Z2.832 E1.1570
G1 X168.1320 Y179.7450 Z2.834 E1.2155
G1 X168.1210 Y179.6470 Z2.834 E1.2191
G1 X168.0150 Y179.3300 Z2.834 E1.2311
G1 X167.9290 Y179.1680 Z2.835 E1.2377
G1 X167.7270 Y178.9020 Z2.835 E1.2496
G1 X167.4690 Y178.6830 Z2.835 E1.2618
G1 X167.2230 Y178.5470 Z2.835 E1.2719
G1 X166.9730 Y178.4600 Z2.836 E1.2814
G1 X166.6670 Y178.4130 Z2.836 E1.2925
G1 X166.3290 Y178.4310 Z2.836 E1.3047
G1 X166.0010 Y178.5220 Z2.837 E1.3169
G1 X165.7150 Y178.6720 Z2.837 E1.3285
G1 X165.5070 Y178.8370 Z2.837 E1.3380
G1 X165.3280 Y179.0350 Z2.838 E1.3476
G1 X165.1540 Y179.3240 Z2.838 E1.3598
G1 X165.0450 Y179.6470 Z2.838 E1.3720
G1 X165.0350 Y179.7450 Z2.838 E1.3755
G1 X163.4070 Y179.7450 Z2.840 E1.4340
G1 X163.4070 Y178.4120 Z2.841 E1.4819
G1 X161.5930 Y178.4120 Z2.843 E1.5471
G1 X161.5930 Y179.7450 Z2.844 E1.5950
G1 X159.8490 Y179.7450 Z2.846 E1.6576
G1 X158.4170 Y178.3130 Z2.848 E1.7304
G1 X156.9840 Y179.7450 Z2.850 E1.8032
G1 X155.0060 Y179.7450 Z2.852 E1.8742
G1 X154.5020 Y179.7190 Z2.853 E1.8923
G1 X154.0100 Y179.6410 Z2.853 E1.9102
G1 X153.5290 Y179.5120 Z2.854 E1.9281
G1 X153.0640 Y179.3340 Z2.854 E1.9460
G1 X152.6200 Y179.1070 Z2.855 E1.9639
G1 X152.2020 Y178.8360 Z2.855 E1.9818
G1 X151.8150 Y178.5220 Z2.856 E1.9997
G1 X151.4630 Y178.1700 Z2.856 E2.0176
G1 X151.1490 Y177.7830 Z2.857 E2.0355
G1 X150.8780 Y177.3650 Z2.857 E2.0534
G1 X150.6520 Y176.9210 Z2.858 E2.0713
G1 X150.4730 Y176.4560 Z2.858 E2.0892
G1 X150.3440 Y175.9750 Z2.859 E2.1071
G1 X150.2660 Y175.4830 Z2.859 E2.1250
G1 X150.2400 Y174.9790 Z2.860 E2.1431
G1 X150.2400 Y164.9790 Z2.870 E2.5023
G1 X150.2120 Y164.4380 Z2.870 E2.5218
G1 X150.1260 Y163.8960 Z2.871 E2.5415
G1 X149.9840 Y163.3660 Z2.871 E2.5612
G1 X149.7870 Y162.8540 Z2.872 E2.5809
G1 X149.5380 Y162.3650 Z2.873 E2.6006
G1 X149.2400 Y161.9050 Z2.873 E2.6203
G1 X148.8940 Y161.4790 Z2.874 E2.6400
G1 X148.5060 Y161.0910 Z2.874 E2.6597
G1 X148.0800 Y160.7460 Z2.875 E2.6794
G1 X147.6200 Y160.4470 Z2.875 E2.6991
G1 X147.1310 Y160.1980 Z2.876 E2.7188
G1 X146.6190 Y160.0010 Z2.876 E2.7385
G1 X146.0900 Y159.8600 Z2.877 E2.7582
G1 X145.5480 Y159.7740 Z2.877 E2.7779
G1 X145.0060 Y159.7450 Z2.878 E2.7974
G1 X130.2400 Y159.7450 Z2.893 E3.3278
G1 X130.2400 Y139.9920 Z2.913 E4.0374
G1 X130.3560 Y137.8490 Z2.915 E4.1145
G1 X130.7020 Y135.7380 Z2.917 E4.1913
G1 X131.2750 Y133.6760 Z2.919 E4.2682
G1 X132.0670 Y131.6880 Z2.921 E4.3450
G1 X133.0690 Y129.7980 Z2.923 E4.4219
G1 X134.2690 Y128.0270 Z2.925 E4.4987
G1 X135.6550 Y126.3970 Z2.928 E4.5756
G1 X137.2080 Y124.9250 Z2.930 E4.6524
G1 X138.9110 Y123.6310 Z2.932 E4.7293
G1 X140.7440 Y122.5270 Z2.934 E4.8062
G1 X142.6860 Y121.6290 Z2.936 E4.8830
G1 X144.7140 Y120.9460 Z2.938 E4.9599
G1 X146.8030 Y120.4860 Z2.940 E5.0367
G1 X148.9300 Y120.2550 Z2.943 E5.1136
G1 X151.0700 Y120.2550 Z2.945 E5.1904
G1 X153.1970 Y120.4860 Z2.947 E5.2673
G1 X155.2860 Y120.9460 Z2.949 E5.3441
G1 X157.3140 Y121.6290 Z2.951 E5.4210
G1 X159.2560 Y122.5270 Z2.953 E5.4978
G1 X161.0890 Y123.6310 Z2.955 E5.5747
G1 X162.7920 Y124.9250 Z2.958 E5.6515
G1 X164.3450 Y126.3970 Z2.960 E5.7284
G1 X165.7310 Y128.0270 Z2.962 E5.8053
G1 X166.9310 Y129.7980 Z2.964 E5.8821
G1 X167.9330 Y131.6880 Z2.966 E5.9590
G1 X168.7250 Y133.6760 Z2.968 E6.0358
G1 X169.2980 Y135.7380 Z2.970 E6.1127
G1 X169.6440 Y137.8490 Z2.973 E6.1895
G1 X169.7600 Y139.9920 Z2.975 E6.2666
G1 X169.7600 Y141.0890 Z2.976 E6.3060
G1 X169.1950 Y141.1140 Z2.976 E6.3263
G1 X168.2270 Y141.2500 Z2.977 E6.3615
G1 X167.2770 Y141.4890 Z2.978 E6.3966
G1 X166.3590 Y141.8260 Z2.979 E6.4318
G1 X165.4850 Y142.2570 Z2.980 E6.4668
G1 X165.2340 Y142.4030 Z2.981 E6.4772
G1 X164.6560 Y142.7810 Z2.981 E6.5020
G1 X164.4060 Y142.9640 Z2.982 E6.5131
G1 X163.8880 Y143.3890 Z2.982 E6.5372
G1 X163.6440 Y143.6120 Z2.983 E6.5491
G1 X163.1890 Y144.0740 Z2.983 E6.5724
G1 X162.9560 Y144.3380 Z2.984 E6.5850
G1 X162.5670 Y144.8300 Z2.984 E6.6076
G1 X162.3510 Y145.1350 Z2.985 E6.6210
G1 X162.0280 Y145.6470 Z2.985 E6.6427
G1 X161.8360 Y145.9920 Z2.986 E6.6569
G1 X161.5780 Y146.5170 Z2.986 E6.6779
G1 X161.4160 Y146.8990 Z2.987 E6.6928
G1 X161.2230 Y147.4290 Z2.987 E6.7131
G1 X161.0970 Y147.8470 Z2.988 E6.7288
G1 X160.9670 Y148.3740 Z2.988 E6.7483
G1 X160.8820 Y148.8240 Z2.989 E6.7647
G1 X160.8120 Y149.3410 Z2.989 E6.7835
G1 X160.7730 Y149.8190 Z2.990 E6.8007
G1 X160.7600 Y150.3190 Z2.990 E6.8186
G1 X160.7730 Y150.8190 Z2.991 E6.8366
G1 X160.8120 Y151.2960 Z2.991 E6.8538
G1 X160.8820 Y151.8130 Z2.992 E6.8726
G1 X160.9670 Y152.2630 Z2.992 E6.8890
G1 X161.0970 Y152.7900 Z2.993 E6.9085
G1 X161.2230 Y153.2080 Z2.993 E6.9242
G1 X161.4160 Y153.7380 Z2.994 E6.9444
G1 X161.5780 Y154.1200 Z2.994 E6.9594
G1 X161.8360 Y154.6460 Z2.995 E6.9804
G1 X162.0280 Y154.9900 Z2.995 E6.9945
G1 X162.3510 Y155.5030 Z2.996 E7.0163
G1 X162.5670 Y155.8070 Z2.996 E7.0297
G1 X162.9560 Y156.2990 Z2.997 E7.0523
G1 X163.1890 Y156.5630 Z2.997 E7.0649
G1 X163.6440 Y157.0250 Z2.998 E7.0882
G1 X163.8880 Y157.2490 Z2.998 E7.1001
G1 X164.4060 Y157.6730 Z2.999 E7.1241
G1 X164.6560 Y157.8560 Z2.999 E7.1353
G1 X165.2340 Y158.2350 Z3.000 E7.1601
G1 X165.4850 Y158.3800 Z3.000 E7.1705
;layer 16, Z = 3.200
G92 E0.0000
G1 X166.3590 Y158.8110 Z3.001 E0.0350 F4200 ; custom feedrate
G1 X167.2770 Y159.1490 Z3.002 E0.0702
G1 X168.2270 Y159.3870 Z3.003 E0.1053
G1 X169.1950 Y159.5240 Z3.004 E0.1404
G1 X169.7600 Y159.5480 Z3.004 E0.1608
G1 X169.7600 Y160.5530 Z3.005 E0.1968
G1 X160.6610 Y169.6520 Z3.018 E0.6591
G1 X169.7600 Y178.7510 Z3.031 E1.1213
G1 X169.7600 Y179.7450 Z3.032 E1.1570
G1 X168.1320 Y179.7450 Z3.034 E1.2155
G1 X168.1210 Y179.6470 Z3.034 E1.2191
G1 X168.0150 Y179.3300 Z3.034 E1.2311
G1 X167.9290 Y179.1680 Z3.035 E1.2377
G1 X167.7270 Y178.9020 Z3.035 E1.2496
G1 X167.4690 Y178.6830 Z3.035 E1.2618
G1 X167.2230 Y178.5470 Z3.035 E1.2719
G1 X166.9730 Y178.4600 Z3.036 E1.2814
G1 X166.6670 Y178.4130 Z3.036 E1.2925
G1 X166.3290 Y178.4310 Z3.036 E1.3047
G1 X166.0010 Y178.5220 Z3.037 E1.3169
G1 X165.7150 Y178.6720 Z3.037 E1.3285
G1 X165.5070 Y178.8370 Z3.037 E1.3380
G1 X165.3280 Y179.0350 Z3.038 E1.3476
G1 X165.1540 Y179.3240 Z3.038 E1.3598
G1 X165.0450 Y179.6470 Z3.038 E1.3720
G1 X165.0350 Y179.7450 Z3.038 E1.3755
G1 X163.4070 Y179.7450 Z3.040 E1.4340
