; generated by SuperSlicer 2.4 on 2022-05-24 at 00:15:26 UTC


;
;

;
;
; 

; external perimeters extrusion width = 0.40mm
; perimeters extrusion width = 0.45mm
; infill extrusion width = 0.72mm
; solid infill extrusion width = 0.56mm
; top infill extrusion width = 0.40mm
; first layer extrusion width = 0.48mm

; object:{"name":"square_tower","id":"square_tower.stl id:0 copy 0","object_center":[150.000000,150.000000,0.000000],"boundingbox_center":[150.000000,150.000000,25.000000],"boundingbox_size":[66.000000,65.945209,50.000000]}
; plater:{"center":[150.000000,150.000000,0.000000],"boundingbox_center":[150.000000,150.000000,25.000000],"boundingbox_size":[66.000000,65.945209,50.000000]}

;TYPE:Custom
print_start EXTRUDER=250 BED=110 CHAMBER=50
M107
G21 ; set units to millimeters
G90 ; use absolute coordinates
M83 ; use relative distances for extrusion
; Filament gcode
M104 S250 ; set temperature
M109 S250 ; set temperature and wait for it to be reached
M190 S110 ; set bed temperature and wait for it to be reached
M107
;LAYER_CHANGE
;Z:0.25
;HEIGHT:0.25
;BEFORE_LAYER_CHANGE
;0.25


G1 Z0.25 F6000
;AFTER_LAYER_CHANGE
;0.25
G92 E0
; INIT printing object square_tower.stl id:0 copy 0
G1 E-0.75 F3000
M204 S1500
G1 Z0.65 F6000
; printing object square_tower.stl id:0 copy 0
G1 X124.234 Y124.66
G1 Z0.25
G1 E0.75 F1800
;TYPE:Internal perimeter
;WIDTH:0.48
G1 F900
G1 X124.234 Y144.234 E0.80146
G1 X123.734 Y144.234 E0.02047
G1 X123.734 Y147.766 E0.14465
G1 X124.234 Y147.766 E0.02047
G1 X124.234 Y175.766 E1.14649
G1 X148.234 Y175.766 E0.9827
G1 X148.234 Y176.266 E0.02047
G1 X151.766 Y176.266 E0.14465
G1 X151.766 Y175.766 E0.02047
G1 X175.766 Y175.766 E0.9827
G1 X175.766 Y151.766 E0.9827
G1 X176.266 Y151.766 E0.02047
G1 X176.266 Y148.234 E0.14465
G1 X175.766 Y148.234 E0.02047
G1 X175.766 Y124.234 E0.9827
G1 X151.766 Y124.234 E0.9827
G1 X151.766 Y123.734 E0.02047
G1 X148.234 Y123.734 E0.14465
G1 X148.234 Y124.234 E0.02047
G1 X124.234 Y124.234 E0.9827
G1 X124.234 Y124.6 E0.015
M204 S1000
G1 X124.66 Y124.66 F6000
;TYPE:External perimeter
G1 F900
G1 X124.66 Y144.66 E0.81892
G1 X124.16 Y144.66 E0.02047
G1 X124.16 Y147.34 E0.10974
G1 X124.66 Y147.34 E0.02047
G1 X124.66 Y175.34 E1.14649
G1 X148.66 Y175.34 E0.9827
G1 X148.66 Y175.84 E0.02047
G1 X151.34 Y175.84 E0.10974
G1 X151.34 Y175.34 E0.02047
G1 X175.34 Y175.34 E0.9827
G1 X175.34 Y151.34 E0.9827
G1 X175.84 Y151.34 E0.02047
G1 X175.84 Y148.66 E0.10974
G1 X175.34 Y148.66 E0.02047
G1 X175.34 Y124.66 E0.9827
G1 X151.34 Y124.66 E0.9827
G1 X151.34 Y124.16 E0.02047
G1 X148.66 Y124.16 E0.10974
G1 X148.66 Y124.66 E0.02047
G1 X124.72 Y124.66 E0.98025
;WIPE_START
M204 S1500
G1 X124.26 Y124.66 F6000
;WIPE_END
G1 E-0.75 F3000
G1 Z0.65 F6000
G1 X120.766 Y126.332
G1 Z0.25
G1 E0.75 F1800
;TYPE:Internal perimeter
G1 F900
G1 X120.766 Y126.055 E0.01134
G1 X119.885 Y125.663 E0.03949
G1 X119.17 Y125.143 E0.0362
G1 X118.578 Y124.486 E0.0362
G1 X118.136 Y123.72 E0.0362
G1 X117.863 Y122.879 E0.0362
G1 X117.771 Y122 E0.0362
G1 X117.863 Y121.121 E0.0362
G1 X118.136 Y120.28 E0.0362
G1 X118.578 Y119.514 E0.0362
G1 X119.17 Y118.857 E0.0362
G1 X119.885 Y118.337 E0.0362
G1 X120.693 Y117.978 E0.0362
G1 X121.558 Y117.794 E0.0362
G1 X122.442 Y117.794 E0.0362
G1 X123.307 Y117.978 E0.0362
G1 X124.115 Y118.337 E0.0362
G1 X124.83 Y118.857 E0.0362
G1 X125.42 Y119.512 E0.0361
G1 X126.133 Y120.766 E0.05907
G1 X173.867 Y120.766 E1.95454
G1 X174.58 Y119.512 E0.05907
G1 X175.17 Y118.857 E0.03609
G1 X175.885 Y118.337 E0.03621
G1 X176.693 Y117.978 E0.0362
G1 X177.558 Y117.794 E0.03621
G1 X178.442 Y117.794 E0.0362
G1 X179.307 Y117.978 E0.03621
G1 X180.115 Y118.337 E0.0362
G1 X180.83 Y118.857 E0.03621
G1 X181.422 Y119.514 E0.0362
G1 X181.864 Y120.28 E0.0362
G1 X182.137 Y121.121 E0.03621
G1 X182.229 Y122 E0.0362
G1 X182.137 Y122.879 E0.0362
G1 X181.864 Y123.72 E0.03621
G1 X181.422 Y124.486 E0.0362
G1 X180.83 Y125.143 E0.0362
G1 X180.115 Y125.663 E0.03621
G1 X179.234 Y126.055 E0.03949
G1 X179.234 Y173.945 E1.9609
G1 X180.115 Y174.337 E0.03949
G1 X180.83 Y174.857 E0.0362
G1 X181.422 Y175.514 E0.0362
G1 X181.864 Y176.28 E0.0362
G1 X182.137 Y177.121 E0.0362
G1 X182.229 Y178 E0.03621
G1 X182.137 Y178.879 E0.03621
G1 X181.864 Y179.72 E0.0362
G1 X181.422 Y180.486 E0.0362
G1 X180.83 Y181.143 E0.0362
G1 X180.115 Y181.663 E0.03621
G1 X179.307 Y182.022 E0.0362
G1 X178.442 Y182.206 E0.03621
G1 X177.558 Y182.206 E0.0362
G1 X176.693 Y182.022 E0.03621
G1 X175.885 Y181.663 E0.0362
G1 X175.17 Y181.143 E0.03621
G1 X174.58 Y180.488 E0.0361
G1 X173.867 Y179.234 E0.05907
G1 X126.133 Y179.234 E1.95454
G1 X125.42 Y180.488 E0.05907
G1 X124.83 Y181.143 E0.0361
G1 X124.115 Y181.663 E0.0362
G1 X123.307 Y182.022 E0.0362
G1 X122.442 Y182.206 E0.0362
G1 X121.558 Y182.206 E0.0362
G1 X120.693 Y182.022 E0.0362
G1 X119.885 Y181.663 E0.0362
G1 X119.17 Y181.143 E0.0362
G1 X118.578 Y180.486 E0.0362
G1 X118.136 Y179.72 E0.0362
G1 X117.863 Y178.879 E0.0362
G1 X117.771 Y178 E0.03621
G1 X117.863 Y177.121 E0.03621
G1 X118.136 Y176.28 E0.0362
G1 X118.578 Y175.514 E0.0362
G1 X119.17 Y174.857 E0.0362
G1 X119.885 Y174.337 E0.0362
G1 X120.766 Y173.945 E0.03949
G1 X120.766 Y126.392 E1.94711
M204 S1000
G1 X120.34 Y126.332 F6000
;TYPE:External perimeter
G1 F900
G1 X119.671 Y126.034 E0.02999
G1 X118.883 Y125.462 E0.03987
G1 X118.232 Y124.738 E0.03987
G1 X117.745 Y123.895 E0.03987
G1 X117.444 Y122.968 E0.03987
G1 X117.342 Y122 E0.03987
G1 X117.444 Y121.032 E0.03987
G1 X117.745 Y120.105 E0.03987
G1 X118.232 Y119.262 E0.03987
G1 X118.485 Y118.98 E0.01553
G1 X118.883 Y118.538 E0.02435
G1 X119.212 Y118.299 E0.01664
G1 X119.671 Y117.966 E0.02324
G1 X120.561 Y117.57 E0.03987
G1 X120.954 Y117.486 E0.01648
G1 X121.513 Y117.367 E0.02339
G1 X122.487 Y117.367 E0.03987
G1 X123.439 Y117.57 E0.03987
G1 X123.884 Y117.768 E0.01994
G1 X124.329 Y117.966 E0.01994
G1 X125.117 Y118.538 E0.03987
G1 X125.687 Y119.171 E0.03486
G1 X125.768 Y119.261 E0.00496
G1 X126.381 Y120.34 E0.05081
G1 X173.619 Y120.34 E1.93422
G1 X174.232 Y119.261 E0.05081
G1 X174.883 Y118.538 E0.03982
G1 X175.671 Y117.966 E0.03988
G1 X176.561 Y117.57 E0.03987
G1 X177.513 Y117.367 E0.03988
G1 X178.487 Y117.367 E0.03987
G1 X179.439 Y117.57 E0.03988
G1 X180.329 Y117.966 E0.03987
G1 X181.117 Y118.538 E0.03988
G1 X181.704 Y119.19 E0.0359
G1 X181.769 Y119.262 E0.00397
G1 X182.255 Y120.105 E0.03987
G1 X182.556 Y121.032 E0.03987
G1 X182.658 Y122 E0.03987
G1 X182.556 Y122.968 E0.03987
G1 X182.255 Y123.895 E0.03987
G1 X181.769 Y124.738 E0.03987
G1 X181.117 Y125.462 E0.03987
G1 X180.329 Y126.034 E0.03988
G1 X179.66 Y126.332 E0.02999
G1 X179.66 Y173.668 E1.93823
G1 X180.329 Y173.966 E0.02999
G1 X181.117 Y174.538 E0.03987
G1 X181.769 Y175.262 E0.03987
G1 X182.255 Y176.105 E0.03987
G1 X182.556 Y177.031 E0.03987
G1 X182.658 Y178 E0.03988
G1 X182.556 Y178.969 E0.03988
G1 X182.255 Y179.895 E0.03987
G1 X181.769 Y180.738 E0.03987
G1 X181.117 Y181.462 E0.03987
G1 X180.526 Y181.891 E0.02991
G1 X180.329 Y182.034 E0.00997
G1 X179.836 Y182.254 E0.02212
G1 X179.439 Y182.43 E0.01776
G1 X178.487 Y182.633 E0.03988
G1 X177.513 Y182.633 E0.03987
G1 X177.256 Y182.578 E0.01076
G1 X176.561 Y182.43 E0.02911
G1 X175.671 Y182.034 E0.03987
G1 X175.568 Y181.959 E0.00521
G1 X174.883 Y181.462 E0.03467
G1 X174.232 Y180.739 E0.03983
G1 X173.619 Y179.66 E0.05081
G1 X126.381 Y179.66 E1.93422
G1 X125.768 Y180.739 E0.05081
G1 X125.117 Y181.462 E0.03983
G1 X124.329 Y182.034 E0.03987
G1 X123.439 Y182.43 E0.03987
G1 X122.487 Y182.633 E0.03987
G1 X121.513 Y182.633 E0.03987
G1 X121.256 Y182.578 E0.01076
G1 X120.561 Y182.43 E0.02911
G1 X119.671 Y182.034 E0.03987
G1 X118.883 Y181.462 E0.03987
G1 X118.231 Y180.738 E0.03987
G1 X117.745 Y179.895 E0.03987
G1 X117.444 Y178.969 E0.03987
G1 X117.342 Y178 E0.03988
G1 X117.444 Y177.031 E0.03988
G1 X117.745 Y176.105 E0.03987
G1 X118.231 Y175.262 E0.03987
G1 X118.883 Y174.538 E0.03987
G1 X119.671 Y173.966 E0.03987
G1 X120.023 Y173.809 E0.01577
G1 X120.34 Y173.668 E0.01421
G1 X120.34 Y126.392 E1.93577
;WIPE_START
M204 S1500
G1 X120.45 Y125.947 F6000
;WIPE_END
G1 E-0.75 F3000
G1 Z0.65 F6000
G1 X181.153 Y119.543
G1 Z0.25
G1 E0.75 F1800
;TYPE:Solid infill
;WIDTH:0.460983
G1 F1200
G1 X180.645 Y119.035 E0.02825
G1 X179.241 Y118.225 E0.06374
G1 X179.231 Y118.225 E0.00038
G1 X181.475 Y120.469 E0.1248
G1 X181.89 Y121.187 E0.0326
G1 X181.89 Y121.486 E0.01178
G1 X178.628 Y118.225 E0.18138
G1 X178.025 Y118.225 E0.02371
G1 X181.89 Y122.089 E0.21491
G1 X181.89 Y122.692 E0.02371
G1 X177.422 Y118.225 E0.24844
G1 X176.819 Y118.225 E0.02371
G1 X181.713 Y123.119 E0.27216
G1 X181.493 Y123.501 E0.01736
G1 X176.415 Y118.424 E0.28237
G1 X176.033 Y118.644 E0.01736
G1 X181.272 Y123.883 E0.29136
G1 X181.051 Y124.266 E0.01736
G1 X175.651 Y118.865 E0.30034
G1 X175.342 Y119.043 E0.01399
G1 X175.295 Y119.112 E0.00331
G1 X180.831 Y124.648 E0.30784
G1 X180.649 Y124.962 E0.01425
G1 X180.581 Y125.001 E0.00312
G1 X175.05 Y119.471 E0.30754
G1 X174.806 Y119.829 E0.01706
G1 X180.197 Y125.22 E0.2998
G1 X179.813 Y125.439 E0.01738
G1 X174.561 Y120.188 E0.29206
G1 X174.317 Y120.546 E0.01706
G1 X179.429 Y125.658 E0.28432
G1 X179.046 Y125.878 E0.01738
G1 X174.072 Y120.904 E0.27658
G1 X173.998 Y121.014 E0.0052
G1 X173.579 Y121.014 E0.01649
G1 X178.986 Y126.421 E0.30074
G1 X178.986 Y127.024 E0.02371
G1 X172.976 Y121.014 E0.33427
G1 X172.373 Y121.014 E0.02371
G1 X175.345 Y123.986 E0.16532
G1 X174.743 Y123.986 E0.02371
G1 X171.77 Y121.014 E0.16532
G1 X171.167 Y121.014 E0.02371
G1 X174.14 Y123.986 E0.16532
G1 X173.537 Y123.986 E0.02371
G1 X170.564 Y121.014 E0.16532
G1 X169.961 Y121.014 E0.02371
G1 X172.934 Y123.986 E0.16532
G1 X172.331 Y123.986 E0.02371
G1 X169.358 Y121.014 E0.16532
G1 X168.755 Y121.014 E0.02371
G1 X171.728 Y123.986 E0.16532
G1 X171.125 Y123.986 E0.02371
G1 X168.152 Y121.014 E0.16532
G1 X167.549 Y121.014 E0.02371
G1 X170.522 Y123.986 E0.16532
G1 X169.919 Y123.986 E0.02371
G1 X166.946 Y121.014 E0.16532
G1 X166.343 Y121.014 E0.02371
G1 X169.316 Y123.986 E0.16532
G1 X168.713 Y123.986 E0.02371
G1 X165.74 Y121.014 E0.16532
G1 X165.137 Y121.014 E0.02371
G1 X168.11 Y123.986 E0.16532
G1 X167.507 Y123.986 E0.02371
G1 X164.534 Y121.014 E0.16532
G1 X163.931 Y121.014 E0.02371
G1 X166.904 Y123.986 E0.16532
G1 X166.301 Y123.986 E0.02371
G1 X163.328 Y121.014 E0.16532
G1 X162.726 Y121.014 E0.02371
G1 X165.698 Y123.986 E0.16532
G1 X165.095 Y123.986 E0.02371
G1 X162.123 Y121.014 E0.16532
G1 X161.52 Y121.014 E0.02371
G1 X164.492 Y123.986 E0.16532
G1 X163.889 Y123.986 E0.02371
G1 X160.917 Y121.014 E0.16532
G1 X160.314 Y121.014 E0.02371
G1 X163.287 Y123.986 E0.16532
G1 X162.684 Y123.986 E0.02371
G1 X159.711 Y121.014 E0.16532
G1 X159.108 Y121.014 E0.02371
G1 X162.081 Y123.986 E0.16532
G1 X161.478 Y123.986 E0.02371
G1 X158.505 Y121.014 E0.16532
G1 X157.902 Y121.014 E0.02371
G1 X160.875 Y123.986 E0.16532
G1 X160.272 Y123.986 E0.02371
G1 X157.299 Y121.014 E0.16532
G1 X156.696 Y121.014 E0.02371
G1 X159.669 Y123.986 E0.16532
G1 X159.066 Y123.986 E0.02371
G1 X156.093 Y121.014 E0.16532
G1 X155.49 Y121.014 E0.02371
G1 X158.463 Y123.986 E0.16532
G1 X157.86 Y123.986 E0.02371
G1 X154.887 Y121.014 E0.16532
G1 X154.284 Y121.014 E0.02371
G1 X157.257 Y123.986 E0.16532
G1 X156.654 Y123.986 E0.02371
G1 X153.681 Y121.014 E0.16532
G1 X153.078 Y121.014 E0.02371
G1 X156.051 Y123.986 E0.16532
G1 X155.448 Y123.986 E0.02371
G1 X152.475 Y121.014 E0.16532
G1 X151.872 Y121.014 E0.02371
G1 X154.845 Y123.986 E0.16532
G1 X154.242 Y123.986 E0.02371
G1 X151.27 Y121.014 E0.16532
G1 X150.667 Y121.014 E0.02371
G1 X153.639 Y123.986 E0.16532
G1 X153.036 Y123.986 E0.02371
G1 X150.064 Y121.014 E0.16532
G1 X149.461 Y121.014 E0.02371
G1 X152.617 Y124.17 E0.17552
G1 X151.514 Y123.67 F6000
G1 F1200
G1 X148.858 Y121.014 E0.14771
G1 X148.255 Y121.014 E0.02371
G1 X150.728 Y123.486 E0.13752
G1 X150.125 Y123.486 E0.02371
G1 X147.652 Y121.014 E0.13752
G1 X147.049 Y121.014 E0.02371
G1 X149.522 Y123.486 E0.13752
G1 X148.919 Y123.486 E0.02371
G1 X146.446 Y121.014 E0.13752
G1 X145.843 Y121.014 E0.02371
G1 X148.316 Y123.486 E0.13752
G1 X147.986 Y123.486 E0.01295
G1 X147.986 Y123.76 E0.01076
G1 X145.24 Y121.014 E0.15273
G1 X144.637 Y121.014 E0.02371
G1 X147.61 Y123.986 E0.16532
G1 X147.007 Y123.986 E0.02371
G1 X144.034 Y121.014 E0.16532
G1 X143.431 Y121.014 E0.02371
G1 X146.404 Y123.986 E0.16532
G1 X145.801 Y123.986 E0.02371
G1 X142.828 Y121.014 E0.16532
G1 X142.225 Y121.014 E0.02371
G1 X145.198 Y123.986 E0.16532
G1 X144.595 Y123.986 E0.02371
G1 X141.622 Y121.014 E0.16532
G1 X141.019 Y121.014 E0.02371
G1 X143.992 Y123.986 E0.16532
G1 X143.389 Y123.986 E0.02371
G1 X140.416 Y121.014 E0.16532
G1 X139.813 Y121.014 E0.02371
G1 X142.786 Y123.986 E0.16532
G1 X142.183 Y123.986 E0.02371
G1 X139.211 Y121.014 E0.16532
G1 X138.608 Y121.014 E0.02371
G1 X141.58 Y123.986 E0.16532
G1 X140.977 Y123.986 E0.02371
G1 X138.005 Y121.014 E0.16532
G1 X137.402 Y121.014 E0.02371
G1 X140.374 Y123.986 E0.16532
G1 X139.772 Y123.986 E0.02371
G1 X136.799 Y121.014 E0.16532
G1 X136.196 Y121.014 E0.02371
G1 X139.169 Y123.986 E0.16532
G1 X138.566 Y123.986 E0.02371
G1 X135.593 Y121.014 E0.16532
G1 X134.99 Y121.014 E0.02371
G1 X137.963 Y123.986 E0.16532
G1 X137.36 Y123.986 E0.02371
G1 X134.387 Y121.014 E0.16532
G1 X133.784 Y121.014 E0.02371
G1 X136.757 Y123.986 E0.16532
G1 X136.154 Y123.986 E0.02371
G1 X133.181 Y121.014 E0.16532
G1 X132.578 Y121.014 E0.02371
G1 X135.551 Y123.986 E0.16532
G1 X134.948 Y123.986 E0.02371
G1 X131.975 Y121.014 E0.16532
G1 X131.372 Y121.014 E0.02371
G1 X134.345 Y123.986 E0.16532
G1 X133.742 Y123.986 E0.02371
G1 X130.769 Y121.014 E0.16532
G1 X130.166 Y121.014 E0.02371
G1 X133.139 Y123.986 E0.16532
G1 X132.536 Y123.986 E0.02371
G1 X129.563 Y121.014 E0.16532
G1 X128.96 Y121.014 E0.02371
G1 X131.933 Y123.986 E0.16532
G1 X131.33 Y123.986 E0.02371
G1 X128.357 Y121.014 E0.16532
G1 X127.755 Y121.014 E0.02371
G1 X130.727 Y123.986 E0.16532
G1 X130.124 Y123.986 E0.02371
G1 X126.968 Y120.83 E0.17552
G1 E-0.75 F3000
G1 Z0.65 F6000
G1 X123.968 Y118.433
G1 Z0.25
G1 E0.75 F1800
G1 F1200
G1 X124.829 Y119.294 E0.04786
G1 X126.002 Y121.014 E0.08188
G1 X126.549 Y121.014 E0.02149
G1 X129.521 Y123.986 E0.16532
G1 X128.918 Y123.986 E0.02371
G1 X123.141 Y118.209 E0.32131
G1 X122.467 Y118.138 E0.02664
G1 X128.316 Y123.986 E0.32525
G1 X127.713 Y123.986 E0.02371
G1 X121.793 Y118.067 E0.32919
G1 X121.584 Y118.045 E0.00826
G1 X121.27 Y118.147 E0.01298
G1 X127.11 Y123.986 E0.32473
G1 X126.507 Y123.986 E0.02371
G1 X120.815 Y118.295 E0.31651
G1 X120.36 Y118.443 E0.01882
G1 X125.904 Y123.986 E0.30829
G1 X125.301 Y123.986 E0.02371
G1 X119.95 Y118.635 E0.29759
G1 X119.664 Y118.953 E0.01679
G1 X124.698 Y123.986 E0.27994
G1 X124.095 Y123.986 E0.02371
G1 X119.378 Y119.27 E0.2623
G1 X119.093 Y119.587 E0.01679
G1 X123.986 Y124.481 E0.27215
G1 X123.986 Y125.084 E0.02371
G1 X118.807 Y119.904 E0.28804
G1 X118.521 Y120.222 E0.01679
G1 X123.986 Y125.687 E0.30393
G1 X123.986 Y126.29 E0.02371
G1 X118.317 Y120.62 E0.31531
G1 X118.211 Y121.117 E0.01999
G1 X123.986 Y126.893 E0.32118
G1 X123.986 Y127.496 E0.02371
G1 X118.105 Y121.615 E0.32706
G1 X118.026 Y121.987 E0.01496
G1 X118.099 Y122.211 E0.0093
G1 X123.986 Y128.099 E0.3274
G1 X123.986 Y128.702 E0.02371
G1 X118.389 Y123.105 E0.31126
G1 X118.68 Y123.998 E0.03693
G1 X119.587 Y124.905 E0.05046
G1 X121.014 Y125.928 E0.06903
G1 X121.014 Y126.332 E0.01587
G1 X123.986 Y129.304 E0.16532
G1 X123.986 Y129.907 E0.02371
G1 X121.014 Y126.935 E0.16532
G1 X121.014 Y127.538 E0.02371
G1 X123.986 Y130.51 E0.16532
G1 X123.986 Y131.113 E0.02371
G1 X121.014 Y128.141 E0.16532
G1 X121.014 Y128.743 E0.02371
G1 X123.986 Y131.716 E0.16532
G1 X123.986 Y132.319 E0.02371
G1 X121.014 Y129.346 E0.16532
G1 X121.014 Y129.949 E0.02371
G1 X123.986 Y132.922 E0.16532
G1 X123.986 Y133.525 E0.02371
G1 X121.014 Y130.552 E0.16532
G1 X121.014 Y131.155 E0.02371
G1 X123.986 Y134.128 E0.16532
G1 X123.986 Y134.731 E0.02371
G1 X121.014 Y131.758 E0.16532
G1 X121.014 Y132.361 E0.02371
G1 X123.986 Y135.334 E0.16532
G1 X123.986 Y135.937 E0.02371
G1 X121.014 Y132.964 E0.16532
G1 X121.014 Y133.567 E0.02371
G1 X123.986 Y136.54 E0.16532
G1 X123.986 Y137.143 E0.02371
