; generated by SuperSlicer 2.5.59 on 2022-08-16 at 05:53:39 UTC


;
;

;
;
; 

; external perimeters extrusion width = 0.40mm
; perimeters extrusion width = 0.48mm
; infill extrusion width = 0.60mm
; solid infill extrusion width = 0.56mm
; top infill extrusion width = 0.40mm
; first layer extrusion width = 0.48mm

; object:{"name":"3DBenchy","id":"3DBenchy.stl id:0 copy 0","object_center":[150.000000,150.000000,0.000000],"boundingbox_center":[150.000000,150.000000,24.000000],"boundingbox_size":[60.000999,31.004000,48.000000]}
; plater:{"center":[150.000000,150.000000,0.000000],"boundingbox_center":[150.000000,150.000000,24.000000],"boundingbox_size":[60.000999,31.004000,48.000000]}

;TYPE:Custom
print_start EXTRUDER=250 BED=110 CHAMBER=50
M107
G21 ; set units to millimeters
G90 ; use absolute coordinates
M83 ; use relative distances for extrusion
; Filament gcode
SET_PRESSURE_ADVANCE ADVANCE=0.045
SET_PRESSURE_ADVANCE EXTRUDER=extruder SMOOTH_TIME=0.04
;_TOOLCHANGE 0
M104 S250 ; set temperature
M109 S250 ; set temperature and wait for it to be reached
M190 S110 ; set bed temperature and wait for it to be reached
M107
;LAYER_CHANGE
;Z:0.25
;HEIGHT:0.25
;BEFORE_LAYER_CHANGE
;0.25
TIMELAPSE_TAKE_FRAME


G1 Z0.25 F27000
;AFTER_LAYER_CHANGE
;0.25
G92 E0
G1 E-1.2 F3000
M204 S1500
G1 Z0.65 F27000
; printing object 3DBenchy.stl id:0 copy 0
G1 X140.33 Y149.807
G1 Z0.25
G1 E1.2 F1800
;TYPE:Internal perimeter
;WIDTH:0.48
G1 F900
G1 X140.062 Y149.865 E0.01216
G1 X140.011 Y149.754 E0.00541
G1 X139.75 Y149.483 E0.01667
G1 X140.077 Y148.904 E0.02946
G1 X140.331 Y148.971 E0.01167
G1 X140.33 Y149.747 E0.03437
G1 E-1.2 F3000
G1 Z0.65 F27000
G1 X152.089 Y156.192
G1 Z0.25
G1 E1.2 F1800
G1 F900
G1 X152.387 Y156.341 E0.0148
G1 X152.738 Y156.412 E0.01585
G1 X153.101 Y156.396 E0.01611
G1 X153.475 Y156.311 E0.01698
G1 X153.758 Y156.214 E0.01328
G1 X154.115 Y156.037 E0.01766
G1 X154.494 Y155.732 E0.02157
G1 X154.731 Y155.428 E0.01706
G1 X154.882 Y155.174 E0.01308
G1 X155.172 Y154.534 E0.03116
G1 X155.563 Y153.527 E0.04788
G1 X156.522 Y150.846 E0.12615
G1 X156.86 Y149.854 E0.04648
G1 X157.221 Y150.067 E0.01859
G1 X157.469 Y150.159 E0.01169
G1 X157.773 Y150.205 E0.01362
G1 X157.392 Y150.691 E0.02735
G1 X156.866 Y151.411 E0.03955
G1 X156.658 Y151.752 E0.01768
G1 X156.519 Y152.091 E0.01622
G1 X156.455 Y152.458 E0.01651
G1 X156.484 Y152.854 E0.01758
G1 X156.657 Y153.324 E0.02221
G1 X157.022 Y153.705 E0.02339
G1 X157.389 Y153.849 E0.01746
G1 X157.655 Y153.882 E0.01191
G1 X159.08 Y153.842 E0.06318
G1 X159.165 Y154.073 E0.0109
G1 X158.485 Y154.612 E0.03845
G1 X157.992 Y154.96 E0.02671
G1 X157.492 Y155.281 E0.02633
G1 X156.868 Y155.642 E0.03198
G1 X156.058 Y156.052 E0.04021
G1 X155.196 Y156.42 E0.04156
G1 X154.307 Y156.731 E0.04173
G1 X153.401 Y156.983 E0.04166
G1 X152.476 Y157.175 E0.04186
G1 X151.634 Y157.295 E0.03771
G1 X150.758 Y157.366 E0.03892
G1 X149.829 Y157.381 E0.0412
G1 X149.176 Y157.356 E0.02893
G1 X125.753 Y155.928 E1.03988
G1 X125.459 Y155.878 E0.01322
G1 X125.228 Y155.777 E0.01118
G1 X125.131 Y155.709 E0.00527
G1 X125.056 Y155.639 E0.00452
G1 X124.918 Y155.451 E0.01034
G1 X124.864 Y155.341 E0.00544
G1 X124.823 Y155.214 E0.00594
G1 X124.779 Y154.867 E0.01548
G1 X124.777 Y152.459 E0.10673
G1 X125.269 Y152.979 E0.0317
G1 X125.613 Y153.264 E0.01983
G1 X126.103 Y153.546 E0.02502
G1 X126.403 Y153.664 E0.01432
G1 X126.735 Y153.756 E0.01525
G1 X127.056 Y153.81 E0.01443
G1 X127.543 Y153.836 E0.02163
G1 X128.006 Y153.806 E0.02053
G1 X128.424 Y153.724 E0.0189
G1 X128.809 Y153.587 E0.01807
G1 X129.068 Y153.451 E0.01298
G1 X129.383 Y153.226 E0.01718
G1 X129.67 Y152.928 E0.01833
G1 X129.939 Y152.487 E0.0229
G1 X130.085 Y151.978 E0.02344
G1 X129.91 Y151.412 E0.02627
G1 X129.54 Y151.027 E0.02364
G1 X129.077 Y150.818 E0.02255
G1 X128.677 Y150.771 E0.01785
G1 X128.315 Y150.832 E0.01623
G1 X128.062 Y150.947 E0.01231
G1 X127.855 Y151.101 E0.01145
G1 X127.723 Y151.257 E0.00904
G1 X127.573 Y151.296 E0.00687
G1 X127.384 Y151.296 E0.00839
G1 X127.274 Y151.274 E0.00496
G1 X127.115 Y151.204 E0.00772
G1 X127.011 Y151.123 E0.0058
G1 X126.919 Y151.001 E0.00678
G1 X126.852 Y150.855 E0.00714
G1 X126.79 Y150.634 E0.01018
G1 X126.75 Y150.349 E0.01274
G1 X126.733 Y149.925 E0.01879
G1 X126.754 Y149.541 E0.01705
G1 X126.797 Y149.268 E0.01224
G1 X126.856 Y149.066 E0.00935
G1 X126.919 Y148.93 E0.0066
G1 X127.018 Y148.797 E0.00739
G1 X127.085 Y148.74 E0.00385
G1 X127.184 Y148.685 E0.00506
G1 X127.291 Y148.649 E0.00498
G1 X127.438 Y148.632 E0.00656
G1 X127.53 Y148.651 E0.00417
G1 X128.202 Y149.031 E0.0342
G1 X128.555 Y149.143 E0.01642
G1 X128.938 Y149.163 E0.01696
G1 X129.337 Y149.04 E0.01853
G1 X129.653 Y148.797 E0.01765
G1 X129.888 Y148.484 E0.01734
G1 X130.339 Y148.738 E0.0229
G1 X130.718 Y148.809 E0.01712
G1 X131.469 Y148.731 E0.03347
G1 X131.445 Y149.126 E0.01756
G1 X131.462 Y151.921 E0.12385
G1 X131.419 Y152.632 E0.03159
G1 X131.5 Y152.986 E0.01607
G1 X131.681 Y153.293 E0.01578
G1 X132.078 Y153.582 E0.0218
G1 X132.6 Y153.699 E0.0237
G1 X133.093 Y153.633 E0.02205
G1 X133.457 Y153.435 E0.01837
G1 X133.727 Y153.129 E0.01807
G1 X133.877 Y152.785 E0.01662
G1 X133.942 Y152.422 E0.01636
G1 X133.926 Y148.755 E0.16248
G1 X134.449 Y148.763 E0.02319
G1 X134.871 Y148.717 E0.01881
G1 X135.227 Y148.599 E0.0166
G1 X135.579 Y148.329 E0.01967
G1 X135.769 Y148.59 E0.01432
G1 X136.1 Y148.856 E0.01882
G1 X136.306 Y148.925 E0.00962
G1 X136.158 Y149.218 E0.01457
G1 X136.065 Y149.579 E0.01649
G1 X136.072 Y149.967 E0.01721
G1 X136.216 Y150.379 E0.01932
G1 X136.761 Y150.896 E0.03328
G1 X136.148 Y151.004 E0.0276
G1 X135.708 Y151.28 E0.02301
G1 X135.428 Y151.744 E0.024
G1 X135.373 Y152.262 E0.02308
G1 X135.462 Y152.677 E0.0188
G1 X135.683 Y153.083 E0.02048
G1 X135.976 Y153.368 E0.01813
G1 X136.297 Y153.563 E0.01666
G1 X136.671 Y153.705 E0.0177
G1 X137.058 Y153.792 E0.01756
G1 X137.362 Y153.827 E0.01358
G1 X137.833 Y153.834 E0.02089
G1 X138.287 Y153.789 E0.02021
G1 X138.811 Y153.647 E0.02407
G1 X139.306 Y153.384 E0.02481
G1 X139.73 Y153.021 E0.02473
G1 X140.244 Y152.325 E0.03836
G1 X140.445 Y153.003 E0.03136
G1 X140.641 Y153.325 E0.01671
G1 X140.93 Y153.56 E0.01652
G1 X141.224 Y153.671 E0.01392
G1 X141.557 Y153.698 E0.0148
G1 X142.024 Y153.654 E0.02076
G1 X142.833 Y153.662 E0.03586
G1 X143.404 Y153.633 E0.02535
G1 X144.023 Y153.532 E0.02778
G1 X144.561 Y153.343 E0.02529
G1 X144.936 Y153.099 E0.01982
G1 X145.104 Y152.959 E0.00969
G1 X145.311 Y153.366 E0.02021
G1 X145.565 Y153.684 E0.01805
G1 X145.878 Y153.913 E0.0172
G1 X146.175 Y154.05 E0.01448
G1 X146.482 Y154.125 E0.01401
G1 X146.797 Y154.146 E0.01397
G1 X147.11 Y154.109 E0.01396
G1 X147.44 Y154.008 E0.0153
G1 X147.823 Y153.769 E0.02002
G1 X148.132 Y153.456 E0.0195
G1 X148.651 Y153.778 E0.02705
G1 X149.183 Y153.873 E0.02396
G1 X149.677 Y153.663 E0.02378
G1 X149.955 Y153.396 E0.0171
G1 X150.126 Y153.157 E0.01302
G1 X150.341 Y153.488 E0.01746
G1 X150.649 Y153.748 E0.01788
G1 X151.049 Y153.874 E0.01858
G1 X151.449 Y153.867 E0.01772
G1 X151.845 Y153.742 E0.0184
G1 X152.227 Y153.434 E0.02174
G1 X152.424 Y153.039 E0.01958
G1 X152.475 Y152.634 E0.01806
G1 X152.415 Y152.231 E0.01805
G1 X152.234 Y151.829 E0.01952
G1 X151.559 Y150.705 E0.05815
G1 X152.123 Y149.749 E0.04919
G1 X152.422 Y150.479 E0.03497
G1 X153.021 Y152.096 E0.07642
G1 X153.287 Y152.704 E0.02942
G1 X153.267 Y152.782 E0.00356
G1 X153.095 Y153.14 E0.01758
G1 X152.885 Y153.69 E0.02608
G1 X152.815 Y153.805 E0.00599
G1 X152.744 Y153.865 E0.00412
G1 X152.688 Y153.891 E0.00275
G1 X152.166 Y154.041 E0.02405
G1 X151.837 Y154.254 E0.01739
G1 X151.601 Y154.599 E0.01849
G1 X151.524 Y154.977 E0.01712
G1 X151.54 Y155.249 E0.01208
G1 X151.604 Y155.513 E0.01202
G1 X151.77 Y155.862 E0.01712
G1 X152.047 Y156.149 E0.01767
G1 E-1.2 F3000
G1 Z0.65 F27000
G1 X148.301 Y151.495
G1 Z0.25
G1 E1.2 F1800
G1 F900
G1 X147.951 Y151.075 E0.02422
G1 X147.69 Y150.872 E0.01462
G1 X147.405 Y150.729 E0.01418
G1 X147.063 Y150.629 E0.01575
G1 X146.622 Y150.632 E0.01956
G1 X146.278 Y150.697 E0.01549
G1 X146.338 Y150.417 E0.01268
G1 X146.368 Y149.992 E0.01888
G1 X146.348 Y149.419 E0.02542
G1 X146.243 Y148.75 E0.02998
G1 X146.151 Y148.421 E0.01513
G1 X145.98 Y147.988 E0.02065
G1 X145.683 Y147.482 E0.02599
G1 X145.346 Y147.088 E0.023
G1 X144.914 Y146.743 E0.02449
G1 X144.43 Y146.507 E0.02387
G1 X143.87 Y146.361 E0.02561
G1 X143.352 Y146.293 E0.02316
G1 X141.672 Y146.255 E0.07449
G1 X141.537 Y146.269 E0.00601
G1 X141.265 Y146.298 E0.01211
G1 X140.808 Y146.474 E0.02171
G1 X140.426 Y146.847 E0.02365
G1 X140.213 Y147.614 E0.03527
G1 X139.818 Y146.966 E0.03361
G1 X139.553 Y146.68 E0.01728
G1 X139.321 Y146.501 E0.01301
G1 X138.981 Y146.318 E0.0171
G1 X138.701 Y146.218 E0.01316
G1 X138.31 Y146.134 E0.01773
G1 X137.969 Y146.097 E0.01519
G1 X137.492 Y146.096 E0.02115
G1 X137.142 Y146.134 E0.01559
G1 X136.718 Y146.227 E0.01925
G1 X136.345 Y146.375 E0.01778
G1 X136.085 Y146.518 E0.01315
G1 X135.689 Y146.835 E0.02246
G1 X135.596 Y146.673 E0.00828
G1 X135.364 Y146.464 E0.01383
G1 X135.059 Y146.318 E0.015
G1 X134.782 Y146.267 E0.01247
G1 X131.427 Y146.278 E0.14868
G1 X130.725 Y146.231 E0.03119
G1 X130.495 Y146.273 E0.01036
G1 X130.365 Y146.297 E0.00586
G1 X130.043 Y146.468 E0.01616
G1 X129.77 Y146.759 E0.01767
G1 X129.663 Y146.99 E0.0113
G1 X129.487 Y146.792 E0.01175
G1 X129.147 Y146.53 E0.01903
G1 X128.79 Y146.335 E0.01803
G1 X128.383 Y146.194 E0.01908
G1 X127.927 Y146.113 E0.02049
G1 X127.519 Y146.093 E0.01814
G1 X127.195 Y146.105 E0.01434
G1 X126.836 Y146.153 E0.01607
G1 X126.471 Y146.243 E0.01663
G1 X126.186 Y146.348 E0.01346
G1 X125.911 Y146.481 E0.01355
G1 X125.552 Y146.711 E0.01889
G1 X125.308 Y146.914 E0.01409
G1 X124.779 Y147.477 E0.03422
G1 X124.782 Y145.057 E0.10725
G1 X124.823 Y144.786 E0.01214
G1 X124.864 Y144.661 E0.00584
G1 X124.93 Y144.526 E0.00668
G1 X124.997 Y144.429 E0.0052
G1 X125.09 Y144.328 E0.00607
G1 X125.183 Y144.252 E0.00536
G1 X125.281 Y144.193 E0.00506
G1 X125.491 Y144.113 E0.00993
G1 X125.751 Y144.072 E0.01167
G1 X149.194 Y142.643 E1.04078
G1 X150.063 Y142.618 E0.03853
G1 X150.398 Y142.63 E0.01487
G1 X151.093 Y142.655 E0.03082
G1 X151.871 Y142.733 E0.03466
G1 X152.661 Y142.858 E0.03543
G1 X153.716 Y143.098 E0.04795
G1 X154.487 Y143.326 E0.03563
G1 X155.51 Y143.706 E0.04835
G1 X156.332 Y144.079 E0.04001
G1 X157.214 Y144.553 E0.04436
G1 X157.908 Y144.985 E0.03622
G1 X158.793 Y145.621 E0.04832
G1 X159.562 Y146.266 E0.04448
G1 X160.21 Y146.888 E0.03981
G1 X160.799 Y147.528 E0.03854
G1 X160.937 Y147.698 E0.00968
G1 X160.729 Y147.915 E0.01331
G1 X160.604 Y147.823 E0.00688
G1 X160.157 Y147.713 E0.02041
G1 X157.909 Y147.712 E0.09961
G1 X157.606 Y147.742 E0.01351
G1 X157.278 Y147.837 E0.01512
G1 X156.947 Y148.018 E0.01672
G1 X156.813 Y148.191 E0.00969
G1 X156.449 Y147.881 E0.0212
G1 X156.088 Y147.727 E0.01741
G1 X155.659 Y147.727 E0.01899
G1 X155.288 Y147.902 E0.01821
G1 X155.018 Y148.154 E0.01634
G1 X154.802 Y148.466 E0.01681
G1 X154.574 Y148.962 E0.02422
G1 X154.304 Y148.352 E0.02958
G1 X154.067 Y148.06 E0.01665
G1 X153.742 Y147.847 E0.01722
G1 X153.412 Y147.737 E0.01541
G1 X153.012 Y147.702 E0.01779
G1 X152.541 Y147.83 E0.02161
G1 X152.13 Y148.172 E0.02373
G1 X152.02 Y148.027 E0.00806
G1 X151.583 Y147.747 E0.023
G1 X151.024 Y147.707 E0.02485
G1 X150.579 Y147.933 E0.0221
G1 X150.167 Y148.304 E0.02458
G1 X149.887 Y148.006 E0.01813
G1 X149.663 Y147.844 E0.01223
G1 X149.32 Y147.718 E0.01618
G1 X148.98 Y147.712 E0.01507
G1 X148.632 Y147.817 E0.01613
G1 X148.513 Y147.852 E0.0055
G1 X148.102 Y148.19 E0.02356
G1 X147.892 Y148.677 E0.0235
G1 X147.919 Y149.163 E0.02157
G1 X148.039 Y149.519 E0.01663
G1 X148.158 Y149.759 E0.01189
G1 X148.639 Y150.605 E0.04312
G1 X148.738 Y150.758 E0.00808
G1 X148.545 Y151.045 E0.01531
G1 X148.329 Y151.442 E0.02001
G1 E-1.2 F3000
G1 Z0.65 F27000
G1 X159.988 Y151.35
G1 Z0.25
G1 E1.2 F1800
G1 F900
G1 X160.518 Y150.629 E0.03967
G1 X161.041 Y149.863 E0.0411
G1 X161.193 Y149.519 E0.01664
G1 X161.269 Y149.115 E0.01822
G1 X161.247 Y148.72 E0.01756
G1 X161.143 Y148.414 E0.01431
G1 X161.406 Y148.28 E0.01308
G1 X161.915 Y149 E0.03908
G1 X162.372 Y149.754 E0.03905
G1 X162.412 Y149.861 E0.00507
G1 X162.43 Y149.985 E0.00557
G1 X162.42 Y150.1 E0.0051
G1 X162.369 Y150.252 E0.00712
G1 X162.105 Y150.703 E0.02316
G1 X161.691 Y151.33 E0.0333
G1 X161.177 Y152.05 E0.0392
G1 X161.02 Y151.776 E0.01402
G1 X160.774 Y151.589 E0.0137
G1 X160.394 Y151.405 E0.01873
G1 X160.047 Y151.358 E0.0155
G1 E-1.2 F3000
G1 Z0.65 F27000
M204 S1000
G1 X151.111 Y153.446
G1 Z0.25
G1 E1.2 F1800
;TYPE:External perimeter
G1 F900
G1 X151.38 Y153.442 E0.0119
G1 X151.639 Y153.36 E0.01208
G1 X151.887 Y153.16 E0.01409
G1 X152.01 Y152.913 E0.01223
G1 X152.044 Y152.639 E0.01223
G1 X152.002 Y152.352 E0.01286
G1 X151.856 Y152.027 E0.0158
G1 X151.172 Y150.89 E0.0588
G1 X151.135 Y150.792 E0.00463
G1 X151.128 Y150.707 E0.00375
G1 X151.147 Y150.608 E0.00449
G1 X151.211 Y150.455 E0.00733
G1 X151.908 Y149.275 E0.06074
G1 X151.98 Y148.929 E0.01567
G1 X151.918 Y148.6 E0.01483
G1 X151.726 Y148.345 E0.01417
G1 X151.444 Y148.164 E0.01481
G1 X151.111 Y148.141 E0.0148
G1 X150.823 Y148.287 E0.01436
G1 X150.614 Y148.475 E0.01243
G1 X150.455 Y148.747 E0.01397
G1 X150.35 Y148.991 E0.01175
G1 X150.187 Y149.19 E0.0114
G1 X149.944 Y148.876 E0.01761
G1 X149.787 Y148.522 E0.01717
G1 X149.604 Y148.328 E0.0118
G1 X149.46 Y148.224 E0.00786
G1 X149.24 Y148.143 E0.0104
G1 X149.039 Y148.139 E0.0089
G1 X148.755 Y148.225 E0.01318
G1 X148.718 Y148.236 E0.00171
G1 X148.453 Y148.454 E0.0152
G1 X148.323 Y148.754 E0.01449
G1 X148.341 Y149.082 E0.01455
G1 X148.434 Y149.355 E0.01278
G1 X148.534 Y149.559 E0.01008
G1 X149.004 Y150.384 E0.04206
G1 X149.248 Y150.763 E0.01998
G1 X148.91 Y151.266 E0.02683
G1 X148.732 Y151.593 E0.0165
G1 X148.572 Y151.923 E0.01625
G1 X148.444 Y152.278 E0.01672
G1 X148.353 Y152.626 E0.01594
G1 X148.358 Y152.771 E0.00643
G1 X148.392 Y152.95 E0.00809
G1 X148.513 Y153.19 E0.01192
G1 X148.806 Y153.372 E0.01531
G1 X149.133 Y153.431 E0.01471
G1 X149.438 Y153.301 E0.01469
G1 X149.632 Y153.116 E0.01189
G1 X149.851 Y152.81 E0.01669
G1 X150.051 Y152.47 E0.01746
G1 X150.131 Y152.292 E0.00864
G1 X150.362 Y152.569 E0.01598
G1 X150.467 Y152.899 E0.01533
G1 X150.665 Y153.203 E0.01607
G1 X150.859 Y153.367 E0.01128
G1 X151.054 Y153.428 E0.00906
;WIPE_START
M204 S1500
G1 X151.279 Y153.809 F27000
;WIPE_END
G1 E-1.2 F3000
G1 Z0.65 F27000
M204 S1000
G1 X146.786 Y153.718
G1 Z0.25
G1 E1.2 F1800
G1 F900
G1 X147.022 Y153.69 E0.01053
G1 X147.262 Y153.617 E0.0111
G1 X147.554 Y153.434 E0.01531
G1 X147.729 Y153.257 E0.01101
G1 X147.863 Y153.04 E0.0113
G1 X147.99 Y152.539 E0.02293
G1 X147.997 Y152.022 E0.0229
G1 X147.926 Y151.778 E0.01125
G1 X147.808 Y151.569 E0.01067
G1 X147.653 Y151.383 E0.0107
G1 X147.462 Y151.235 E0.01074
G1 X147.248 Y151.127 E0.01063
G1 X147.004 Y151.056 E0.01126
G1 X146.663 Y151.058 E0.01508
G1 X146.411 Y151.106 E0.01138
G1 X146.193 Y151.235 E0.01125
G1 X145.814 Y151.557 E0.02203
G1 X145.678 Y151.748 E0.01038
G1 X145.555 Y152.042 E0.01411
G1 X145.515 Y152.26 E0.00983
G1 X145.503 Y152.674 E0.01836
G1 X145.56 Y152.916 E0.01103
G1 X145.671 Y153.134 E0.01082
G1 X145.862 Y153.374 E0.01359
G1 X146.095 Y153.544 E0.01276
G1 X146.316 Y153.645 E0.01079
G1 X146.548 Y153.702 E0.01056
G1 X146.726 Y153.714 E0.00792
;WIPE_START
M204 S1500
G1 X147.005 Y154.053 F27000
;WIPE_END
G1 E-1.2 F3000
G1 Z0.65 F27000
M204 S1000
G1 X143.359 Y153.208
G1 Z0.25
G1 E1.2 F1800
G1 F900
G1 X143.917 Y153.118 E0.02507
G1 X144.372 Y152.958 E0.02134
G1 X144.682 Y152.756 E0.01643
G1 X144.891 Y152.581 E0.01206
G1 X145.035 Y152.366 E0.01148
G1 X145.248 Y152.103 E0.01498
G1 X145.448 Y151.78 E0.01685
G1 X145.564 Y151.53 E0.01222
G1 X145.843 Y150.694 E0.03906
G1 X145.914 Y150.358 E0.01522
G1 X145.941 Y149.984 E0.01658
G1 X145.923 Y149.459 E0.02328
G1 X145.825 Y148.841 E0.02773
G1 X145.746 Y148.557 E0.01306
G1 X145.595 Y148.175 E0.01821
G1 X145.335 Y147.731 E0.02283
G1 X145.048 Y147.396 E0.01953
G1 X144.684 Y147.105 E0.02062
G1 X144.281 Y146.908 E0.0199
G1 X143.789 Y146.78 E0.02254
G1 X143.32 Y146.719 E0.02096
G1 X141.689 Y146.682 E0.07227
G1 X141.581 Y146.693 E0.0048
