; generated by SuperSlicer 2.5.59 on 2022-09-03 at 01:07:49 UTC


;
;

;
;
; 

; external perimeters extrusion width = 0.40mm
; perimeters extrusion width = 0.48mm
; infill extrusion width = 0.56mm
; solid infill extrusion width = 0.56mm
; top infill extrusion width = 0.40mm
; first layer extrusion width = 0.48mm

; object:{"name":"3DBenchy","id":"3DBenchy.stl id:0 copy 0","object_center":[154.059998,149.999992,0.000000],"boundingbox_center":[154.059998,149.999992,24.000000],"boundingbox_size":[60.000999,31.004000,48.000000]}
; plater:{"center":[154.059998,149.999992,0.000000],"boundingbox_center":[154.059998,149.999992,24.000000],"boundingbox_size":[60.000999,31.004000,48.000000]}

M73 P0 R31
;TYPE:Custom
; custom gcode: start_gcode
PRINT_START EXTRUDER=250 BED=110
; custom gcode end: start_gcode
M107
G21 ; set units to millimeters
G90 ; use absolute coordinates
M83 ; use relative distances for extrusion
; custom gcode: start_filament_gcode
; Filament gcode
SET_PRESSURE_ADVANCE ADVANCE=0.03
SET_PRESSURE_ADVANCE EXTRUDER=extruder SMOOTH_TIME=0.04
; custom gcode end: start_filament_gcode
;_TOOLCHANGE 0
M104 S250 ; set temperature
M109 S250 ; set temperature and wait for it to be reached
M190 S110 ; set bed temperature and wait for it to be reached
;LAYER_CHANGE
;Z:0.24
;HEIGHT:0.24
G1 Z0.24 F42000
G92 E0
M73 P1 R31
G1 E-0.5 F1800
M204 S2000
G1 X125.943 Y140.111 F42000
G1 E0.5 F1800
;TYPE:Skirt
;WIDTH:0.52
G1 X125.122 Y140.886 E0.05281
G1 X124.263 Y142.141 E0.07109
G1 X123.833 Y143.191 E0.05306
G1 X123.655 Y143.938 E0.03587
G1 X123.546 Y144.932 E0.04677
G1 X123.463 Y150.028 E0.23824
G1 X123.568 Y155.436 E0.25287
G1 X123.906 Y157.032 E0.07624
G1 X124.244 Y157.824 E0.04027
G1 X124.679 Y158.543 E0.03928
G1 X125.446 Y159.456 E0.05572
G1 X126.304 Y160.151 E0.05164
G1 X127.573 Y160.808 E0.0668
G1 X128.93 Y161.156 E0.06551
G1 X153.959 Y162.676 E1.17217
G1 X155.226 Y162.645 E0.05925
G1 X157.302 Y162.414 E0.09765
G1 X160.094 Y161.736 E0.13431
G1 X161.315 Y161.299 E0.06061
G1 X163.336 Y160.358 E0.10422
G1 X165.611 Y158.928 E0.12559
G1 X167.479 Y157.483 E0.11041
G1 X168.888 Y156.053 E0.09382
G1 X170.592 Y153.605 E0.13944
G1 X171.423 Y152.007 E0.08421
G1 X171.745 Y150.646 E0.0654
G1 X171.738 Y149.291 E0.06332
G1 X171.458 Y148.083 E0.05796
G1 X170.989 Y147.059 E0.05264
G1 X169.589 Y144.958 E0.11802
G1 X167.949 Y143.081 E0.11651
G1 X166.235 Y141.548 E0.10753
G1 X164.052 Y140.045 E0.12389
G1 X161.738 Y138.876 E0.1212
G1 X159.261 Y138.016 E0.12258
G1 X156.743 Y137.501 E0.12014
G1 X154.291 Y137.325 E0.1149
G1 X129.459 Y138.787 E1.16284
G1 X128.653 Y138.894 E0.03798
G1 X127.734 Y139.139 E0.04446
G1 X126.66 Y139.626 E0.05514
G1 X125.943 Y140.111 E0.04045
G1 X126.265 Y140.505 F42000
G1 F1800
G1 X125.623 Y141.029 E0.03876
G1 X124.986 Y141.826 E0.0477
G1 X124.349 Y143.114 E0.06715
G1 X124.059 Y144.384 E0.06089
G1 X123.93 Y149.883 E0.25716
G1 X124.033 Y155.405 E0.25817
G1 X124.349 Y156.886 E0.0708
G1 X124.663 Y157.62 E0.03729
G1 X125.054 Y158.266 E0.03532
G1 X125.765 Y159.116 E0.05178
G1 X126.571 Y159.769 E0.04849
G1 X127.731 Y160.369 E0.06104
G1 X128.987 Y160.694 E0.06066
G1 X153.721 Y162.207 E1.15838
G1 X156.354 Y162.078 E0.12326
G1 X158.466 Y161.706 E0.10022
G1 X159.68 Y161.378 E0.05878
G1 X162.28 Y160.37 E0.13035
G1 X163.333 Y159.829 E0.05536
G1 X164.823 Y158.914 E0.08172
G1 X167.192 Y157.115 E0.13906
G1 X168.127 Y156.206 E0.06094
G1 X169 Y155.156 E0.06387
G1 X170.629 Y152.632 E0.14042
G1 X171.079 Y151.567 E0.05406
G1 X171.305 Y150.333 E0.05863
G1 X171.236 Y149.088 E0.05829
G1 X171.021 Y148.245 E0.04065
G1 X170.59 Y147.301 E0.0485
G1 X169.226 Y145.252 E0.11509
G1 X167.626 Y143.418 E0.11377
G1 X165.935 Y141.905 E0.10607
G1 X163.805 Y140.441 E0.12081
G1 X161.545 Y139.3 E0.11836
G1 X159.128 Y138.463 E0.11957
G1 X156.67 Y137.961 E0.11728
G1 X154.275 Y137.792 E0.11225
G1 X129.487 Y139.253 E1.16074
G1 X127.9 Y139.574 E0.0757
G1 X126.712 Y140.139 E0.06149
G1 X126.265 Y140.505 E0.02699
G1 X126.557 Y140.862 F42000
G1 F1800
G1 X125.967 Y141.344 E0.03563
G1 X125.37 Y142.091 E0.04468
G1 X124.792 Y143.259 E0.06092
G1 X124.52 Y144.454 E0.05728
G1 X124.396 Y149.891 E0.25424
G1 X124.499 Y155.374 E0.25636
G1 X124.792 Y156.741 E0.06536
G1 X125.43 Y157.99 E0.06552
G1 X126.084 Y158.776 E0.04784
G1 X126.838 Y159.387 E0.04534
G1 X127.888 Y159.93 E0.05529
G1 X129.044 Y160.231 E0.05581
G1 X153.739 Y161.741 E1.15656
G1 X156.289 Y161.616 E0.11935
G1 X158.371 Y161.249 E0.09882
G1 X159.555 Y160.928 E0.05735
G1 X162.069 Y159.954 E0.12605
G1 X163.099 Y159.426 E0.05412
G1 X164.554 Y158.533 E0.07979
G1 X166.905 Y156.747 E0.13802
G1 X167.791 Y155.882 E0.05787
G1 X168.612 Y154.896 E0.05998
G1 X170.226 Y152.396 E0.1391
G1 X170.637 Y151.418 E0.04961
G1 X170.84 Y150.292 E0.05349
G1 X170.775 Y149.156 E0.05319
G1 X170.583 Y148.408 E0.0361
G1 X170.192 Y147.543 E0.04436
G1 X168.864 Y145.545 E0.11216
G1 X167.304 Y143.754 E0.11103
G1 X165.635 Y142.262 E0.10461
G1 X163.559 Y140.837 E0.11773
G1 X161.352 Y139.725 E0.11553
G1 X158.996 Y138.91 E0.11656
G1 X156.597 Y138.422 E0.11443
G1 X154.258 Y138.258 E0.1096
G1 X129.516 Y139.718 E1.15864
G1 X128.066 Y140.01 E0.06913
G1 X126.953 Y140.539 E0.05759
G1 X126.557 Y140.862 E0.02389
G1 X126.849 Y141.219 F42000
G1 F1800
G1 X126.311 Y141.659 E0.0325
G1 X125.517 Y142.759 E0.06341
G1 X125.162 Y143.627 E0.04381
G1 X124.945 Y144.955 E0.06294
G1 X124.862 Y150.005 E0.23609
G1 X124.964 Y155.343 E0.24959
G1 X125.235 Y156.596 E0.05992
G1 X125.805 Y157.713 E0.05861
G1 X126.404 Y158.436 E0.0439
G1 X127.105 Y159.004 E0.04218
G1 X128.046 Y159.491 E0.04953
G1 X129.101 Y159.768 E0.05096
G1 X153.757 Y161.275 E1.15475
G1 X156.223 Y161.154 E0.11543
G1 X158.276 Y160.792 E0.09743
G1 X159.43 Y160.479 E0.05592
G1 X161.858 Y159.538 E0.12174
G1 X164.168 Y158.23 E0.12408
G1 X166.619 Y156.379 E0.14356
G1 X167.456 Y155.558 E0.05481
G1 X168.225 Y154.637 E0.0561
G1 X169.824 Y152.161 E0.13778
G1 X170.195 Y151.269 E0.04516
G1 X170.375 Y150.251 E0.04834
G1 X170.314 Y149.224 E0.0481
G1 X170.146 Y148.57 E0.03155
G1 X169.793 Y147.785 E0.04023
G1 X168.501 Y145.838 E0.10923
G1 X166.981 Y144.091 E0.10829
G1 X165.336 Y142.62 E0.10315
G1 X163.313 Y141.233 E0.11465
G1 X161.159 Y140.149 E0.11269
G1 X158.863 Y139.357 E0.11355
G1 X156.524 Y138.883 E0.11158
G1 X154.242 Y138.724 E0.10695
G1 X129.544 Y140.184 E1.15654
G1 X128.232 Y140.446 E0.06256
G1 X127.194 Y140.938 E0.0537
G1 X126.849 Y141.219 E0.02079
G1 E-0.5
; printing object 3DBenchy.stl id:0 copy 0
; acceleration to travel
M204 S10000
G1 X140.994 Y148.105 F42000
; decel to extrusion
M204 S2000
G1 X143.823 Y149.482
; end travel
G1 E0.5 F1800
;TYPE:Internal perimeter
;WIDTH:0.471777
G1 X143.881 Y149.409 E0.00391
G1 X143.93 Y149.295 E0.00518
;WIDTH:0.436807
G1 X143.979 Y149.182 E0.00475
;WIDTH:0.401838
G1 X144.028 Y149.068 E0.00432
;WIDTH:0.366868
G1 X144.077 Y148.955 E0.00389
G1 X144.108 Y148.902 E0.00195
;WIDTH:0.408374
G1 X144.139 Y148.848 E0.0022
;WIDTH:0.449881
G1 X144.171 Y148.795 E0.00246
;WIDTH:0.491387
G1 X144.202 Y148.742 E0.00271
;WIDTH:0.532893
G1 X144.233 Y148.688 E0.00297
;WIDTH:0.5744
G1 X144.265 Y148.635 E0.00323
;WIDTH:0.615906
G1 X144.296 Y148.582 E0.00348
G1 X144.314 Y148.638 E0.00336
;WIDTH:0.550747
G1 X144.352 Y148.752 E0.00594
;WIDTH:0.463869
G1 X144.389 Y148.865 E0.00491
;WIDTH:0.355271
G1 X144.426 Y148.978 E0.00362
G1 X144.411 Y149.095 E0.00358
;WIDTH:0.394106
G1 X144.396 Y149.212 E0.00403
;WIDTH:0.432942
G1 X144.382 Y149.33 E0.00449
;WIDTH:0.471777
G1 X144.367 Y149.447 E0.00495
G1 X144.366 Y149.845 E0.0167
G1 X144.381 Y150.224 E0.01593
;WIDTH:0.407208
G1 X144.396 Y150.604 E0.01348
G1 X144.275 Y150.244 E0.01348
;WIDTH:0.471777
G1 X144.155 Y149.884 E0.01593
G1 X143.987 Y149.635 E0.01257
G1 X143.823 Y149.482 E0.00941
G1 E-0.5
G1 X139.633 Y148.315 F42000
G1 E0.5 F1800
;WIDTH:0.428495
G1 X139.778 Y148.523 E0.00953
G1 X140.068 Y148.785 E0.0147
G1 X140.392 Y148.935 E0.01345
G1 X140.292 Y149.08 E0.0066
G1 X140.145 Y149.493 E0.01651
G1 X140.138 Y149.967 E0.01781
G1 X140.276 Y150.348 E0.01526
G1 X140.541 Y150.633 E0.01463
G1 X140.623 Y150.694 E0.00387
;WIDTH:0.469462
G1 X140.706 Y150.755 E0.00429
;WIDTH:0.510429
G1 X140.789 Y150.817 E0.00471
;WIDTH:0.551396
G1 X140.871 Y150.878 E0.00513
G1 X140.719 Y150.907 E0.00772
;WIDTH:0.510429
G1 X140.567 Y150.937 E0.00709
;WIDTH:0.469462
G1 X140.415 Y150.966 E0.00646
;WIDTH:0.428495
G1 X140.263 Y150.996 E0.00582
G1 X139.831 Y151.244 E0.01875
G1 X139.56 Y151.621 E0.01749
G1 X139.471 Y151.885 E0.01047
G1 X139.441 Y152.29 E0.01528
G1 X139.564 Y152.759 E0.01822
G1 X139.804 Y153.145 E0.0171
G1 X140.154 Y153.438 E0.01716
G1 X140.803 Y153.722 E0.02667
G1 X141.489 Y153.829 E0.02609
G1 X142.303 Y153.796 E0.03067
G1 X142.803 Y153.667 E0.01941
G1 X143.312 Y153.415 E0.02136
G1 X143.736 Y153.07 E0.02056
G1 X144.091 Y152.617 E0.02164
G1 X144.299 Y152.211 E0.01717
G1 X144.359 Y151.95 E0.01009
;WIDTH:0.359358
G1 X144.419 Y151.688 E0.00824
G1 X144.394 Y151.972 E0.00874
;WIDTH:0.430131
G1 X144.368 Y152.255 E0.01075
G1 X144.463 Y152.855 E0.02294
G1 X144.63 Y153.212 E0.0149
G1 X144.811 Y153.416 E0.0103
G1 X145.264 Y153.662 E0.01947
G1 X145.453 Y153.682 E0.00717
G1 X146.109 Y153.657 E0.02479
G1 X146.913 Y153.663 E0.03037
G1 X147.499 Y153.629 E0.02219
G1 X148.137 Y153.515 E0.0245
G1 X148.713 Y153.285 E0.02342
G1 X149.197 Y152.931 E0.02264
G1 X149.309 Y153.238 E0.01235
G1 X149.589 Y153.642 E0.01855
G1 X150.117 Y153.994 E0.02398
G1 X150.349 Y154.077 E0.00932
G1 X150.742 Y154.138 E0.01502
M73 P2 R31
G1 X150.973 Y154.132 E0.00871
G1 X151.547 Y153.981 E0.02245
G1 X151.888 Y153.762 E0.01529
G1 X152.205 Y153.382 E0.0187
G1 X152.398 Y153.585 E0.01058
G1 X152.774 Y153.788 E0.01616
G1 X153.21 Y153.85 E0.01662
G1 X153.567 Y153.737 E0.01413
G1 X153.831 Y153.575 E0.0117
G1 X154.183 Y153.157 E0.02066
G1 X154.348 Y153.41 E0.01142
G1 X154.681 Y153.719 E0.01715
G1 X155.095 Y153.865 E0.01662
G1 X155.508 Y153.863 E0.01557
G1 X155.714 Y153.793 E0.00822
G1 X155.92 Y153.724 E0.00822
G1 X156.028 Y153.65 E0.00496
;WIDTH:0.470742
G1 X156.136 Y153.575 E0.00549
;WIDTH:0.511353
G1 X156.245 Y153.501 E0.00602
;WIDTH:0.555452
G1 X156.353 Y153.427 E0.0066
G1 X156.423 Y153.297 E0.00746
G1 X156.494 Y153.166 E0.00746
G1 X156.553 Y152.949 E0.01132
;WIDTH:0.602232
G1 X156.612 Y152.732 E0.01237
G1 X156.569 Y152.491 E0.01347
;WIDTH:0.540863
G1 X156.525 Y152.249 E0.01197
G1 X156.425 Y152.008 E0.01277
G1 X156.325 Y151.767 E0.01277
G1 X156.082 Y151.317 E0.02496
;WIDTH:0.63633
G1 X155.84 Y150.867 E0.02983
G1 X155.771 Y150.753 E0.00775
G1 X155.765 Y150.665 E0.00515
G1 X156.166 Y149.986 E0.04596
G1 X156.411 Y150.592 E0.03813
G1 X156.61 Y151.063 E0.02983
;WIDTH:0.533819
G1 X156.81 Y151.533 E0.0246
G1 X156.853 Y151.64 E0.00554
G1 X156.952 Y151.902 E0.01346
G1 X157.05 Y152.164 E0.01346
G1 X157.148 Y152.433 E0.01377
;WIDTH:0.609043
G1 X157.245 Y152.702 E0.01591
G1 X157.203 Y152.843 E0.00819
G1 X157.113 Y153.091 E0.01469
;WIDTH:0.559992
G1 X157.024 Y153.339 E0.01339
G1 X156.8 Y153.772 E0.02469
G1 X156.606 Y153.865 E0.01093
;WIDTH:0.47896
G1 X156.412 Y153.959 E0.00918
G1 X156.201 Y154.074 E0.01027
;WIDTH:0.428495
G1 X155.989 Y154.189 E0.00905
G1 X155.732 Y154.49 E0.01489
G1 X155.624 Y154.783 E0.01176
G1 X155.607 Y155.285 E0.0189
G1 X155.781 Y155.764 E0.01916
G1 X156.071 Y156.115 E0.01711
G1 X156.337 Y156.28 E0.0118
G1 X156.49 Y156.326 E0.00601
;WIDTH:0.468146
G1 X156.643 Y156.372 E0.00664
;WIDTH:0.528436
G1 X156.796 Y156.418 E0.0076
G1 X156.949 Y156.464 E0.0076
G1 X157.29 Y156.398 E0.01652
G1 X157.631 Y156.332 E0.01652
G1 X157.884 Y156.233 E0.01292
;WIDTH:0.56385
G1 X158.137 Y156.134 E0.01388
G1 X158.227 Y156.046 E0.00647
;WIDTH:0.518732
G1 X158.317 Y155.957 E0.0059
;WIDTH:0.473613
G1 X158.408 Y155.868 E0.00533
;WIDTH:0.425275
G1 X158.498 Y155.78 E0.00472
G1 X158.901 Y155.244 E0.02502
G1 X159.034 Y154.976 E0.01112
G1 X159.363 Y154.204 E0.03132
G1 X159.628 Y153.52 E0.02737
G1 X159.835 Y152.942 E0.02288
G1 X160.009 Y152.467 E0.01886
G1 X160.125 Y152.135 E0.0131
G1 X160.24 Y151.804 E0.0131
G1 X160.338 Y151.567 E0.00955
;WIDTH:0.459241
G1 X160.437 Y151.331 E0.01041
;WIDTH:0.493208
G1 X160.535 Y151.094 E0.01128
;WIDTH:0.527174
G1 X160.633 Y150.858 E0.01215
G1 X160.809 Y150.409 E0.02288
;WIDTH:0.617162
G1 X160.985 Y149.961 E0.0272
G1 X161.087 Y150.061 E0.00806
G1 X161.285 Y150.158 E0.01247
G1 X161.656 Y150.275 E0.02197
G1 X161.397 Y150.62 E0.02434
G1 X161.292 Y150.788 E0.01121
;WIDTH:0.5788
G1 X161.187 Y150.957 E0.01045
;WIDTH:0.540438
G1 X161.082 Y151.126 E0.00969
;WIDTH:0.502076
G1 X160.978 Y151.294 E0.00893
;WIDTH:0.463714
G1 X160.873 Y151.463 E0.00817
G1 X160.719 Y151.811 E0.01567
;WIDTH:0.428495
G1 X160.565 Y152.16 E0.01433
G1 X160.54 Y152.348 E0.00714
G1 X160.515 Y152.536 E0.00714
G1 X160.573 Y152.939 E0.0153
G1 X160.753 Y153.357 E0.01712
G1 X160.983 Y153.605 E0.01272
G1 X161.28 Y153.781 E0.01301
G1 X161.765 Y153.883 E0.01863
G1 X163.519 Y153.832 E0.066
G1 X162.549 Y154.6 E0.04652
G1 X162.531 Y154.614 E0.00086
G1 X162.037 Y154.962 E0.02271
G1 X161.483 Y155.313 E0.0247
G1 X160.556 Y155.824 E0.03983
G1 X159.701 Y156.224 E0.03549
G1 X158.917 Y156.533 E0.03171
G1 X158.761 Y156.569 E0.00602
;WIDTH:0.47309
G1 X158.605 Y156.605 E0.00674
;WIDTH:0.517686
G1 X158.449 Y156.64 E0.00745
;WIDTH:0.547449
G1 X158.292 Y156.676 E0.00793
G1 X157.568 Y156.895 E0.03747
G1 X157.306 Y156.949 E0.01322
G1 X157.044 Y157.003 E0.01322
G1 X156.917 Y157.044 E0.00663
;WIDTH:0.507798
G1 X156.79 Y157.086 E0.0061
;WIDTH:0.468146
G1 X156.663 Y157.128 E0.00557
;WIDTH:0.428495
G1 X156.535 Y157.169 E0.00504
G1 X155.694 Y157.289 E0.03196
G1 X154.819 Y157.36 E0.03303
G1 X153.889 Y157.375 E0.03498
G1 X153.238 Y157.35 E0.02452
G1 X129.949 Y155.932 E0.87768
G1 X129.586 Y155.867 E0.01386
G1 X129.305 Y155.767 E0.01123
G1 X129.084 Y155.56 E0.01137
G1 X128.931 Y155.306 E0.01114
G1 X128.843 Y154.859 E0.01716
G1 X128.842 Y152.352 E0.09429
G1 X129.171 Y152.812 E0.02127
G1 X129.748 Y153.309 E0.02864
G1 X130.527 Y153.683 E0.03251
G1 X131.189 Y153.815 E0.0254
G1 X132.151 Y153.789 E0.03622
G1 X132.954 Y153.542 E0.0316
G1 X133.445 Y153.224 E0.022
G1 X133.768 Y152.869 E0.01806
G1 X134.025 Y152.404 E0.01998
G1 X134.118 Y151.945 E0.01761
G1 X134.017 Y151.556 E0.01514
G1 X133.867 Y151.302 E0.01111
G1 X133.577 Y151.023 E0.01512
G1 X133.132 Y150.822 E0.01835
G1 X132.71 Y150.777 E0.016
G1 X132.21 Y150.905 E0.01942
G1 X131.752 Y151.263 E0.02182
G1 X131.505 Y151.294 E0.00939
G1 X131.231 Y151.226 E0.01061
G1 X131.038 Y151.075 E0.00921
G1 X130.855 Y150.627 E0.01821
G1 X130.797 Y149.926 E0.02648
G1 X130.853 Y149.362 E0.02131
G1 X130.996 Y148.911 E0.01781
G1 X131.274 Y148.677 E0.01367
G1 X131.577 Y148.646 E0.01143
G1 X132.203 Y149 E0.02706
G1 X132.537 Y149.12 E0.01335
G1 X132.956 Y149.159 E0.01584
G1 X133.41 Y149.024 E0.01781
G1 X133.793 Y148.682 E0.01932
G1 X133.953 Y148.425 E0.01139
G1 X134.157 Y148.604 E0.01022
G1 X134.405 Y148.733 E0.0105
G1 X134.871 Y148.801 E0.01772
G1 X135.525 Y148.736 E0.02471
G1 X135.503 Y149.148 E0.01553
G1 X135.518 Y151.574 E0.09127
G1 X135.508 Y152.109 E0.02013
G1 X135.489 Y152.682 E0.02156
G1 X135.65 Y153.139 E0.01822
G1 X135.847 Y153.373 E0.0115
G1 X136.268 Y153.614 E0.01823
G1 X136.649 Y153.691 E0.01465
G1 X137.036 Y153.651 E0.01463
G1 X137.42 Y153.49 E0.01564
G1 X137.722 Y153.207 E0.01557
G1 X137.863 Y152.942 E0.0113
G1 X138.004 Y152.364 E0.0224
G1 X137.988 Y148.758 E0.13565
G1 X138.469 Y148.765 E0.0181
G1 X138.864 Y148.726 E0.01494
G1 X139.289 Y148.59 E0.01677
G1 X139.633 Y148.315 E0.01657
G1 E-0.5
; acceleration to travel
M204 S10000
G1 X150.218 Y151.023 F42000
; decel to extrusion
M204 S2000
G1 X152.335 Y151.565
; end travel
G1 E0.5 F1800
G1 X152.283 Y151.441 E0.00502
G1 X151.974 Y151.071 E0.01815
G1 X151.642 Y150.819 E0.01568
G1 X151.269 Y150.672 E0.01509
G1 X150.956 Y150.632 E0.01185
G1 X150.335 Y150.706 E0.02352
G1 X150.423 Y150.068 E0.02422
G1 X150.417 Y149.626 E0.01662
G1 X150.344 Y148.998 E0.02377
G1 X150.212 Y148.471 E0.02043
G1 X150.017 Y147.944 E0.02115
G1 X149.708 Y147.437 E0.02232
G1 X149.36 Y147.048 E0.01963
G1 X148.911 Y146.71 E0.02114
G1 X148.428 Y146.488 E0.01998
G1 X147.891 Y146.353 E0.02084
G1 X147.378 Y146.29 E0.01945
