; generated by SuperSlicer 2.4 on 2022-08-07 at 08:17:54 UTC


;
;

;
;
; 

; external perimeters extrusion width = 0.40mm
; perimeters extrusion width = 0.48mm
; infill extrusion width = 0.72mm
; solid infill extrusion width = 0.56mm
; top infill extrusion width = 0.40mm
; first layer extrusion width = 0.48mm

; object:{"name":"3DBenchy","id":"3DBenchy.stl id:0 copy 0","object_center":[150.000000,150.000000,0.000000],"boundingbox_center":[150.000000,150.000000,24.000000],"boundingbox_size":[60.001001,31.004000,48.000000]}
; plater:{"center":[150.000000,150.000000,0.000000],"boundingbox_center":[150.000000,150.000000,24.000000],"boundingbox_size":[60.001001,31.004000,48.000000]}

;TYPE:Custom
print_start EXTRUDER=245 BED=110 CHAMBER=50
M107
G21 ; set units to millimeters
G90 ; use absolute coordinates
M83 ; use relative distances for extrusion
; Filament gcode
M104 S245 ; set temperature
M109 S245 ; set temperature and wait for it to be reached
M190 S110 ; set bed temperature and wait for it to be reached
M107
;LAYER_CHANGE
;Z:0.25
;HEIGHT:0.25
;BEFORE_LAYER_CHANGE
;0.25
TIMELAPSE_TAKE_FRAME


G1 Z0.25 F27000
;AFTER_LAYER_CHANGE
;0.25
G92 E0
; INIT printing object 3DBenchy.stl id:0 copy 0
G1 E-0.75 F3000
M204 S1500
G1 Z0.65 F27000
; printing object 3DBenchy.stl id:0 copy 0
G1 X139.795 Y149.485
G1 Z0.25
G1 E0.75 F1800
;TYPE:Internal perimeter
;WIDTH:0.48
G1 X140.112 Y148.922 E0.02648
G1 X140.367 Y148.989 E0.01078
G1 X140.365 Y150.08 E0.04466
G1 X139.836 Y149.529 E0.03129
G1 E-0.75 F3000
G1 Z0.65 F27000
G1 X156.218 Y154.118
G1 Z0.25
G1 E0.75 F1800
G1 X156.506 Y154.419 E0.01702
G1 X156.924 Y154.582 E0.01838
G1 X156.432 Y154.867 E0.02328
G1 X155.814 Y155.18 E0.02837
G1 X156.197 Y154.174 E0.04407
G1 X156.06 Y153.337 F27000
G1 F1800
G1 X156.749 Y154.056 E0.04078
G1 X157.252 Y154.253 E0.02214
G1 X158.075 Y154.356 E0.03395
G1 X157.239 Y154.893 E0.0407
G1 X156.636 Y155.242 E0.02854
G1 X155.853 Y155.639 E0.03593
G1 X155.175 Y155.928 E0.03015
G1 X155.012 Y155.742 E0.01013
G1 X155.243 Y155.353 E0.01852
G1 X155.547 Y154.682 E0.03013
G1 X155.943 Y153.663 E0.04478
G1 X156.04 Y153.393 E0.01173
G1 E-0.75 F3000
G1 Z0.65 F27000
G1 X134.85 Y149.592
G1 Z0.25
G1 E0.75 F1800
G1 X135.265 Y149.546 E0.0171
G1 X135.275 Y150.119 E0.02349
G1 X135.404 Y150.491 E0.01612
G1 X134.855 Y150.835 E0.02655
G1 X134.85 Y149.652 E0.04846
G1 E-0.75 F3000
G1 Z0.65 F27000
G1 X144.862 Y154.138
G1 Z0.25
G1 E0.75 F1800
G1 X144.983 Y154.292 E0.008
G1 X145.459 Y154.639 E0.02413
G1 X145.907 Y154.845 E0.02015
G1 X146.365 Y154.958 E0.01933
G1 X146.832 Y154.988 E0.01918
G1 X147.298 Y154.933 E0.01919
G1 X147.809 Y154.778 E0.0219
G1 X148.237 Y154.509 E0.02067
G1 X148.343 Y154.575 E0.00514
G1 X149.285 Y154.744 E0.03916
G1 X150.106 Y154.397 E0.03648
G1 X150.225 Y154.498 E0.00641
G1 X150.707 Y154.649 E0.02069
G1 X150.657 Y154.896 E0.01032
G1 X150.684 Y155.356 E0.01885
G1 X150.787 Y155.779 E0.01784
G1 X151.106 Y156.449 E0.03039
G1 X150.714 Y156.481 E0.01611
G1 X149.839 Y156.496 E0.03582
G1 X149.222 Y156.472 E0.02527
G1 X125.949 Y155.053 E0.95469
G1 X125.764 Y155.022 E0.00769
G1 X125.735 Y154.793 E0.00942
G1 X125.735 Y154.268 E0.02149
G1 X126.226 Y154.462 E0.0216
G1 X126.643 Y154.578 E0.01771
G1 X127.054 Y154.647 E0.01709
G1 X127.639 Y154.678 E0.02397
G1 X128.204 Y154.641 E0.0232
G1 X128.737 Y154.537 E0.02225
G1 X129.237 Y154.359 E0.02173
G1 X129.601 Y154.168 E0.01683
G1 X130.028 Y153.863 E0.02146
G1 X130.433 Y153.442 E0.02393
G1 X130.649 Y153.089 E0.01696
G1 X131.106 Y153.867 E0.03696
G1 X131.79 Y154.364 E0.03461
G1 X132.632 Y154.553 E0.03535
G1 X133.432 Y154.446 E0.03304
G1 X134.065 Y154.1 E0.02953
G1 X134.524 Y153.582 E0.02834
G1 X134.755 Y153.049 E0.02378
G1 X135.05 Y153.593 E0.02536
G1 X135.505 Y154.035 E0.02597
G1 X135.975 Y154.321 E0.02253
G1 X136.477 Y154.511 E0.02199
G1 X136.966 Y154.621 E0.0205
G1 X137.357 Y154.667 E0.01611
G1 X137.918 Y154.675 E0.02297
G1 X138.49 Y154.619 E0.02354
G1 X139.173 Y154.433 E0.029
G1 X139.833 Y154.082 E0.03061
G1 X140.046 Y153.901 E0.01144
G1 X140.535 Y154.298 E0.02581
G1 X141.07 Y154.499 E0.02339
G1 X141.596 Y154.542 E0.02161
G1 X142.091 Y154.496 E0.02038
G1 X142.879 Y154.503 E0.03227
G1 X143.521 Y154.47 E0.02632
G1 X144.259 Y154.351 E0.03061
G1 X144.805 Y154.158 E0.02371
G1 E-0.75 F3000
G1 Z0.65 F27000
G1 X130.15 Y149.562
G1 Z0.25
G1 E0.75 F1800
G1 X130.667 Y149.66 E0.02154
G1 X130.674 Y150.883 E0.05008
G1 X130.125 Y150.312 E0.03245
G1 X129.349 Y149.961 E0.03488
G1 X129.822 Y149.817 E0.02022
G1 X130.102 Y149.599 E0.01455
G1 X130.103 Y149.058 F27000
G1 F1800
G1 X130.267 Y149.15 E0.00769
G1 X130.776 Y149.247 E0.02121
G1 X131.09 Y149.215 E0.01294
G1 X131.107 Y151.901 E0.11002
G1 X131.061 Y152.658 E0.03103
G1 X131.171 Y153.135 E0.02004
G1 X131.429 Y153.574 E0.02087
G1 X131.969 Y153.968 E0.02736
G1 X132.651 Y154.12 E0.0286
G1 X133.297 Y154.034 E0.02669
G1 X133.795 Y153.762 E0.02324
G1 X134.159 Y153.35 E0.02251
G1 X134.355 Y152.899 E0.02013
G1 X134.436 Y152.45 E0.0187
G1 X134.422 Y149.21 E0.13265
G1 X135.025 Y149.143 E0.02487
G1 X135.589 Y148.955 E0.02435
G1 X135.796 Y149.122 E0.0109
G1 X135.691 Y149.529 E0.01719
G1 X135.7 Y150.043 E0.02108
G1 X135.919 Y150.672 E0.02725
G1 X135.45 Y150.966 E0.02267
G1 X135.069 Y151.597 E0.03019
G1 X134.997 Y152.276 E0.02796
G1 X135.114 Y152.817 E0.02265
G1 X135.394 Y153.333 E0.02405
G1 X135.768 Y153.696 E0.02134
G1 X136.163 Y153.936 E0.01894
G1 X136.6 Y154.102 E0.01915
G1 X137.037 Y154.201 E0.01834
G1 X137.385 Y154.241 E0.01431
G1 X137.9 Y154.249 E0.0211
G1 X138.412 Y154.198 E0.02108
G1 X139.015 Y154.034 E0.02559
G1 X139.592 Y153.728 E0.02674
G1 X140.142 Y153.257 E0.02964
G1 X140.35 Y153.599 E0.01639
G1 X140.75 Y153.923 E0.02109
G1 X141.164 Y154.079 E0.01812
G1 X141.593 Y154.114 E0.01763
G1 X142.074 Y154.069 E0.01975
G1 X142.87 Y154.077 E0.03263
G1 X143.476 Y154.046 E0.02483
G1 X144.153 Y153.936 E0.0281
G1 X144.775 Y153.717 E0.02698
G1 X144.971 Y153.589 E0.00957
G1 X145.281 Y153.981 E0.02049
G1 X145.676 Y154.27 E0.02001
G1 X146.048 Y154.441 E0.01675
G1 X146.43 Y154.535 E0.01613
G1 X146.821 Y154.56 E0.01603
G1 X147.21 Y154.515 E0.01603
G1 X147.631 Y154.386 E0.01801
G1 X148.102 Y154.091 E0.02277
G1 X148.204 Y153.987 E0.00599
G1 X148.499 Y154.17 E0.01421
G1 X149.235 Y154.302 E0.03062
G1 X149.917 Y154.014 E0.0303
G1 X150.103 Y153.836 E0.01054
G1 X150.435 Y154.117 E0.01782
G1 X150.983 Y154.288 E0.0235
G1 X151.216 Y154.285 E0.00956
G1 X151.086 Y154.927 E0.02681
G1 X151.107 Y155.292 E0.015
G1 X151.191 Y155.636 E0.01446
G1 X151.405 Y156.086 E0.02044
G1 X152.065 Y156.77 E0.03889
G1 X151.58 Y156.838 E0.02007
G1 X150.734 Y156.907 E0.03473
G1 X149.834 Y156.922 E0.03687
G1 X149.201 Y156.898 E0.02595
G1 X125.9 Y155.478 E0.95585
G1 X125.682 Y155.44 E0.00908
G1 X125.551 Y155.383 E0.00582
G1 X125.469 Y155.317 E0.00433
G1 X125.397 Y155.219 E0.005
G1 X125.342 Y155.084 E0.00594
G1 X125.309 Y154.82 E0.01088
G1 X125.308 Y153.515 E0.05343
G1 X126.012 Y153.919 E0.03321
G1 X126.361 Y154.058 E0.0154
G1 X126.735 Y154.161 E0.01588
G1 X127.101 Y154.222 E0.01519
G1 X127.636 Y154.251 E0.02194
G1 X128.149 Y154.217 E0.02106
G1 X128.624 Y154.125 E0.01983
G1 X129.066 Y153.967 E0.01919
G1 X129.377 Y153.804 E0.0144
G1 X129.748 Y153.539 E0.01864
G1 X130.093 Y153.18 E0.02042
G1 X130.416 Y152.651 E0.02537
G1 X130.613 Y151.966 E0.0292
G1 X130.37 Y151.183 E0.03358
G1 X129.875 Y150.666 E0.0293
G1 X129.276 Y150.396 E0.02689
G1 X128.751 Y150.335 E0.02166
G1 X128.276 Y150.414 E0.01972
G1 X127.93 Y150.571 E0.01552
G1 X127.648 Y150.782 E0.01443
G1 X127.477 Y150.983 E0.01078
G1 X127.349 Y150.703 E0.01259
G1 X127.304 Y150.543 E0.00682
G1 X127.271 Y150.308 E0.00969
G1 X127.256 Y149.929 E0.01557
G1 X127.274 Y149.588 E0.01395
G1 X127.309 Y149.366 E0.00923
G1 X127.408 Y149.03 E0.01433
G1 X128.117 Y149.431 E0.03335
G1 X128.564 Y149.572 E0.01919
G1 X129.075 Y149.599 E0.02094
G1 X129.622 Y149.432 E0.02343
G1 X130.056 Y149.095 E0.02249
G1 E-0.75 F3000
G1 Z0.65 F27000
G1 X133.993 Y148.763
G1 Z0.25
G1 E0.75 F1800
G1 X134.512 Y148.771 E0.02124
G1 X134.933 Y148.724 E0.01736
G1 X135.287 Y148.606 E0.01527
G1 X135.636 Y148.339 E0.01799
G1 X135.825 Y148.597 E0.0131
G1 X136.153 Y148.862 E0.01727
G1 X136.357 Y148.93 E0.00881
G1 X136.211 Y149.22 E0.01328
G1 X136.118 Y149.579 E0.0152
G1 X136.125 Y149.967 E0.01589
G1 X136.268 Y150.379 E0.01784
G1 X136.807 Y150.89 E0.03041
G1 X136.202 Y150.997 E0.02517
G1 X135.763 Y151.273 E0.02123
G1 X135.483 Y151.736 E0.02215
G1 X135.428 Y152.253 E0.02129
G1 X135.517 Y152.667 E0.01734
G1 X135.738 Y153.072 E0.01888
G1 X136.03 Y153.357 E0.01672
G1 X136.351 Y153.552 E0.01536
G1 X136.723 Y153.693 E0.01631
G1 X137.109 Y153.78 E0.01618
G1 X137.412 Y153.815 E0.01251
G1 X137.882 Y153.822 E0.01924
G1 X138.335 Y153.777 E0.01862
G1 X138.857 Y153.635 E0.02218
G1 X139.351 Y153.373 E0.02286
G1 X139.773 Y153.011 E0.02279
G1 X140.282 Y152.322 E0.03506
G1 X140.48 Y152.993 E0.02863
G1 X140.676 Y153.314 E0.01541
G1 X140.965 Y153.548 E0.01524
G1 X141.259 Y153.659 E0.01285
G1 X141.591 Y153.686 E0.01365
G1 X142.056 Y153.643 E0.01911
G1 X142.862 Y153.651 E0.033
G1 X143.431 Y153.621 E0.02334
G1 X144.048 Y153.521 E0.02559
G1 X144.585 Y153.332 E0.02332
G1 X144.959 Y153.088 E0.01827
G1 X145.122 Y152.952 E0.00871
G1 X145.328 Y153.354 E0.0185
G1 X145.58 Y153.671 E0.0166
G1 X145.893 Y153.9 E0.01589
G1 X146.189 Y154.036 E0.01335
G1 X146.496 Y154.112 E0.01293
G1 X146.81 Y154.132 E0.01289
G1 X147.122 Y154.096 E0.01286
G1 X147.452 Y153.995 E0.01413
G1 X147.833 Y153.756 E0.01843
G1 X148.141 Y153.445 E0.01792
G1 X148.655 Y153.765 E0.02479
G1 X149.186 Y153.86 E0.02209
G1 X149.679 Y153.651 E0.02192
G1 X149.958 Y153.385 E0.0158
G1 X150.126 Y153.15 E0.01182
G1 X150.338 Y153.476 E0.0159
G1 X150.645 Y153.736 E0.01649
G1 X151.045 Y153.861 E0.01716
G1 X151.444 Y153.855 E0.01634
G1 X151.839 Y153.729 E0.01697
G1 X152.22 Y153.422 E0.02006
G1 X152.418 Y153.027 E0.01807
G1 X152.468 Y152.623 E0.01666
G1 X152.408 Y152.221 E0.01664
G1 X152.228 Y151.821 E0.01799
G1 X151.556 Y150.702 E0.05344
G1 X152.114 Y149.756 E0.04496
G1 X152.409 Y150.478 E0.03193
G1 X153.006 Y152.089 E0.07033
G1 X153.271 Y152.694 E0.02704
G1 X153.251 Y152.77 E0.00322
G1 X153.08 Y153.126 E0.01617
G1 X152.871 Y153.674 E0.024
G1 X152.802 Y153.788 E0.00548
G1 X152.732 Y153.847 E0.00375
G1 X152.676 Y153.872 E0.00251
G1 X152.156 Y154.022 E0.02215
G1 X151.827 Y154.235 E0.01605
G1 X151.591 Y154.579 E0.01707
G1 X151.515 Y154.957 E0.0158
G1 X151.53 Y155.229 E0.01115
G1 X151.595 Y155.492 E0.01109
G1 X151.76 Y155.84 E0.01579
G1 X152.078 Y156.17 E0.01876
G1 X152.377 Y156.319 E0.01366
G1 X152.727 Y156.39 E0.01462
G1 X153.089 Y156.374 E0.01485
G1 X153.462 Y156.289 E0.01564
G1 X153.744 Y156.192 E0.01224
G1 X154.101 Y156.016 E0.01627
G1 X154.479 Y155.711 E0.01988
G1 X154.715 Y155.408 E0.01573
G1 X154.865 Y155.155 E0.01205
G1 X155.154 Y154.517 E0.02868
G1 X155.544 Y153.514 E0.04407
G1 X156.499 Y150.844 E0.11612
G1 X156.834 Y149.855 E0.04272
G1 X157.19 Y150.069 E0.01699
G1 X157.438 Y150.16 E0.01081
G1 X157.737 Y150.206 E0.01241
G1 X157.361 Y150.686 E0.02498
G1 X156.836 Y151.404 E0.03643
G1 X156.629 Y151.744 E0.01628
G1 X156.49 Y152.081 E0.01495
G1 X156.426 Y152.448 E0.01523
G1 X156.455 Y152.843 E0.01621
G1 X156.627 Y153.312 E0.02049
G1 X156.992 Y153.693 E0.02158
G1 X157.358 Y153.837 E0.01611
G1 X157.625 Y153.87 E0.011
G1 X159.035 Y153.829 E0.05775
G1 X159.119 Y154.061 E0.01008
G1 X158.449 Y154.591 E0.03499
G1 X157.959 Y154.937 E0.02458
G1 X157.461 Y155.257 E0.02422
G1 X156.839 Y155.617 E0.02943
G1 X156.033 Y156.025 E0.037
G1 X155.174 Y156.392 E0.03824
G1 X154.289 Y156.701 E0.03839
G1 X153.387 Y156.952 E0.03833
G1 X152.466 Y157.143 E0.03852
G1 X151.627 Y157.262 E0.0347
G1 X150.755 Y157.333 E0.03581
G1 X149.829 Y157.349 E0.03791
G1 X149.18 Y157.323 E0.02662
G1 X125.851 Y155.902 E0.957
G1 X125.558 Y155.851 E0.01214
G1 X125.329 Y155.751 E0.01026
G1 X125.232 Y155.684 E0.00483
G1 X125.159 Y155.615 E0.00413
G1 X125.021 Y155.428 E0.00949
G1 X124.968 Y155.318 E0.00498
G1 X124.926 Y155.192 E0.00545
G1 X124.883 Y154.847 E0.01422
G1 X124.881 Y152.456 E0.09791
G1 X125.365 Y152.969 E0.02887
G1 X125.709 Y153.254 E0.01827
G1 X126.197 Y153.534 E0.02305
G1 X126.497 Y153.653 E0.0132
G1 X126.827 Y153.744 E0.01404
G1 X127.147 Y153.798 E0.01329
G1 X127.633 Y153.824 E0.01992
G1 X128.094 Y153.794 E0.01891
G1 X128.511 Y153.712 E0.01741
G1 X128.895 Y153.576 E0.01665
G1 X129.153 Y153.44 E0.01196
G1 X129.468 Y153.215 E0.01583
G1 X129.754 Y152.918 E0.0169
G1 X130.022 Y152.478 E0.02111
G1 X130.168 Y151.971 E0.02162
G1 X129.993 Y151.405 E0.02424
G1 X129.624 Y151.021 E0.02181
G1 X129.161 Y150.811 E0.0208
G1 X128.762 Y150.765 E0.01647
G1 X128.401 Y150.826 E0.01497
G1 X128.148 Y150.94 E0.01136
G1 X127.942 Y151.095 E0.01057
G1 X127.81 Y151.249 E0.0083
G1 X127.662 Y151.287 E0.00626
G1 X127.474 Y151.288 E0.00769
G1 X127.366 Y151.266 E0.00453
G1 X127.208 Y151.196 E0.00707
G1 X127.105 Y151.117 E0.00531
G1 X127.014 Y150.996 E0.00621
G1 X126.947 Y150.85 E0.00655
G1 X126.886 Y150.63 E0.00935
G1 X126.846 Y150.347 E0.01171
G1 X126.829 Y149.925 E0.01728
G1 X126.85 Y149.543 E0.01568
G1 X126.893 Y149.272 E0.01125
G1 X126.952 Y149.07 E0.00859
G1 X127.014 Y148.936 E0.00605
G1 X127.112 Y148.804 E0.00677
G1 X127.178 Y148.748 E0.00352
G1 X127.277 Y148.693 E0.00463
G1 X127.382 Y148.657 E0.00456
G1 X127.528 Y148.641 E0.00601
G1 X127.619 Y148.659 E0.00379
G1 X128.288 Y149.038 E0.03148
G1 X128.641 Y149.149 E0.01514
G1 X129.022 Y149.169 E0.01564
G1 X129.423 Y149.047 E0.01715
G1 X129.737 Y148.803 E0.01628
G1 X129.969 Y148.494 E0.01585
G1 X130.415 Y148.744 E0.02095
G1 X130.794 Y148.817 E0.01579
G1 X131.54 Y148.739 E0.03071
G1 X131.516 Y149.13 E0.01601
G1 X131.533 Y151.913 E0.11398
G1 X131.49 Y152.622 E0.02909
G1 X131.571 Y152.975 E0.01483
G1 X131.752 Y153.282 E0.01457
G1 X132.149 Y153.571 E0.02012
G1 X132.67 Y153.688 E0.02186
G1 X133.162 Y153.622 E0.02034
G1 X133.525 Y153.423 E0.01695
G1 X133.795 Y153.119 E0.01667
G1 X133.944 Y152.775 E0.01533
G1 X134.009 Y152.413 E0.01508
G1 X133.994 Y148.823 E0.14696
G1 E-0.75 F3000
G1 Z0.65 F27000
G1 X147.77 Y147.368
G1 Z0.25
G1 E0.75 F1800
G1 X147.406 Y147.668 E0.01933
G1 X147.082 Y148.419 E0.03347
G1 X146.768 Y147.62 E0.03514
G1 X146.4 Y146.993 E0.02976
G1 X145.961 Y146.481 E0.02761
G1 X145.394 Y146.028 E0.02972
G1 X144.751 Y145.714 E0.02933
G1 X144.059 Y145.534 E0.02926
G1 X143.444 Y145.453 E0.02539
G1 X141.67 Y145.413 E0.07268
G1 X141.097 Y145.473 E0.02356
G1 X140.373 Y145.753 E0.03181
G1 X140.11 Y146.01 E0.01505
G1 X139.831 Y145.795 E0.0144
G1 X139.374 Y145.548 E0.02129
G1 X138.981 Y145.408 E0.01706
G1 X138.493 Y145.303 E0.02044
G1 X138.064 Y145.257 E0.01766
G1 X137.497 Y145.256 E0.02325
G1 X137.065 Y145.303 E0.01776
G1 X136.521 Y145.42 E0.0228
G1 X136.034 Y145.614 E0.02149
G1 X135.831 Y145.726 E0.00947
G1 X135.388 Y145.512 E0.02015
G1 X134.92 Y145.426 E0.01946
G1 X131.528 Y145.437 E0.13889
G1 X130.753 Y145.386 E0.03182
G1 X130.158 Y145.494 E0.02478
G1 X129.62 Y145.781 E0.02497
G1 X129.222 Y145.565 E0.01855
G1 X128.685 Y145.378 E0.02325
G1 X128.084 Y145.272 E0.02502
G1 X127.251 Y145.262 E0.03411
G1 X126.768 Y145.326 E0.01992
G1 X126.315 Y145.439 E0.01915
G1 X125.738 Y145.65 E0.02516
G1 X125.738 Y145.142 E0.02082
G1 X125.763 Y144.975 E0.00689
G1 X125.941 Y144.947 E0.00737
G1 X149.235 Y143.527 E0.95557
G1 X150.06 Y143.504 E0.03376
G1 X151.03 Y143.538 E0.03977
G1 X151.754 Y143.611 E0.02976
G1 X152.488 Y143.728 E0.03046
G1 X153.485 Y143.954 E0.04183
G1 X154.198 Y144.165 E0.03048
G1 X155.162 Y144.523 E0.04208
G1 X155.927 Y144.871 E0.03442
G1 X156.756 Y145.316 E0.03854
G1 X157.4 Y145.716 E0.03104
G1 X158.232 Y146.315 E0.04199
G1 X158.89 Y146.866 E0.03512
G1 X157.834 Y146.866 E0.04322
G1 X157.411 Y146.909 E0.0174
G1 X156.92 Y147.051 E0.02095
G1 X156.796 Y147.119 E0.00578
G1 X156.241 Y146.882 E0.02473
G1 X155.447 Y146.88 E0.03248
G1 X154.781 Y147.193 E0.03016
G1 X154.573 Y147.387 E0.01162
G1 X154.103 Y147.079 E0.02303
G1 X153.573 Y146.902 E0.02287
G1 X152.92 Y146.846 E0.02682
G1 X152.095 Y147.072 E0.03503
G1 X151.856 Y146.918 E0.01162
G1 X150.842 Y146.846 E0.04163
G1 X150.191 Y147.178 E0.02994
G1 X150.071 Y147.092 E0.00604
