; generated by SuperSlicer 2.5.59 on 2022-08-15 at 07:45:00 UTC


;
;

;
;
; 

; external perimeters extrusion width = 0.42mm
; perimeters extrusion width = 0.45mm
; infill extrusion width = 0.56mm
; solid infill extrusion width = 0.56mm
; top infill extrusion width = 0.40mm
; first layer extrusion width = 0.48mm

; object:{"name":"3DBenchy","id":"3DBenchy.stl id:0 copy 0","object_center":[154.060000,150.000000,0.000000],"boundingbox_center":[154.060000,150.000000,24.000000],"boundingbox_size":[60.000999,31.004000,48.000000]}
; plater:{"center":[154.060000,150.000000,0.000000],"boundingbox_center":[154.060000,150.000000,24.000000],"boundingbox_size":[60.000999,31.004000,48.000000]}

;TYPE:Custom
print_start EXTRUDER=255 BED=110 CHAMBER=50
M107
G21 ; set units to millimeters
G90 ; use absolute coordinates
M83 ; use relative distances for extrusion
; Filament gcode
SET_PRESSURE_ADVANCE ADVANCE=0.045
SET_PRESSURE_ADVANCE EXTRUDER=extruder SMOOTH_TIME=0.04
;_TOOLCHANGE 0
M104 S255 ; set temperature
M109 S255 ; set temperature and wait for it to be reached
M190 S110 ; set bed temperature and wait for it to be reached
M107
;LAYER_CHANGE
;Z:0.2375
;HEIGHT:0.2375
;BEFORE_LAYER_CHANGE
;0.2375
TIMELAPSE_TAKE_FRAME

G1 Z0.2375 F30000
;AFTER_LAYER_CHANGE
;0.2375
G92 E0
G10 ; retract
G1 Z0.6375
G1 X125.528 Y139.598
G1 Z0.2375
G11 ; unretract
;TYPE:Skirt
;WIDTH:0.45
G1 F2690.7215
G1 X124.635 Y140.44 E0.04834
G1 X124.059 Y141.187 E0.03719
G1 X123.671 Y141.848 E0.0302
G1 X123.205 Y142.986 E0.04843
G1 X123.002 Y143.839 E0.03456
G1 X122.886 Y144.921 E0.04288
G1 X122.802 Y150.039 E0.20168
G1 X122.909 Y155.476 E0.21423
G1 X123.032 Y156.338 E0.03432
G1 X123.278 Y157.237 E0.03672
G1 X123.65 Y158.113 E0.0375
G1 X124.358 Y159.221 E0.0518
G1 X125.147 Y160.081 E0.04596
G1 X125.741 Y160.563 E0.03015
G1 X126.53 Y161.057 E0.03669
G1 X127.545 Y161.499 E0.04363
G1 X128.85 Y161.812 E0.05289
G1 X153.97 Y163.336 E0.99156
G1 X155.28 Y163.303 E0.05162
G1 X157.395 Y163.068 E0.08386
G1 X159.033 Y162.726 E0.06592
G1 X160.312 Y162.359 E0.05243
G1 X161.574 Y161.906 E0.05283
G1 X163.634 Y160.947 E0.08953
G1 X164.756 Y160.3 E0.05102
G1 X166.179 Y159.329 E0.06788
G1 X168.438 Y157.506 E0.11436
G1 X169.584 Y156.251 E0.06698
G1 X171.294 Y153.726 E0.12013
G1 X172.048 Y152.218 E0.06645
G1 X172.402 Y150.704 E0.06125
G1 X172.39 Y149.195 E0.05946
G1 X172.076 Y147.853 E0.05428
G1 X171.553 Y146.717 E0.04931
G1 X170.102 Y144.543 E0.10297
G1 X168.406 Y142.605 E0.10147
G1 X166.659 Y141.042 E0.09237
G1 X165.426 Y140.137 E0.06024
G1 X164.4 Y139.485 E0.04791
G1 X162.011 Y138.275 E0.10552
G1 X159.449 Y137.383 E0.1069
G1 X156.847 Y136.849 E0.10465
G1 X154.315 Y136.666 E0.1
G1 X152.903 Y136.698 E0.05567
G1 X129.419 Y138.128 E0.92698
G1 X128.55 Y138.241 E0.03453
G1 X127.5 Y138.521 E0.04282
G1 X126.32 Y139.061 E0.05113
G1 X125.528 Y139.598 E0.03771
G1 X125.779 Y139.907 F30000
G1 F2690.7215
G1 X124.929 Y140.709 E0.04603
G1 X124.387 Y141.413 E0.03502
G1 X124.028 Y142.025 E0.02793
G1 X123.584 Y143.11 E0.04621
G1 X123.396 Y143.899 E0.03196
G1 X123.284 Y144.928 E0.04078
G1 X123.201 Y150.033 E0.20116
G1 X123.306 Y155.449 E0.21345
G1 X123.424 Y156.265 E0.03246
G1 X123.657 Y157.113 E0.03466
G1 X124.008 Y157.938 E0.03536
G1 X124.468 Y158.698 E0.03499
G1 X125.267 Y159.647 E0.04885
G1 X126.154 Y160.366 E0.04501
G1 X127.484 Y161.054 E0.059
G1 X128.899 Y161.416 E0.05756
G1 X153.964 Y162.937 E0.98939
G1 X155.248 Y162.906 E0.05061
G1 X157.339 Y162.673 E0.08291
G1 X158.927 Y162.342 E0.06389
G1 X160.181 Y161.983 E0.0514
G1 X161.418 Y161.539 E0.05178
G1 X163.454 Y160.591 E0.08851
G1 X164.541 Y159.964 E0.04942
G1 X165.762 Y159.142 E0.058
G1 X167.639 Y157.689 E0.09354
G1 X168.151 Y157.229 E0.02713
G1 X169.28 Y155.994 E0.06592
G1 X170.95 Y153.525 E0.11744
G1 X171.67 Y152.09 E0.06325
G1 X172.005 Y150.669 E0.05755
G1 X171.996 Y149.253 E0.05579
G1 X171.702 Y147.992 E0.051
G1 X171.212 Y146.923 E0.04633
G1 X169.792 Y144.794 E0.10086
G1 X168.13 Y142.892 E0.0995
G1 X166.403 Y141.347 E0.09131
G1 X164.189 Y139.823 E0.10587
G1 X161.846 Y138.637 E0.10348
G1 X159.335 Y137.765 E0.10473
G1 X156.784 Y137.243 E0.1026
G1 X154.301 Y137.064 E0.09809
G1 X152.927 Y137.096 E0.05416
G1 X129.444 Y138.526 E0.92698
G1 X128.613 Y138.635 E0.03302
G1 X127.642 Y138.894 E0.0396
G1 X126.525 Y139.402 E0.04833
G1 X125.779 Y139.907 E0.03552
G1 X126.03 Y140.217 F30000
G1 F2690.7215
G1 X125.223 Y140.978 E0.04372
G1 X124.715 Y141.639 E0.03285
G1 X124.385 Y142.201 E0.02566
G1 X123.963 Y143.234 E0.04398
G1 X123.79 Y143.959 E0.02936
G1 X123.683 Y144.935 E0.03868
G1 X123.599 Y150.026 E0.20064
G1 X123.704 Y155.423 E0.21267
G1 X123.815 Y156.191 E0.03059
G1 X124.036 Y156.989 E0.03259
G1 X124.367 Y157.764 E0.03321
G1 X124.789 Y158.462 E0.03214
G1 X125.54 Y159.356 E0.04601
G1 X126.382 Y160.039 E0.04274
G1 X127.619 Y160.679 E0.05485
G1 X128.947 Y161.021 E0.05406
G1 X153.957 Y162.539 E0.98721
G1 X155.215 Y162.508 E0.0496
G1 X157.283 Y162.279 E0.08197
G1 X158.82 Y161.958 E0.06186
G1 X160.049 Y161.607 E0.05037
G1 X161.261 Y161.173 E0.05072
G1 X163.274 Y160.236 E0.08749
G1 X164.325 Y159.629 E0.04781
G1 X165.532 Y158.817 E0.05731
G1 X167.394 Y157.375 E0.09279
G1 X168.499 Y156.289 E0.06105
G1 X169.276 Y155.337 E0.0484
G1 X170.913 Y152.798 E0.11902
G1 X171.391 Y151.672 E0.04821
G1 X171.632 Y150.362 E0.05248
G1 X171.562 Y149.04 E0.05217
G1 X171.329 Y148.131 E0.03698
G1 X170.871 Y147.13 E0.04335
G1 X169.482 Y145.044 E0.09875
G1 X167.854 Y143.18 E0.09752
G1 X166.146 Y141.653 E0.09026
G1 X163.979 Y140.162 E0.10365
G1 X161.681 Y139 E0.10144
G1 X159.222 Y138.147 E0.10257
G1 X156.722 Y137.636 E0.10055
G1 X154.287 Y137.462 E0.09618
G1 X152.951 Y137.494 E0.05264
G1 X129.468 Y138.924 E0.92698
G1 X128.675 Y139.029 E0.0315
G1 X127.783 Y139.266 E0.03637
G1 X126.731 Y139.743 E0.04552
G1 X126.03 Y140.217 E0.03334
G1 X126.308 Y140.558 F30000
G1 F2690.7215
G1 X125.674 Y141.076 E0.03226
G1 X125.043 Y141.865 E0.03983
G1 X124.414 Y143.136 E0.05585
G1 X124.127 Y144.395 E0.0509
G1 X123.998 Y149.884 E0.21634
G1 X124.101 Y155.397 E0.21723
G1 X124.207 Y156.118 E0.02873
G1 X124.414 Y156.865 E0.03053
G1 X124.725 Y157.589 E0.03107
G1 X125.11 Y158.225 E0.02929
G1 X125.813 Y159.066 E0.04317
G1 X126.61 Y159.713 E0.04047
G1 X127.754 Y160.304 E0.05071
G1 X128.996 Y160.625 E0.05057
G1 X153.724 Y162.138 E0.97611
G1 X156.345 Y162.01 E0.10341
G1 X158.452 Y161.638 E0.08428
G1 X159.661 Y161.311 E0.04937
G1 X160.848 Y160.905 E0.04943
G1 X162.248 Y160.308 E0.05998
G1 X163.298 Y159.769 E0.0465
G1 X164.783 Y158.857 E0.06864
G1 X167.149 Y157.061 E0.11706
G1 X168.077 Y156.158 E0.05098
G1 X168.944 Y155.115 E0.05345
G1 X170.569 Y152.597 E0.11808
G1 X171.013 Y151.545 E0.04501
G1 X171.235 Y150.327 E0.04877
G1 X171.167 Y149.098 E0.0485
G1 X170.955 Y148.269 E0.0337
G1 X170.531 Y147.337 E0.04037
G1 X169.172 Y145.295 E0.09663
G1 X167.578 Y143.467 E0.09555
G1 X165.89 Y141.958 E0.08921
G1 X163.769 Y140.5 E0.10144
G1 X161.517 Y139.363 E0.0994
G1 X159.109 Y138.529 E0.1004
G1 X156.659 Y138.03 E0.09849
G1 X154.273 Y137.861 E0.09428
G1 X152.975 Y137.891 E0.05113
G1 X129.492 Y139.322 E0.92698
G1 X128.738 Y139.422 E0.02998
G1 X127.925 Y139.639 E0.03315
G1 X126.748 Y140.198 E0.05135
G1 X126.308 Y140.558 E0.02238
G1 X126.558 Y140.863 F30000
G1 F2690.7215
G1 X125.968 Y141.345 E0.03001
G1 X125.371 Y142.091 E0.03766
G1 X124.793 Y143.26 E0.05136
G1 X124.521 Y144.455 E0.04829
G1 X124.396 Y149.891 E0.21424
G1 X124.499 Y155.37 E0.21593
G1 X124.793 Y156.74 E0.05521
G1 X125.083 Y157.415 E0.02892
G1 X125.431 Y157.989 E0.02644
G1 X126.086 Y158.776 E0.04033
G1 X126.839 Y159.386 E0.0382
G1 X127.888 Y159.929 E0.04657
G1 X129.045 Y160.23 E0.04707
G1 X153.739 Y161.74 E0.9748
G1 X156.289 Y161.615 E0.10059
G1 X158.37 Y161.248 E0.08328
G1 X159.555 Y160.927 E0.04834
G1 X160.717 Y160.529 E0.0484
G1 X162.068 Y159.953 E0.0579
G1 X163.099 Y159.424 E0.04561
G1 X164.553 Y158.532 E0.06724
G1 X166.904 Y156.746 E0.11631
G1 X167.79 Y155.882 E0.04877
G1 X168.613 Y154.894 E0.05065
G1 X170.225 Y152.396 E0.11714
G1 X170.635 Y151.418 E0.04181
G1 X170.838 Y150.292 E0.04507
G1 X170.773 Y149.156 E0.04483
G1 X170.582 Y148.408 E0.03042
G1 X170.19 Y147.544 E0.03739
G1 X168.862 Y145.545 E0.09452
G1 X167.302 Y143.755 E0.09357
G1 X165.634 Y142.263 E0.08816
G1 X163.558 Y140.838 E0.09922
G1 X161.352 Y139.726 E0.09735
G1 X158.996 Y138.911 E0.09823
G1 X156.597 Y138.423 E0.09644
G1 X154.258 Y138.259 E0.09237
G1 X129.516 Y139.719 E0.97656
G1 X128.801 Y139.816 E0.02846
G1 X128.067 Y140.011 E0.02993
G1 X126.954 Y140.54 E0.04854
G1 X126.558 Y140.863 E0.02014
G10 ; retract
G1 Z0.6375 F30000
; printing object 3DBenchy.stl id:0 copy 0
G1 X143.814 Y149.483
G1 Z0.2375
G11 ; unretract
;TYPE:Internal perimeter
;WIDTH:0.48
G1 F450
G1 X144.068 Y149.032 E0.02196
G1 X144.388 Y149.116 E0.01403
G1 X144.387 Y150.08 E0.04085
G1 X143.814 Y149.483 E0.03507
G10 ; retract
G1 Z0.6375 F30000
G1 X160.304 Y154.138
G1 Z0.2375
G11 ; unretract
G1 F450
G1 X160.591 Y154.438 E0.01759
G1 X161.002 Y154.599 E0.0187
G1 X160.515 Y154.881 E0.02389
G1 X159.903 Y155.191 E0.02904
G1 X160.304 Y154.138 E0.04775
G1 X160.144 Y153.351 F30000
G1 F887.77704
G1 X160.836 Y154.073 E0.04233
G1 X161.341 Y154.271 E0.02301
G1 X162.158 Y154.373 E0.03485
G1 X161.324 Y154.908 E0.04197
G1 X160.719 Y155.259 E0.02962
G1 X159.933 Y155.657 E0.03732
G1 X159.355 Y155.904 E0.02665
G1 X159.15 Y155.669 E0.01319
G1 X159.325 Y155.374 E0.01454
G1 X159.63 Y154.701 E0.03131
G1 X160.028 Y153.678 E0.04652
G1 X160.144 Y153.351 E0.0147
G10 ; retract
G1 Z0.6375 F30000
G1 X138.852 Y149.998
G1 Z0.2375
G11 ; unretract
G1 F450
G1 X139.21 Y149.936 E0.01539
G1 X139.404 Y150.492 E0.02493
G1 X138.856 Y150.836 E0.02741
G1 X138.852 Y149.998 E0.03549
G10 ; retract
G1 Z0.6375 F30000
G1 X129.702 Y154.289
G1 Z0.2375
G11 ; unretract
G1 F3000
G1 X130.19 Y154.482 E0.02221
G1 X130.608 Y154.598 E0.0184
G1 X131.022 Y154.667 E0.01775
G1 X131.609 Y154.698 E0.02491
G1 X132.177 Y154.661 E0.02411
G1 X132.712 Y154.557 E0.02312
G1 X133.214 Y154.378 E0.02258
G1 X133.58 Y154.186 E0.01749
G1 X134.008 Y153.88 E0.0223
G1 X134.416 Y153.457 E0.02488
G1 X134.631 Y153.104 E0.01751
G1 X135.089 Y153.883 E0.0383
G1 X135.776 Y154.383 E0.03598
G1 X136.622 Y154.573 E0.03674
G1 X137.426 Y154.465 E0.03435
G1 X138.062 Y154.118 E0.0307
G1 X138.523 Y153.597 E0.02946
G1 X138.754 Y153.065 E0.02458
G1 X139.049 Y153.609 E0.02622
G1 X139.506 Y154.053 E0.02699
G1 X139.978 Y154.34 E0.02342
G1 X140.483 Y154.531 E0.02285
G1 X140.973 Y154.642 E0.0213
G1 X141.366 Y154.687 E0.01674
G1 X141.929 Y154.696 E0.02386
G1 X142.504 Y154.639 E0.02446
G1 X143.19 Y154.452 E0.03014
G1 X143.854 Y154.1 E0.03181
G1 X144.066 Y153.918 E0.01184
G1 X144.557 Y154.316 E0.02677
G1 X145.094 Y154.519 E0.02431
G1 X145.622 Y154.562 E0.02246
G1 X146.12 Y154.515 E0.02117
G1 X146.911 Y154.523 E0.03352
G1 X147.555 Y154.49 E0.02734
G1 X148.296 Y154.37 E0.03179
G1 X148.901 Y154.157 E0.02714
G1 X149.021 Y154.309 E0.0082
G1 X149.5 Y154.659 E0.02513
G1 X149.95 Y154.866 E0.02098
G1 X150.41 Y154.979 E0.02008
G1 X150.879 Y155.01 E0.01992
G1 X151.347 Y154.955 E0.01995
G1 X151.86 Y154.798 E0.02274
G1 X152.29 Y154.529 E0.02146
G1 X152.396 Y154.596 E0.00531
G1 X153.343 Y154.765 E0.04074
G1 X154.166 Y154.416 E0.03786
G1 X154.286 Y154.518 E0.00666
G1 X154.768 Y154.669 E0.02142
G1 X154.718 Y154.916 E0.01067
G1 X154.745 Y155.377 E0.0196
G1 X154.849 Y155.803 E0.01855
G1 X155.166 Y156.469 E0.03127
G1 X154.777 Y156.501 E0.01652
G1 X153.899 Y156.516 E0.03722
G1 X153.281 Y156.492 E0.0262
G1 X129.916 Y155.069 E0.99162
G1 X129.731 Y155.037 E0.00796
G1 X129.702 Y154.81 E0.00968
G1 X129.702 Y154.289 E0.02208
G10 ; retract
G1 Z0.6375 F30000
G1 X134.655 Y150.883
G1 Z0.2375
G11 ; unretract
G1 F450
G1 X134.106 Y150.311 E0.03356
G1 X133.51 Y150.042 E0.02772
G1 X134.13 Y149.562 E0.03321
G1 X134.647 Y149.66 E0.0223
G1 X134.655 Y150.883 E0.05181
G1 X134.596 Y151.974 F30000
G1 F3000
G1 X134.352 Y151.187 E0.03489
G1 X133.854 Y150.668 E0.03045
G1 X133.253 Y150.397 E0.02794
G1 X132.725 Y150.336 E0.02251
G1 X132.248 Y150.416 E0.02049
G1 X131.901 Y150.573 E0.01613
G1 X131.388 Y150.956 E0.02714
G1 X131.274 Y150.545 E0.01808
G1 X131.24 Y150.31 E0.01007
G1 X131.225 Y149.928 E0.01617
G1 X131.243 Y149.587 E0.01449
G1 X131.279 Y149.363 E0.00959
G1 X131.378 Y149.027 E0.01485
G1 X132.089 Y149.429 E0.03461
G1 X132.538 Y149.571 E0.01994
G1 X133.051 Y149.598 E0.02176
G1 X133.6 Y149.43 E0.02431
G1 X134.084 Y149.055 E0.02593
G1 X134.248 Y149.148 E0.00799
G1 X134.759 Y149.245 E0.02204
G1 X135.074 Y149.212 E0.01338
G1 X135.09 Y151.909 E0.11425
G1 X135.044 Y152.669 E0.03224
G1 X135.154 Y153.148 E0.02082
G1 X135.414 Y153.589 E0.02169
G1 X135.957 Y153.984 E0.02843
G1 X136.641 Y154.138 E0.02972
G1 X137.29 Y154.05 E0.02774
G1 X137.79 Y153.778 E0.02415
G1 X138.156 Y153.364 E0.02339
G1 X138.353 Y152.911 E0.02092
G1 X138.434 Y152.46 E0.01943
G1 X138.42 Y149.208 E0.13777
G1 X139.025 Y149.141 E0.02578
G1 X139.591 Y148.952 E0.02529
G1 X139.798 Y149.119 E0.01127
G1 X139.692 Y149.527 E0.01786
G1 X139.702 Y150.044 E0.02189
G1 X139.922 Y150.674 E0.02828
G1 X139.451 Y150.969 E0.02353
G1 X139.069 Y151.603 E0.03137
G1 X138.996 Y152.285 E0.02905
G1 X139.113 Y152.828 E0.02353
G1 X139.395 Y153.346 E0.02499
G1 X139.77 Y153.711 E0.02218
G1 X140.167 Y153.953 E0.01968
G1 X140.606 Y154.119 E0.0199
G1 X141.045 Y154.218 E0.01905
G1 X141.394 Y154.258 E0.01487
G1 X141.911 Y154.266 E0.02192
G1 X142.426 Y154.216 E0.0219
G1 X143.031 Y154.051 E0.02658
G1 X143.611 Y153.743 E0.02778
G1 X144.162 Y153.271 E0.03077
G1 X144.371 Y153.614 E0.017
G1 X144.773 Y153.939 E0.02191
G1 X145.189 Y154.096 E0.01883
G1 X145.62 Y154.131 E0.01832
G1 X146.102 Y154.086 E0.02051
G1 X146.902 Y154.094 E0.0339
G1 X147.51 Y154.063 E0.02579
G1 X148.19 Y153.952 E0.02919
G1 X148.814 Y153.733 E0.02802
G1 X149.01 Y153.605 E0.00993
G1 X149.321 Y153.997 E0.02119
G1 X149.718 Y154.287 E0.02084
G1 X150.092 Y154.459 E0.01743
G1 X150.476 Y154.554 E0.01675
G1 X150.868 Y154.579 E0.01665
G1 X151.259 Y154.533 E0.01666
G1 X151.681 Y154.405 E0.0187
G1 X152.289 Y154.024 E0.0304
G1 X152.553 Y154.188 E0.01317
G1 X153.293 Y154.32 E0.03185
G1 X153.978 Y154.03 E0.03151
G1 X154.163 Y153.852 E0.01089
G1 X154.497 Y154.134 E0.0185
G1 X155.046 Y154.306 E0.0244
G1 X155.28 Y154.303 E0.00991
G1 X155.15 Y154.946 E0.02782
G1 X155.171 Y155.314 E0.01559
G1 X155.255 Y155.658 E0.01503
G1 X155.47 Y156.111 E0.02123
G1 X156.128 Y156.792 E0.04012
G1 X155.647 Y156.861 E0.0206
G1 X154.798 Y156.93 E0.03607
G1 X153.894 Y156.945 E0.0383
G1 X153.259 Y156.92 E0.0269
G1 X129.867 Y155.496 E0.99282
G1 X129.646 Y155.458 E0.00949
G1 X129.517 Y155.401 E0.00598
G1 X129.434 Y155.335 E0.00447
G1 X129.361 Y155.236 E0.00522
G1 X129.307 Y155.101 E0.00616
G1 X129.273 Y154.838 E0.01124
G1 X129.273 Y153.532 E0.0553
G1 X129.975 Y153.936 E0.03431
G1 X130.326 Y154.074 E0.01599
G1 X130.701 Y154.178 E0.0165
G1 X131.069 Y154.24 E0.01578
G1 X131.606 Y154.268 E0.0228
G1 X132.121 Y154.235 E0.02188
G1 X132.599 Y154.142 E0.0206
G1 X133.042 Y153.984 E0.01994
G1 X133.355 Y153.82 E0.01496
G1 X133.727 Y153.554 E0.01937
G1 X134.074 Y153.193 E0.02121
G1 X134.398 Y152.662 E0.02636
G1 X134.596 Y151.974 E0.03034
G1 X134.148 Y151.978 F30000
G1 F3000
G1 X133.972 Y151.411 E0.02517
G1 X133.602 Y151.025 E0.02265
G1 X133.137 Y150.815 E0.0216
G1 X132.736 Y150.769 E0.0171
G1 X132.374 Y150.829 E0.01555
G1 X132.121 Y150.944 E0.01179
G1 X131.913 Y151.099 E0.01097
G1 X131.782 Y151.254 E0.00862
G1 X131.633 Y151.293 E0.00651
G1 X131.444 Y151.294 E0.008
G1 X131.335 Y151.271 E0.00471
G1 X131.176 Y151.202 E0.00735
G1 X131.073 Y151.122 E0.00552
G1 X130.982 Y151 E0.00645
G1 X130.914 Y150.854 E0.0068
G1 X130.853 Y150.633 E0.00971
G1 X130.812 Y150.349 E0.01217
G1 X130.795 Y149.925 E0.01795
G1 X130.816 Y149.541 E0.01629
G1 X130.859 Y149.269 E0.01169
G1 X130.919 Y149.067 E0.00893
G1 X130.981 Y148.932 E0.00629
G1 X131.08 Y148.798 E0.00704
G1 X131.146 Y148.743 E0.00366
G1 X131.245 Y148.687 E0.00482
G1 X131.351 Y148.652 E0.00474
G1 X131.498 Y148.635 E0.00625
G1 X131.589 Y148.654 E0.00395
G1 X132.261 Y149.033 E0.03269
G1 X132.615 Y149.145 E0.01572
G1 X132.998 Y149.165 E0.01624
G1 X133.399 Y149.043 E0.01778
