; generated by SuperSlicer 2.5.59 on 2022-08-15 at 04:41:21 UTC


;
;

;
;
; 

; external perimeters extrusion width = 0.42mm
; perimeters extrusion width = 0.45mm
; infill extrusion width = 0.56mm
; solid infill extrusion width = 0.56mm
; top infill extrusion width = 0.40mm
; first layer extrusion width = 0.48mm

; object:{"name":"3DBenchy","id":"3DBenchy.stl id:0 copy 0","object_center":[154.060000,150.000000,0.000000],"boundingbox_center":[154.060000,150.000000,24.000000],"boundingbox_size":[60.000999,31.004000,48.000000]}
; plater:{"center":[154.060000,150.000000,0.000000],"boundingbox_center":[154.060000,150.000000,24.000000],"boundingbox_size":[60.000999,31.004000,48.000000]}

;TYPE:Custom
print_start EXTRUDER=260 BED=110 CHAMBER=55
M107
G21 ; set units to millimeters
G90 ; use absolute coordinates
M83 ; use relative distances for extrusion
;T400 PA
;SET_PRESSURE_ADVANCE ADVANCE=0.01
;SET_PRESSURE_ADVANCE SMOOTH=0.04

;Trident PA
;SET_PRESSURE_ADVANCE SMOOTH=0.04
;SET_PRESSURE_ADVANCE ADVANCE=0.04
;_TOOLCHANGE 0
M104 S260 ; set temperature
M109 S260 ; set temperature and wait for it to be reached
M190 S110 ; set bed temperature and wait for it to be reached
M107
;LAYER_CHANGE
;Z:0.2375
;HEIGHT:0.2375
;BEFORE_LAYER_CHANGE
;0.2375
TIMELAPSE_TAKE_FRAME

G1 Z0.2375 F30000
;AFTER_LAYER_CHANGE
;0.2375
G92 E0
G10 ; retract
G1 Z0.6375
G1 X125.629 Y139.623
G1 Z0.2375
G11 ; unretract
;TYPE:Skirt
;WIDTH:0.45
G1 F2690.7215
G1 X124.738 Y140.464 E0.04489
G1 X124.162 Y141.211 E0.03456
G1 X123.773 Y141.872 E0.02809
G1 X123.309 Y143.007 E0.04496
G1 X123.106 Y143.861 E0.03214
G1 X122.99 Y144.939 E0.03973
G1 X122.904 Y150.042 E0.18701
G1 X123.012 Y155.455 E0.19839
G1 X123.136 Y156.316 E0.03188
G1 X123.382 Y157.214 E0.03412
G1 X123.753 Y158.09 E0.03484
G1 X124.46 Y159.196 E0.04812
G1 X125.248 Y160.055 E0.04271
G1 X125.842 Y160.538 E0.02804
G1 X126.63 Y161.031 E0.03408
G1 X127.644 Y161.473 E0.04051
G1 X128.949 Y161.785 E0.04917
G1 X153.971 Y163.303 E0.91857
G1 X155.277 Y163.27 E0.04786
G1 X157.385 Y163.036 E0.07772
G1 X159.019 Y162.695 E0.06116
G1 X160.294 Y162.33 E0.04862
G1 X161.552 Y161.877 E0.04899
G1 X163.605 Y160.921 E0.08298
G1 X164.724 Y160.276 E0.04733
G1 X166.143 Y159.308 E0.06293
G1 X168.395 Y157.49 E0.10606
G1 X169.52 Y156.264 E0.06097
G1 X171.243 Y153.721 E0.11254
G1 X171.996 Y152.215 E0.0617
G1 X172.349 Y150.703 E0.05691
G1 X172.337 Y149.195 E0.05526
G1 X172.023 Y147.855 E0.05044
G1 X171.5 Y146.719 E0.04581
G1 X170.054 Y144.552 E0.09548
G1 X168.363 Y142.619 E0.09409
G1 X166.622 Y141.062 E0.08561
G1 X165.393 Y140.16 E0.05586
G1 X164.37 Y139.509 E0.04443
G1 X161.988 Y138.303 E0.09784
G1 X159.433 Y137.413 E0.09912
G1 X156.839 Y136.881 E0.09704
G1 X154.315 Y136.698 E0.09272
G1 X152.906 Y136.731 E0.05164
G1 X129.517 Y138.155 E0.85864
G1 X128.649 Y138.268 E0.03206
G1 X127.599 Y138.548 E0.03982
G1 X126.42 Y139.087 E0.0475
G1 X125.629 Y139.623 E0.03504
G1 X125.88 Y139.933 F30000
G1 F2690.7215
G1 X125.031 Y140.733 E0.04274
G1 X124.49 Y141.437 E0.03254
G1 X124.131 Y142.048 E0.02597
G1 X123.688 Y143.132 E0.0429
G1 X123.5 Y143.921 E0.02972
G1 X123.388 Y144.946 E0.03779
G1 X123.303 Y150.035 E0.18652
G1 X123.41 Y155.429 E0.19767
G1 X123.527 Y156.243 E0.03015
G1 X123.76 Y157.09 E0.03219
G1 X124.111 Y157.915 E0.03285
G1 X124.571 Y158.675 E0.03254
G1 X125.369 Y159.622 E0.04537
G1 X126.255 Y160.34 E0.04179
G1 X127.584 Y161.028 E0.05483
G1 X128.997 Y161.39 E0.05347
G1 X153.964 Y162.905 E0.91655
G1 X155.245 Y162.873 E0.04692
G1 X157.329 Y162.641 E0.07684
G1 X158.912 Y162.312 E0.05927
G1 X160.163 Y161.953 E0.04766
G1 X161.396 Y161.511 E0.04801
G1 X163.425 Y160.566 E0.08203
G1 X164.509 Y159.941 E0.04585
G1 X165.726 Y159.121 E0.05375
G1 X167.596 Y157.675 E0.08663
G1 X168.109 Y157.214 E0.02527
G1 X169.217 Y156.005 E0.06007
G1 X170.899 Y153.52 E0.10995
G1 X171.618 Y152.088 E0.05873
G1 X171.952 Y150.668 E0.05347
G1 X171.943 Y149.253 E0.05184
G1 X171.65 Y147.993 E0.04739
G1 X171.16 Y146.926 E0.04304
G1 X169.744 Y144.802 E0.09352
G1 X168.087 Y142.907 E0.09225
G1 X166.365 Y141.367 E0.08463
G1 X164.159 Y139.848 E0.09817
G1 X161.823 Y138.665 E0.09594
G1 X159.32 Y137.795 E0.09711
G1 X156.776 Y137.275 E0.09513
G1 X154.301 Y137.097 E0.09095
G1 X152.93 Y137.128 E0.05023
G1 X129.541 Y138.553 E0.85864
G1 X128.712 Y138.662 E0.03065
G1 X127.741 Y138.92 E0.03682
G1 X126.626 Y139.428 E0.04489
G1 X125.88 Y139.933 E0.033
G1 X126.131 Y140.242 F30000
G1 F2690.7215
G1 X125.325 Y141.002 E0.04059
G1 X124.818 Y141.663 E0.03051
G1 X124.488 Y142.224 E0.02386
G1 X124.066 Y143.256 E0.04083
G1 X123.894 Y143.98 E0.0273
G1 X123.787 Y144.953 E0.03584
G1 X123.701 Y150.029 E0.18602
G1 X123.808 Y155.402 E0.19695
G1 X123.919 Y156.17 E0.02841
G1 X124.139 Y156.966 E0.03027
G1 X124.47 Y157.74 E0.03085
G1 X124.892 Y158.438 E0.02989
G1 X125.642 Y159.332 E0.04273
G1 X126.483 Y160.013 E0.03968
G1 X127.719 Y160.653 E0.05098
G1 X129.046 Y160.994 E0.05022
G1 X153.958 Y162.506 E0.91452
G1 X155.212 Y162.476 E0.04598
G1 X157.273 Y162.247 E0.07596
G1 X158.806 Y161.928 E0.05738
G1 X160.031 Y161.577 E0.0467
G1 X161.239 Y161.144 E0.04703
G1 X163.245 Y160.21 E0.08108
G1 X164.294 Y159.605 E0.04436
G1 X165.496 Y158.796 E0.05312
G1 X167.351 Y157.36 E0.08594
G1 X168.455 Y156.275 E0.05671
G1 X169.235 Y155.321 E0.04518
G1 X170.86 Y152.796 E0.11002
G1 X171.338 Y151.671 E0.04479
G1 X171.579 Y150.362 E0.04876
G1 X171.509 Y149.041 E0.04848
G1 X171.276 Y148.132 E0.03439
G1 X170.819 Y147.132 E0.04027
G1 X169.434 Y145.053 E0.09155
G1 X167.811 Y143.194 E0.09041
G1 X166.109 Y141.673 E0.08365
G1 X163.949 Y140.186 E0.0961
G1 X161.658 Y139.028 E0.09404
G1 X159.206 Y138.177 E0.09509
G1 X156.714 Y137.668 E0.09322
G1 X154.287 Y137.495 E0.08917
G1 X152.955 Y137.526 E0.04882
G1 X129.565 Y138.951 E0.85864
G1 X128.774 Y139.055 E0.02924
G1 X127.882 Y139.293 E0.03383
G1 X126.831 Y139.769 E0.04228
G1 X126.131 Y140.242 E0.03097
G1 X126.409 Y140.583 F30000
G1 F2690.7215
G1 X125.776 Y141.1 E0.02997
G1 X125.146 Y141.889 E0.03697
G1 X124.518 Y143.158 E0.0519
G1 X124.231 Y144.415 E0.04724
G1 X124.1 Y149.883 E0.2004
G1 X124.205 Y155.376 E0.20133
G1 X124.311 Y156.096 E0.02668
G1 X124.518 Y156.842 E0.02835
G1 X124.828 Y157.566 E0.02886
G1 X125.213 Y158.202 E0.02724
G1 X125.915 Y159.041 E0.04009
G1 X126.711 Y159.687 E0.03757
G1 X127.853 Y160.278 E0.04713
G1 X129.094 Y160.599 E0.04697
G1 X153.724 Y162.105 E0.9042
G1 X156.338 Y161.977 E0.0959
G1 X158.437 Y161.607 E0.0781
G1 X159.643 Y161.281 E0.04577
G1 X160.826 Y160.877 E0.04582
G1 X162.223 Y160.281 E0.05564
G1 X163.27 Y159.744 E0.04311
G1 X164.749 Y158.835 E0.06363
G1 X167.106 Y157.046 E0.10842
G1 X168.032 Y156.145 E0.04734
G1 X168.903 Y155.1 E0.04986
G1 X170.516 Y152.595 E0.10917
G1 X170.96 Y151.544 E0.04181
G1 X171.182 Y150.327 E0.04532
G1 X171.115 Y149.099 E0.04506
G1 X170.903 Y148.271 E0.03134
G1 X170.478 Y147.339 E0.0375
G1 X169.124 Y145.304 E0.08959
G1 X167.535 Y143.482 E0.08858
G1 X165.853 Y141.978 E0.08267
G1 X163.738 Y140.524 E0.09404
G1 X161.493 Y139.391 E0.09214
G1 X159.093 Y138.559 E0.09308
G1 X156.652 Y138.062 E0.09131
G1 X154.272 Y137.893 E0.0874
G1 X152.979 Y137.924 E0.04742
G1 X129.589 Y139.348 E0.85864
G1 X128.837 Y139.449 E0.02782
G1 X128.024 Y139.665 E0.03083
G1 X126.849 Y140.224 E0.04767
G1 X126.409 Y140.583 E0.02081
G1 X126.659 Y140.888 F30000
G1 F2690.7215
G1 X126.07 Y141.37 E0.02787
G1 X125.474 Y142.115 E0.03495
G1 X124.896 Y143.282 E0.04773
G1 X124.625 Y144.475 E0.04482
G1 X124.498 Y149.889 E0.19846
G1 X124.603 Y155.35 E0.20012
G1 X124.896 Y156.718 E0.05127
G1 X125.186 Y157.391 E0.02686
G1 X125.534 Y157.965 E0.02459
G1 X126.188 Y158.751 E0.03745
G1 X126.939 Y159.36 E0.03545
G1 X127.988 Y159.903 E0.04327
G1 X129.143 Y160.203 E0.04372
G1 X153.74 Y161.707 E0.90298
G1 X156.282 Y161.583 E0.09327
G1 X158.356 Y161.217 E0.07717
G1 X159.536 Y160.898 E0.04481
G1 X160.695 Y160.501 E0.04486
G1 X162.043 Y159.926 E0.05371
G1 X163.07 Y159.399 E0.04228
G1 X164.519 Y158.509 E0.06233
G1 X166.861 Y156.732 E0.10773
G1 X167.746 Y155.868 E0.04529
G1 X168.572 Y154.879 E0.04723
G1 X170.172 Y152.394 E0.10832
G1 X170.583 Y151.417 E0.03883
G1 X170.785 Y150.292 E0.04187
G1 X170.721 Y149.157 E0.04165
G1 X170.529 Y148.409 E0.02829
G1 X170.138 Y147.546 E0.03473
G1 X168.814 Y145.554 E0.08762
G1 X167.259 Y143.77 E0.08674
G1 X165.597 Y142.283 E0.08169
G1 X163.528 Y140.863 E0.09198
G1 X161.329 Y139.754 E0.09025
G1 X158.98 Y138.942 E0.09106
G1 X156.589 Y138.455 E0.0894
G1 X154.258 Y138.291 E0.08562
G1 X129.614 Y139.746 E0.90462
G1 X128.899 Y139.842 E0.02641
G1 X128.165 Y140.038 E0.02783
G1 X127.055 Y140.565 E0.04506
G1 X126.659 Y140.888 E0.01873
G10 ; retract
G1 Z0.6375 F30000
; printing object 3DBenchy.stl id:0 copy 0
G1 X143.858 Y149.485
G1 Z0.2375
G11 ; unretract
;TYPE:Internal perimeter
;WIDTH:0.48
G1 F450
G1 X144.104 Y149.049 E0.01972
G1 X144.424 Y149.133 E0.01305
G1 X144.423 Y150.075 E0.03709
G1 X143.858 Y149.485 E0.03217
G10 ; retract
G1 Z0.6375 F30000
G1 X160.285 Y154.137
G1 Z0.2375
G11 ; unretract
G1 F450
G1 X160.561 Y154.425 E0.01574
G1 X160.96 Y154.581 E0.01685
G1 X160.486 Y154.856 E0.02159
G1 X159.889 Y155.158 E0.02636
G1 X160.285 Y154.137 E0.04317
G1 X160.129 Y153.354 F30000
G1 F866.21264
G1 X160.806 Y154.06 E0.03856
G1 X161.311 Y154.258 E0.02138
G1 X162.112 Y154.358 E0.03179
G1 X161.292 Y154.884 E0.03835
G1 X160.69 Y155.233 E0.02743
G1 X159.908 Y155.63 E0.03456
G1 X159.347 Y155.869 E0.02402
G1 X159.142 Y155.635 E0.01226
G1 X159.308 Y155.355 E0.01282
G1 X159.612 Y154.684 E0.02901
G1 X160.129 Y153.354 E0.05624
G10 ; retract
G1 Z0.6375 F30000
G1 X138.92 Y150.041
G1 Z0.2375
G11 ; unretract
G1 F450
G1 X139.278 Y149.979 E0.01431
G1 X139.455 Y150.487 E0.0212
G1 X138.923 Y150.821 E0.02472
G1 X138.92 Y150.041 E0.03072
G10 ; retract
G1 Z0.6375 F30000
G1 X129.806 Y154.282
G1 Z0.2375
G11 ; unretract
G1 F3000
G1 X130.283 Y154.47 E0.02021
G1 X130.701 Y154.586 E0.01707
G1 X131.113 Y154.655 E0.01647
G1 X131.699 Y154.686 E0.0231
G1 X132.265 Y154.649 E0.02236
G1 X132.799 Y154.545 E0.02145
G1 X133.3 Y154.366 E0.02095
G1 X133.666 Y154.175 E0.01624
G1 X134.093 Y153.869 E0.0207
G1 X134.499 Y153.447 E0.02309
G1 X134.709 Y153.104 E0.01582
G1 X135.16 Y153.872 E0.0351
G1 X135.846 Y154.372 E0.03343
G1 X136.692 Y154.561 E0.03413
G1 X137.494 Y154.454 E0.03191
G1 X138.13 Y154.107 E0.02853
G1 X138.591 Y153.586 E0.02738
G1 X138.815 Y153.067 E0.02229
G1 X139.104 Y153.598 E0.0238
G1 X139.56 Y154.042 E0.02507
G1 X140.032 Y154.328 E0.02174
G1 X140.535 Y154.519 E0.02121
G1 X141.025 Y154.629 E0.01976
G1 X141.416 Y154.675 E0.01554
G1 X141.978 Y154.683 E0.02213
G1 X142.551 Y154.627 E0.0227
G1 X143.236 Y154.44 E0.02797
G1 X143.898 Y154.089 E0.02952
G1 X144.106 Y153.911 E0.01078
G1 X144.591 Y154.305 E0.02462
G1 X145.128 Y154.507 E0.0226
G1 X145.656 Y154.55 E0.02086
G1 X146.152 Y154.504 E0.01962
G1 X146.94 Y154.512 E0.03104
G1 X147.582 Y154.478 E0.02535
G1 X148.321 Y154.358 E0.02951
G1 X148.919 Y154.148 E0.02495
G1 X149.035 Y154.295 E0.0074
G1 X149.515 Y154.646 E0.0234
G1 X149.964 Y154.852 E0.01947
G1 X150.424 Y154.966 E0.01866
G1 X150.893 Y154.997 E0.01851
G1 X151.359 Y154.941 E0.01852
G1 X151.873 Y154.785 E0.02116
G1 X152.297 Y154.518 E0.01971
G1 X152.4 Y154.583 E0.00479
G1 X153.345 Y154.751 E0.03783
G1 X154.164 Y154.406 E0.03502
G1 X154.281 Y154.505 E0.00604
G1 X154.758 Y154.655 E0.01968
G1 X154.709 Y154.895 E0.00968
G1 X154.736 Y155.357 E0.01821
G1 X154.839 Y155.782 E0.01723
G1 X155.151 Y156.438 E0.02862
G1 X154.774 Y156.468 E0.01492
G1 X153.899 Y156.483 E0.03446
G1 X153.284 Y156.459 E0.02426
G1 X130.014 Y155.042 E0.9185
G1 X129.834 Y155.011 E0.00717
G1 X129.806 Y154.791 E0.00876
G1 X129.806 Y154.282 E0.02006
G10 ; retract
G1 Z0.6375 F30000
G1 X134.719 Y149.667
G1 Z0.2375
G11 ; unretract
G1 F450
G1 X134.726 Y150.863 E0.04713
G1 X134.19 Y150.305 E0.03049
G1 X133.607 Y150.041 E0.0252
G1 X134.212 Y149.57 E0.03022
G1 X134.719 Y149.667 E0.02032
G1 X134.679 Y151.966 F30000
G1 F3000
G1 X134.435 Y151.18 E0.03242
G1 X133.938 Y150.662 E0.02829
G1 X133.338 Y150.39 E0.02595
G1 X132.811 Y150.329 E0.02091
G1 X132.334 Y150.409 E0.01903
G1 X131.988 Y150.566 E0.01499
G1 X131.482 Y150.944 E0.02488
G1 X131.37 Y150.542 E0.01646
G1 X131.336 Y150.308 E0.0093
G1 X131.321 Y149.929 E0.01496
G1 X131.339 Y149.589 E0.0134
G1 X131.375 Y149.367 E0.00886
G1 X131.471 Y149.038 E0.0135
G1 X132.175 Y149.436 E0.03185
G1 X132.623 Y149.577 E0.01852
G1 X133.135 Y149.604 E0.0202
G1 X133.686 Y149.436 E0.02267
G1 X134.163 Y149.064 E0.02386
G1 X134.324 Y149.154 E0.00728
G1 X134.835 Y149.253 E0.02048
G1 X135.145 Y149.22 E0.01229
G1 X135.161 Y151.901 E0.10562
G1 X135.115 Y152.658 E0.02988
G1 X135.226 Y153.137 E0.01934
G1 X135.485 Y153.578 E0.02016
G1 X136.027 Y153.973 E0.02642
G1 X136.711 Y154.126 E0.0276
G1 X137.359 Y154.039 E0.02576
G1 X137.859 Y153.766 E0.02244
G1 X138.224 Y153.353 E0.02173
G1 X138.42 Y152.901 E0.01943
G1 X138.501 Y152.45 E0.01804
G1 X138.487 Y149.215 E0.12746
G1 X139.087 Y149.148 E0.02379
G1 X139.648 Y148.96 E0.02332
G1 X139.851 Y149.124 E0.01026
G1 X139.746 Y149.527 E0.01641
G1 X139.754 Y150.044 E0.02036
G1 X139.973 Y150.669 E0.0261
G1 X139.506 Y150.962 E0.02169
G1 X139.124 Y151.595 E0.02914
G1 X139.052 Y152.276 E0.02698
G1 X139.168 Y152.819 E0.02185
G1 X139.45 Y153.336 E0.0232
G1 X139.824 Y153.7 E0.02059
G1 X140.221 Y153.941 E0.01827
G1 X140.659 Y154.107 E0.01846
G1 X141.097 Y154.206 E0.01767
G1 X141.444 Y154.246 E0.01379
G1 X141.96 Y154.254 E0.02033
G1 X142.473 Y154.203 E0.02031
G1 X143.077 Y154.039 E0.02466
G1 X143.655 Y153.732 E0.02577
G1 X144.201 Y153.265 E0.0283
G1 X144.406 Y153.602 E0.01556
G1 X144.808 Y153.928 E0.02036
G1 X145.223 Y154.084 E0.0175
G1 X145.653 Y154.12 E0.01701
G1 X146.134 Y154.075 E0.01901
G1 X146.931 Y154.082 E0.03139
G1 X147.537 Y154.051 E0.02391
G1 X148.215 Y153.941 E0.02708
G1 X148.838 Y153.722 E0.02602
G1 X149.03 Y153.596 E0.00903
G1 X149.336 Y153.984 E0.01945
G1 X149.733 Y154.274 E0.0194
G1 X150.106 Y154.446 E0.01617
G1 X150.49 Y154.54 E0.01556
G1 X150.881 Y154.566 E0.01547
G1 X151.271 Y154.52 E0.01546
G1 X151.693 Y154.391 E0.01739
G1 X152.296 Y154.012 E0.02805
G1 X152.557 Y154.175 E0.01212
G1 X153.295 Y154.307 E0.02956
G1 X153.979 Y154.019 E0.02925
G1 X154.163 Y153.843 E0.01002
G1 X154.492 Y154.122 E0.017
G1 X155.255 Y154.361 E0.0315
G1 X155.14 Y154.926 E0.02274
G1 X155.162 Y155.293 E0.01448
G1 X155.246 Y155.637 E0.01396
G1 X155.461 Y156.089 E0.01972
G1 X156.11 Y156.762 E0.03682
G1 X155.64 Y156.829 E0.01871
G1 X154.795 Y156.897 E0.0334
G1 X153.895 Y156.912 E0.03547
G1 X153.263 Y156.888 E0.02491
G1 X129.964 Y155.469 E0.91962
G1 X129.745 Y155.431 E0.00876
G1 X129.617 Y155.375 E0.0055
G1 X129.536 Y155.31 E0.00408
G1 X129.464 Y155.213 E0.00479
G1 X129.411 Y155.079 E0.00565
G1 X129.377 Y154.818 E0.01038
G1 X129.377 Y153.526 E0.05089
G1 X130.069 Y153.924 E0.03147
G1 X130.42 Y154.063 E0.01484
G1 X130.794 Y154.166 E0.0153
G1 X131.16 Y154.228 E0.01464
G1 X131.696 Y154.256 E0.02114
G1 X132.21 Y154.223 E0.02029
G1 X132.686 Y154.13 E0.01911
G1 X133.128 Y153.972 E0.01849
G1 X133.44 Y153.809 E0.01388
G1 X133.811 Y153.543 E0.01797
G1 X134.158 Y153.183 E0.01969
G1 X134.481 Y152.653 E0.02447
G1 X134.679 Y151.966 E0.02818
G1 X134.231 Y151.97 F30000
G1 F3000
G1 X134.055 Y151.404 E0.02338
G1 X133.686 Y151.018 E0.02103
G1 X133.222 Y150.809 E0.02005
G1 X132.822 Y150.763 E0.01588
G1 X132.46 Y150.823 E0.01444
G1 X132.207 Y150.938 E0.01095
G1 X132 Y151.093 E0.01019
G1 X131.869 Y151.247 E0.00796
G1 X131.722 Y151.285 E0.00598
G1 X131.535 Y151.285 E0.00738
G1 X131.427 Y151.263 E0.00434
G1 X131.269 Y151.194 E0.00678
G1 X131.167 Y151.115 E0.00508
G1 X131.076 Y150.994 E0.00595
G1 X131.01 Y150.849 E0.00628
G1 X130.949 Y150.63 E0.00898
G1 X130.908 Y150.347 E0.01126
G1 X130.891 Y149.926 E0.01662
G1 X130.912 Y149.543 E0.01507
G1 X130.955 Y149.272 E0.01082
G1 X131.014 Y149.071 E0.00825
G1 X131.076 Y148.938 E0.00581
G1 X131.174 Y148.805 E0.00649
G1 X131.239 Y148.75 E0.00336
G1 X131.338 Y148.695 E0.00444
G1 X131.443 Y148.66 E0.00437
G1 X131.588 Y148.644 E0.00576
G1 X131.678 Y148.662 E0.00361
G1 X132.347 Y149.04 E0.03028
G1 X132.7 Y149.152 E0.01459
G1 X133.082 Y149.172 E0.01507
G1 X133.485 Y149.049 E0.01656
