; generated by SuperSlicer 2.4 on 2022-05-28 at 02:13:24 UTC


;
;

;
;
; 

; external perimeters extrusion width = 0.40mm
; perimeters extrusion width = 0.45mm
; infill extrusion width = 0.72mm
; solid infill extrusion width = 0.56mm
; top infill extrusion width = 0.40mm
; first layer extrusion width = 0.48mm

; object:{"name":"[a]_wire_cover","id":"[a]_wire_cover.stl id:0 copy 0","object_center":[150.000000,150.000001,0.000000],"boundingbox_center":[150.000000,150.000001,20.000000],"boundingbox_size":[17.218872,31.000000,39.999999]}
; plater:{"center":[150.000000,150.000001,0.000000],"boundingbox_center":[150.000000,150.000001,20.000000],"boundingbox_size":[17.218872,31.000000,39.999999]}

;TYPE:Custom
print_start EXTRUDER=250 BED=110 CHAMBER=50
M107
G21 ; set units to millimeters
G90 ; use absolute coordinates
M83 ; use relative distances for extrusion
; Filament gcode
SET_PRESSURE_ADVANCE ADVANCE=0.03465
M104 S250 ; set temperature
M109 S250 ; set temperature and wait for it to be reached
M190 S110 ; set bed temperature and wait for it to be reached
M107
;LAYER_CHANGE
;Z:0.25
;HEIGHT:0.25
;BEFORE_LAYER_CHANGE
;0.25


G1 Z0.25 F27000
;AFTER_LAYER_CHANGE
;0.25
G92 E0
; INIT printing object [a]_wire_cover.stl id:0 copy 0
G1 E-0.75 F3000
M204 S1500
G1 Z0.65 F27000
; printing object [a]_wire_cover.stl id:0 copy 0
G1 X156.115 Y163.006
G1 Z0.25
G1 E0.75 F1800
;TYPE:Internal perimeter
;WIDTH:0.48
G1 F900
G1 X153.954 Y163.006 E0.08849
G1 X152.867 Y162.536 E0.04848
G1 X152.144 Y162.255 E0.03176
G1 X151.293 Y161.957 E0.03693
G1 X149.968 Y161.556 E0.05669
G1 X149.082 Y161.333 E0.03738
G1 X147.722 Y161.052 E0.05688
G1 X146.885 Y160.927 E0.03464
G1 X146.896 Y141.048 E0.81396
G1 X147.179 Y141 E0.01177
G1 X147.323 Y141.409 E0.01774
G1 X147.69 Y142.064 E0.03073
G1 X147.964 Y142.433 E0.01882
G1 X148.473 Y142.965 E0.03017
G1 X149.112 Y143.439 E0.03254
G1 X149.782 Y143.776 E0.03075
G1 X150.217 Y143.93 E0.01887
G1 X150.949 Y144.088 E0.03068
G1 X151.732 Y144.121 E0.03209
G1 X152.51 Y144.021 E0.03209
G1 X153.261 Y143.791 E0.03217
G1 X153.97 Y143.432 E0.03255
G1 X154.562 Y142.994 E0.03017
G1 X154.896 Y142.675 E0.01889
G1 X155.372 Y142.083 E0.03113
G1 X155.732 Y141.439 E0.03018
G1 X155.831 Y141.193 E0.01087
G1 X156.107 Y141.246 E0.01151
G1 X156.115 Y162.946 E0.88851
G1 X155.367 Y136.909 F27000
G1 F900
G1 X155.812 Y137.045 E0.01906
G1 X155.889 Y137.087 E0.0036
G1 X155.962 Y137.148 E0.00387
G1 X156.022 Y137.22 E0.00387
G1 X156.071 Y137.31 E0.00417
G1 X156.106 Y137.461 E0.00635
G1 X156.106 Y137.751 E0.01186
G1 X155.822 Y137.799 E0.01178
G1 X155.749 Y137.591 E0.00902
G1 X155.396 Y136.961 E0.02957
G1 E-0.75 F3000
G1 Z0.65 F27000
G1 X148.177 Y136.938
G1 Z0.25
G1 E0.75 F1800
G1 F900
G1 X147.726 Y137.745 E0.03788
G1 X147.574 Y138.121 E0.0166
G1 X147.4 Y138.785 E0.02811
G1 X147.341 Y139.481 E0.02857
G1 X147.359 Y139.887 E0.01664
G1 X147.473 Y140.551 E0.02761
G1 X147.713 Y141.232 E0.02957
G1 X148.049 Y141.831 E0.02812
G1 X148.29 Y142.157 E0.01661
G1 X148.756 Y142.644 E0.02759
G1 X149.336 Y143.074 E0.02956
G1 X149.95 Y143.383 E0.02813
G1 X150.333 Y143.519 E0.01664
G1 X151.004 Y143.663 E0.02808
G1 X151.714 Y143.693 E0.02912
G1 X152.42 Y143.603 E0.02912
G1 X153.101 Y143.394 E0.02918
G1 X153.745 Y143.068 E0.02957
G1 X154.287 Y142.667 E0.0276
G1 X154.581 Y142.386 E0.01666
G1 X155.018 Y141.843 E0.02852
G1 X155.346 Y141.255 E0.0276
G1 X155.498 Y140.879 E0.0166
G1 X155.672 Y140.214 E0.02811
G1 X155.731 Y139.519 E0.02857
G1 X155.713 Y139.113 E0.01664
G1 X155.599 Y138.449 E0.0276
G1 X155.359 Y137.768 E0.02957
G1 X155.023 Y137.169 E0.02812
G1 X154.581 Y136.571 E0.03045
G1 X155.591 Y136.57 E0.04137
G1 X155.776 Y136.589 E0.00761
G1 X155.978 Y136.65 E0.00864
G1 X156.128 Y136.732 E0.00703
G1 X156.265 Y136.845 E0.00723
G1 X156.377 Y136.981 E0.00723
G1 X156.473 Y137.157 E0.00821
G1 X156.494 Y137.216 E0.00255
G1 X156.532 Y137.412 E0.00818
G1 X156.541 Y163.432 E1.06543
G1 X153.865 Y163.432 E0.10957
G1 X152.705 Y162.93 E0.05176
G1 X151.996 Y162.655 E0.03113
G1 X151.161 Y162.362 E0.03626
G1 X149.854 Y161.967 E0.05591
G1 X148.987 Y161.749 E0.03659
G1 X147.647 Y161.472 E0.05603
G1 X146.458 Y161.295 E0.04921
G1 X146.471 Y138.868 E0.91828
G1 X146.573 Y138.222 E0.02678
G1 X146.67 Y137.85 E0.01575
G1 X146.734 Y137.697 E0.00677
G1 X146.811 Y137.588 E0.00547
G1 X146.873 Y137.533 E0.0034
G1 X147.315 Y137.289 E0.02068
G1 X147.695 Y137.115 E0.01711
G1 X148.121 Y136.958 E0.01857
G1 X148.826 Y136.884 F27000
G1 F900
G1 X148.806 Y136.903 E0.00113
G1 X148.409 Y137.396 E0.02592
G1 X148.111 Y137.93 E0.02502
G1 X147.98 Y138.256 E0.01439
G1 X147.822 Y138.858 E0.0255
G1 X147.768 Y139.49 E0.02595
G1 X147.784 Y139.841 E0.01441
G1 X147.887 Y140.444 E0.02503
G1 X148.103 Y141.056 E0.02659
G1 X148.408 Y141.599 E0.02551
G1 X148.617 Y141.882 E0.01439
G1 X149.039 Y142.323 E0.02502
G1 X149.561 Y142.71 E0.02659
G1 X150.117 Y142.99 E0.02552
G1 X150.449 Y143.108 E0.01442
G1 X151.058 Y143.239 E0.02549
G1 X151.696 Y143.266 E0.02615
G1 X152.33 Y143.185 E0.02615
G1 X152.941 Y142.998 E0.02619
G1 X153.521 Y142.704 E0.02659
G1 X154.012 Y142.34 E0.02502
G1 X154.266 Y142.097 E0.01442
G1 X154.663 Y141.604 E0.02591
G1 X154.961 Y141.07 E0.02503
G1 X155.092 Y140.744 E0.01439
G1 X155.25 Y140.142 E0.0255
G1 X155.304 Y139.51 E0.02595
G1 X155.288 Y139.159 E0.01441
G1 X155.185 Y138.556 E0.02502
G1 X154.969 Y137.944 E0.02659
G1 X154.665 Y137.401 E0.02551
G1 X154.456 Y137.118 E0.01439
G1 X154.033 Y136.677 E0.02502
G1 X153.633 Y136.38 E0.02041
G1 X153.71 Y136.146 E0.01009
G1 X155.613 Y136.143 E0.07791
G1 X155.861 Y136.169 E0.01023
G1 X156.144 Y136.255 E0.0121
G1 X156.368 Y136.377 E0.01046
G1 X156.568 Y136.542 E0.01059
G1 X156.732 Y136.741 E0.01059
G1 X156.863 Y136.982 E0.01122
G1 X156.906 Y137.102 E0.00523
G1 X156.958 Y137.371 E0.0112
G1 X156.968 Y163.859 E1.08457
G1 X153.777 Y163.859 E0.13065
G1 X152.543 Y163.325 E0.05505
G1 X151.849 Y163.055 E0.0305
G1 X151.028 Y162.768 E0.03559
G1 X149.74 Y162.378 E0.05512
G1 X148.892 Y162.165 E0.0358
G1 X147.572 Y161.892 E0.05517
G1 X146.032 Y161.662 E0.06378
G1 X146.044 Y138.834 E0.93471
G1 X146.155 Y138.135 E0.02899
G1 X146.265 Y137.713 E0.01786
G1 X146.359 Y137.49 E0.00991
G1 X146.491 Y137.301 E0.00946
G1 X146.627 Y137.182 E0.00738
G1 X147.123 Y136.908 E0.02319
G1 X147.532 Y136.72 E0.01845
G1 X148.176 Y136.484 E0.02808
G1 X148.961 Y136.283 E0.0332
G1 X149.179 Y136.25 E0.00901
G1 X149.281 Y136.496 E0.01093
G1 X149.061 Y136.66 E0.01124
G1 X148.87 Y136.843 E0.01084
M204 S1000
G1 X149.121 Y137.192 F27000
;TYPE:External perimeter
G1 F900
G1 X148.764 Y137.635 E0.02331
G1 X148.497 Y138.114 E0.02244
G1 X148.442 Y138.25 E0.00601
G1 X148.385 Y138.39 E0.00617
G1 X148.244 Y138.931 E0.02289
G1 X148.196 Y139.498 E0.02332
G1 X148.209 Y139.796 E0.01219
G1 X148.301 Y140.336 E0.02244
G1 X148.493 Y140.88 E0.02361
G1 X148.766 Y141.367 E0.02289
G1 X148.943 Y141.606 E0.01218
G1 X149.322 Y142.002 E0.02244
G1 X149.58 Y142.193 E0.01312
G1 X149.785 Y142.346 E0.01048
G1 X150.285 Y142.597 E0.0229
G1 X150.347 Y142.619 E0.00271
G1 X150.566 Y142.697 E0.00948
G1 X151.112 Y142.814 E0.02289
G1 X151.678 Y142.838 E0.02318
G1 X152.24 Y142.766 E0.02318
G1 X152.781 Y142.601 E0.0232
G1 X153.049 Y142.465 E0.01227
G1 X153.296 Y142.34 E0.01135
G1 X153.736 Y142.014 E0.02244
G1 X153.951 Y141.808 E0.01219
G1 X154.308 Y141.365 E0.02331
G1 X154.576 Y140.886 E0.02245
G1 X154.687 Y140.61 E0.01218
G1 X154.828 Y140.069 E0.02289
G1 X154.877 Y139.502 E0.02332
G1 X154.864 Y139.204 E0.01219
G1 X154.771 Y138.664 E0.02244
G1 X154.579 Y138.12 E0.02361
G1 X154.306 Y137.633 E0.02289
G1 X154.264 Y137.576 E0.0029
G1 X154.129 Y137.394 E0.00928
G1 X153.75 Y136.998 E0.02244
G1 X153.287 Y136.654 E0.0236
G1 X152.781 Y136.399 E0.0232
G1 X152.246 Y136.236 E0.02289
G1 X151.953 Y136.185 E0.01219
G1 X151.394 Y136.162 E0.02289
G1 X151.114 Y136.198 E0.01159
G1 X150.833 Y136.234 E0.01159
G1 X150.291 Y136.399 E0.0232
G1 X149.777 Y136.66 E0.02361
G1 X149.336 Y136.986 E0.02244
G1 X149.164 Y137.151 E0.00974
;WIPE_START
M204 S1500
G1 X148.729 Y137.114 F27000
;WIPE_END
G1 E-0.75 F3000
G1 Z0.65 F27000
; acceleration to travel
G1 X153.928 Y153.416
; decel to extrusion
M204 S1000
G1 X157.394 Y164.285
; end travel
G1 Z0.25
G1 E0.75 F1800
G1 F900
G1 X153.689 Y164.285 E0.15173
G1 X152.381 Y163.719 E0.05833
G1 X151.827 Y163.503 E0.02437
G1 X151.701 Y163.455 E0.0055
G1 X150.896 Y163.173 E0.03492
G1 X149.626 Y162.789 E0.05434
G1 X148.797 Y162.58 E0.03501
G1 X148.001 Y162.416 E0.03326
G1 X147.498 Y162.312 E0.02105
G1 X147.1 Y162.248 E0.01648
G1 X146.777 Y162.195 E0.01342
G1 X145.954 Y162.091 E0.03398
G1 X145.824 Y162.062 E0.00545
G1 X145.697 Y161.987 E0.006
G1 X145.673 Y161.96 E0.0015
G1 X145.636 Y161.887 E0.00333
G1 X145.628 Y161.833 E0.00227
G1 X145.606 Y161.696 E0.00567
G1 X145.618 Y138.8 E0.93748
G1 X145.738 Y138.048 E0.03119
G1 X145.86 Y137.576 E0.01998
G1 X145.984 Y137.282 E0.01305
G1 X146.063 Y137.17 E0.00563
G1 X146.172 Y137.013 E0.00782
G1 X146.284 Y136.916 E0.00607
G1 X146.381 Y136.831 E0.00528
G1 X146.93 Y136.527 E0.0257
G1 X147.37 Y136.326 E0.01979
G1 X147.751 Y136.185 E0.01665
G1 X148.049 Y136.076 E0.01299
G1 X148.876 Y135.865 E0.03496
G1 X149.57 Y135.759 E0.02875
G1 X150.007 Y135.725 E0.01791
G1 X150.076 Y135.725 E0.00286
G1 X155.634 Y135.717 E0.22756
G1 X155.946 Y135.749 E0.01284
G1 X156.309 Y135.86 E0.01557
G1 X156.608 Y136.022 E0.01389
G1 X156.871 Y136.239 E0.01395
G1 X157.087 Y136.502 E0.01395
G1 X157.253 Y136.807 E0.01423
G1 X157.318 Y136.989 E0.0079
G1 X157.385 Y137.33 E0.01422
G1 X157.394 Y164.225 E1.10126
;WIPE_START
M204 S1500
G1 X157.048 Y164.085 F27000
;WIPE_END
G1 X156.044 Y143.52
;TYPE:Solid infill
;WIDTH:0.470972
G1 F1200
G1 X155.192 Y142.668 E0.04839
G1 X155.083 Y142.841 E0.0082
G1 X154.907 Y142.985 E0.00917
G1 X155.861 Y143.939 E0.05422
G1 X155.861 Y144.543 E0.02423
G1 X154.575 Y143.257 E0.07307
G1 X154.243 Y143.528 E0.01721
G1 X155.861 Y145.146 E0.09192
G1 X155.861 Y145.749 E0.02423
G1 X153.843 Y143.73 E0.11471
G1 X153.382 Y143.872 E0.01938
G1 X155.862 Y146.352 E0.14092
G1 X155.862 Y146.955 E0.02423
G1 X152.92 Y144.014 E0.16712
G1 X152.459 Y144.156 E0.01938
G1 X155.862 Y147.558 E0.19333
G1 X155.862 Y148.162 E0.02423
G1 X151.998 Y144.298 E0.21954
G1 X151.738 Y144.378 E0.01094
G1 X151.383 Y144.285 E0.01474
G1 X155.863 Y148.765 E0.25451
G1 X155.863 Y149.368 E0.02423
G1 X150.568 Y144.073 E0.30084
G1 X149.753 Y143.861 E0.03384
G1 X155.863 Y149.971 E0.34716
G1 X155.863 Y150.574 E0.02423
G1 X147.814 Y142.525 E0.45731
G1 X147.35 Y142.664 E0.01947
G1 X155.863 Y151.177 E0.48372
G1 X155.864 Y151.781 E0.02423
G1 X147.142 Y143.059 E0.49554
G1 X147.142 Y143.662 E0.02421
G1 X155.864 Y152.384 E0.49557
G1 X155.864 Y152.987 E0.02423
G1 X147.141 Y144.264 E0.4956
G1 X147.141 Y144.867 E0.02421
G1 X155.864 Y153.59 E0.49563
G1 X155.864 Y154.193 E0.02423
G1 X147.141 Y145.47 E0.49566
G1 X147.14 Y146.072 E0.02421
G1 X155.865 Y154.796 E0.49569
G1 X155.865 Y155.4 E0.02423
G1 X147.14 Y146.675 E0.49572
G1 X147.14 Y147.277 E0.02421
G1 X155.865 Y156.003 E0.49575
G1 X155.865 Y156.606 E0.02423
G1 X147.139 Y147.88 E0.49578
G1 X147.139 Y148.483 E0.02421
G1 X155.866 Y157.209 E0.49581
G1 X155.866 Y157.812 E0.02423
G1 X147.139 Y149.085 E0.49585
G1 X147.138 Y149.688 E0.02421
G1 X155.866 Y158.415 E0.49588
G1 X155.866 Y159.019 E0.02423
G1 X147.138 Y150.29 E0.49591
G1 X147.138 Y150.893 E0.02421
G1 X155.866 Y159.622 E0.49594
G1 X155.867 Y160.225 E0.02423
G1 X147.137 Y151.496 E0.49597
G1 X147.137 Y152.098 E0.02421
G1 X155.867 Y160.828 E0.496
G1 X155.867 Y161.431 E0.02423
G1 X147.137 Y152.701 E0.49603
G1 X147.136 Y153.304 E0.02421
G1 X155.867 Y162.034 E0.49606
G1 X155.867 Y162.638 E0.02423
G1 X147.136 Y153.906 E0.49609
G1 X147.136 Y154.509 E0.02421
G1 X155.386 Y162.759 E0.46874
G1 X154.783 Y162.759 E0.02422
G1 X147.135 Y155.111 E0.4345
G1 X147.135 Y155.714 E0.02421
G1 X154.18 Y162.759 E0.40026
G1 X153.997 Y162.759 E0.00733
G1 X153.336 Y162.518 E0.02825
G1 X147.135 Y156.317 E0.35236
G1 X147.134 Y156.919 E0.02421
G1 X152.389 Y162.174 E0.29853
G1 X151.441 Y161.829 E0.04052
G1 X147.134 Y157.522 E0.2447
G1 X147.134 Y158.125 E0.02421
G1 X150.493 Y161.484 E0.19087
G1 X150.035 Y161.317 E0.0196
G1 X149.644 Y161.238 E0.01604
G1 X147.133 Y158.727 E0.14263
G1 X147.133 Y159.33 E0.02421
G1 X148.886 Y161.083 E0.09961
G1 X148.129 Y160.929 E0.03106
G1 X147.133 Y159.932 E0.0566
G1 X147.133 Y160.535 E0.02421
G1 X147.607 Y161.009 E0.02694
G1 X155.894 Y142.81 F27000
;TYPE:Gap fill
;WIDTH:0.392329
G1 F900
G1 X155.739 Y142.7 E0.00619
;WIDTH:0.344271
G1 X155.62 Y142.629 E0.00387
;WIDTH:0.263429
G1 X155.501 Y142.557 E0.00279
;WIDTH:0.177308
G1 X155.345 Y142.451 E0.00224
;WIDTH:0.152792
G1 X155.304 Y142.428 E0.00045
G1 X155.65 Y142.523 F27000
;WIDTH:0.532335
G1 F900
G1 X155.688 Y142.373 E0.0071
;WIDTH:0.45539
G1 X155.711 Y142.291 E0.00331
G1 X155.749 Y142.142 E0.00592
;WIDTH:0.344744
G1 X155.788 Y141.993 E0.00429
;WIDTH:0.256329
G1 X155.827 Y141.845 E0.00299
;WIDTH:0.160395
G1 X155.877 Y141.652 E0.00205
G1 X155.994 Y141.025 F27000
;WIDTH:0.701694
G1 F900
G1 X156.018 Y140.88 E0.00917
;WIDTH:0.642781
G1 X156.043 Y140.734 E0.00834
G1 X156.056 Y140.628 E0.00607
;WIDTH:0.606183
G1 X156.07 Y140.521 E0.0057
;WIDTH:0.569585
G1 X156.084 Y140.415 E0.00532
;WIDTH:0.526004
G1 X156.098 Y140.309 E0.00487
G1 X156.101 Y140.268 E0.00185
G1 X156.116 Y139.904 E0.01651
;WIDTH:0.485237
G1 X156.132 Y139.541 E0.01509
G1 X156.132 Y139.514 E0.00109
G1 X156.127 Y139.299 E0.00894
G1 X156.122 Y139.083 E0.00894
G1 X156.121 Y139.056 E0.00112
G1 X156.106 Y138.88 E0.00731
;WIDTH:0.525028
G1 X156.091 Y138.704 E0.00799
;WIDTH:0.564819
G1 X156.076 Y138.529 E0.00866
;WIDTH:0.610632
G1 X156.061 Y138.353 E0.00944
G1 X156.055 Y138.306 E0.00254
;WIDTH:0.645147
G1 X156.022 Y138.111 E0.01122
;WIDTH:0.724034
G1 X155.997 Y137.968 E0.00935
G1 X153.48 Y136.218 F27000
;WIDTH:0.613684
G1 F900
G1 X153.309 Y136.169 E0.00955
;WIDTH:0.52665
G1 X153.252 Y136.153 E0.00269
G1 X153.122 Y136.122 E0.0061
;WIDTH:0.429321
G1 X152.991 Y136.091 E0.00485
;WIDTH:0.36951
G1 X152.899 Y136.07 E0.00285
G1 X152.781 Y136.053 E0.00361
;WIDTH:0.316456
G1 X152.664 Y136.035 E0.003
;WIDTH:0.272262
G1 X152.546 Y136.018 E0.0025
;WIDTH:0.228069
G1 X152.429 Y136 E0.00199
;WIDTH:0.183816
G1 X152.303 Y135.982 E0.00159
G1 X152.197 Y135.973 E0.00132
;WIDTH:0.144662
G1 X152.046 Y135.96 E0.00133
G1 X151.069 Y135.962 F27000
;WIDTH:0.146008
G1 F900
G1 X150.904 Y135.973 E0.00147
;WIDTH:0.178365
G1 X150.784 Y135.981 E0.00144
G1 X150.653 Y136 E0.00158
;WIDTH:0.223114
G1 X150.533 Y136.018 E0.00198
;WIDTH:0.267782
G1 X150.413 Y136.036 E0.0025
;WIDTH:0.31245
G1 X150.293 Y136.054 E0.00302
;WIDTH:0.357118
G1 X150.173 Y136.072 E0.00354
;WIDTH:0.39111
G1 X150.022 Y136.107 E0.00504
;WIDTH:0.426871
G1 X149.949 Y136.128 E0.00272
;WIDTH:0.482146
G1 X149.802 Y136.169 E0.00625
;WIDTH:0.555846
G1 X149.656 Y136.21 E0.00733
;WIDTH:0.480884
G1 X149.593 Y136.267 E0.00349
;WIDTH:0.389008
G1 X149.457 Y136.409 E0.00634
G1 X147.671 Y137.376 F27000
;WIDTH:0.146011
G1 F900
G1 X147.602 Y137.44 E0.00084
;WIDTH:0.240835
G1 X147.458 Y137.573 E0.00351
;WIDTH:0.320144
G1 X147.384 Y137.653 E0.0028
;WIDTH:0.417243
G1 X147.269 Y137.783 E0.00605
;WIDTH:0.552376
G1 X147.154 Y137.912 E0.0083
;WIDTH:0.605012
G1 X147.122 Y137.99 E0.00445
G1 X147.077 Y138.16 E0.00931
G1 X147.035 Y138.318 E0.00867
G1 X146.997 Y138.503 E0.00998
;WIDTH:0.580065
G1 X146.958 Y138.687 E0.00952
G1 X146.951 Y138.73 E0.00222
G1 X146.93 Y138.904 E0.00886
G1 X146.918 Y139.18 E0.01397
;WIDTH:0.555277
G1 X146.906 Y139.457 E0.01331
G1 X146.906 Y139.487 E0.00149
G1 X146.91 Y139.703 E0.01039
G1 X146.915 Y139.919 E0.01039
G1 X146.929 Y140.096 E0.00856
;WIDTH:0.58869
G1 X146.942 Y140.241 E0.00751
;WIDTH:0.62184
G1 X146.954 Y140.387 E0.00798
;WIDTH:0.65499
G1 X146.966 Y140.533 E0.00844
;WIDTH:0.534582
G1 X147.105 Y140.631 E0.00787
;WIDTH:0.388183
G1 X147.137 Y140.652 E0.00123
;WIDTH:0.362192
G1 X147.328 Y140.776 E0.00674
G1 X147.126 Y141.527 F27000
;WIDTH:0.141873
G1 F900
G1 X147.157 Y141.646 E0.00104
;WIDTH:0.211214
G1 X147.196 Y141.795 E0.00232
;WIDTH:0.298418
G1 X147.234 Y141.943 E0.0036
;WIDTH:0.385622
G1 X147.273 Y142.091 E0.00489
