; generated by SuperSlicer 2.5.59 on 2022-10-14 at 00:30:55 UTC


;
;

;
;
; 

; external perimeters extrusion width = 0.42mm
; perimeters extrusion width = 0.45mm
; infill extrusion width = 0.56mm
; solid infill extrusion width = 0.56mm
; top infill extrusion width = 0.40mm
; first layer extrusion width = 0.80mm

; object:{"name":"[a]_latch","id":"[a]_latch.stl id:0 copy 0","object_center":[150.000000,150.000000,0.000000],"boundingbox_center":[150.000000,150.000000,5.200510],"boundingbox_size":[41.507101,25.794023,10.401019]}
; plater:{"center":[150.000000,150.000000,0.000000],"boundingbox_center":[150.000000,150.000000,5.200510],"boundingbox_size":[41.507101,25.794023,10.401019]}

M73 P0 R17


; Pre-Processed for Cancel-Object support by preprocess_cancellation v0.2.0
; 1 known objects
EXCLUDE_OBJECT_DEFINE NAME=a__latch_stl_id_0_copy_0 CENTER=150.809,146.576 POLYGON=[[146.22,137.315],[144.288,137.339],[130.365,151.262],[130.055,151.622],[129.812,152.01],[129.627,152.436],[129.507,152.889],[129.458,153.583],[129.564,154.267],[129.722,154.709],[132.736,161.894],[132.971,162.263],[133.315,162.534],[133.577,162.639],[133.862,162.686],[134.29,162.635],[161.833,154.791],[162.819,153.916],[170.33,145.834],[170.531,145.407],[170.035,143.393],[170.0,143.36],[146.22,137.315]]
;TYPE:Custom
PRINT_START EXTRUDER=255 BED=110 AREA_START=122.735,130.667 AREA_END=177.126,169.274
M107
G21 ; set units to millimeters
G90 ; use absolute coordinates
M83 ; use relative distances for extrusion
SET_PRESSURE_ADVANCE SMOOTH=0.04
SET_PRESSURE_ADVANCE ADVANCE=0.025
;_TOOLCHANGE 0
M104 S255 ; set temperature
M109 S255 ; set temperature and wait for it to be reached
M190 S110 ; set bed temperature and wait for it to be reached
M107
;LAYER_CHANGE
;Z:0.24
;HEIGHT:0.24
G1 Z0.24 F24000
G92 E0
M73 P1 R16
G1 E-0.7 F1800
M204 S10000
G1 X135.774 Y137.013 F24000
M73 P2 R16
G1 E0.7 F1800
;TYPE:Skirt
;WIDTH:0.45
G1 F8783.0335
G1 X125.723 Y146.973 E0.52326
G1 X125.155 Y147.624 E0.03191
G1 X124.565 Y148.467 E0.03806
G1 X123.931 Y149.669 E0.05027
G1 X123.405 Y151.207 E0.06011
G1 X123.198 Y152.364 E0.04346
G1 X123.133 Y153.408 E0.03868
G1 X123.166 Y154.213 E0.02977
G1 X123.318 Y155.305 E0.04079
G1 X123.579 Y156.315 E0.03857
G1 X123.871 Y157.107 E0.03122
G1 X127.08 Y164.486 E0.29755
G1 X127.631 Y165.493 E0.04245
G1 X128.575 Y166.665 E0.05563
G1 X129.732 Y167.624 E0.05557
G1 X131.397 Y168.465 E0.06899
G1 X133.272 Y168.878 E0.071
G1 X134.72 Y168.863 E0.05354
G1 X135.952 Y168.634 E0.04633
G1 X164.106 Y160.635 E1.0823
G1 X166.604 Y159.265 E0.10535
G1 X167.238 Y158.65 E0.03265
G1 X174.982 Y150.058 E0.42775
G1 X176.183 Y148.119 E0.08432
G1 X176.723 Y146.148 E0.07558
G1 X176.577 Y143.9 E0.08331
G1 X176.486 Y143.532 E0.01401
G1 X175.704 Y141.68 E0.07432
G1 X174.194 Y140.008 E0.08331
G1 X172.198 Y138.964 E0.08331
G1 X148.046 Y131.36 E0.93633
G1 X146.046 Y131.065 E0.07475
G1 X144.307 Y131.087 E0.06432
G1 X141.743 Y131.658 E0.09713
G1 X139.888 Y132.937 E0.08331
G1 X135.774 Y137.013 E0.21416
G1 X136.054 Y137.296 F24000
G1 F8783.0335
G1 X126.005 Y147.255 E0.52318
G1 X125.473 Y147.865 E0.02992
G1 X124.907 Y148.671 E0.03642
G1 X124.3 Y149.82 E0.04807
G1 X123.79 Y151.309 E0.05819
G1 X123.593 Y152.419 E0.04168
G1 X123.532 Y153.417 E0.03699
G1 X123.708 Y155.221 E0.06701
G1 X124.237 Y156.948 E0.06681
G1 X127.446 Y164.327 E0.29755
G1 X127.962 Y165.272 E0.0398
G1 X128.863 Y166.39 E0.05312
G1 X129.948 Y167.289 E0.05211
G1 X131.524 Y168.088 E0.06533
G1 X133.313 Y168.482 E0.06774
G1 X134.671 Y168.467 E0.05021
G1 X135.843 Y168.251 E0.04409
G1 X163.997 Y160.251 E1.0823
G1 X166.34 Y158.967 E0.09879
G1 X166.942 Y158.383 E0.03101
G1 X174.686 Y149.791 E0.42775
G1 X175.812 Y147.973 E0.07907
G1 X176.319 Y146.172 E0.06917
G1 X176.19 Y143.995 E0.08065
G1 X176.099 Y143.627 E0.01401
G1 X175.438 Y142.01 E0.0646
G1 X174.005 Y140.366 E0.08065
G1 X172.078 Y139.344 E0.08065
G1 X147.926 Y131.74 E0.93633
G1 X146.051 Y131.464 E0.07009
G1 X144.312 Y131.486 E0.06432
G1 X141.971 Y131.993 E0.08855
G1 X140.168 Y133.22 E0.08065
G1 X136.054 Y137.296 E0.21415
G1 X136.335 Y137.579 F24000
G1 F8783.0335
G1 X126.287 Y147.537 E0.52311
G1 X125.249 Y148.875 E0.06261
G1 X124.669 Y149.971 E0.04586
G1 X124.176 Y151.41 E0.05626
G1 X123.988 Y152.473 E0.03991
G1 X123.93 Y153.426 E0.03531
G1 X124.097 Y155.136 E0.06355
G1 X124.602 Y156.789 E0.06391
G1 X127.811 Y164.168 E0.29755
G1 X128.293 Y165.05 E0.03716
G1 X129.152 Y166.115 E0.0506
G1 X130.165 Y166.954 E0.04865
G1 X131.652 Y167.71 E0.06166
G1 X133.354 Y168.085 E0.06447
G1 X134.622 Y168.072 E0.04687
G1 X135.734 Y167.867 E0.04184
G1 X163.888 Y159.868 E1.0823
G1 X166.075 Y158.669 E0.09222
G1 X166.646 Y158.116 E0.02938
G1 X174.39 Y149.524 E0.42775
G1 X175.441 Y147.827 E0.07381
G1 X175.914 Y146.194 E0.06286
G1 X175.803 Y144.09 E0.0779
G1 X175.167 Y142.338 E0.06895
G1 X173.813 Y140.724 E0.0779
G1 X171.959 Y139.724 E0.0779
G1 X147.807 Y132.12 E0.93633
G1 X146.056 Y131.862 E0.06544
G1 X144.317 Y131.884 E0.06432
G1 X142.198 Y132.329 E0.08006
G1 X140.448 Y133.503 E0.0779
G1 X136.335 Y137.579 E0.21415
G1 X136.615 Y137.862 F24000
G1 F8783.0335
G1 X126.569 Y147.818 E0.52303
G1 X125.592 Y149.079 E0.05898
G1 X125.037 Y150.122 E0.04366
G1 X124.561 Y151.512 E0.05434
G1 X124.383 Y152.527 E0.03813
G1 X124.328 Y153.435 E0.03362
G1 X124.487 Y155.052 E0.06009
G1 X124.968 Y156.63 E0.06101
G1 X128.177 Y164.009 E0.29755
G1 X128.624 Y164.828 E0.03451
G1 X129.44 Y165.84 E0.04808
G1 X130.381 Y166.62 E0.04518
G1 X131.779 Y167.332 E0.058
G1 X133.395 Y167.689 E0.06121
G1 X134.572 Y167.676 E0.04353
G1 X135.625 Y167.484 E0.03959
G1 X163.779 Y159.485 E1.0823
G1 X165.811 Y158.371 E0.08566
G1 X166.35 Y157.85 E0.02774
G1 X174.094 Y149.257 E0.42775
G1 X175.07 Y147.681 E0.06856
G1 X175.508 Y146.213 E0.05664
G1 X175.416 Y144.186 E0.07505
G1 X174.889 Y142.663 E0.05961
G1 X173.619 Y141.08 E0.07505
G1 X171.839 Y140.104 E0.07505
G1 X147.687 Y132.5 E0.93633
G1 X146.061 Y132.261 E0.06078
G1 X144.322 Y132.282 E0.06432
G1 X142.422 Y132.667 E0.07167
G1 X140.729 Y133.786 E0.07505
G1 X136.615 Y137.862 E0.21414
G1 E-0.7 F1800
; printing object [a]_latch.stl id:0 copy 0
EXCLUDE_OBJECT_START NAME=a__latch_stl_id_0_copy_0
M204 S3000
G1 X143.459 Y143.211 F24000
G1 E0.7 F1800
;TYPE:Internal perimeter
;WIDTH:0.8
G1 F9000
G1 X145.751 Y140.917 E0.22528
G1 X149.953 Y142.343 E0.30817
G1 X155.996 Y147.097 E0.53404
G1 X155.877 Y147.448 E0.02574
G1 X148.852 Y147.535 E0.48798
G1 X144.206 Y143.734 E0.41695
G1 X143.459 Y143.211 E0.0633
G1 X142.193 Y143.419 F24000
G1 F9000
G1 X145.496 Y140.113 E0.32461
G1 X145.705 Y140.111 E0.01448
G1 X150.315 Y141.676 E0.33814
G1 X158.125 Y147.819 E0.69016
G1 X158.006 Y148.17 E0.02574
G1 X148.589 Y148.287 E0.65412
G1 X143.754 Y144.331 E0.43391
G1 X143.121 Y143.889 E0.05359
G1 X142.193 Y143.419 E0.07225
G1 E-0.7 F1800
G1 X158.932 Y148.253 F24000
G1 E0.7 F1800
G1 F9000
G1 X159.018 Y147.804 E0.03178
G1 X162.85 Y148.006 E0.26654
G1 X161.385 Y149.839 E0.16298
G1 X160.515 Y148.99 E0.08442
G1 X159.726 Y148.519 E0.06381
G1 X158.932 Y148.253 E0.05814
G1 E-0.7 F1800
G1 X140.734 Y143.821 F24000
G1 E0.7 F1800
G1 F9000
G1 X145.182 Y139.369 E0.43712
G1 X145.824 Y139.361 E0.04456
G1 X145.958 Y139.406 E0.00984
G1 X150.677 Y141.008 E0.34613
G1 X158.317 Y147.017 E0.67512
G1 X164.344 Y147.336 E0.41925
G1 X162.041 Y150.217 E0.2562
G1 X161.522 Y151.578 E0.10121
G1 X161.251 Y150.959 E0.04692
G1 X160.834 Y150.348 E0.0514
G1 X160.055 Y149.587 E0.07563
G1 X159.412 Y149.203 E0.05205
G1 X158.754 Y148.983 E0.04819
G1 X158.124 Y148.917 E0.044
G1 X148.326 Y149.039 E0.68059
G1 X143.301 Y144.928 E0.45088
G1 X142.736 Y144.533 E0.04793
G1 X142.152 Y144.238 E0.04543
G1 X141.659 Y144.051 E0.03664
G1 X140.734 Y143.821 E0.06619
G1 X139.368 Y144.628 F24000
G1 F9000
G1 X139.205 Y144.292 E0.02591
G1 X144.868 Y138.624 E0.55653
G1 X145.943 Y138.611 E0.07465
G1 X146.199 Y138.697 E0.01875
G1 X151.039 Y140.34 E0.35503
G1 X158.593 Y146.282 E0.66755
G1 X165.108 Y146.626 E0.45318
G1 X165.921 Y146.562 E0.05663
G1 X162.699 Y150.593 E0.35845
G1 X161.593 Y153.491 E0.21548
G1 X160.848 Y153.678 E0.05336
G1 X160.959 Y152.998 E0.04785
G1 X160.949 Y152.492 E0.03516
G1 X160.888 Y152.109 E0.02698
G1 X160.796 Y151.786 E0.02329
G1 X160.593 Y151.323 E0.03511
G1 X160.258 Y150.831 E0.04135
G1 X159.595 Y150.185 E0.0643
G1 X159.097 Y149.887 E0.04029
G1 X158.594 Y149.719 E0.03686
G1 X158.089 Y149.666 E0.03526
G1 X148.063 Y149.79 E0.69647
G1 X142.849 Y145.525 E0.46785
G1 X142.351 Y145.177 E0.04226
G1 X141.85 Y144.924 E0.03895
G1 X141.435 Y144.767 E0.03081
G1 X140.904 Y144.634 E0.03803
G1 X140.464 Y144.575 E0.03081
G1 X139.901 Y144.564 E0.03914
G1 X139.368 Y144.628 E0.03728
G1 E-0.7 F1800
G1 X134.459 Y150.824 F24000
G1 E0.7 F1800
G1 F8783.5286
G1 X133.783 Y150.472 E0.05292
G1 X133.189 Y150.288 E0.04318
G1 X133.583 Y149.919 E0.03753
G1 X134.33 Y149.171 E0.0734
G1 X134.685 Y149.396 E0.02917
G1 X134.58 Y149.687 E0.02148
G1 X134.485 Y150.221 E0.03767
G1 X134.459 Y150.824 E0.04192
G1 E-0.7 F1800
G1 X133.701 Y156.451 F24000
G1 E0.7 F1800
G1 F7473.3163
G1 X134.799 Y155.881 E0.08595
G1 X134.574 Y157.242 E0.0958
G1 X134.196 Y157.297 E0.02656
G1 X133.966 Y156.828 E0.03627
G1 X133.701 Y156.451 E0.03201
G1 X133.558 Y155.682 F24000
;TYPE:External perimeter
G1 F4500
G1 X134.014 Y155.445 E0.03568
G1 X134.345 Y155.159 E0.03036
G1 X134.644 Y154.777 E0.03373
G1 X134.862 Y154.341 E0.03384
G1 X134.991 Y153.872 E0.0338
G1 X135.025 Y153.391 E0.03351
G1 X134.979 Y152.969 E0.02951
G1 X134.84 Y152.506 E0.03356
G1 X134.611 Y152.077 E0.0338
G1 X134.303 Y151.7 E0.03381
G1 X133.925 Y151.39 E0.03392
G1 X133.497 Y151.167 E0.03351
G1 X133.239 Y151.087 E0.0188
G1 X132.872 Y151.028 E0.02578
G1 X132.414 Y151.074 E0.03199
G1 X131.984 Y151.138 E0.0302
G1 X131.545 Y151.291 E0.03229
G1 X131.142 Y151.527 E0.03242
G1 X130.794 Y151.838 E0.03242
G1 X130.514 Y152.208 E0.03222
G1 X130.332 Y152.572 E0.02825
G1 X130.203 Y153.017 E0.03221
G1 X130.163 Y153.482 E0.03242
G1 X130.215 Y153.946 E0.03242
G1 X130.356 Y154.391 E0.03242
G1 X130.581 Y154.799 E0.03242
G1 X130.872 Y155.144 E0.03135
G1 X131.012 Y155.275 E0.01327
G1 X131.336 Y155.503 E0.02752
G1 X131.755 Y155.699 E0.03212
G1 X132.208 Y155.81 E0.03242
G1 X132.678 Y155.831 E0.03263
G1 X133.558 Y155.682 E0.06204
;WIPE_START
M204 S10000
G1 X133.871 Y155.931 F24000
;WIPE_END
G1 E-0.7 F1800
M204 S3000
G1 X134.105 Y162.092 F24000
G1 E0.7 F1800
G1 F4500
G1 X133.925 Y162.114 E0.01264
G1 X133.787 Y162.1 E0.00964
G1 X133.613 Y162.042 E0.01272
G1 X133.462 Y161.944 E0.01249
G1 X133.359 Y161.836 E0.01038
G1 X133.301 Y161.749 E0.00723
G1 X133.23 Y161.567 E0.01362
G1 X133.213 Y161.47 E0.00683
G1 X133.221 Y161.251 E0.01524
G1 X133.632 Y158.691 E0.18009
G1 X133.64 Y158.422 E0.01867
G1 X133.598 Y157.995 E0.0298
G1 X133.445 Y157.465 E0.03833
G1 X133.32 Y157.211 E0.01967
G1 X133.059 Y156.84 E0.03148
G1 X132.814 Y156.648 E0.02166
G1 X132.549 Y156.395 E0.02544
G1 X132.16 Y156.133 E0.03258
G1 X131.935 Y156.022 E0.01735
G1 X131.525 Y155.865 E0.03049
G1 X131.146 Y155.667 E0.02976
G1 X130.93 Y155.514 E0.01834
G1 X130.665 Y155.275 E0.02481
G1 X130.491 Y155.077 E0.01831
G1 X130.256 Y154.726 E0.02933
G1 X130.107 Y154.407 E0.02445
G1 X130.021 Y154.153 E0.01867
G1 X129.964 Y153.89 E0.01869
G1 X129.927 Y153.534 E0.02481
G1 X129.933 Y153.269 E0.01846
G1 X129.981 Y152.915 E0.0248
G1 X130.049 Y152.66 E0.01831
G1 X130.209 Y152.269 E0.02934
G1 X130.389 Y151.967 E0.02444
G1 X130.549 Y151.756 E0.01837
G1 X131.921 Y150.383 E0.13481
G1 X132.315 Y150.082 E0.03449
G1 X133.063 Y149.381 E0.07116
G1 X144.554 Y137.879 E1.12929
G1 X146.062 Y137.86 E0.10474
G1 X146.439 Y137.989 E0.02767
G1 X151.401 Y139.673 E0.36393
G1 X158.869 Y145.547 E0.65998
G1 X165.098 Y145.876 E0.43326
G1 X167.056 Y145.721 E0.13642
G1 X168.483 Y145.514 E0.10012
G1 X169.398 Y145.443 E0.06376
G1 X169.874 Y145.472 E0.03313
G1 X169.888 Y145.524 E0.00037
G1 X169.721 Y145.634 E0.01324
G1 X169.65 Y145.681 E0.00523
G1 X168.379 Y146.288 E0.09789
G1 X167.924 Y146.439 E0.03326
G1 X167.45 Y146.63 E0.03554
G1 X166.452 Y147.097 E0.07651
G1 X163.356 Y150.969 E0.34431
G1 X162.153 Y154.122 E0.23443
G1 X159.719 Y154.734 E0.17433
G1 X159.622 Y154.559 E0.01314
G1 X159.533 Y154.399 E0.01198
G1 X159.669 Y154.253 E0.01321
G1 X159.718 Y154.201 E0.00424
G1 X159.889 Y153.955 E0.02084
G1 X160.058 Y153.612 E0.02653
G1 X160.147 Y153.326 E0.02084
G1 X160.209 Y152.945 E0.0268
G1 X160.202 Y152.559 E0.0268
G1 X160.156 Y152.272 E0.02022
G1 X160.09 Y152.04 E0.01671
G1 X159.935 Y151.687 E0.02678
M73 P3 R16
G1 X159.681 Y151.315 E0.03131
G1 X159.136 Y150.782 E0.05297
G1 X158.783 Y150.571 E0.02853
G1 X158.434 Y150.455 E0.02553
G1 X158.055 Y150.415 E0.02652
G1 X147.8 Y150.542 E0.71234
G1 X142.397 Y146.123 E0.48481
G1 X141.965 Y145.82 E0.0366
G1 X141.548 Y145.609 E0.03247
G1 X141.212 Y145.482 E0.02498
G1 X140.763 Y145.371 E0.0321
G1 X140.407 Y145.323 E0.02498
G1 X139.938 Y145.313 E0.03255
G1 X139.403 Y145.377 E0.03743
G1 X139.052 Y145.466 E0.02516
G1 X138.618 Y145.626 E0.0321
G1 X138.298 Y145.789 E0.02498
G1 X137.921 Y146.035 E0.03123
G1 X136.996 Y146.74 E0.08079
G1 X136.628 Y147.121 E0.0368
G1 X136.401 Y147.455 E0.02809
G1 X136.292 Y147.664 E0.01635
G1 X135.468 Y149.432 E0.13552
G1 X135.306 Y149.881 E0.03312
G1 X135.231 Y150.304 E0.02982
G1 X135.216 Y150.634 E0.02298
G1 X135.256 Y151.055 E0.02937
G1 X135.331 Y151.377 E0.02298
G1 X135.479 Y151.768 E0.02903
G1 X135.605 Y152.006 E0.01868
G1 X136.086 Y152.689 E0.05805
G1 X134.609 Y161.619 E0.62868
G1 X134.526 Y161.79 E0.01315
G1 X134.413 Y161.925 E0.01225
G1 X134.27 Y162.028 E0.01226
G1 X134.105 Y162.092 E0.01225
;WIPE_START
M204 S10000
G1 X133.838 Y161.794 F24000
;WIPE_END
G1 X133.868 Y161.761
;TYPE:Gap fill
;WIDTH:0.611386
G1 F9000
G1 X133.883 Y161.658 E0.00543
;WIDTH:0.665626
G1 X133.904 Y161.521 E0.00786
G1 X133.921 Y161.434 E0.00509
;WIDTH:0.753672
G1 X133.934 Y161.321 E0.00739
;WIDTH:0.805484
G1 F8934.5349
G1 X134.348 Y158.782 E0.17997
G1 X134.369 Y158.577 E0.01444
;WIDTH:0.858298
G1 F8349.6662
G1 X134.384 Y158.421 E0.01175
G1 X134.387 Y158.37 E0.0038
G1 X134.392 Y158.218 E0.01143
;WIDTH:0.933103
G1 F7641.1871
G1 X134.397 Y158.065 E0.01249
G1 X134.397 Y157.879 E0.0152
G1 X134.391 Y157.728 E0.01236
;WIDTH:1.049515
G1 F6749.8854
G1 X134.387 Y157.618 E0.01017
G1 X134.541 Y155.626 F24000
;WIDTH:0.381717
G1 F9000
G1 X134.714 Y155.479 E0.00695
G1 X134.824 Y155.386 E0.00443
G1 X134.967 Y155.238 E0.00629
;WIDTH:0.339397
G1 X135.11 Y155.091 E0.00549
;WIDTH:0.462906
G1 X135.171 Y154.924 E0.00678
;WIDTH:0.421663
G1 X135.215 Y154.791 E0.00483
;WIDTH:0.365528
G1 X135.258 Y154.657 E0.0041
;WIDTH:0.309045
G1 X135.308 Y154.499 E0.00396
G1 X135.368 Y154.228 E0.00664
;WIDTH:0.246664
G1 X135.427 Y153.956 E0.00503
G1 X135.463 Y153.665 E0.00531
;WIDTH:0.29751
G1 X135.495 Y153.393 E0.00626
G1 X135.503 Y153.124 E0.00613
;WIDTH:0.43589
G1 X135.51 Y152.878 E0.00878
G1 X135.508 Y152.821 E0.00203
G1 X135.449 Y152.701 E0.00478
G1 X135.391 Y152.581 E0.00478
;WIDTH:0.344349
G1 X135.332 Y152.46 E0.00364
;WIDTH:0.286961
G1 X135.262 Y152.319 E0.00343
G1 X135.213 Y152.238 E0.00208
G1 X135.14 Y152.1 E0.00341
G1 X135.06 Y151.95 E0.00372
G1 X134.994 Y151.807 E0.00344
G1 X134.918 Y151.674 E0.00334
;WIDTH:0.387976
G1 X134.828 Y151.52 E0.00557
G1 X134.723 Y151.353 E0.00616
G1 E-0.7 F1800
G1 X134.708 Y149.002 F24000
G1 E0.7 F1800
;WIDTH:1.14862
G1 F6140.153
G1 X134.771 Y148.906 E0.01166
;WIDTH:1.088372
G1 F6496.9356
G1 X134.834 Y148.81 E0.01102
;WIDTH:1.028123
G1 F6897.7383
G1 X134.897 Y148.715 E0.01038
;WIDTH:0.967874
G1 F7351.2447
G1 X134.96 Y148.619 E0.00974
G1 X135.065 Y148.47 E0.0155
;WIDTH:0.895619
G1 F7980.5091
G1 X135.169 Y148.32 E0.01428
;WIDTH:0.823363
G1 F8727.5873
G1 X135.274 Y148.171 E0.01306
;WIDTH:0.751107
G1 F9000
G1 X135.378 Y148.022 E0.01183
;WIDTH:0.678851
G1 X135.483 Y147.872 E0.01061
;WIDTH:0.606595
G1 X135.587 Y147.723 E0.00939
;WIDTH:0.534339
G1 X135.692 Y147.574 E0.00817
;WIDTH:0.462016
G1 X135.801 Y147.417 E0.00728
G1 X135.88 Y147.31 E0.00507
;WIDTH:0.377899
G1 X135.97 Y147.187 E0.00461
G1 X136.116 Y147.011 E0.00691
;WIDTH:0.287526
G1 X136.275 Y146.821 E0.00544
G1 X136.685 Y146.403 E0.01283
G1 X136.924 Y146.193 E0.00697
