; generated by SuperSlicer 2.4 on 2022-06-17 at 23:58:07 UTC


;
;

;
;
; 

; external perimeters extrusion width = 0.40mm
; perimeters extrusion width = 0.48mm
; infill extrusion width = 0.60mm
; solid infill extrusion width = 0.56mm
; top infill extrusion width = 0.40mm
; first layer extrusion width = 0.48mm

; object:{"name":"[a]_z_endstop_housing_uwu","id":"[a]_z_endstop_housing_uwu.stl id:0 copy 0","object_center":[150.000000,150.000000,0.000000],"boundingbox_center":[150.000000,150.000000,9.375000],"boundingbox_size":[29.211693,22.040964,18.750000]}
; plater:{"center":[150.000000,150.000000,0.000000],"boundingbox_center":[150.000000,150.000000,9.375000],"boundingbox_size":[29.211693,22.040964,18.750000]}

;TYPE:Custom
print_start EXTRUDER=255 BED=110 CHAMBER=50
M107
G21 ; set units to millimeters
G90 ; use absolute coordinates
M83 ; use relative distances for extrusion
; Filament gcode
SET_PRESSURE_ADVANCE ADVANCE=0.045
SET_PRESSURE_ADVANCE EXTRUDER=extruder SMOOTH_TIME=0.04
M104 S255 ; set temperature
M109 S255 ; set temperature and wait for it to be reached
M190 S110 ; set bed temperature and wait for it to be reached
M107
;LAYER_CHANGE
;Z:0.25
;HEIGHT:0.25
;BEFORE_LAYER_CHANGE
;0.25
TIMELAPSE_TAKE_FRAME


G1 Z0.25 F36000
;AFTER_LAYER_CHANGE
;0.25
G92 E0
; INIT printing object [a]_z_endstop_housing_uwu.stl id:0 copy 0
G1 E-0.75 F3000
M204 S1500
G1 Z0.65 F36000
; printing object [a]_z_endstop_housing_uwu.stl id:0 copy 0
G1 X145.645 Y151.138
G1 Z0.25
G1 E0.75 F1800
;TYPE:Internal perimeter
;WIDTH:0.48
G1 F900
G1 X146.072 Y151.623 E0.02622
G1 X146.53 Y152.026 E0.02474
G1 X146.998 Y152.341 E0.02285
G1 X147.512 Y152.592 E0.02321
G1 X148.072 Y152.781 E0.02395
G1 X148.594 Y152.895 E0.02165
G1 X149.214 Y152.971 E0.02532
G1 X149.769 Y152.997 E0.02256
G1 X150.554 Y152.989 E0.03182
G1 X151.052 Y152.952 E0.02027
G1 X151.621 Y152.867 E0.02333
G1 X152.107 Y152.747 E0.02028
G1 X152.54 Y152.596 E0.01861
G1 X152.986 Y152.384 E0.02002
G1 X153.394 Y152.128 E0.0195
G1 X153.75 Y151.847 E0.01842
G1 X154.095 Y151.515 E0.01942
G1 X154.478 Y151.066 E0.02392
G1 X154.881 Y150.492 E0.02842
G1 X155.263 Y149.847 E0.03041
G1 X155.533 Y149.326 E0.0238
G1 X155.598 Y149.174 E0.0067
G1 X155.898 Y149.276 E0.01284
G1 X155.823 Y149.563 E0.01204
G1 X155.614 Y150.126 E0.02432
G1 X155.32 Y150.723 E0.027
G1 X154.995 Y151.252 E0.02517
G1 X154.603 Y151.779 E0.02661
G1 X154.159 Y152.28 E0.02716
G1 X153.755 Y152.667 E0.02267
G1 X153.258 Y153.072 E0.026
G1 X152.686 Y153.455 E0.0279
G1 X152.145 Y153.747 E0.02495
G1 X151.628 Y153.963 E0.0227
G1 X151.165 Y154.106 E0.01967
G1 X150.614 Y154.212 E0.02275
G1 X150.127 Y154.244 E0.0198
G1 X149.656 Y154.217 E0.01911
G1 X149.122 Y154.117 E0.02205
G1 X148.673 Y153.978 E0.01906
G1 X148.167 Y153.764 E0.02228
G1 X147.623 Y153.465 E0.02515
G1 X147.043 Y153.064 E0.0286
G1 X146.449 Y152.559 E0.03161
G1 X146.024 Y152.129 E0.0245
G1 X145.572 Y151.593 E0.02845
G1 X145.391 Y151.34 E0.01262
G1 X145.598 Y151.175 E0.01072
G1 E-0.75 F3000
G1 Z0.65 F36000
G1 X145.62 Y143.807
G1 Z0.25
G1 E0.75 F1800
G1 F900
G1 X145.498 Y143.985 E0.00877
G1 X145.118 Y144.638 E0.03062
G1 X144.809 Y145.267 E0.02844
G1 X144.61 Y145.792 E0.02276
G1 X144.465 Y146.352 E0.02342
G1 X144.4 Y146.87 E0.02117
G1 X144.413 Y147.47 E0.02434
G1 X144.505 Y148.012 E0.02229
G1 X144.686 Y148.605 E0.02515
G1 X144.924 Y149.16 E0.02447
G1 X145.186 Y149.662 E0.02297
G1 X145.563 Y150.294 E0.02983
G1 X145.938 Y150.826 E0.02639
G1 X146.374 Y151.321 E0.02677
G1 X146.791 Y151.688 E0.02251
G1 X147.212 Y151.97 E0.02055
G1 X147.675 Y152.197 E0.0209
G1 X148.186 Y152.369 E0.02187
G1 X148.665 Y152.474 E0.0199
G1 X149.25 Y152.546 E0.02387
G1 X149.777 Y152.571 E0.02141
G1 X150.536 Y152.563 E0.03076
G1 X151.005 Y152.528 E0.01908
G1 X151.539 Y152.448 E0.02188
G1 X151.985 Y152.338 E0.01865
G1 X152.378 Y152.201 E0.01687
G1 X152.781 Y152.01 E0.01808
G1 X153.147 Y151.779 E0.01755
G1 X153.47 Y151.525 E0.01665
G1 X153.785 Y151.222 E0.01773
G1 X154.141 Y150.805 E0.02224
G1 X154.522 Y150.261 E0.02694
G1 X154.89 Y149.64 E0.02926
G1 X155.147 Y149.144 E0.02265
G1 X155.375 Y148.609 E0.02356
G1 X155.524 Y148.145 E0.01977
G1 X155.629 Y147.644 E0.02076
G1 X155.67 Y147.127 E0.02104
G1 X155.641 Y146.626 E0.02034
G1 X155.54 Y146.092 E0.02201
G1 X155.384 Y145.592 E0.02125
G1 X155.232 Y145.229 E0.01597
G1 X155.506 Y145.083 E0.01259
G1 X155.602 Y145.228 E0.00705
G1 X155.919 Y145.811 E0.02691
G1 X156.15 Y146.358 E0.02408
G1 X156.352 Y147.034 E0.02859
G1 X156.439 Y147.516 E0.01985
G1 X156.479 Y148.11 E0.02415
G1 X156.455 Y148.618 E0.02062
G1 X156.375 Y149.133 E0.02113
G1 X156.23 Y149.692 E0.02342
G1 X156.006 Y150.294 E0.02607
G1 X155.694 Y150.929 E0.02869
G1 X155.348 Y151.491 E0.02674
G1 X154.934 Y152.048 E0.02812
G1 X154.466 Y152.576 E0.02861
G1 X154.037 Y152.986 E0.02406
G1 X153.512 Y153.415 E0.0275
G1 X152.907 Y153.821 E0.02954
G1 X152.329 Y154.132 E0.02664
G1 X151.774 Y154.365 E0.02438
G1 X151.268 Y154.52 E0.02146
G1 X150.668 Y154.635 E0.02476
G1 X150.128 Y154.671 E0.02194
G1 X149.604 Y154.641 E0.02129
G1 X149.019 Y154.531 E0.02413
G1 X148.526 Y154.379 E0.02092
G1 X147.98 Y154.148 E0.02403
G1 X147.399 Y153.828 E0.02691
G1 X146.783 Y153.403 E0.03035
G1 X146.158 Y152.872 E0.03324
G1 X145.709 Y152.417 E0.02593
G1 X145.235 Y151.855 E0.02981
G1 X144.849 Y151.315 E0.02693
G1 X144.516 Y150.77 E0.02587
G1 X144.148 Y150.031 E0.03349
G1 X143.883 Y149.337 E0.03013
G1 X143.706 Y148.687 E0.0273
G1 X143.605 Y148.098 E0.02423
G1 X143.567 Y147.562 E0.02181
G1 X143.579 Y147.086 E0.01929
G1 X143.657 Y146.527 E0.02288
G1 X143.809 Y145.961 E0.02377
G1 X143.993 Y145.498 E0.02022
G1 X144.241 Y145.018 E0.02193
G1 X144.565 Y144.521 E0.02403
G1 X144.964 Y144.027 E0.02577
G1 X145.38 Y143.608 E0.02392
G1 X145.574 Y143.769 E0.01021
G1 X146.571 Y143.269 F36000
G1 F900
G1 X146.554 Y143.285 E0.00096
G1 X146.229 Y143.673 E0.02049
G1 X145.858 Y144.213 E0.02659
G1 X145.494 Y144.839 E0.02935
G1 X145.201 Y145.437 E0.02702
G1 X145.017 Y145.922 E0.02101
G1 X144.885 Y146.432 E0.02138
G1 X144.826 Y146.892 E0.01879
G1 X144.838 Y147.429 E0.02178
G1 X144.921 Y147.913 E0.01991
G1 X145.087 Y148.458 E0.02312
G1 X145.31 Y148.977 E0.02289
G1 X145.558 Y149.454 E0.02181
G1 X145.92 Y150.061 E0.02867
G1 X146.273 Y150.561 E0.0248
G1 X146.676 Y151.019 E0.02475
G1 X147.052 Y151.35 E0.02028
G1 X147.425 Y151.6 E0.01824
G1 X147.837 Y151.802 E0.01859
G1 X148.3 Y151.958 E0.0198
G1 X148.737 Y152.053 E0.01815
G1 X149.286 Y152.121 E0.02242
G1 X149.785 Y152.145 E0.02026
G1 X150.518 Y152.137 E0.0297
G1 X150.958 Y152.104 E0.01789
G1 X151.456 Y152.029 E0.02044
G1 X151.864 Y151.929 E0.01703
G1 X152.216 Y151.806 E0.01513
G1 X152.576 Y151.635 E0.01614
G1 X152.901 Y151.431 E0.01559
G1 X153.189 Y151.203 E0.01488
G1 X153.474 Y150.929 E0.01604
G1 X153.803 Y150.543 E0.02056
G1 X154.164 Y150.029 E0.02546
G1 X154.517 Y149.433 E0.02811
G1 X154.761 Y148.962 E0.02151
G1 X154.975 Y148.46 E0.02211
G1 X155.111 Y148.036 E0.01807
G1 X155.206 Y147.583 E0.01876
G1 X155.243 Y147.122 E0.01877
G1 X155.217 Y146.678 E0.01803
G1 X155.126 Y146.196 E0.01989
G1 X154.983 Y145.738 E0.01945
G1 X154.792 Y145.28 E0.02012
G1 X154.547 Y144.797 E0.02198
G1 X154.265 Y144.31 E0.02282
G1 X153.935 Y143.809 E0.02431
G1 X153.607 Y143.393 E0.02147
G1 X153.227 Y143.006 E0.02198
G1 X152.88 Y142.73 E0.018
G1 X152.597 Y142.553 E0.01353
G1 X152.257 Y142.388 E0.01531
G1 X151.831 Y142.238 E0.01833
G1 X151.41 Y142.138 E0.01753
G1 X150.879 Y142.064 E0.02176
G1 X149.937 Y142.031 E0.03822
G1 X149.459 Y142.044 E0.01938
G1 X148.921 Y142.095 E0.02189
G1 X148.419 Y142.188 E0.02069
G1 X148.037 Y142.3 E0.01614
G1 X147.637 Y142.464 E0.01757
G1 X147.255 Y142.682 E0.01783
G1 X146.932 Y142.924 E0.01635
G1 X146.614 Y143.227 E0.01781
M204 S1000
G1 X146.865 Y143.577 F36000
;TYPE:External perimeter
G1 F900
G1 X146.783 Y143.675 E0.00521
G1 X146.569 Y143.931 E0.0135
G1 X146.218 Y144.442 E0.02513
G1 X145.87 Y145.04 E0.02808
G1 X145.592 Y145.607 E0.02559
G1 X145.424 Y146.051 E0.01926
G1 X145.419 Y146.07 E0.00078
G1 X145.304 Y146.513 E0.01856
G1 X145.253 Y146.914 E0.01641
G1 X145.264 Y147.388 E0.01922
G1 X145.287 Y147.522 E0.00552
G1 X145.336 Y147.814 E0.01201
G1 X145.488 Y148.312 E0.02108
G1 X145.695 Y148.795 E0.0213
G1 X145.93 Y149.246 E0.02065
G1 X146.278 Y149.829 E0.0275
G1 X146.598 Y150.282 E0.0225
G1 X146.608 Y150.296 E0.00071
G1 X146.979 Y150.717 E0.02272
G1 X147.313 Y151.011 E0.01804
G1 X147.418 Y151.082 E0.00515
G1 X147.639 Y151.23 E0.01079
G1 X148 Y151.407 E0.01628
G1 X148.414 Y151.546 E0.01772
G1 X148.809 Y151.633 E0.01639
G1 X149.322 Y151.695 E0.02097
G1 X149.793 Y151.718 E0.01912
G1 X150.499 Y151.711 E0.02864
G1 X150.91 Y151.68 E0.0167
G1 X151.373 Y151.611 E0.01899
G1 X151.742 Y151.52 E0.0154
G1 X152.054 Y151.411 E0.01339
G1 X152.37 Y151.261 E0.0142
G1 X152.655 Y151.082 E0.01363
G1 X152.909 Y150.881 E0.01311
G1 X153.164 Y150.636 E0.01435
G1 X153.466 Y150.282 E0.01888
G1 X153.7 Y149.948 E0.01652
G1 X153.805 Y149.798 E0.00745
G1 X154.144 Y149.226 E0.02696
G1 X154.375 Y148.78 E0.02036
G1 X154.575 Y148.311 E0.02067
G1 X154.698 Y147.927 E0.01636
G1 X154.783 Y147.522 E0.01676
G1 X154.815 Y147.117 E0.01649
G1 X154.793 Y146.73 E0.01572
G1 X154.712 Y146.299 E0.01777
G1 X154.582 Y145.884 E0.01765
G1 X154.405 Y145.459 E0.01867
G1 X154.395 Y145.441 E0.00083
G1 X154.172 Y145 E0.02004
G1 X153.902 Y144.534 E0.02184
G1 X153.589 Y144.059 E0.02308
G1 X153.384 Y143.799 E0.01342
G1 X153.286 Y143.675 E0.00639
G1 X152.941 Y143.324 E0.01997
G1 X152.633 Y143.079 E0.01596
G1 X152.39 Y142.927 E0.01165
G1 X152.093 Y142.782 E0.0134
G1 X151.711 Y142.647 E0.01641
G1 X151.332 Y142.558 E0.0158
G1 X151.27 Y142.549 E0.00251
G1 X150.842 Y142.489 E0.01755
G1 X149.935 Y142.457 E0.03678
G1 X149.485 Y142.47 E0.01826
G1 X149.266 Y142.491 E0.00892
G1 X148.98 Y142.518 E0.01162
G1 X148.518 Y142.604 E0.01906
G1 X148.178 Y142.703 E0.01436
G1 X147.824 Y142.848 E0.01554
G1 X147.489 Y143.039 E0.01565
G1 X147.208 Y143.25 E0.01424
G1 X146.909 Y143.536 E0.01677
;WIPE_START
M204 S1500
G1 X146.74 Y143.55 F36000
;WIPE_END
G1 X146.123 Y142.487
;TYPE:Internal perimeter
G1 F900
G1 X146.194 Y142.438 E0.00348
G1 X146.73 Y142.157 E0.02454
G1 X147.244 Y141.949 E0.0225
G1 X147.875 Y141.758 E0.02671
G1 X148.583 Y141.611 E0.02935
G1 X149.297 Y141.529 E0.02911
G1 X149.969 Y141.512 E0.02726
G1 X150.335 Y141.538 E0.01488
G1 X150.703 Y141.564 E0.01496
G1 X151.37 Y141.673 E0.02741
G1 X152.049 Y141.846 E0.02842
G1 X152.622 Y142.047 E0.02464
G1 X153.201 Y142.314 E0.02583
G1 X153.677 Y142.597 E0.02245
G1 X154.164 Y142.958 E0.02459
G1 X154.689 Y143.422 E0.02842
G1 X155.177 Y143.933 E0.02863
G1 X155.665 Y144.549 E0.0319
G1 X155.968 Y145.008 E0.0223
G1 X156.304 Y145.626 E0.0285
G1 X156.552 Y146.214 E0.02588
G1 X156.767 Y146.935 E0.0305
G1 X156.862 Y147.463 E0.02176
G1 X156.907 Y148.105 E0.02611
G1 X156.88 Y148.661 E0.02254
G1 X156.793 Y149.219 E0.02292
G1 X156.637 Y149.82 E0.02518
G1 X156.398 Y150.463 E0.02782
G1 X156.067 Y151.136 E0.03038
G1 X155.701 Y151.73 E0.02831
G1 X155.266 Y152.317 E0.02963
G1 X154.773 Y152.871 E0.03006
G1 X154.32 Y153.306 E0.02545
G1 X153.766 Y153.758 E0.02899
G1 X153.127 Y154.186 E0.03118
G1 X152.512 Y154.518 E0.02832
G1 X151.919 Y154.766 E0.02607
G1 X151.371 Y154.935 E0.02325
G1 X150.723 Y155.059 E0.02677
G1 X150.13 Y155.099 E0.02409
G1 X149.552 Y155.065 E0.02347
G1 X148.917 Y154.946 E0.02621
G1 X148.38 Y154.78 E0.02279
G1 X147.794 Y154.532 E0.02579
G1 X147.175 Y154.191 E0.02867
G1 X146.523 Y153.742 E0.0321
G1 X145.868 Y153.185 E0.03486
G1 X145.394 Y152.704 E0.02737
G1 X144.899 Y152.117 E0.03116
G1 X144.493 Y151.55 E0.02824
G1 X144.143 Y150.977 E0.02725
G1 X143.757 Y150.202 E0.03507
G1 X143.478 Y149.469 E0.03181
G1 X143.289 Y148.78 E0.02899
G1 X143.181 Y148.15 E0.02591
G1 X143.14 Y147.572 E0.0235
G1 X143.154 Y147.051 E0.0211
G1 X143.238 Y146.442 E0.02493
G1 X143.404 Y145.827 E0.02584
G1 X143.604 Y145.321 E0.02207
G1 X143.873 Y144.802 E0.02367
G1 X144.22 Y144.27 E0.02577
G1 X144.646 Y143.742 E0.02752
G1 X145.167 Y143.217 E0.02998
G1 X145.706 Y142.77 E0.0284
G1 X146.073 Y142.521 E0.018
M204 S1000
G1 X145.883 Y142.134 F36000
;TYPE:External perimeter
G1 F900
G1 X145.974 Y142.072 E0.00447
G1 X146.55 Y141.769 E0.02639
G1 X147.102 Y141.546 E0.02414
G1 X147.317 Y141.481 E0.00913
G1 X147.769 Y141.344 E0.01915
G1 X148.516 Y141.19 E0.03091
G1 X149.267 Y141.104 E0.03064
G1 X149.338 Y141.102 E0.00289
G1 X149.978 Y141.085 E0.02597
G1 X150.365 Y141.113 E0.01572
G1 X150.752 Y141.14 E0.01575
G1 X151.457 Y141.255 E0.02896
G1 X151.805 Y141.344 E0.01455
G1 X152.173 Y141.438 E0.01538
G1 X152.783 Y141.652 E0.02621
G1 X153.399 Y141.936 E0.02754
G1 X153.914 Y142.241 E0.02424
G1 X154.432 Y142.627 E0.02621
G1 X154.985 Y143.114 E0.02988
G1 X155.499 Y143.652 E0.03017
G1 X156.011 Y144.299 E0.03345
G1 X156.334 Y144.789 E0.02379
G1 X156.688 Y145.441 E0.03008
G1 X156.954 Y146.07 E0.02767
G1 X157.182 Y146.836 E0.03241
G1 X157.273 Y147.339 E0.02074
G1 X157.286 Y147.41 E0.00294
G1 X157.334 Y148.101 E0.02808
G1 X157.305 Y148.703 E0.02446
G1 X157.224 Y149.226 E0.02144
G1 X157.212 Y149.306 E0.00326
G1 X157.044 Y149.948 E0.02693
G1 X156.79 Y150.632 E0.02958
G1 X156.441 Y151.342 E0.03207
G1 X156.276 Y151.611 E0.0128
G1 X156.055 Y151.97 E0.01709
G1 X155.597 Y152.586 E0.03114
G1 X155.36 Y152.853 E0.01444
G1 X155.081 Y153.167 E0.01707
G1 X154.603 Y153.626 E0.02685
G1 X154.02 Y154.1 E0.03048
G1 X153.68 Y154.329 E0.0166
G1 X153.348 Y154.552 E0.01622
G1 X152.914 Y154.786 E0.02001
G1 X152.696 Y154.903 E0.01
G1 X152.065 Y155.167 E0.02776
G1 X151.727 Y155.271 E0.01434
G1 X151.475 Y155.349 E0.0107
G1 X150.777 Y155.483 E0.02878
G1 X150.132 Y155.526 E0.02623
G1 X149.5 Y155.489 E0.02565
G1 X149.317 Y155.455 E0.00755
G1 X148.814 Y155.36 E0.02075
G1 X148.233 Y155.181 E0.02465
G1 X147.608 Y154.916 E0.02755
G1 X146.95 Y154.555 E0.03042
G1 X146.263 Y154.081 E0.03385
G1 X145.577 Y153.497 E0.03649
G1 X145.079 Y152.992 E0.02881
G1 X144.562 Y152.378 E0.03252
G1 X144.137 Y151.786 E0.02956
G1 X143.769 Y151.183 E0.02863
G1 X143.366 Y150.374 E0.03666
G1 X143.072 Y149.602 E0.0335
G1 X142.872 Y148.872 E0.03068
G1 X142.777 Y148.312 E0.02305
G1 X142.758 Y148.201 E0.00455
G1 X142.713 Y147.581 E0.02519
G1 X142.728 Y147.017 E0.0229
G1 X142.819 Y146.357 E0.02698
G1 X142.999 Y145.693 E0.02791
G1 X143.098 Y145.441 E0.01098
G1 X143.216 Y145.144 E0.01294
G1 X143.504 Y144.587 E0.02541
G1 X143.677 Y144.321 E0.01288
G1 X143.849 Y144.059 E0.01271
G1 X143.875 Y144.019 E0.00193
G1 X144.328 Y143.457 E0.02928
G1 X144.879 Y142.902 E0.03171
G1 X145.45 Y142.429 E0.03006
G1 X145.833 Y142.168 E0.01881
;WIPE_START
M204 S1500
G1 X145.982 Y142.182 F36000
;WIPE_END
G1 X145.899 Y143.783
;TYPE:Gap fill
;WIDTH:0.581958
G1 F900
G1 X145.856 Y143.405 E0.01916
;WIDTH:0.735879
G1 X145.926 Y143.246 E0.01127
;WIDTH:0.654619
G1 X146.005 Y143.167 E0.00636
G1 X146.107 Y143.075 E0.00786
;WIDTH:0.573053
G1 X146.209 Y142.983 E0.0068
G1 X146.325 Y142.888 E0.00739
;WIDTH:0.532664
G1 X146.418 Y142.812 E0.00549
G1 X146.544 Y142.722 E0.00703
;WIDTH:0.442297
G1 X146.669 Y142.632 E0.0057
G1 X146.787 Y142.556 E0.00519
;WIDTH:0.404952
G1 X146.886 Y142.494 E0.0039
;WIDTH:0.379669
G1 X147.057 Y142.398 E0.00608
;WIDTH:0.350944
G1 X147.213 Y142.322 E0.0049
;WIDTH:0.309103
G1 X147.352 Y142.254 E0.00376
;WIDTH:0.271752
G1 X147.509 Y142.187 E0.00355
G1 X147.724 Y142.11 E0.00474
;WIDTH:0.227324
G1 X147.948 Y142.031 E0.00393
G1 X148.151 Y141.981 E0.00346
;WIDTH:0.18129
G1 X148.355 Y141.93 E0.00254
G1 X148.494 Y141.903 E0.00172
G1 X148.626 Y141.877 E0.00164
G1 X148.754 Y141.857 E0.00157
G1 X148.888 Y141.837 E0.00164
G1 X149.102 Y141.815 E0.00261
G1 X149.315 Y141.793 E0.00261
G1 X149.445 Y141.785 E0.00158
G1 X149.69 Y141.778 E0.00298
G1 X149.935 Y141.772 E0.00298
G1 X149.963 Y141.772 E0.00033
G1 X150.319 Y141.791 E0.00432
;WIDTH:0.149318
G1 X150.674 Y141.81 E0.00324
G1 X150.801 Y141.822 E0.00116
G1 X152.764 Y142.376 F36000
;WIDTH:0.14601
G1 F900
G1 X152.804 Y142.398 E0.0004
G1 X152.915 Y142.458 E0.00111
;WIDTH:0.180473
G1 X153.077 Y142.549 E0.00225
G1 X153.248 Y142.667 E0.0025
;WIDTH:0.248328
G1 X153.419 Y142.784 E0.00384
G1 X153.507 Y142.853 E0.00205
;WIDTH:0.276271
