; generated by SuperSlicer 2.5.59 on 2022-10-10 at 07:34:19 UTC


;
;

;
;
; 

; external perimeters extrusion width = 0.42mm
; perimeters extrusion width = 0.45mm
; infill extrusion width = 0.56mm
; solid infill extrusion width = 0.56mm
; top infill extrusion width = 0.40mm
; first layer extrusion width = 0.80mm

; external perimeters extrusion width = 0.42mm
; perimeters extrusion width = 0.45mm
; infill extrusion width = 0.56mm
; solid infill extrusion width = 0.56mm
; top infill extrusion width = 0.40mm
; first layer extrusion width = 0.80mm

; object:{"name":"[a]_z_carriage_left","id":"[a]_z_carriage_left.stl id:0 copy 0","object_center":[136.655030,167.325062,0.000000],"boundingbox_center":[136.655030,167.325062,2.000000],"boundingbox_size":[53.199411,45.239022,4.000000]}
; object:{"name":"[a]_z_carriage_right","id":"[a]_z_carriage_right.stl id:1 copy 0","object_center":[167.325065,136.655025,0.000000],"boundingbox_center":[167.325065,136.655025,2.000000],"boundingbox_size":[45.239016,53.199406,4.000000]}
; plater:{"center":[149.999949,149.999948,0.000000],"boundingbox_center":[149.999949,149.999948,2.000000],"boundingbox_size":[79.889249,79.889251,4.000000]}

M73 P0 R24


; Pre-Processed for Cancel-Object support by preprocess_cancellation v0.2.0
; 2 known objects
EXCLUDE_OBJECT_DEFINE NAME=a__z_carriage_left_stl_id_0_copy_0 CENTER=127.828,164.137 POLYGON=[[124.858,144.916],[124.199,144.93],[122.892,145.048],[121.601,145.283],[120.336,145.633],[119.107,146.095],[117.926,146.666],[116.8,147.341],[115.739,148.114],[115.236,148.535],[114.289,149.444],[113.428,150.434],[112.659,151.498],[112.311,152.055],[111.692,153.212],[111.18,154.42],[110.779,155.67],[110.62,156.307],[110.39,157.599],[110.319,158.251],[110.265,159.563],[111.3,180.714],[111.463,181.761],[111.735,182.785],[111.912,183.285],[112.114,183.775],[112.595,184.719],[113.173,185.607],[113.841,186.429],[114.592,187.176],[115.418,187.84],[116.33,188.425],[117.256,188.89],[117.746,189.09],[118.756,189.41],[119.794,189.623],[120.849,189.725],[121.911,189.716],[156.304,187.587],[162.958,180.932],[154.953,158.911],[154.836,158.683],[143.579,147.43],[143.189,147.097],[142.36,146.495],[141.923,146.227],[141.01,145.762],[140.536,145.566],[139.562,145.249],[138.559,145.036],[137.54,144.929],[124.858,144.916]]
EXCLUDE_OBJECT_DEFINE NAME=a__z_carriage_right_stl_id_1_copy_0 CENTER=164.085,127.778 POLYGON=[[159.563,110.265],[158.251,110.319],[157.599,110.39],[156.307,110.62],[155.04,110.965],[154.42,111.18],[153.212,111.692],[152.055,112.311],[151.498,112.659],[150.434,113.428],[149.93,113.848],[149.444,114.289],[148.535,115.236],[148.114,115.739],[147.341,116.8],[146.666,117.926],[146.368,118.51],[145.851,119.716],[145.444,120.964],[145.283,121.601],[145.048,122.892],[144.93,124.199],[144.929,137.54],[144.971,138.068],[145.13,139.063],[145.249,139.562],[145.566,140.536],[145.762,141.01],[146.227,141.923],[146.785,142.782],[147.43,143.579],[158.683,154.836],[158.911,154.953],[180.932,162.958],[187.587,156.303],[189.716,121.911],[189.725,120.849],[189.623,119.794],[189.41,118.756],[189.09,117.746],[188.664,116.776],[188.139,115.856],[187.84,115.418],[187.19,114.608],[186.429,113.841],[185.607,113.173],[184.719,112.595],[183.775,112.114],[182.785,111.735],[182.277,111.586],[181.24,111.368],[180.183,111.26],[159.563,110.265]]
;TYPE:Custom
PRINT_START EXTRUDER=255 BED=115 AREA_START=103.643,103.643 AREA_END=196.357,196.357
M107
G21 ; set units to millimeters
G90 ; use absolute coordinates
M83 ; use relative distances for extrusion
SET_PRESSURE_ADVANCE SMOOTH=0.04
SET_PRESSURE_ADVANCE ADVANCE=0.025
;_TOOLCHANGE 0
M104 S255 ; set temperature
M109 S255 ; set temperature and wait for it to be reached
M190 S115 ; set bed temperature and wait for it to be reached
M107
;LAYER_CHANGE
;Z:0.24
;HEIGHT:0.24
G1 Z0.24 F24000
G92 E0
M73 P1 R24
G1 E-0.7 F1800
M204 S10000
G1 X127.468 Y127.461 F24000
G1 E0.7 F1800
;TYPE:Skirt
;WIDTH:0.45
G1 F8783.0335
G1 X109.882 Y145.048 E0.9197
G1 X109.058 Y145.954 E0.04526
G1 X108.073 Y147.195 E0.0586
G1 X107.378 Y148.203 E0.04527
G1 X106.433 Y149.819 E0.06923
G1 X105.397 Y152.116 E0.09319
G1 X104.736 Y154.172 E0.07986
G1 X104.239 Y156.643 E0.09319
G1 X104.054 Y158.795 E0.07986
G1 X104.065 Y160.524 E0.06396
G1 X105.043 Y180.489 E0.73914
G1 X105.253 Y182.409 E0.07142
G1 X105.639 Y184.123 E0.06499
G1 X106.356 Y186.128 E0.07874
G1 X107.213 Y187.843 E0.0709
G1 X108.175 Y189.314 E0.06498
G1 X109.289 Y190.673 E0.06498
G1 X110.705 Y192.041 E0.07281
G1 X112.558 Y193.412 E0.08524
G1 X113.951 Y194.209 E0.05934
G1 X116.061 Y195.095 E0.08465
G1 X117.753 Y195.569 E0.06498
G1 X119.487 Y195.858 E0.06498
G1 X121.587 Y195.956 E0.07775
G1 X156.624 Y193.803 E1.29806
G1 X158.902 Y193.23 E0.08686
G1 X160.751 Y191.943 E0.08331
G1 X191.943 Y160.751 E1.63122
G1 X193.27 Y158.813 E0.08686
G1 X193.803 Y156.624 E0.08331
G1 X195.958 Y121.241 E1.31082
G1 X195.79 Y118.958 E0.08468
G1 X195.355 Y116.901 E0.07774
G1 X194.584 Y114.745 E0.08467
G1 X193.615 Y112.879 E0.07774
G1 X192.627 Y111.426 E0.06498
G1 X191.578 Y110.187 E0.06004
G1 X190.673 Y109.289 E0.04714
G1 X189.314 Y108.175 E0.06498
G1 X187.704 Y107.138 E0.07079
G1 X186.648 Y106.588 E0.04404
G1 X185.464 Y106.082 E0.04763
G1 X183.789 Y105.549 E0.06499
G1 X182.067 Y105.199 E0.06499
G1 X180.661 Y105.053 E0.05226
G1 X159.731 Y104.043 E0.77488
G1 X157.86 Y104.107 E0.06924
G1 X156.002 Y104.339 E0.06923
G1 X154.172 Y104.736 E0.06923
G1 X152.386 Y105.297 E0.06923
G1 X150.657 Y106.016 E0.06923
G1 X149 Y106.887 E0.06924
G1 X147.428 Y107.904 E0.06923
G1 X145.954 Y109.058 E0.06924
G1 X144.589 Y110.34 E0.06924
G1 X127.468 Y127.461 E0.89537
G1 X127.75 Y127.743 F24000
G1 F8783.0335
G1 X110.164 Y145.33 E0.91968
G1 X108.95 Y146.707 E0.06791
G1 X108.232 Y147.654 E0.04394
G1 X107.372 Y148.964 E0.05794
G1 X106.789 Y149.999 E0.04393
G1 X105.768 Y152.264 E0.09187
G1 X105.123 Y154.269 E0.07787
G1 X104.633 Y156.704 E0.09186
G1 X104.452 Y158.802 E0.07787
G1 X104.463 Y160.505 E0.06297
G1 X105.441 Y180.469 E0.73914
G1 X105.644 Y182.336 E0.06943
G1 X106.021 Y184.008 E0.06339
G1 X106.717 Y185.961 E0.07666
G1 X107.561 Y187.649 E0.0698
G1 X108.5 Y189.084 E0.06339
G1 X109.588 Y190.408 E0.06339
G1 X110.97 Y191.744 E0.0711
G1 X112.781 Y193.082 E0.08324
G1 X114.125 Y193.85 E0.05724
G1 X116.196 Y194.72 E0.08306
G1 X117.846 Y195.182 E0.06339
G1 X119.537 Y195.463 E0.06339
G1 X121.573 Y195.557 E0.07536
G1 X156.599 Y193.406 E1.29766
G1 X158.672 Y192.897 E0.07891
G1 X160.469 Y191.661 E0.08065
G1 X191.661 Y160.469 E1.63122
G1 X192.877 Y158.715 E0.07891
G1 X193.406 Y156.599 E0.08065
G1 X195.557 Y121.573 E1.29766
G1 X195.463 Y119.537 E0.07536
G1 X195.057 Y117.328 E0.08307
G1 X194.423 Y115.391 E0.07536
G1 X193.85 Y114.124 E0.05142
G1 X193.278 Y113.091 E0.04369
G1 X192.314 Y111.673 E0.06339
G1 X191.281 Y110.453 E0.05913
G1 X190.408 Y109.588 E0.04543
G1 X189.084 Y108.5 E0.06339
G1 X187.499 Y107.48 E0.0697
G1 X186.47 Y106.944 E0.0429
G1 X185.328 Y106.457 E0.04589
G1 X183.695 Y105.936 E0.06339
G1 X182.015 Y105.594 E0.06339
G1 X180.469 Y105.441 E0.05746
G1 X159.72 Y104.441 E0.76815
G1 X157.885 Y104.504 E0.06791
G1 X156.063 Y104.732 E0.06791
G1 X154.269 Y105.123 E0.06791
G1 X152.517 Y105.674 E0.06791
G1 X150.821 Y106.379 E0.0679
G1 X149.196 Y107.234 E0.06791
G1 X147.654 Y108.232 E0.0679
G1 X146.208 Y109.364 E0.06791
G1 X144.87 Y110.622 E0.06791
G1 X127.75 Y127.743 E0.89534
G1 X128.032 Y128.025 F24000
G1 F8783.0335
G1 X110.447 Y145.611 E0.91965
G1 X108.708 Y147.676 E0.09983
G1 X108.054 Y148.625 E0.04261
G1 X107.144 Y150.179 E0.06658
G1 X106.138 Y152.411 E0.09054
G1 X105.51 Y154.365 E0.07589
G1 X105.027 Y156.765 E0.09054
G1 X104.851 Y158.809 E0.07589
G1 X104.861 Y160.485 E0.06198
G1 X105.839 Y180.45 E0.73914
G1 X106.036 Y182.263 E0.06744
G1 X106.402 Y183.893 E0.0618
G1 X107.079 Y185.793 E0.07457
G1 X107.909 Y187.455 E0.06869
G1 X108.825 Y188.853 E0.0618
G1 X109.886 Y190.144 E0.0618
G1 X111.236 Y191.447 E0.06939
G1 X113.004 Y192.752 E0.08125
G1 X114.299 Y193.492 E0.05514
G1 X116.33 Y194.345 E0.08147
G1 X117.939 Y194.794 E0.0618
G1 X119.588 Y195.068 E0.0618
G1 X121.559 Y195.159 E0.07297
G1 X156.575 Y193.008 E1.29726
G1 X158.444 Y192.562 E0.07105
G1 X160.187 Y191.379 E0.0779
G1 X191.379 Y160.187 E1.63122
G1 X192.484 Y158.615 E0.07105
G1 X193.008 Y156.575 E0.0779
G1 X195.159 Y121.559 E1.29726
G1 X195.068 Y119.588 E0.07297
G1 X194.67 Y117.421 E0.08148
G1 X194.056 Y115.546 E0.07297
G1 X193.492 Y114.298 E0.05062
G1 X192.94 Y113.303 E0.04209
G1 X192.001 Y111.92 E0.0618
G1 X190.984 Y110.718 E0.05821
G1 X190.144 Y109.886 E0.04372
G1 X188.853 Y108.825 E0.0618
G1 X187.293 Y107.821 E0.0686
G1 X186.291 Y107.3 E0.04175
G1 X185.193 Y106.832 E0.04415
G1 X183.601 Y106.323 E0.0618
G1 X181.964 Y105.989 E0.0618
G1 X180.45 Y105.839 E0.05626
G1 X159.71 Y104.84 E0.76782
G1 X157.91 Y104.902 E0.06659
G1 X156.124 Y105.126 E0.06658
G1 X154.365 Y105.51 E0.06658
G1 X152.647 Y106.05 E0.06658
G1 X150.985 Y106.743 E0.06658
G1 X149.392 Y107.582 E0.06659
G1 X147.88 Y108.56 E0.06658
G1 X146.463 Y109.671 E0.06659
G1 X145.151 Y110.904 E0.06658
G1 X128.032 Y128.025 E0.89531
G1 X128.313 Y128.307 F24000
G1 F8783.0335
G1 X110.729 Y145.892 E0.91962
G1 X109.563 Y147.217 E0.06526
G1 X108.888 Y148.107 E0.04129
G1 X107.5 Y150.359 E0.09784
G1 X106.508 Y152.558 E0.08922
G1 X105.897 Y154.461 E0.0739
G1 X105.421 Y156.826 E0.08921
G1 X105.249 Y158.817 E0.0739
G1 X105.259 Y160.466 E0.06098
G1 X106.237 Y180.43 E0.73914
G1 X106.428 Y182.19 E0.06545
G1 X106.784 Y183.779 E0.06021
G1 X107.441 Y185.626 E0.07249
G1 X108.258 Y187.261 E0.06759
G1 X109.15 Y188.623 E0.06021
G1 X110.184 Y189.88 E0.0602
G1 X111.502 Y191.15 E0.06768
G1 X113.227 Y192.422 E0.07925
G1 X114.473 Y193.133 E0.05304
G1 X116.464 Y193.97 E0.07988
G1 X118.032 Y194.407 E0.0602
G1 X119.639 Y194.672 E0.06021
G1 X121.546 Y194.761 E0.07058
G1 X156.55 Y192.61 E1.29686
G1 X158.218 Y192.225 E0.06329
G1 X159.905 Y191.097 E0.07505
G1 X191.097 Y159.905 E1.63122
G1 X192.092 Y158.512 E0.06329
G1 X192.61 Y156.55 E0.07505
G1 X194.761 Y121.545 E1.29686
G1 X194.672 Y119.639 E0.07058
G1 X194.283 Y117.514 E0.07989
G1 X193.688 Y115.7 E0.07058
G1 X193.133 Y114.472 E0.04982
G1 X192.602 Y113.514 E0.0405
G1 X191.688 Y112.167 E0.06021
G1 X190.687 Y110.984 E0.0573
G1 X189.88 Y110.184 E0.04201
G1 X188.623 Y109.15 E0.0602
G1 X187.088 Y108.162 E0.0675
G1 X186.113 Y107.657 E0.0406
G1 X185.058 Y107.207 E0.04241
G1 X183.507 Y106.71 E0.06021
G1 X181.912 Y106.384 E0.06021
G1 X180.43 Y106.237 E0.05507
G1 X159.699 Y105.238 E0.76749
G1 X157.936 Y105.3 E0.06526
G1 X156.185 Y105.52 E0.06526
G1 X154.461 Y105.897 E0.06526
G1 X152.777 Y106.427 E0.06526
G1 X151.149 Y107.106 E0.06525
G1 X149.587 Y107.929 E0.06526
G1 X148.107 Y108.888 E0.06525
G1 X146.718 Y109.977 E0.06526
G1 X145.433 Y111.187 E0.06526
G1 X128.313 Y128.307 E0.89528
G1 E-0.7 F1800
; printing object [a]_z_carriage_left.stl id:0 copy 0
EXCLUDE_OBJECT_START NAME=a__z_carriage_left_stl_id_0_copy_0
M204 S3000
G1 X139.478 Y157.035 F24000
G1 E0.7 F1800
;TYPE:Internal perimeter
;WIDTH:0.8
G1 F9000
G1 X140.114 Y156.989 E0.04429
G1 X140.583 Y156.898 E0.03319
G1 X141.269 Y156.693 E0.04974
G1 X142.098 Y156.257 E0.06504
G1 X142.74 Y155.758 E0.05648
G1 X143.341 Y155.08 E0.06293
G1 X143.682 Y154.535 E0.04462
G1 X143.944 Y153.976 E0.04292
G1 X144.13 Y153.351 E0.04529
G1 X144.222 Y152.882 E0.03319
G1 X144.278 Y152.095 E0.05476
G1 X151.333 Y159.16 E0.69346
G1 X144.268 Y166.225 E0.69397
M73 P2 R24
G1 X153.072 Y175.028 E0.86478
G1 X151.791 Y175.199 E0.08977
G1 X150.9 Y175.488 E0.06504
G1 X150.188 Y175.881 E0.05647
G1 X149.436 Y176.483 E0.06693
G1 X148.834 Y177.235 E0.06692
G1 X148.471 Y177.893 E0.05219
G1 X148.255 Y178.469 E0.0427
G1 X148.105 Y179.091 E0.04444
G1 X148.039 Y179.998 E0.06315
G1 X148.133 Y180.805 E0.05647
G1 X148.408 Y181.732 E0.06713
G1 X148.876 Y182.571 E0.06673
G1 X149.347 Y183.155 E0.0521
G1 X149.8 Y183.573 E0.04282
G1 X150.32 Y183.948 E0.04453
G1 X151.134 Y184.35 E0.06304
G1 X152.007 Y184.594 E0.06296
G1 X151.96 Y185.035 E0.03076
G1 X124.465 Y186.737 E1.91341
G1 X129.347 Y181.854 E0.47958
G1 X127.277 Y174.129 E0.55549
G1 X127.826 Y174.031 E0.03873
G1 X128.544 Y173.866 E0.05118
G1 X129.253 Y173.665 E0.05118
G1 X129.951 Y173.429 E0.05119
G1 X130.637 Y173.158 E0.05118
G1 X131.308 Y172.854 E0.05118
G1 X131.963 Y172.517 E0.05118
G1 X132.601 Y172.148 E0.05118
G1 X133.219 Y171.747 E0.05118
G1 X133.817 Y171.317 E0.05118
G1 X134.393 Y170.857 E0.05118
G1 X134.945 Y170.369 E0.05118
G1 X135.472 Y169.854 E0.05118
G1 X135.973 Y169.314 E0.05119
G1 X136.447 Y168.749 E0.05118
G1 X136.892 Y168.162 E0.05118
G1 X137.307 Y167.553 E0.05118
G1 X137.692 Y166.924 E0.05117
G1 X138.044 Y166.277 E0.05118
G1 X138.364 Y165.614 E0.05118
G1 X138.651 Y164.935 E0.05118
G1 X138.904 Y164.243 E0.05118
G1 X139.122 Y163.539 E0.05118
G1 X139.305 Y162.825 E0.05118
G1 X139.452 Y162.103 E0.05118
G1 X139.563 Y161.375 E0.05119
G1 X139.64 Y160.617 E0.05286
G1 X139.681 Y159.411 E0.08383
G1 X139.656 Y158.651 E0.05282
G1 X139.595 Y157.917 E0.05118
G1 X139.478 Y157.035 E0.06179
G1 E-0.7 F1800
G1 X156.876 Y182.403 F24000
G1 E0.7 F1800
G1 F9000
G1 X157.267 Y181.658 E0.05842
G1 X157.472 Y180.972 E0.04976
G1 X157.563 Y180.503 E0.03319
G1 X157.629 Y179.586 E0.06386
G1 X158.976 Y180.932 E0.13229
G1 X157.239 Y182.67 E0.17067
G1 X156.876 Y182.403 E0.03128
G1 E-0.7 F1800
G1 X154.226 Y184.429 F24000
G1 E0.7 F1800
G1 F6922.0037
G1 X154.55 Y184.333 E0.02346
G1 X155.11 Y184.071 E0.04293
G1 X155.299 Y183.952 E0.01548
G1 X155.59 Y184.318 E0.0325
G1 X155.066 Y184.842 E0.05147
G1 X154.308 Y184.889 E0.05276
G1 X154.226 Y184.429 E0.03246
G1 E-0.7 F1800
G1 X138.532 Y156.192 F24000
G1 E0.7 F1800
G1 F9000
G1 X139.479 Y156.284 E0.06609
G1 X140.015 Y156.246 E0.03732
G1 X140.404 Y156.17 E0.02752
G1 X140.986 Y155.997 E0.04215
G1 X141.691 Y155.626 E0.05535
G1 X142.226 Y155.21 E0.04705
G1 X142.74 Y154.63 E0.05381
G1 X143.023 Y154.177 E0.03713
G1 X143.242 Y153.709 E0.0359
G1 X143.402 Y153.172 E0.03891
G1 X143.478 Y152.783 E0.02751
G1 X143.517 Y152.247 E0.03732
G1 X143.442 Y151.481 E0.05346
G1 X143.259 Y150.829 E0.04705
G1 X143.072 Y150.449 E0.02938
G1 X143.433 Y150.19 E0.0309
G1 X152.391 Y159.16 E0.88051
G1 X145.327 Y166.225 E0.69394
G1 X155.165 Y176.063 E0.96643
G1 X154.89 Y176.427 E0.03168
G1 X154.435 Y176.173 E0.03626
G1 X153.924 Y175.994 E0.03757
G1 X153.4 Y175.879 E0.03725
G1 X152.629 Y175.843 E0.05365
G1 X151.957 Y175.932 E0.04706
G1 X151.199 Y176.178 E0.05535
G1 X150.606 Y176.505 E0.04705
G1 X149.969 Y177.016 E0.05672
G1 X149.458 Y177.653 E0.05672
G1 X149.153 Y178.207 E0.04394
G1 X148.972 Y178.689 E0.03573
G1 X148.847 Y179.207 E0.037
G1 X148.791 Y179.982 E0.05398
G1 X148.869 Y180.654 E0.04705
G1 X149.102 Y181.439 E0.05687
G1 X149.499 Y182.151 E0.05658
G1 X149.895 Y182.642 E0.04387
G1 X150.274 Y182.992 E0.03582
G1 X150.707 Y183.304 E0.03706
G1 X151.403 Y183.648 E0.05389
G1 X152.055 Y183.831 E0.04705
G1 X152.821 Y183.906 E0.05346
G1 X153.357 Y183.867 E0.03731
G1 X153.746 Y183.791 E0.02752
G1 X154.283 Y183.631 E0.03892
G1 X154.751 Y183.412 E0.03591
G1 X155.204 Y183.128 E0.03713
G1 X155.784 Y182.614 E0.05381
G1 X156.2 Y182.08 E0.04705
G1 X156.571 Y181.375 E0.05535
G1 X156.744 Y180.793 E0.04217
G1 X156.82 Y180.404 E0.02752
G1 X156.859 Y179.868 E0.03731
G1 X156.784 Y179.102 E0.05345
G1 X156.601 Y178.45 E0.04705
G1 X156.278 Y177.796 E0.05063
G1 X156.639 Y177.537 E0.03089
G1 X160.035 Y180.932 E0.33351
G1 X155.395 Y185.572 E0.45573
G1 X121.807 Y187.651 E2.33737
G1 X121.35 Y187.667 E0.0318
G1 X120.919 Y187.659 E0.02992
G1 X120.49 Y187.627 E0.02992
G1 X120.062 Y187.572 E0.02992
G1 X119.638 Y187.495 E0.02993
G1 X119.22 Y187.394 E0.02992
G1 X118.807 Y187.271 E0.02992
G1 X118.401 Y187.126 E0.02992
G1 X118.004 Y186.959 E0.02992
G1 X117.625 Y186.775 E0.02929
G1 X117.138 Y186.5 E0.0388
G1 X116.507 Y186.073 E0.05293
G1 X116.19 Y185.823 E0.02801
G1 X115.76 Y185.439 E0.04009
G1 X115.702 Y185.379 E0.00579
G1 X115.463 Y185.138 E0.02358
G1 X115.178 Y184.815 E0.02992
G1 X114.91 Y184.478 E0.02992
G1 X114.661 Y184.126 E0.02992
G1 X114.431 Y183.762 E0.02992
G1 X114.232 Y183.403 E0.02848
G1 X113.911 Y182.711 E0.05304
