; generated by SuperSlicer 2.5.59 on 2022-09-08 at 00:16:49 UTC


;
;

;
;
; 

; external perimeters extrusion width = 0.50mm
; perimeters extrusion width = 0.50mm
; infill extrusion width = 0.50mm
; solid infill extrusion width = 0.56mm
; top infill extrusion width = 0.40mm

; object:{"name":"[a]_z_chain_retainer_bracket_x2","id":"[a]_z_chain_retainer_bracket_x2.stl id:0 copy 0","object_center":[150.000000,150.000000,0.000000],"boundingbox_center":[150.000000,150.000000,2.500002],"boundingbox_size":[17.222338,17.222338,5.000004]}
; plater:{"center":[150.000000,150.000000,0.000000],"boundingbox_center":[150.000000,150.000000,2.500002],"boundingbox_size":[17.222338,17.222338,5.000004]}

M73 P0 R6
;TYPE:Custom
; custom gcode: start_gcode
PRINT_START EXTRUDER=260 BED=110 AREA_START=141.638,141.634 AREA_END=158.362,158.366
; custom gcode end: start_gcode
M107
G21 ; set units to millimeters
G90 ; use absolute coordinates
M83 ; use relative distances for extrusion
; custom gcode: start_filament_gcode
; Filament gcode
SET_PRESSURE_ADVANCE ADVANCE=0.065
; custom gcode end: start_filament_gcode
;_TOOLCHANGE 0
M104 S260 ; set temperature
M109 S260 ; set temperature and wait for it to be reached
M190 S110 ; set bed temperature and wait for it to be reached
;LAYER_CHANGE
;Z:0.24
;HEIGHT:0.24
G1 Z0.24 F36000
G92 E0
M73 P5 R6
G1 E-0.5 F1800
; printing object [a]_z_chain_retainer_bracket_x2.stl id:0 copy 0
M204 S2000
G1 X148.998 Y154.235 F36000
G1 E0.5 F1800
;TYPE:Internal perimeter
;WIDTH:0.5
G1 F1022
G1 X146.829 Y156.404 E0.13312
G1 X143.597 Y153.17 E0.19848
G1 X145.779 Y150.988 E0.13391
G1 X145.986 Y151.64 E0.0297
G1 X146.177 Y152.045 E0.01942
G1 X146.418 Y152.444 E0.02025
G1 X146.702 Y152.814 E0.02026
G1 X147.009 Y153.14 E0.01941
G1 X147.553 Y153.58 E0.03038
G1 X147.936 Y153.812 E0.01944
G1 X148.356 Y154.012 E0.02021
G1 X148.998 Y154.235 E0.02948
G1 X149.881 Y153.881 F36000
G1 F1022
G1 X149.977 Y153.891 E0.00417
G1 X146.829 Y157.038 E0.19322
G1 X142.963 Y153.169 E0.23741
G1 X146.111 Y150.022 E0.19324
G1 X146.143 Y150.478 E0.01986
G1 X146.211 Y150.867 E0.01712
G1 X146.404 Y151.476 E0.02775
G1 X146.572 Y151.832 E0.01711
G1 X146.789 Y152.191 E0.01819
G1 X147.044 Y152.524 E0.0182
G1 X147.315 Y152.81 E0.01711
G1 X147.811 Y153.213 E0.02775
G1 X148.149 Y153.417 E0.01712
G1 X148.526 Y153.597 E0.01816
G1 X148.923 Y153.734 E0.01822
G1 X149.306 Y153.824 E0.01708
G1 X149.881 Y153.881 E0.02507
G1 X150.917 Y153.585 F36000
G1 F1022
G1 X146.959 Y157.542 E0.24296
M73 P6 R6
G1 X146.812 Y157.656 E0.00805
G1 X142.34 Y153.18 E0.27468
G1 X142.495 Y153.003 E0.01022
G1 X146.423 Y149.075 E0.24112
G1 X146.662 Y149.216 E0.01203
G1 X146.626 Y149.345 E0.00581
G1 X146.577 Y149.682 E0.01479
G1 X146.563 Y150.054 E0.01615
G1 X146.589 Y150.424 E0.01611
G1 X146.647 Y150.76 E0.01481
G1 X146.822 Y151.311 E0.02512
G1 X146.968 Y151.62 E0.0148
G1 X147.16 Y151.938 E0.01613
G1 X147.386 Y152.233 E0.01613
G1 X147.62 Y152.481 E0.0148
G1 X148.07 Y152.845 E0.02512
G1 X148.362 Y153.022 E0.01481
G1 X148.697 Y153.181 E0.01611
G1 X149.048 Y153.303 E0.01615
G1 X149.38 Y153.381 E0.01478
G1 X149.956 Y153.438 E0.02513
G1 X150.297 Y153.424 E0.01482
G1 X150.802 Y153.353 E0.02212
G1 X150.917 Y153.585 E0.01121
G1 E-0.5 F1800
G1 X154.235 Y148.998 F36000
G1 E0.5 F1800
G1 F1022
G1 X154.012 Y148.356 E0.02949
G1 X153.81 Y147.93 E0.02049
G1 X153.566 Y147.534 E0.02017
G1 X153.312 Y147.203 E0.01812
G1 X152.978 Y146.847 E0.02121
G1 X152.464 Y146.43 E0.02872
G1 X152.04 Y146.174 E0.0215
G1 X151.612 Y145.975 E0.02049
G1 X150.999 Y145.768 E0.02808
G1 X153.171 Y143.596 E0.13331
G1 X156.404 Y146.829 E0.19848
M73 P6 R5
G1 X154.235 Y148.998 E0.13314
G1 X153.891 Y149.977 F36000
G1 F1022
G1 X153.824 Y149.306 E0.02926
G1 X153.734 Y148.923 E0.01708
G1 X153.597 Y148.526 E0.01822
G1 X153.415 Y148.144 E0.01836
G1 X153.196 Y147.789 E0.01813
G1 X152.97 Y147.493 E0.01615
G1 X152.672 Y147.176 E0.01889
G1 X152.205 Y146.798 E0.02606
G1 X151.829 Y146.57 E0.0191
G1 X151.445 Y146.392 E0.01836
G1 X151.05 Y146.258 E0.01813
G1 X150.654 Y146.167 E0.01761
G1 X150.007 Y146.126 E0.02815
G1 X153.171 Y142.962 E0.19423
G1 X157.038 Y146.829 E0.23741
G1 X153.891 Y149.977 E0.19324
G1 X153.353 Y150.802 F36000
G1 F1022
G1 X153.424 Y150.297 E0.02213
G1 X153.438 Y149.956 E0.01482
G1 X153.381 Y149.38 E0.02513
G1 X153.303 Y149.048 E0.01478
G1 X153.181 Y148.697 E0.01615
G1 X153.02 Y148.359 E0.01624
M73 P7 R5
G1 X152.826 Y148.043 E0.01609
G1 X152.627 Y147.784 E0.01419
G1 X152.366 Y147.505 E0.01658
G1 X151.947 Y147.166 E0.0234
G1 X151.617 Y146.967 E0.01671
G1 X151.278 Y146.809 E0.01624
G1 X150.927 Y146.69 E0.01609
G1 X150.589 Y146.613 E0.01505
G1 X149.882 Y146.567 E0.03074
G1 X149.194 Y146.644 E0.03008
G1 X149.083 Y146.415 E0.01105
G1 X153.049 Y142.449 E0.24345
G1 X153.183 Y142.339 E0.00751
G1 X157.662 Y146.818 E0.27496
G1 X157.505 Y146.997 E0.01031
G1 X153.585 Y150.917 E0.24067
G1 X153.353 Y150.802 E0.01121
G1 E-0.5 F1800
M204 S1500
G1 X149.969 Y152.988 F36000
G1 E0.5 F1800
;TYPE:External perimeter
G1 F1022
G1 X150.257 Y152.977 E0.0125
G1 X150.577 Y152.932 E0.01405
G1 X150.892 Y152.852 E0.01412
G1 X151.197 Y152.738 E0.01412
G1 X151.487 Y152.592 E0.01407
G1 X151.729 Y152.437 E0.01249
G1 X152.124 Y152.102 E0.02249
G1 X152.316 Y151.888 E0.0125
G1 X152.507 Y151.626 E0.01406
G1 X152.669 Y151.345 E0.01408
G1 X152.785 Y151.082 E0.01248
G1 X152.931 Y150.584 E0.02255
G1 X152.977 Y150.257 E0.01433
G1 X152.988 Y149.969 E0.0125
G1 X152.938 Y149.453 E0.02249
G1 X152.872 Y149.173 E0.01248
G1 X152.765 Y148.867 E0.01408
G1 X152.626 Y148.573 E0.01412
G1 X152.456 Y148.298 E0.01405
G1 X152.285 Y148.074 E0.01222
G1 X152.06 Y147.835 E0.01426
G1 X151.688 Y147.534 E0.02075
G1 X151.406 Y147.363 E0.01432
G1 X151.111 Y147.226 E0.01411
G1 X150.805 Y147.122 E0.01405
G1 X150.524 Y147.058 E0.0125
G1 X149.893 Y147.017 E0.02745
G1 X149.4 Y147.072 E0.02154
G1 X149.087 Y147.155 E0.01406
G1 X148.817 Y147.256 E0.0125
G1 X148.361 Y147.501 E0.02249
G1 X148.128 Y147.671 E0.01249
G1 X147.887 Y147.887 E0.01407
G1 X147.67 Y148.129 E0.01412
G1 X147.48 Y148.393 E0.01412
G1 X147.321 Y148.675 E0.01405
G1 X147.206 Y148.939 E0.0125
G1 X147.065 Y149.438 E0.02249
G1 X147.025 Y149.722 E0.01249
G1 X147.012 Y150.046 E0.01408
G1 X147.035 Y150.37 E0.01406
G1 X147.084 Y150.653 E0.0125
G1 X147.241 Y151.147 E0.02249
G1 X147.364 Y151.407 E0.01249
G1 X147.531 Y151.684 E0.01407
G1 X147.728 Y151.942 E0.01407
G1 X147.926 Y152.151 E0.01249
G1 X148.328 Y152.477 E0.02249
G1 X148.575 Y152.626 E0.0125
G1 X148.867 Y152.765 E0.01406
G1 X149.173 Y152.872 E0.01408
G1 X149.453 Y152.938 E0.01248
G1 X149.969 Y152.988 E0.02249
;WIPE_START
M204 S4000
G1 X150.167 Y153.336 F36000
;WIPE_END
G1 E-0.5 F1800
M204 S1500
G1 X146.913 Y158.094 F36000
G1 E0.5 F1800
G1 F1022
G1 X146.747 Y158.112 E0.00725
G1 X146.646 Y158.089 E0.00449
G1 X146.542 Y158.02 E0.00546
G1 X141.952 Y153.427 E0.28184
G1 X141.888 Y153.276 E0.00712
G1 X141.889 Y153.164 E0.00488
G1 X141.921 Y153.037 E0.00566
G1 X142.005 Y152.881 E0.00773
G1 X142.168 Y152.696 E0.01067
G1 X152.748 Y142.117 E0.64948
M73 P8 R5
G1 X152.901 Y141.99 E0.00862
G1 X153.02 Y141.926 E0.00588
G1 X153.232 Y141.886 E0.00934
G1 X153.356 Y141.912 E0.00551
G1 X153.458 Y141.981 E0.00533
G1 X158.024 Y146.546 E0.28029
G1 X158.08 Y146.624 E0.00416
G1 X158.112 Y146.73 E0.0048
G1 X158.111 Y146.836 E0.00462
G1 X158.079 Y146.963 E0.00566
G1 X157.995 Y147.119 E0.00773
G1 X157.832 Y147.304 E0.01067
G1 X147.256 Y157.88 E0.64925
G1 X147.056 Y158.035 E0.01099
G1 X146.913 Y158.094 E0.00671
;WIPE_START
M204 S4000
G1 X146.647 Y157.796 F36000
;WIPE_END
G1 E-0.5 F1800
M204 S2000
G1 X146.059 Y151.899 F36000
G1 E0.5 F1800
;TYPE:Solid infill
;WIDTH:0.507539
G1 F1022
G1 X145.259 Y151.899 E0.03567
G1 X144.751 Y152.408 E0.03208
G1 X146.084 Y152.408 E0.05949
G1 X146.188 Y152.601 E0.00978
G1 X146.456 Y152.916 E0.01845
G1 X144.242 Y152.916 E0.09874
G1 X143.989 Y153.17 E0.01599
G1 X144.244 Y153.425 E0.01608
G1 X146.93 Y153.425 E0.11982
G1 X147.631 Y153.933 E0.03861
G1 X144.752 Y153.933 E0.12841
G1 X145.26 Y154.442 E0.03207
G1 X148.4 Y154.442 E0.14005
G1 X147.891 Y154.95 E0.03208
G1 X145.768 Y154.95 E0.0947
G1 X146.276 Y155.459 E0.03207
G1 X147.383 Y155.459 E0.04935
G1 X146.874 Y155.967 E0.03208
G1 X146.475 Y155.967 E0.0178
G1 E-0.5 F1800
G1 X151.032 Y153.354 F36000
G1 E0.5 F1800
;TYPE:Gap fill
;WIDTH:0.616952
G1 F1022
G1 X151.171 Y153.27 E0.00889
;WIDTH:0.576395
G1 X151.257 Y153.216 E0.00513
;WIDTH:0.544419
G1 X151.384 Y153.134 E0.00722
;WIDTH:0.513533
G1 X151.526 Y153.031 E0.00784
;WIDTH:0.39773
G1 X151.668 Y152.928 E0.00587
G1 X151.804 Y152.819 E0.00587
;WIDTH:0.328436
G1 X151.927 Y152.721 E0.00421
G1 X151.941 Y152.709 E0.0005
;WIDTH:0.300102
G1 X152.142 Y152.523 E0.00657
G1 X152.343 Y152.338 E0.00657
G1 X152.461 Y152.214 E0.00414
G1 X152.569 Y152.101 E0.00376
G1 X152.69 Y151.959 E0.00447
;WIDTH:0.357268
G1 X152.803 Y151.828 E0.00513
G1 X152.919 Y151.676 E0.00566
;WIDTH:0.472831
G1 X153.025 Y151.537 E0.00712
G1 X153.127 Y151.39 E0.00733
;WIDTH:0.541908
G1 X153.217 Y151.259 E0.00753
G1 X153.265 Y151.185 E0.00419
;WIDTH:0.613271
G1 X153.36 Y151.036 E0.00961
G1 E-0.5 F1800
G1 X148.967 Y146.649 F36000
G1 E0.5 F1800
;WIDTH:0.591471
G1 F1022
G1 X148.906 Y146.685 E0.00371
G1 X148.742 Y146.784 E0.01002
;WIDTH:0.551367
G1 X148.648 Y146.844 E0.00539
;WIDTH:0.517306
G1 X148.511 Y146.945 E0.00768
;WIDTH:0.462784
G1 X148.4 Y147.028 E0.00549
;WIDTH:0.409408
G1 X148.289 Y147.11 E0.00478
;WIDTH:0.351747
G1 X148.179 Y147.192 E0.00401
G1 X148.044 Y147.307 E0.00514
;WIDTH:0.302468
G1 X147.925 Y147.408 E0.0038
G1 X147.789 Y147.536 E0.00451
G1 X147.664 Y147.655 E0.0042
G1 X147.535 Y147.79 E0.00453
M73 P9 R5
G1 X147.416 Y147.916 E0.00422
G1 X147.294 Y148.06 E0.00457
;WIDTH:0.363033
G1 X147.181 Y148.193 E0.00526
G1 X147.065 Y148.345 E0.00577
;WIDTH:0.46418
G1 X146.96 Y148.483 E0.00696
G1 X146.864 Y148.622 E0.00672
;WIDTH:0.568109
G1 X146.781 Y148.744 E0.00737
G1 X146.696 Y148.871 E0.00767
;WIDTH:0.67134
G1 X146.636 Y148.961 E0.00649
G1 E-0.5 F1800
G1 X152.444 Y144.405 F36000
G1 E0.5 F1800
;TYPE:Solid infill
;WIDTH:0.511998
G1 F1022
G1 X153.589 Y144.405 E0.0515
G1 X154.097 Y144.914 E0.03236
G1 X152.245 Y144.914 E0.08335
G1 X151.736 Y145.422 E0.03236
G1 X154.606 Y145.422 E0.12911
G1 X155.114 Y145.931 E0.03236
G1 X152.176 Y145.931 E0.13221
G1 X152.885 Y146.439 E0.03926
G1 X155.623 Y146.439 E0.12318
G1 X156.012 Y146.829 E0.02481
G1 X155.894 Y146.948 E0.00755
G1 X153.405 Y146.948 E0.11201
G1 X153.795 Y147.456 E0.02885
G1 X155.385 Y147.456 E0.07156
G1 X154.877 Y147.965 E0.03236
G1 X154.122 Y147.965 E0.03398
G1 X154.324 Y148.473 E0.02463
G1 X154.678 Y148.473 E0.0159
M106 S127.5
;LAYER_CHANGE
;Z:0.44
;HEIGHT:0.2
; stop printing object [a]_z_chain_retainer_bracket_x2.stl id:0 copy 0
M204 S4000
G1 Z0.44 F36000
G92 E0
M104 S250 ; set temperature
G1 E-0.5 F1800
G1 Z0.64 F36000
; printing object [a]_z_chain_retainer_bracket_x2.stl id:0 copy 0
; acceleration to travel
M204 S10000
G1 X150.543 Y152.928
; decel to extrusion
M204 S2500
G1 X149.462 Y154.093
; end travel
G1 Z0.44
G1 E0.5 F1800
;TYPE:Internal perimeter
;WIDTH:0.5
G1 F1335
G1 X146.895 Y156.66 E0.13383
G1 X143.341 Y153.103 E0.18538
G1 X145.923 Y150.52 E0.13463
G1 X146.023 Y151.035 E0.01933
G1 X146.249 Y151.678 E0.02514
G1 X146.479 Y152.117 E0.01826
G1 X146.756 Y152.523 E0.01812
G1 X147.215 Y153.025 E0.02509
G1 X147.775 Y153.455 E0.02603
G1 X148.205 Y153.695 E0.01815
G1 X148.634 Y153.875 E0.01714
G1 X149.462 Y154.093 E0.03157
G1 X150.59 Y153.612 F36000
G1 F1335
G1 X146.895 Y157.307 E0.19265
G1 X142.695 Y153.102 E0.21908
G1 X146.395 Y149.402 E0.19291
G1 X146.349 Y150.053 E0.02405
G1 X146.383 Y150.488 E0.01608
G1 X146.465 Y150.915 E0.01605
G1 X146.669 Y151.495 E0.02266
G1 X146.872 Y151.881 E0.01606
G1 X147.115 Y152.238 E0.01596
G1 X147.526 Y152.687 E0.02241
G1 X148.027 Y153.072 E0.02331
G1 X148.406 Y153.283 E0.01598
G1 X148.781 Y153.441 E0.01502
G1 X149.393 Y153.602 E0.0233
G1 X150.026 Y153.651 E0.02344
G1 X150.59 Y153.612 E0.02082
G1 X150.062 Y153.19 F36000
G1 F1335
G1 X150.401 Y153.167 E0.01256
G1 X150.746 Y153.104 E0.01291
G1 X151.276 Y152.928 E0.02061
M73 P10 R5
G1 X151.719 Y152.685 E0.01861
G1 X151.909 Y152.939 E0.01169
G1 X147.186 Y157.661 E0.24622
G1 X147.029 Y157.777 E0.00719
G1 X146.926 Y157.819 E0.00412
G1 X146.778 Y157.836 E0.00549
G1 X142.148 Y153.202 E0.24152
G1 X142.187 Y153.047 E0.00588
G1 X142.242 Y152.937 E0.00455
G1 X142.365 Y152.786 E0.00717
G1 X147.051 Y148.1 E0.24431
G1 X147.304 Y148.283 E0.01149
G1 X147.037 Y148.81 E0.02176
G1 X146.919 Y149.165 E0.01381
G1 X146.846 Y149.507 E0.0129
G1 X146.807 Y150.051 E0.02011
G1 X146.836 Y150.427 E0.01387
G1 X146.908 Y150.795 E0.01385
G1 X147.089 Y151.312 E0.02019
G1 X147.264 Y151.645 E0.01386
G1 X147.475 Y151.954 E0.01379
G1 X147.836 Y152.349 E0.01973
G1 X148.279 Y152.689 E0.0206
G1 X148.606 Y152.872 E0.01381
G1 X148.929 Y153.007 E0.0129
G1 X149.469 Y153.15 E0.02059
G1 X150.062 Y153.19 E0.0219
G1 E-0.5 F1800
M204 S4000
G1 Z0.64 F36000
M204 S2500
G1 X154.086 Y149.47
G1 Z0.44
G1 E0.5 F1800
G1 F1335
G1 X153.947 Y148.862 E0.02301
G1 X153.792 Y148.421 E0.01723
G1 X153.588 Y148 E0.01723
G1 X153.323 Y147.583 E0.01824
G1 X152.862 Y147.048 E0.02603
G1 X152.334 Y146.618 E0.0251
G1 X151.913 Y146.365 E0.01812
G1 X151.462 Y146.159 E0.01825
G1 X150.548 Y145.896 E0.03509
G1 X153.105 Y143.339 E0.13331
G1 X156.661 Y146.895 E0.18541
G1 X154.086 Y149.47 E0.13427
G1 X153.597 Y150.605 F36000
G1 F1335
G1 X153.653 Y150.016 E0.02178
G1 X153.603 Y149.411 E0.02241
G1 X153.507 Y148.989 E0.01596
G1 X153.37 Y148.597 E0.01531
G1 X153.188 Y148.223 E0.01531
G1 X152.955 Y147.856 E0.01605
G1 X152.542 Y147.377 E0.02331
G1 X152.071 Y146.993 E0.02242
G1 X151.7 Y146.77 E0.01596
G1 X151.303 Y146.589 E0.01605
G1 X150.713 Y146.419 E0.02267
G1 X150.283 Y146.361 E0.01598
G1 X149.455 Y146.342 E0.03052
G1 X153.105 Y142.693 E0.19026
G1 X157.307 Y146.895 E0.21912
G1 X153.597 Y150.605 E0.19341
G1 X152.689 Y151.717 F36000
G1 F1335
G1 X152.923 Y151.286 E0.01806
G1 X153.052 Y150.935 E0.01379
G1 X153.142 Y150.57 E0.01385
G1 X153.194 Y150.014 E0.0206
G1 X153.15 Y149.48 E0.01973
G1 X153.067 Y149.115 E0.01379
G1 X152.947 Y148.773 E0.01339
G1 X152.788 Y148.446 E0.01339
G1 X152.587 Y148.129 E0.01385
G1 X152.222 Y147.706 E0.0206
G1 X151.807 Y147.368 E0.01973
G1 X151.487 Y147.175 E0.01379
G1 X151.145 Y147.019 E0.01385
G1 X150.618 Y146.868 E0.02019
G1 X150.247 Y146.817 E0.01381
G1 X149.897 Y146.809 E0.0129
G1 X149.343 Y146.874 E0.02058
G1 X148.806 Y147.039 E0.02068
M73 P11 R5
G1 X148.468 Y147.199 E0.0138
G1 X148.312 Y147.296 E0.00676
G1 X148.11 Y147.041 E0.012
G1 X152.786 Y142.365 E0.24376
G1 X152.941 Y142.238 E0.0074
G1 X153.035 Y142.19 E0.00388
G1 X153.22 Y142.162 E0.00692
G1 X157.83 Y146.772 E0.24036
G1 X157.832 Y146.877 E0.00386
G1 X157.812 Y146.955 E0.00296
G1 X157.758 Y147.063 E0.00449
G1 X157.635 Y147.214 E0.00717
G1 X152.943 Y151.906 E0.24462
G1 X152.689 Y151.717 E0.01166
M204 S1500
G1 X150.03 Y152.734 F36000
;TYPE:External perimeter
G1 F1335
G1 X150.345 Y152.713 E0.01163
G1 X150.632 Y152.66 E0.01079
G1 X151.093 Y152.507 E0.01789
G1 X151.518 Y152.274 E0.01788
G1 X151.753 Y152.099 E0.01079
G1 X151.983 Y151.883 E0.01163
G1 X152.285 Y151.504 E0.01788
G1 X152.505 Y151.097 E0.01705
G1 X152.614 Y150.801 E0.01163
G1 X152.69 Y150.494 E0.01166
G1 X152.735 Y150.011 E0.01788
G1 X152.697 Y149.55 E0.01705
G1 X152.627 Y149.242 E0.01163
G1 X152.524 Y148.949 E0.01147
G1 X152.389 Y148.669 E0.01146
G1 X152.219 Y148.402 E0.01166
G1 X151.902 Y148.035 E0.01788
G1 X151.544 Y147.743 E0.01705
G1 X151.273 Y147.58 E0.01163
G1 X150.986 Y147.449 E0.01166
G1 X150.524 Y147.316 E0.01772
G1 X150.211 Y147.274 E0.01164
G1 X149.919 Y147.267 E0.01079
G1 X149.437 Y147.323 E0.01788
G1 X148.972 Y147.466 E0.01791
G1 X148.687 Y147.601 E0.01163
G1 X148.439 Y147.755 E0.01079
G1 X148.07 Y148.062 E0.01769
G1 X147.859 Y148.299 E0.01166
G1 X147.677 Y148.557 E0.01166
G1 X147.46 Y148.986 E0.01771
G1 X147.361 Y149.285 E0.01164
G1 X147.3 Y149.571 E0.01079
G1 X147.266 Y150.05 E0.01768
G1 X147.29 Y150.365 E0.01166
G1 X147.35 Y150.676 E0.01166
G1 X147.509 Y151.129 E0.01771
G1 X147.657 Y151.409 E0.01166
