; generated by SuperSlicer 2.5.59 on 2022-10-10 at 19:32:39 UTC


;
;

;
;
; 

; external perimeters extrusion width = 0.42mm
; perimeters extrusion width = 0.45mm
; infill extrusion width = 0.56mm
; solid infill extrusion width = 0.56mm
; top infill extrusion width = 0.40mm
; first layer extrusion width = 0.80mm

; external perimeters extrusion width = 0.42mm
; perimeters extrusion width = 0.45mm
; infill extrusion width = 0.56mm
; solid infill extrusion width = 0.56mm
; top infill extrusion width = 0.40mm
; first layer extrusion width = 0.80mm

; external perimeters extrusion width = 0.42mm
; perimeters extrusion width = 0.45mm
; infill extrusion width = 0.56mm
; solid infill extrusion width = 0.56mm
; top infill extrusion width = 0.40mm
; first layer extrusion width = 0.80mm

; object:{"name":"[a]_z_rail_stop_x3","id":"[a]_z_rail_stop_x3.stl id:0 copy 0","object_center":[139.299746,157.731347,0.000000],"boundingbox_center":[139.299746,157.731347,2.900000],"boundingbox_size":[16.606601,16.606601,5.800000]}
; object:{"name":"[a]_z_rail_stop_x3","id":"[a]_z_rail_stop_x3.stl id:1 copy 0","object_center":[160.700256,157.731347,0.000000],"boundingbox_center":[160.700256,157.731347,2.900000],"boundingbox_size":[16.606601,16.606601,5.800000]}
; object:{"name":"[a]_z_rail_stop_x3","id":"[a]_z_rail_stop_x3.stl id:2 copy 0","object_center":[147.878681,142.268653,0.000000],"boundingbox_center":[147.878681,142.268653,2.900000],"boundingbox_size":[16.606601,16.606601,5.800000]}
; plater:{"center":[150.000001,150.000000,0.000000],"boundingbox_center":[150.000001,150.000000,2.900000],"boundingbox_size":[38.007111,32.069295,5.800000]}

M73 P0 R10


; Pre-Processed for Cancel-Object support by preprocess_cancellation v0.2.0
; 3 known objects
EXCLUDE_OBJECT_DEFINE NAME=a__z_rail_stop_x3_stl_id_0_copy_0 CENTER=138.025,158.933 POLYGON=[[137.347,149.642],[137.137,149.688],[136.843,149.878],[132.612,154.109],[132.122,154.683],[131.816,155.161],[131.647,155.493],[131.44,156.021],[131.339,156.38],[131.266,156.747],[131.21,157.312],[131.21,157.685],[131.266,158.248],[131.386,158.798],[131.571,159.332],[131.818,159.841],[132.234,160.464],[132.613,160.89],[136.419,164.675],[136.872,165.018],[137.19,165.213],[137.699,165.46],[138.233,165.645],[138.783,165.765],[139.346,165.821],[139.719,165.821],[140.283,165.765],[141.01,165.591],[141.539,165.384],[142.192,165.018],[142.783,164.553],[147.204,160.131],[147.364,159.829],[147.381,159.488],[147.289,159.23],[147.156,159.056],[137.976,149.876],[137.744,149.713],[137.615,149.666],[137.347,149.642]]
EXCLUDE_OBJECT_DEFINE NAME=a__z_rail_stop_x3_stl_id_2_copy_0 CENTER=146.601,143.467 POLYGON=[[145.925,134.179],[145.599,134.28],[145.424,134.413],[141.191,138.646],[140.701,139.22],[140.493,139.531],[140.226,140.029],[140.019,140.558],[139.918,140.917],[139.845,141.284],[139.789,141.85],[139.789,142.222],[139.845,142.786],[139.965,143.336],[140.15,143.869],[140.397,144.379],[140.813,145.001],[141.192,145.427],[144.999,149.213],[145.452,149.556],[145.768,149.75],[146.277,149.997],[146.811,150.182],[147.362,150.303],[147.734,150.347],[148.298,150.358],[148.861,150.303],[149.589,150.128],[150.118,149.921],[150.772,149.555],[151.362,149.09],[155.783,144.668],[155.943,144.367],[155.96,144.025],[155.868,143.768],[155.735,143.593],[146.555,134.413],[146.323,134.25],[146.194,134.203],[145.925,134.179]]
EXCLUDE_OBJECT_DEFINE NAME=a__z_rail_stop_x3_stl_id_1_copy_0 CENTER=159.420,158.930 POLYGON=[[158.747,149.642],[158.537,149.688],[158.246,149.876],[154.013,154.109],[153.523,154.682],[153.217,155.16],[153.048,155.491],[152.841,156.02],[152.739,156.381],[152.666,156.748],[152.611,157.312],[152.611,157.685],[152.666,158.248],[152.787,158.799],[152.972,159.333],[153.311,159.999],[153.634,160.463],[154.014,160.891],[157.82,164.675],[158.272,165.018],[158.59,165.213],[159.1,165.46],[159.633,165.645],[160.183,165.765],[160.746,165.821],[161.12,165.821],[161.684,165.765],[162.411,165.591],[162.94,165.384],[163.593,165.018],[164.183,164.553],[168.605,160.131],[168.764,159.829],[168.781,159.483],[168.717,159.283],[168.557,159.056],[159.376,149.876],[159.145,149.713],[159.015,149.666],[158.747,149.642]]
;TYPE:Custom
PRINT_START EXTRUDER=255 BED=115 AREA_START=125.19,128.161 AREA_END=174.798,171.844
M107
G21 ; set units to millimeters
G90 ; use absolute coordinates
M83 ; use relative distances for extrusion
SET_PRESSURE_ADVANCE SMOOTH=0.04
SET_PRESSURE_ADVANCE ADVANCE=0.025
;_TOOLCHANGE 0
M104 S255 ; set temperature
M109 S255 ; set temperature and wait for it to be reached
M190 S115 ; set bed temperature and wait for it to be reached
M107
;LAYER_CHANGE
;Z:0.24
;HEIGHT:0.24
G1 Z0.24 F24000
G92 E0
M73 P3 R10
G1 E-0.7 F1800
M204 S10000
G1 X137.022 Y134.869 F24000
G1 E0.7 F1800
;TYPE:Skirt
;WIDTH:0.45
G1 F8783.0335
G1 X136.421 Y135.562 E0.0339
G1 X135.81 Y136.421 E0.03899
G1 X126.847 Y152.526 E0.68154
G1 X126.275 Y153.77 E0.05066
G1 X125.985 Y154.638 E0.03381
G1 X125.75 Y155.665 E0.03899
G1 X125.606 Y156.835 E0.04356
G1 X125.588 Y157.775 E0.03476
G1 X125.652 Y158.687 E0.03382
G1 X125.831 Y159.741 E0.03956
G1 X126.393 Y161.515 E0.0688
G1 X126.99 Y162.718 E0.04965
G1 X127.441 Y163.428 E0.0311
G1 X128.209 Y164.411 E0.04614
G1 X132.62 Y168.822 E0.23069
G1 X133.57 Y169.568 E0.04466
G1 X134.475 Y170.136 E0.03952
G1 X135.582 Y170.665 E0.04536
G1 X137.102 Y171.159 E0.05912
G1 X138.156 Y171.353 E0.03961
G1 X139.359 Y171.445 E0.04462
G1 X160.897 Y171.444 E0.79645
G1 X162.121 Y171.379 E0.04532
G1 X163.175 Y171.2 E0.03952
G1 X164.948 Y170.638 E0.0688
G1 X166.151 Y170.041 E0.04965
G1 X166.861 Y169.59 E0.0311
G1 X167.844 Y168.822 E0.04614
G1 X172.53 Y164.166 E0.24429
G1 X174.075 Y161.665 E0.10868
G1 X174.4 Y159.436 E0.08331
G1 X174.039 Y157.474 E0.07376
G1 X172.929 Y155.514 E0.08331
G1 X160.108 Y140.051 E0.74279
G1 X150.514 Y130.429 E0.50243
G1 X148.244 Y128.968 E0.09985
G1 X146.028 Y128.559 E0.08331
G1 X143.773 Y128.958 E0.08469
G1 X141.438 Y130.445 E0.10238
G1 X137.022 Y134.869 E0.23115
G1 X137.316 Y135.139 F24000
G1 F8783.0335
G1 X136.738 Y135.804 E0.03259
G1 X136.151 Y136.628 E0.03741
G1 X127.196 Y152.719 E0.68097
G1 X126.649 Y153.907 E0.04836
G1 X126.37 Y154.74 E0.0325
G1 X126.143 Y155.726 E0.03741
G1 X126.004 Y156.853 E0.04199
G1 X125.986 Y157.757 E0.03344
G1 X126.047 Y158.634 E0.0325
G1 X126.218 Y159.646 E0.03794
G1 X126.764 Y161.371 E0.0669
G1 X127.339 Y162.527 E0.04775
G1 X127.762 Y163.192 E0.02916
G1 X128.503 Y164.141 E0.04451
G1 X132.89 Y168.529 E0.22943
G1 X133.807 Y169.247 E0.04308
G1 X134.675 Y169.791 E0.0379
G1 X135.742 Y170.301 E0.04373
G1 X137.189 Y170.77 E0.05623
G1 X138.199 Y170.956 E0.03799
G1 X139.359 Y171.047 E0.04303
G1 X160.889 Y171.046 E0.79613
G1 X162.069 Y170.984 E0.04369
G1 X163.079 Y170.813 E0.0379
G1 X164.804 Y170.267 E0.0669
G1 X165.96 Y169.692 E0.04775
G1 X166.626 Y169.269 E0.02916
G1 X167.575 Y168.528 E0.04451
G1 X172.28 Y163.843 E0.24553
G1 X173.811 Y161.181 E0.11358
G1 X173.985 Y159.007 E0.08065
G1 X173.37 Y156.914 E0.08065
G1 X172.623 Y155.768 E0.0506
G1 X159.423 Y139.89 E0.76354
G1 X150.233 Y130.711 E0.4803
G1 X148.234 Y129.391 E0.08859
G1 X146.096 Y128.959 E0.08065
G1 X143.909 Y129.332 E0.08203
G1 X141.72 Y130.727 E0.096
G1 X137.316 Y135.139 E0.23052
G1 X137.609 Y135.408 F24000
G1 F8783.0335
G1 X136.491 Y136.835 E0.06702
G1 X127.544 Y152.912 E0.68039
G1 X127.023 Y154.043 E0.04605
G1 X126.537 Y155.787 E0.06694
G1 X126.402 Y156.872 E0.04042
G1 X126.384 Y157.74 E0.03212
G1 X126.605 Y159.55 E0.06743
G1 X127.136 Y161.226 E0.06499
G1 X127.689 Y162.335 E0.04585
G1 X128.796 Y163.872 E0.07003
G1 X133.159 Y168.235 E0.22816
G1 X134.043 Y168.926 E0.04149
G1 X134.875 Y169.447 E0.03628
G1 X135.903 Y169.936 E0.0421
G1 X137.275 Y170.381 E0.05334
G1 X138.242 Y170.56 E0.03637
G1 X139.359 Y170.648 E0.04145
G1 X160.88 Y170.647 E0.79582
G1 X162.016 Y170.588 E0.04206
G1 X162.984 Y170.426 E0.03628
G1 X164.659 Y169.895 E0.06499
G1 X165.769 Y169.342 E0.04585
G1 X167.305 Y168.235 E0.07003
G1 X171.998 Y163.561 E0.24492
G1 X173.405 Y161.154 E0.10307
G1 X173.59 Y159.056 E0.0779
G1 X172.986 Y157.038 E0.0779
G1 X172.316 Y156.022 E0.04498
G1 X159.494 Y140.56 E0.74279
G1 X149.951 Y130.993 E0.49967
G1 X148.217 Y129.816 E0.07749
G1 X146.161 Y129.359 E0.0779
G1 X144.046 Y129.707 E0.07928
G1 X142.002 Y131.009 E0.08962
G1 X137.609 Y135.408 E0.22988
G1 X137.903 Y135.678 F24000
G1 F8783.0335
G1 X136.832 Y137.042 E0.06413
G1 X127.893 Y153.106 E0.67981
G1 X127.398 Y154.18 E0.04374
G1 X126.931 Y155.848 E0.06405
G1 X126.8 Y156.89 E0.03885
G1 X126.782 Y157.723 E0.0308
G1 X126.992 Y159.455 E0.06451
G1 X127.507 Y161.081 E0.06309
G1 X128.039 Y162.144 E0.04395
G1 X129.09 Y163.603 E0.06648
G1 X133.429 Y167.941 E0.22689
G1 X134.279 Y168.605 E0.03991
G1 X135.074 Y169.102 E0.03466
G1 X136.063 Y169.571 E0.04047
G1 X137.361 Y169.992 E0.05045
G1 X138.285 Y170.164 E0.03475
G1 X139.359 Y170.25 E0.03986
G1 X160.872 Y170.249 E0.7955
G1 X161.964 Y170.193 E0.04043
G1 X162.888 Y170.039 E0.03466
G1 X164.515 Y169.524 E0.06309
G1 X165.578 Y168.992 E0.04395
G1 X167.036 Y167.941 E0.06648
G1 X171.715 Y163.28 E0.24421
G1 X172.979 Y161.188 E0.0904
G1 X173.2 Y159.17 E0.07505
G1 X172.633 Y157.221 E0.07505
G1 X172.009 Y156.277 E0.04186
G1 X159.188 Y140.814 E0.74279
G1 X149.67 Y131.275 E0.49829
G1 X148.195 Y130.243 E0.06657
G1 X146.224 Y129.76 E0.07505
G1 X144.182 Y130.081 E0.07643
G1 X142.283 Y131.29 E0.08324
G1 X137.903 Y135.678 E0.22925
G1 E-0.7 F1800
; printing object [a]_z_rail_stop_x3.stl id:0 copy 0
EXCLUDE_OBJECT_START NAME=a__z_rail_stop_x3_stl_id_0_copy_0
M204 S3000
G1 X134.281 Y159.352 F24000
G1 E0.7 F1800
;TYPE:Internal perimeter
;WIDTH:0.8
G1 F9000
G1 X133.908 Y159.492 E0.02766
G1 X133.572 Y159.033 E0.03955
G1 X133.396 Y158.71 E0.02557
G1 X133.261 Y158.365 E0.02567
G1 X133.17 Y157.995 E0.02651
G1 X133.137 Y157.744 E0.0176
G1 X133.126 Y157.501 E0.01685
G1 X133.138 Y157.246 E0.01772
G1 X133.195 Y156.877 E0.02596
G1 X133.261 Y156.631 E0.01771
G1 X133.344 Y156.403 E0.01685
G1 X133.452 Y156.172 E0.01772
G1 X133.646 Y155.852 E0.02596
G1 X133.801 Y155.65 E0.01771
G1 X133.985 Y155.45 E0.01887
G1 X137.41 Y152.025 E0.33644
G1 X139.8 Y154.418 E0.23495
G1 X138.635 Y154.313 E0.08124
G1 X138.198 Y154.318 E0.03039
G1 X137.763 Y154.369 E0.03039
G1 X137.336 Y154.464 E0.03039
G1 X136.921 Y154.602 E0.03039
G1 X136.522 Y154.783 E0.03039
G1 X136.144 Y155.003 E0.03039
G1 X135.778 Y155.271 E0.03152
G1 X135.325 Y155.701 E0.04334
G1 X135.039 Y156.053 E0.03151
G1 X134.8 Y156.419 E0.03039
G1 X134.599 Y156.808 E0.03039
G1 X134.439 Y157.215 E0.03039
G1 X134.323 Y157.637 E0.03039
G1 X134.247 Y158.084 E0.03151
G1 X134.223 Y158.708 E0.04334
G1 X134.281 Y159.352 E0.04489
G1 E-0.7 F1800
G1 X137.68 Y162.734 F24000
G1 E0.7 F1800
G1 F9000
G1 X138.105 Y162.795 E0.02979
G1 X138.729 Y162.803 E0.04334
G1 X139.179 Y162.751 E0.03151
G1 X139.607 Y162.656 E0.03039
G1 X140.022 Y162.517 E0.03039
G1 X140.435 Y162.33 E0.03151
G1 X140.966 Y162.002 E0.04334
G1 X141.318 Y161.716 E0.03151
G1 X141.627 Y161.406 E0.03039
G1 X141.903 Y161.067 E0.03039
G1 X142.143 Y160.701 E0.0304
G1 X142.344 Y160.312 E0.03039
G1 X142.503 Y159.904 E0.03039
G1 X142.62 Y159.483 E0.03039
G1 X142.696 Y159.035 E0.03151
G1 X142.72 Y158.412 E0.04334
G1 X142.613 Y157.235 E0.08206
G1 X144.997 Y159.622 E0.23434
M73 P4 R10
G1 X141.581 Y163.047 E0.33597
G1 X141.391 Y163.221 E0.01789
G1 X141.066 Y163.459 E0.02801
G1 X140.743 Y163.636 E0.02557
G1 X140.398 Y163.77 E0.02567
G1 X140.028 Y163.861 E0.02651
G1 X139.79 Y163.893 E0.01667
G1 X139.409 Y163.901 E0.02648
G1 X139.029 Y163.86 E0.0265
G1 X138.782 Y163.805 E0.0176
G1 X138.561 Y163.735 E0.01608
G1 X138.2 Y163.576 E0.02742
G1 X137.992 Y163.456 E0.01667
G1 X137.525 Y163.112 E0.04027
G1 X137.68 Y162.734 E0.02837
G1 X138.69 Y162.054 F24000
;TYPE:External perimeter
G1 F4500
G1 X139.055 Y162.012 E0.02548
G1 X139.406 Y161.933 E0.02503
G1 X139.748 Y161.819 E0.02503
G1 X140.083 Y161.668 E0.02548
G1 X140.531 Y161.391 E0.03664
G1 X140.816 Y161.159 E0.02548
G1 X141.071 Y160.904 E0.02503
G1 X141.298 Y160.625 E0.02503
G1 X141.495 Y160.323 E0.02504
G1 X141.661 Y160.003 E0.02503
G1 X141.792 Y159.667 E0.02503
G1 X141.888 Y159.32 E0.02503
G1 X141.95 Y158.958 E0.02548
G1 X141.97 Y158.431 E0.03664
G1 X141.937 Y158.066 E0.02548
G1 X141.868 Y157.712 E0.02503
G1 X141.763 Y157.367 E0.02503
G1 X141.62 Y157.029 E0.02548
G1 X141.354 Y156.573 E0.03664
G1 X141.13 Y156.283 E0.02548
G1 X140.882 Y156.022 E0.02503
G1 X140.608 Y155.787 E0.02503
G1 X140.312 Y155.582 E0.02503
G1 X139.996 Y155.409 E0.02503
G1 X139.664 Y155.269 E0.02503
G1 X139.319 Y155.163 E0.02503
G1 X138.965 Y155.094 E0.02503
G1 X138.607 Y155.062 E0.02503
G1 X138.246 Y155.066 E0.02503
G1 X137.888 Y155.108 E0.02503
G1 X137.536 Y155.186 E0.02503
G1 X137.194 Y155.3 E0.02503
G1 X136.866 Y155.449 E0.02503
G1 X136.555 Y155.63 E0.02503
G1 X136.258 Y155.847 E0.02549
G1 X135.876 Y156.21 E0.03664
G1 X135.645 Y156.495 E0.02548
G1 X135.447 Y156.796 E0.02503
G1 X135.282 Y157.117 E0.02503
G1 X135.15 Y157.452 E0.02503
G1 X135.054 Y157.8 E0.02503
G1 X134.993 Y158.161 E0.02548
G1 X134.973 Y158.689 E0.03664
G1 X135.006 Y159.054 E0.02548
G1 X135.075 Y159.408 E0.02503
G1 X135.18 Y159.752 E0.02503
G1 X135.32 Y160.084 E0.02503
G1 X135.494 Y160.4 E0.02503
G1 X135.699 Y160.697 E0.02503
G1 X135.933 Y160.971 E0.02503
G1 X136.194 Y161.219 E0.02503
G1 X136.48 Y161.439 E0.02503
G1 X136.786 Y161.628 E0.02503
G1 X137.111 Y161.785 E0.02503
G1 X137.45 Y161.908 E0.02503
G1 X137.799 Y161.995 E0.02503
G1 X138.163 Y162.047 E0.02548
G1 X138.69 Y162.054 E0.03664
;WIPE_START
M204 S10000
G1 X138.915 Y162.385 F24000
;WIPE_END
G1 E-0.7 F1800
M204 S3000
G1 X139.376 Y164.65 F24000
G1 E0.7 F1800
G1 F4500
G1 X138.908 Y164.6 E0.03273
G1 X138.588 Y164.529 E0.02278
G1 X138.297 Y164.437 E0.02119
G1 X137.861 Y164.245 E0.03309
G1 X137.582 Y164.083 E0.0224
G1 X137.198 Y163.801 E0.03311
G1 X136.965 Y163.587 E0.02198
G1 X133.444 Y160.066 E0.3458
G1 X133.231 Y159.834 E0.02193
G1 X132.939 Y159.435 E0.03431
G1 X132.716 Y159.026 E0.03235
G1 X132.546 Y158.592 E0.0324
G1 X132.433 Y158.134 E0.03273
G1 X132.39 Y157.809 E0.02278
G1 X132.377 Y157.5 E0.0215
G1 X132.392 Y157.172 E0.02282
G1 X132.461 Y156.723 E0.03153
G1 X132.546 Y156.406 E0.02282
G1 X132.652 Y156.115 E0.0215
G1 X132.792 Y155.817 E0.02282
G1 X133.028 Y155.429 E0.03153
G1 X133.227 Y155.168 E0.02282
G1 X133.444 Y154.932 E0.0223
G1 X137.41 Y150.966 E0.38959
G1 X137.552 Y151.107 E0.0124
G1 X137.834 Y151.39 E0.02629
G1 X146.055 Y159.622 E0.80804
G1 X145.914 Y159.764 E0.01246
G1 X145.631 Y160.047 E0.02635
G1 X142.099 Y163.587 E0.34734
G1 X141.867 Y163.8 E0.02192
G1 X141.468 Y164.092 E0.03431
G1 X141.059 Y164.316 E0.03235
G1 X140.625 Y164.485 E0.0324
G1 X140.167 Y164.598 E0.03273
G1 X139.847 Y164.64 E0.0224
G1 X139.376 Y164.65 E0.03272
;WIPE_START
M204 S10000
G1 X139.199 Y164.292 F24000
;WIPE_END
G1 X138.367 Y163.205
;TYPE:Gap fill
;WIDTH:0.191055
G1 F9000
G1 X138.442 Y163.222 E0.00099
G1 X138.581 Y163.252 E0.00184
;WIDTH:0.320102
G1 X138.763 Y163.287 E0.00461
G1 X138.947 Y163.3 E0.0046
;WIDTH:0.468364
G1 X139.131 Y163.314 E0.00714
G1 X139.286 Y163.313 E0.006
;WIDTH:0.52831
G1 X139.434 Y163.304 E0.00657
G1 X139.588 Y163.286 E0.00685
;WIDTH:0.613606
G1 X139.76 Y163.264 E0.00905
G1 X139.908 Y163.23 E0.00793
G1 X140.055 Y163.188 E0.00794
;WIDTH:0.666627
G1 X140.245 Y163.13 E0.01136
G1 X140.369 Y163.078 E0.0077
G1 X140.465 Y163.038 E0.0059
G1 X140.591 Y162.975 E0.00808
G1 X140.754 Y162.889 E0.01053
G1 X140.872 Y162.81 E0.00808
;WIDTH:0.6256
G1 X140.989 Y162.731 E0.00754
G1 X141.157 Y162.604 E0.01119
;WIDTH:0.565366
G1 X141.32 Y162.473 E0.00998
G1 X141.504 Y162.308 E0.01179
;WIDTH:0.487917
G1 X141.703 Y162.127 E0.01092
G1 X141.871 Y161.959 E0.00958
G1 X142.038 Y161.792 E0.00958
G1 X142.212 Y161.599 E0.0105
;WIDTH:0.535575
G1 X142.387 Y161.404 E0.01177
G1 X142.537 Y161.22 E0.01069
;WIDTH:0.636714
G1 X142.687 Y161.035 E0.01292
G1 X142.846 Y160.817 E0.01466
;WIDTH:0.791391
G1 X142.987 Y160.624 E0.01644
G1 X143.076 Y160.491 E0.01098
;WIDTH:0.871105
G1 F8219.2015
G1 X143.142 Y160.39 E0.00919
;WIDTH:0.93684
G1 F7608.9334
G1 X143.208 Y160.288 E0.00993
