; generated by SuperSlicer 2.3.57 on 2022-05-17 at 01:24:32 UTC


;
;

;
;
; TODO: check the size of the extruder and the y-bar clearance. Optimize & test supports.

; external perimeters extrusion width = 0.62mm
; perimeters extrusion width = 0.67mm
; infill extrusion width = 0.66mm
; solid infill extrusion width = 0.67mm
; top infill extrusion width = 0.64mm
; first layer extrusion width = 0.84mm

; object:{"name":"[a]_exhaust_filter_mount_x2","id":"[a]_exhaust_filter_mount_x2.stl id:0 copy 0","object_center":[112.410401,150.000000,0.000000],"boundingbox_center":[112.410401,150.000000,2.000000],"boundingbox_size":[51.600006,20.000000,4.000000]}
; object:{"name":"[a]_filter_access_cover","id":"[a]_filter_access_cover.stl id:1 copy 0","object_center":[176.800003,150.000000,0.000000],"boundingbox_center":[176.800003,150.000000,3.600002],"boundingbox_size":[73.179199,134.799995,7.200005]}
; plater:{"center":[150.000000,150.000000,0.000000],"boundingbox_center":[150.000000,150.000000,3.600002],"boundingbox_size":[126.779205,134.799995,7.200005]}

;TYPE:Custom
; M190 S0
; M109 S0 ; uncomment to remove set&wait temp gcode added automatically after this start gcode
print_start EXTRUDER=240 BED=90 CHAMBER=15
M107
G21 ; set units to millimeters
G90 ; use absolute coordinates
M83 ; use relative distances for extrusion
SET_PRESSURE_ADVANCE ADVANCE=0.04415
M104 S240 ; set temperature
M109 S240 ; set temperature and wait for it to be reached
M190 S90 ; set bed temperature and wait for it to be reached
M107
;LAYER_CHANGE
;Z:0.3
;HEIGHT:0.3
;BEFORE_LAYER_CHANGE
;0.3


G1 Z0.3 F18000
;AFTER_LAYER_CHANGE
;0.3
G1 E-0.75 F3000
G1 Z0.7 F18000
M204 S1500
G1 X125.296 Y97.994
G1 Z0.3
G1 E0.75 F1800
;TYPE:Skirt
;WIDTH:0.78
G1 X83.15 Y151.882 E10.07528
G1 X82.452 Y153.188 E0.21808
G1 X82.173 Y154.68 E0.22356
G1 X82.257 Y158.112 E0.50562
G1 X82.554 Y159.346 E0.18688
G1 X82.935 Y160.28 E0.14855
G1 X83.611 Y161.397 E0.19237
G1 X84.348 Y162.252 E0.1661
G1 X138.43 Y218.729 E11.51613
G1 X139.671 Y219.764 E0.23794
G1 X141.169 Y220.589 E0.25196
G1 X142.567 Y221.061 E0.21724
G1 X144.581 Y221.321 E0.29902
G1 X204.389 Y221.239 E8.80808
G1 X206.596 Y221.139 E0.32535
G1 X208.843 Y220.837 E0.33394
G1 X210.702 Y220.412 E0.28084
G1 X212.222 Y219.813 E0.24062
G1 X214.141 Y218.594 E0.33478
G1 X215.782 Y216.867 E0.35079
G1 X216.813 Y214.922 E0.32431
G1 X217.108 Y213.843 E0.16477
G1 X217.226 Y212.732 E0.16448
G1 X217.229 Y87.394 E18.45887
G1 X217.027 Y85.793 E0.23767
G1 X216.517 Y84.367 E0.22297
G1 X215.921 Y83.335 E0.17552
G1 X214.954 Y82.146 E0.22568
G1 X214.097 Y81.372 E0.17005
G1 X212.76 Y80.469 E0.23756
G1 X211.557 Y79.891 E0.19665
G1 X210.083 Y79.42 E0.22782
G1 X206.546 Y78.857 E0.52751
G1 X204.349 Y78.761 E0.32387
G1 X144.635 Y78.679 E8.7942
G1 X142.507 Y78.953 E0.31593
G1 X140.908 Y79.526 E0.25024
G1 X139.185 Y80.594 E0.29846
G1 X137.983 Y81.772 E0.24798
G1 X125.352 Y97.923 E3.01953
G1 X125.633 Y98.143 F18000
M204 S1000
G1 X125.915 Y98.363
G1 F1800
G1 X83.726 Y152.307 E10.08561
G1 X83.122 Y153.437 E0.18867
G1 X82.888 Y154.73 E0.19343
G1 X82.964 Y158.001 E0.4819
G1 X83.239 Y159.139 E0.17241
G1 X83.584 Y159.98 E0.1339
G1 X84.201 Y160.992 E0.17455
G1 X84.869 Y161.761 E0.15007
G1 X138.946 Y218.233 E11.51501
G1 X140.077 Y219.176 E0.21678
G1 X141.466 Y219.938 E0.23325
G1 X142.72 Y220.362 E0.19505
G1 X144.589 Y220.605 E0.27752
G1 X204.382 Y220.523 E8.80589
G1 X206.534 Y220.426 E0.31729
G1 X208.703 Y220.135 E0.32227
G1 X210.491 Y219.728 E0.26999
G1 X211.917 Y219.166 E0.22576
G1 X213.682 Y218.044 E0.30805
G1 X215.19 Y216.464 E0.32169
G1 X216.134 Y214.695 E0.29524
G1 X216.405 Y213.71 E0.15049
G1 X216.511 Y212.7 E0.14953
G1 X216.513 Y87.399 E18.45338
G1 X216.33 Y85.954 E0.2146
G1 X215.868 Y84.669 E0.20113
G1 X215.33 Y83.737 E0.15836
G1 X214.428 Y82.633 E0.21002
G1 X213.29 Y81.658 E0.22064
G1 X212.386 Y81.08 E0.15814
G1 X211.288 Y80.555 E0.17912
G1 X209.888 Y80.109 E0.2165
G1 X206.469 Y79.569 E0.50975
G1 X204.347 Y79.477 E0.31272
G1 X144.634 Y79.395 E8.79414
G1 X142.664 Y79.651 E0.29252
G1 X141.202 Y80.178 E0.22887
G1 X139.62 Y81.162 E0.2745
G1 X138.523 Y82.243 E0.22674
G1 X125.971 Y98.292 E3.00069
M204 S1500
G1 X126.252 Y98.513 F18000
M204 S1000
G1 X126.534 Y98.733
G1 F1800
G1 X84.299 Y152.737 E10.09677
G1 X83.794 Y153.684 E0.158
G1 X83.603 Y154.773 E0.16282
G1 X83.671 Y157.893 E0.45964
G1 X84.232 Y159.675 E0.27511
G1 X84.788 Y160.582 E0.1566
G1 X85.39 Y161.271 E0.13482
G1 X139.461 Y217.736 E11.51367
G1 X140.482 Y218.585 E0.19562
G1 X141.764 Y219.288 E0.21522
G1 X142.873 Y219.662 E0.1724
G1 X144.601 Y219.889 E0.25671
G1 X204.375 Y219.808 E8.80303
G1 X206.468 Y219.713 E0.30848
G1 X208.574 Y219.431 E0.31298
G1 X210.279 Y219.045 E0.25751
G1 X211.618 Y218.516 E0.21192
G1 X213.224 Y217.495 E0.28034
G1 X214.603 Y216.056 E0.29351
G1 X215.458 Y214.46 E0.26661
G1 X215.796 Y212.671 E0.26814
G1 X215.797 Y87.402 E18.44865
G1 X215.631 Y86.11 E0.19189
G1 X215.22 Y84.973 E0.17806
G1 X214.742 Y84.146 E0.14069
G1 X213.906 Y83.122 E0.19472
G1 X212.852 Y82.224 E0.20388
G1 X212.021 Y81.696 E0.14496
G1 X211.022 Y81.219 E0.16304
G1 X209.701 Y80.8 E0.20415
G1 X206.4 Y80.282 E0.49205
G1 X204.346 Y80.192 E0.30284
G1 X144.633 Y80.11 E8.79407
G1 X142.82 Y80.349 E0.26926
G1 X141.504 Y80.827 E0.20623
G1 X140.052 Y81.732 E0.25195
G1 X139.067 Y82.707 E0.20408
G1 X126.589 Y98.662 E2.98301
; INIT printing object [a]_exhaust_filter_mount_x2.stl id:0 copy 0
G1 E-0.75 F3000
M204 S1500
G1 Z0.7 F18000
; printing object [a]_exhaust_filter_mount_x2.stl id:0 copy 0
G1 X112.989 Y127.293
M204 S1000
G1 X99.388 Y155.925
G1 Z0.3
G1 E0.75 F1800
;TYPE:Internal perimeter
;WIDTH:0.84
G1 X99.481 Y156.546 E0.10027
G1 X99.685 Y157.162 E0.10347
G1 X100.039 Y157.744 E0.10883
G1 X100.735 Y158.454 E0.1587
G1 X89.665 Y158.454 E1.76692
G1 X89.34 Y158.426 E0.05213
G1 X89.2 Y158.391 E0.02303
G1 X88.938 Y158.285 E0.04506
G1 X88.762 Y158.177 E0.03297
G1 X88.641 Y158.08 E0.02478
G1 X88.459 Y157.881 E0.0431
G1 X88.313 Y157.65 E0.04349
G1 X88.255 Y157.518 E0.02305
G1 X88.184 Y157.255 E0.04355
G1 X88.156 Y156.945 E0.04965
G1 X88.156 Y155.947 E0.15936
G1 X98.782 Y155.945 E1.69616
G1 X99.299 Y155.928 E0.08245
G1 E-0.75 F3000
M204 S1500
G1 Z0.7 F18000
G1 X111.689 Y153.457
M204 S1000
G1 X124.079 Y150.986
G1 Z0.3
G1 E0.75 F1800
G1 X124.296 Y151.655 E0.11222
G1 X124.624 Y152.277 E0.11225
G1 X124.859 Y152.61 E0.06506
G1 X125.252 Y153.049 E0.09406
G1 X125.787 Y153.488 E0.11046
G1 X126.127 Y153.701 E0.06405
G1 X126.57 Y153.917 E0.07865
G1 X127.111 Y154.103 E0.09129
G1 X127.51 Y154.19 E0.06515
G1 X128.185 Y154.248 E0.10811
G1 X128.593 Y154.23 E0.06529
G1 X129.157 Y154.139 E0.0911
G1 X129.629 Y154.003 E0.07849
G1 X130.002 Y153.851 E0.06424
G1 X130.605 Y153.51 E0.11063
G1 X131.067 Y153.143 E0.09406
G1 X131.354 Y152.856 E0.0649
G1 X131.769 Y152.32 E0.10811
G1 X131.972 Y151.972 E0.06444
G1 X132.173 Y151.524 E0.07831
G1 X132.343 Y150.981 E0.09088
G1 X132.419 Y150.577 E0.06547
G1 X132.458 Y149.875 E0.11224
G1 X132.376 Y149.161 E0.11484
G1 X132.217 Y148.593 E0.09406
G1 X132.065 Y148.217 E0.06481
G1 X131.733 Y147.626 E0.10811
G1 X131.492 Y147.303 E0.06434
G1 X131.157 Y146.944 E0.0784
G1 X130.723 Y146.575 E0.09099
G1 X130.381 Y146.349 E0.06538
G1 X129.75 Y146.039 E0.11225
G1 X129.075 Y145.841 E0.11224
G1 X128.674 Y145.778 E0.0649
G1 X128.085 Y145.753 E0.09406
G1 X127.396 Y145.831 E0.11063
G1 X127.005 Y145.927 E0.06424
G1 X126.543 Y146.095 E0.07848
G1 X126.034 Y146.353 E0.0911
G1 X125.693 Y146.579 E0.0653
G1 X125.161 Y147.039 E0.11223
G1 X124.717 Y147.584 E0.11224
G1 X124.502 Y147.93 E0.06498
G1 X124.25 Y148.462 E0.09406
G1 X124.054 Y149.127 E0.11055
G1 X123.99 Y149.523 E0.06414
G1 X123.964 Y150.015 E0.07857
G1 X124.003 Y150.585 E0.0912
G1 X124.062 Y150.898 E0.05086
M204 S1500
G1 X124.443 Y150.827 F18000
M204 S1000
G1 X124.824 Y150.755
;TYPE:External perimeter
G1 F1800
G1 X124.832 Y150.794 E0.00638
G1 X125.013 Y151.352 E0.09356
G1 X125.287 Y151.87 E0.09359
G1 X125.467 Y152.126 E0.04996
G1 X125.791 Y152.487 E0.07742
G1 X126.241 Y152.857 E0.09295
G1 X126.504 Y153.022 E0.0496
G1 X126.867 Y153.199 E0.06451
G1 X127.32 Y153.355 E0.07645
G1 X127.626 Y153.421 E0.04999
G1 X128.201 Y153.471 E0.09213
G1 X128.515 Y153.457 E0.05003
G1 X128.987 Y153.381 E0.07638
G1 X129.375 Y153.269 E0.06445
G1 X129.663 Y153.152 E0.04967
G1 X130.17 Y152.865 E0.09301
G1 X130.55 Y152.563 E0.07742
G1 X130.771 Y152.342 E0.0499
G1 X131.124 Y151.886 E0.09213
G1 X131.282 Y151.616 E0.04974
G1 X131.446 Y151.248 E0.06439
G1 X131.589 Y150.792 E0.07628
G1 X131.647 Y150.484 E0.0501
G1 X131.68 Y149.898 E0.09359
G1 X131.612 Y149.31 E0.0945
G1 X131.482 Y148.843 E0.07742
G1 X131.365 Y148.553 E0.04987
G1 X131.082 Y148.051 E0.09213
G1 X130.895 Y147.801 E0.04971
G1 X130.621 Y147.505 E0.06442
G1 X130.256 Y147.196 E0.07633
G1 X129.994 Y147.023 E0.05006
G1 X129.468 Y146.764 E0.09359
G1 X128.905 Y146.6 E0.09358
G1 X128.597 Y146.551 E0.0499
G1 X128.112 Y146.531 E0.07742
G1 X127.533 Y146.596 E0.09302
G1 X127.231 Y146.671 E0.04967
G1 X126.851 Y146.808 E0.06445
G1 X126.424 Y147.024 E0.07638
G1 X126.163 Y147.197 E0.05003
G1 X125.72 Y147.581 E0.09358
G1 X125.349 Y148.036 E0.09358
G1 X125.184 Y148.301 E0.04993
G1 X124.977 Y148.74 E0.07742
G1 X124.812 Y149.298 E0.09298
G1 X124.763 Y149.605 E0.04963
G1 X124.741 Y150.009 E0.06448
G1 X124.774 Y150.486 E0.07642
G1 X124.808 Y150.667 E0.02927
;WIPE_START
M204 S1500
G1 X124.794 Y150.781 F18000
;WIPE_END
G1 E-0.75 F3000
G1 Z0.7 F18000
G1 X115.113 Y153.353
M204 S1000
G1 X105.432 Y155.924
G1 Z0.3
G1 E0.75 F1800
;TYPE:Internal perimeter
G1 X106.069 Y155.945 E0.10164
G1 X115.035 Y155.946 E1.43118
G1 X115.403 Y155.932 E0.05885
G1 X115.99 Y155.847 E0.09452
G1 X116.483 Y155.723 E0.08122
G1 X116.863 Y155.587 E0.06439
G1 X117.399 Y155.332 E0.09476
G1 X117.852 Y155.051 E0.08507
G1 X118.417 Y154.588 E0.11666
G1 X118.838 Y154.134 E0.09872
G1 X119.148 Y153.711 E0.08378
G1 X119.449 Y153.187 E0.09649
G1 X119.654 Y152.703 E0.08378
G1 X119.829 Y152.125 E0.0965
G1 X119.918 Y151.608 E0.08376
G1 X119.956 Y151.043 E0.0904
G1 X119.966 Y141.952 E1.45104
G1 X119.987 Y141.857 E0.01558
G1 X120.028 Y141.769 E0.01548
G1 X120.112 Y141.66 E0.02198
G1 X120.233 Y141.583 E0.02295
G1 X120.348 Y141.555 E0.01888
G1 X120.463 Y141.546 E0.01836
G1 X134.263 Y141.549 E2.2027
G1 X134.597 Y141.578 E0.05359
G1 X134.762 Y141.61 E0.02686
G1 X134.933 Y141.656 E0.02827
G1 X135.189 Y141.751 E0.0435
G1 X135.335 Y141.82 E0.02584
G1 X135.611 Y141.989 E0.05162
G1 X135.817 Y142.146 E0.04134
G1 X135.945 Y142.265 E0.02795
G1 X136.064 Y142.394 E0.02795
G1 X136.222 Y142.599 E0.04134
G1 X136.39 Y142.875 E0.05162
G1 X136.459 Y143.022 E0.02584
G1 X136.554 Y143.277 E0.0435
G1 X136.595 Y143.426 E0.02464
G1 X136.654 Y143.815 E0.06283
G1 X136.665 Y155.953 E1.93751
G1 X136.633 Y156.37 E0.06661
G1 X136.546 Y156.744 E0.06139
G1 X136.467 Y156.957 E0.03624
G1 X136.286 Y157.304 E0.0625
G1 X136.11 Y157.549 E0.0481
G1 X135.952 Y157.726 E0.03783
G1 X135.662 Y157.974 E0.06097
G1 X135.336 Y158.178 E0.06141
G1 X135.109 Y158.282 E0.03987
G1 X134.956 Y158.336 E0.02583
G1 X134.642 Y158.413 E0.05162
G1 X134.385 Y158.447 E0.04134
G1 X134.186 Y158.454 E0.03186
G1 X104.153 Y158.454 E4.79384
G1 X104.799 Y157.715 E0.15678
G1 X105.136 Y157.162 E0.10334
G1 X105.34 Y156.546 E0.10346
G1 X105.419 Y156.013 E0.08603
M204 S1500
G1 X104.927 Y155.542 F18000
M204 S1000
G1 X104.434 Y155.07
;TYPE:External perimeter
G1 F1800
G1 X104.574 Y155.07 E0.02221
G1 X105.062 Y155.136 E0.07872
G1 X106.082 Y155.17 E0.16281
G1 X115.02 Y155.17 E1.42678
G1 X115.333 Y155.158 E0.05002
G1 X115.839 Y155.086 E0.08152
G1 X116.257 Y154.98 E0.06882
G1 X116.565 Y154.87 E0.05217
G1 X117.026 Y154.65 E0.08161
G1 X117.4 Y154.418 E0.07017
G1 X117.885 Y154.021 E0.10003
G1 X118.239 Y153.64 E0.083
G1 X118.496 Y153.288 E0.06972
G1 X118.753 Y152.841 E0.08222
G1 X118.923 Y152.439 E0.06972
G1 X119.073 Y151.946 E0.08222
G1 X119.147 Y151.515 E0.06971
G1 X119.18 Y151.016 E0.07987
G1 X119.19 Y141.867 E1.46046
G1 X119.248 Y141.606 E0.04265
G1 X119.361 Y141.364 E0.04261
G1 X119.528 Y141.146 E0.04375
G1 X119.661 Y141.027 E0.02851
G1 X119.845 Y140.91 E0.03483
G1 X120.013 Y140.838 E0.02918
G1 X120.225 Y140.787 E0.03482
G1 X120.431 Y140.77 E0.03287
G1 X134.296 Y140.774 E2.21316
G1 X134.703 Y140.809 E0.06532
G1 X134.938 Y140.853 E0.03804
G1 X135.17 Y140.917 E0.03854
G1 X135.491 Y141.036 E0.05455
G1 X135.704 Y141.137 E0.03768
G1 X136.05 Y141.348 E0.06463
G1 X136.317 Y141.553 E0.05379
G1 X136.494 Y141.716 E0.03844
G1 X136.658 Y141.893 E0.03844
G1 X136.863 Y142.16 E0.05379
G1 X137.073 Y142.506 E0.06463
G1 X137.175 Y142.72 E0.03768
G1 X137.294 Y143.04 E0.05455
G1 X137.355 Y143.265 E0.03726
G1 X137.43 Y143.756 E0.07924
G1 X137.44 Y155.982 E1.95161
G1 X137.402 Y156.487 E0.08077
G1 X137.291 Y156.968 E0.07873
G1 X137.177 Y157.273 E0.052
G1 X136.948 Y157.712 E0.07912
G1 X136.716 Y158.035 E0.0634
G1 X136.497 Y158.28 E0.05258
G1 X136.123 Y158.601 E0.07861
G1 X135.704 Y158.862 E0.07874
G1 X135.401 Y159.002 E0.05328
G1 X135.179 Y159.081 E0.03768
G1 X134.785 Y159.176 E0.06463
G1 X134.451 Y159.221 E0.05379
G1 X134.201 Y159.23 E0.04
G1 X89.631 Y159.23 E7.11421
G1 X89.213 Y159.193 E0.06703
G1 X88.96 Y159.131 E0.04149
G1 X88.587 Y158.979 E0.0643
G1 X88.315 Y158.812 E0.05092
G1 X88.109 Y158.648 E0.0421
G1 X87.84 Y158.353 E0.06367
G1 X87.627 Y158.016 E0.06375
G1 X87.522 Y157.778 E0.0415
G1 X87.417 Y157.392 E0.06377
G1 X87.38 Y156.979 E0.06616
G1 X87.38 Y155.171 E0.28863
G1 X98.769 Y155.17 E1.81788
G1 X99.777 Y155.136 E0.16095
G1 X100.26 Y155.07 E0.07776
G1 X100.386 Y155.07 E0.02023
G1 X100.27 Y155.329 E0.04535
G1 X100.216 Y155.596 E0.04339
G1 X100.191 Y155.847 E0.0404
G1 X100.199 Y156.104 E0.04095
G1 X100.238 Y156.366 E0.04231
G1 X100.393 Y156.834 E0.07865
G1 X100.656 Y157.265 E0.08054
G1 X101 Y157.617 E0.07861
G1 X101.224 Y157.778 E0.04412
G1 X101.656 Y157.989 E0.07668
G1 X101.921 Y158.067 E0.04412
G1 X102.41 Y158.123 E0.0786
G1 X102.912 Y158.066 E0.08053
G1 X103.376 Y157.901 E0.0786
G1 X103.617 Y157.765 E0.04413
G1 X103.99 Y157.463 E0.07668
G1 X104.171 Y157.254 E0.04412
G1 X104.428 Y156.834 E0.07861
G1 X104.582 Y156.366 E0.07865
G1 X104.622 Y156.104 E0.04231
G1 X104.63 Y155.847 E0.04095
G1 X104.605 Y155.596 E0.0404
G1 X104.551 Y155.329 E0.04339
G1 X104.471 Y155.152 E0.03098
;WIPE_START
M204 S1500
G1 X104.563 Y155.122 F18000
;WIPE_END
G1 X104.237 Y156.605
M204 S1000
G1 X103.91 Y158.088
;TYPE:Gap fill
;WIDTH:0.22586
G1 F1800
G1 X103.847 Y158.139 E0.00268
G1 X103.719 Y158.243 E0.00548
;WIDTH:0.338513
G1 X103.572 Y158.361 E0.01067
G1 X103.478 Y158.425 E0.00639
;WIDTH:0.424586
G1 X103.384 Y158.489 E0.0084
;WIDTH:0.50105
G1 X103.291 Y158.552 E0.01018
;WIDTH:0.577515
G1 X103.197 Y158.616 E0.01196
G1 X103.019 Y158.644 E0.01903
;WIDTH:0.522233
G1 X102.726 Y158.66 E0.02766
;WIDTH:0.455485
G1 X102.433 Y158.677 E0.02363
G1 X102.388 Y158.677 E0.00357
G1 X102.106 Y158.661 E0.02273
;WIDTH:0.519691
G1 X101.824 Y158.645 E0.02646
G1 X101.744 Y158.635 E0.00756
G1 X101.613 Y158.556 E0.01436
;WIDTH:0.3832
G1 X101.459 Y158.462 E0.01185
G1 X101.284 Y158.336 E0.01416
;WIDTH:0.225859
G1 X101.109 Y158.21 E0.00717
G1 X101.043 Y158.162 E0.00268
M204 S1500
G1 X99.275 Y157.19 F18000
M204 S1000
G1 X97.508 Y156.217
;TYPE:Solid infill
;WIDTH:0.871516
G1 F1800
G1 X99.14 Y157.849 E0.38235
G1 X98.043 Y157.849 E0.18165
G1 X96.744 Y156.55 E0.30422
G1 X95.648 Y156.551 E0.18163
G1 X96.946 Y157.849 E0.30418
G1 X95.849 Y157.849 E0.18165
G1 X94.551 Y156.551 E0.30415
G1 X93.454 Y156.551 E0.18163
G1 X94.753 Y157.849 E0.30412
G1 X93.656 Y157.849 E0.18165
G1 X92.357 Y156.551 E0.30409
G1 X91.261 Y156.551 E0.18163
G1 X92.559 Y157.849 E0.30406
G1 X91.462 Y157.849 E0.18165
G1 X90.164 Y156.551 E0.30403
G1 X89.067 Y156.551 E0.18163
G1 X90.698 Y158.183 E0.38211
M204 S1500
G1 X89.621 Y157.409 F18000
M204 S1000
G1 X88.544 Y156.636
;TYPE:Gap fill
;WIDTH:0.332066
G1 F1800
G1 X88.678 Y156.922 E0.01741
G1 X88.704 Y156.978 E0.00343
;WIDTH:0.445368
G1 X88.783 Y157.147 E0.01463
;WIDTH:0.547266
G1 X88.871 Y157.3 E0.01752
;WIDTH:0.601273
G1 X88.898 Y157.339 E0.00525
;WIDTH:0.652153
G1 X89 Y157.467 E0.01981
G1 X89.092 Y157.563 E0.01602
G1 X89.174 Y157.631 E0.01284
