; generated by SuperSlicer 2.4 on 2022-06-17 at 01:07:56 UTC


;
;

;
;
; 

; external perimeters extrusion width = 0.41mm
; perimeters extrusion width = 0.41mm
; infill extrusion width = 0.41mm
; solid infill extrusion width = 0.41mm
; top infill extrusion width = 0.41mm
; first layer extrusion width = 0.41mm


;TYPE:Custom
print_start EXTRUDER=255 BED=110 CHAMBER=50
M107
G21 ; set units to millimeters
G90 ; use absolute coordinates
M83 ; use relative distances for extrusion
; Filament gcode
SET_PRESSURE_ADVANCE ADVANCE=0.045
SET_PRESSURE_ADVANCE EXTRUDER=extruder SMOOTH_TIME=0.04
M104 S255 ; set temperature
M109 S255 ; set temperature and wait for it to be reached
M190 S110 ; set bed temperature and wait for it to be reached
M107
;LAYER_CHANGE
;Z:0.2
;HEIGHT:0.2
;BEFORE_LAYER_CHANGE
;0.2
TIMELAPSE_TAKE_FRAME


G1 Z0.2 F15000
;AFTER_LAYER_CHANGE
;0.2
G92 E0
G1 E-0.75 F3000
M204 S1500
G1 Z0.6 F15000
G1 X133.669 Y136.334
G1 Z0.2
G1 E0.75 F1800
;TYPE:Skirt
;WIDTH:0.4129
G1 F3000
G1 X132.526 Y138.308 E0.06421
G1 X132.129 Y140.555 E0.06421
G1 X132.129 Y159.445 E0.53175
G1 X132.811 Y162.357 E0.08417
G1 X134.164 Y164.193 E0.06421
G1 X136.065 Y165.454 E0.06421
G1 X138.283 Y165.988 E0.06421
G1 X154.19 Y166.95 E0.44858
G1 X164.73 Y166.95 E0.29668
G1 X167.995 Y166.079 E0.09512
G1 X169.745 Y164.616 E0.06421
G1 X170.888 Y162.642 E0.06421
G1 X171.284 Y160.395 E0.06421
G1 X171.284 Y139.605 E0.58524
G1 X170.413 Y136.34 E0.09512
G1 X168.95 Y134.589 E0.06421
G1 X166.976 Y133.447 E0.06421
G1 X164.73 Y133.05 E0.06421
G1 X154.19 Y133.05 E0.29668
G1 X138.283 Y134.012 E0.44858
G1 X135.419 Y134.871 E0.08417
G1 X133.715 Y136.295 E0.06253
G1 X134.03 Y136.484 F15000
G1 F3000
G1 X132.896 Y138.375 E0.06206
G1 X132.499 Y140.555 E0.06236
G1 X132.499 Y159.445 E0.53175
G1 X133.06 Y162.019 E0.07415
G1 X134.328 Y163.836 E0.06236
G1 X136.154 Y165.089 E0.06236
G1 X138.306 Y165.619 E0.06236
G1 X154.19 Y166.58 E0.44794
G1 X164.73 Y166.58 E0.29668
G1 X167.643 Y165.851 E0.08453
G1 X169.378 Y164.475 E0.06236
G1 X170.518 Y162.575 E0.06236
G1 X170.915 Y160.395 E0.06236
G1 X170.915 Y139.605 E0.58524
G1 X170.186 Y136.692 E0.08453
G1 X168.809 Y134.956 E0.06236
G1 X166.909 Y133.816 E0.06236
G1 X164.73 Y133.42 E0.06236
G1 X154.19 Y133.42 E0.29668
G1 X138.306 Y134.381 E0.44794
G1 X135.771 Y135.099 E0.07415
G1 X134.074 Y136.444 E0.06097
G1 E-0.75
G1 Z0.6 F15000
G1 X163.278 Y141.609
G1 Z0.2
G1 E0.75 F1800
;TYPE:Internal perimeter
G1 F6000
G1 X163.278 Y141.239 E0.01041
G1 X154.766 Y141.239 E0.2396
G1 X154.766 Y140.181 E0.02979
G1 X164.153 Y140.181 E0.26423
G1 X164.153 Y159.819 E0.55279
G1 X154.766 Y159.819 E0.26423
G1 X154.766 Y158.761 E0.02979
G1 X163.278 Y158.761 E0.2396
G1 X163.278 Y141.669 E0.4811
G1 X162.908 Y141.609 F15000
;TYPE:External perimeter
G1 F3600
G1 X154.396 Y141.609 E0.2396
G1 X154.396 Y139.811 E0.05062
G1 X164.523 Y139.811 E0.28506
G1 X164.523 Y160.189 E0.57362
G1 X154.396 Y160.189 E0.28506
G1 X154.396 Y158.391 E0.05062
G1 X162.908 Y158.391 E0.2396
G1 X162.908 Y141.669 E0.47069
;WIPE_START
G1 X162.908 Y141.209 F15000
;WIPE_END
G1 X154.936 Y140.71
;TYPE:Gap fill
;WIDTH:0.760946
G1 F4800
G1 X163.448 Y140.71 E0.465
;WIDTH:0.795817
G1 X163.607 Y140.728 E0.00912
G1 X163.622 Y140.776 E0.00293
;WIDTH:0.723081
G1 X163.669 Y140.923 E0.00795
;WIDTH:0.613975
G1 X163.716 Y141.069 E0.00668
;WIDTH:0.577606
G1 X163.716 Y158.931 E0.72661
G1 X163.7 Y158.98 E0.00208
;WIDTH:0.650348
G1 X163.653 Y159.126 E0.0071
;WIDTH:0.760961
G1 X163.607 Y159.272 E0.0084
G1 X163.448 Y159.29 E0.0087
G1 X154.936 Y159.29 E0.46501
G1 E-0.75 F3000
G1 Z0.6 F15000
G1 X144.71 Y155.105
G1 Z0.2
G1 E0.75 F1800
;TYPE:Internal perimeter
;WIDTH:0.4129
G1 F6000
G1 X141.245 Y155.105 E0.09752
G1 X141.245 Y144.895 E0.28742
G1 X144.71 Y144.895 E0.09752
G1 X144.71 Y155.045 E0.28573
G1 X145.08 Y155.475 F15000
G1 F6000
G1 X140.875 Y155.475 E0.11835
G1 X140.875 Y144.525 E0.30825
G1 X145.08 Y144.525 E0.11835
G1 X145.08 Y155.415 E0.30656
G1 X145.45 Y155.845 F15000
;TYPE:External perimeter
G1 F3600
G1 X140.505 Y155.845 E0.13918
G1 X140.505 Y144.155 E0.32908
G1 X145.45 Y144.155 E0.13918
G1 X145.45 Y155.785 E0.32739
;WIPE_START
G1 X145.104 Y155.645 F15000
;WIPE_END
G1 X143.851 Y145.006
;TYPE:Solid infill
;WIDTH:0.417143
G1 F4800
G1 X144.44 Y145.594 E0.02368
G1 X144.44 Y146.118 E0.01488
G1 X143.487 Y145.165 E0.03833
G1 X142.964 Y145.165 E0.01488
G1 X144.44 Y146.641 E0.05937
G1 X144.44 Y147.164 E0.01488
G1 X142.44 Y145.165 E0.08041
G1 X141.917 Y145.165 E0.01488
G1 X144.44 Y147.687 E0.10146
G1 X144.44 Y148.211 E0.01488
G1 X141.515 Y145.286 E0.11761
G1 X141.515 Y145.809 E0.01488
G1 X144.44 Y148.734 E0.11761
G1 X144.44 Y149.257 E0.01488
G1 X141.515 Y146.333 E0.11761
G1 X141.515 Y146.856 E0.01488
G1 X144.44 Y149.78 E0.11761
G1 X144.44 Y150.304 E0.01488
G1 X141.515 Y147.379 E0.11761
G1 X141.515 Y147.902 E0.01488
G1 X144.44 Y150.827 E0.11761
G1 X144.44 Y151.35 E0.01488
G1 X141.515 Y148.426 E0.11761
G1 X141.515 Y148.949 E0.01488
G1 X144.44 Y151.873 E0.11761
G1 X144.44 Y152.396 E0.01488
G1 X141.515 Y149.472 E0.11761
G1 X141.515 Y149.995 E0.01488
G1 X144.44 Y152.92 E0.11761
G1 X144.44 Y153.443 E0.01488
G1 X141.515 Y150.518 E0.11761
G1 X141.515 Y151.042 E0.01488
G1 X144.44 Y153.966 E0.11761
G1 X144.44 Y154.489 E0.01488
G1 X141.515 Y151.565 E0.11761
G1 X141.515 Y152.088 E0.01488
G1 X144.263 Y154.835 E0.11048
G1 X143.739 Y154.835 E0.01488
G1 X141.515 Y152.611 E0.08944
G1 X141.515 Y153.135 E0.01488
G1 X143.216 Y154.835 E0.0684
G1 X142.693 Y154.835 E0.01488
G1 X141.515 Y153.658 E0.04735
G1 X141.515 Y154.181 E0.01488
G1 X142.17 Y154.835 E0.02631
G1 X141.646 Y154.835 E0.01488
G1 X141.356 Y154.545 E0.01167
G1 E-0.75 F3000
G1 Z0.6 F15000
G1 X149.26 Y158.362
G1 Z0.2
G1 E0.75 F1800
;TYPE:Internal perimeter
;WIDTH:0.4129
G1 F6000
G1 X149.26 Y141.501 E0.47461
G1 X151.012 Y141.501 E0.04931
G1 X151.012 Y143.344 E0.05186
G1 X152.675 Y143.344 E0.0468
G1 X152.675 Y156.657 E0.37475
G1 X151.012 Y156.657 E0.0468
G1 X151.012 Y158.499 E0.05186
G1 X149.26 Y158.499 E0.04931
G1 X149.26 Y158.422 E0.00218
G1 X148.89 Y158.362 F15000
G1 F6000
G1 X148.89 Y141.131 E0.48502
G1 X151.382 Y141.131 E0.07014
G1 X151.382 Y142.974 E0.05186
G1 X153.045 Y142.974 E0.0468
G1 X153.045 Y157.026 E0.39558
G1 X151.382 Y157.026 E0.0468
G1 X151.382 Y158.869 E0.05186
G1 X148.89 Y158.869 E0.07014
G1 X148.89 Y158.422 E0.01259
G1 X148.521 Y158.362 F15000
;TYPE:External perimeter
G1 F3600
G1 X148.521 Y141.638 E0.47074
G1 X138.89 Y141.638 E0.27108
G1 X138.89 Y140.761 E0.02469
G1 X151.752 Y140.761 E0.36205
G1 X151.752 Y142.604 E0.05186
G1 X161.026 Y142.604 E0.26103
G1 X161.026 Y143.368 E0.02151
G1 X153.415 Y143.368 E0.21424
G1 X153.415 Y156.632 E0.37338
G1 X161.026 Y156.632 E0.21424
G1 X161.026 Y157.396 E0.02151
G1 X151.752 Y157.396 E0.26103
G1 X151.752 Y159.239 E0.05186
G1 X138.89 Y159.239 E0.36205
G1 X138.89 Y158.362 E0.02469
G1 X148.461 Y158.362 E0.26939
;WIPE_START
G1 X148.921 Y158.362 F15000
;WIPE_END
G1 X148.72 Y158.8
;TYPE:Gap fill
;WIDTH:0.579945
G1 F4800
G1 X148.586 Y158.8 E0.00549
G1 X148.452 Y158.8 E0.00549
G1 X143.89 Y158.8 E0.18637
G1 X139.329 Y158.8 E0.18637
G1 X139.06 Y158.8 E0.01097
G1 E-0.75 F3000
G1 Z0.6 F15000
G1 X153.215 Y157.014
G1 Z0.2
G1 E0.75 F1800
;WIDTH:0.466982
G1 F4800
G1 X160.643 Y157.014 E0.23967
G1 X160.749 Y157.014 E0.00342
G1 X160.855 Y157.014 E0.00342
G1 E-0.75 F3000
G1 Z0.6 F15000
G1 X160.855 Y142.986
G1 Z0.2
G1 E0.75 F1800
;WIDTH:0.466972
G1 F4800
G1 X160.749 Y142.986 E0.00342
G1 X160.643 Y142.986 E0.00342
G1 X153.215 Y142.986 E0.23967
G1 X151.996 Y143.454 F15000
;TYPE:Solid infill
;WIDTH:0.418076
G1 F4800
G1 X152.405 Y143.863 E0.01648
G1 X152.405 Y144.387 E0.01491
G1 X151.473 Y143.454 E0.03757
G1 X150.901 Y142.36 F15000
G1 F4800
G1 X150.313 Y141.771 E0.02373
G1 X149.789 Y141.771 E0.01491
G1 X150.901 Y142.883 E0.04482
G1 X149.371 Y141.876 F15000
G1 F4800
G1 X150.742 Y143.247 E0.05526
G1 X150.742 Y143.614 E0.01044
G1 X151.109 Y143.614 E0.01044
G1 X152.405 Y144.91 E0.05225
G1 X152.405 Y145.433 E0.01491
G1 X149.531 Y142.559 E0.11585
G1 X149.531 Y143.082 E0.01491
G1 X152.405 Y145.956 E0.11585
G1 X152.405 Y146.479 E0.01491
G1 X149.531 Y143.605 E0.11585
G1 X149.531 Y144.128 E0.01491
G1 X152.405 Y147.003 E0.11585
G1 X152.405 Y147.526 E0.01491
G1 X149.531 Y144.652 E0.11585
G1 X149.531 Y145.175 E0.01491
G1 X152.405 Y148.049 E0.11585
G1 X152.405 Y148.572 E0.01491
G1 X149.531 Y145.698 E0.11585
G1 X149.531 Y146.221 E0.01491
G1 X152.405 Y149.096 E0.11585
G1 X152.405 Y149.619 E0.01491
G1 X149.531 Y146.745 E0.11585
G1 X149.531 Y147.268 E0.01491
G1 X152.405 Y150.142 E0.11585
G1 X152.405 Y150.665 E0.01491
G1 X149.531 Y147.791 E0.11585
G1 X149.531 Y148.314 E0.01491
G1 X152.405 Y151.189 E0.11585
G1 X152.405 Y151.712 E0.01491
G1 X149.531 Y148.838 E0.11585
G1 X149.531 Y149.361 E0.01491
G1 X152.405 Y152.235 E0.11585
G1 X152.405 Y152.758 E0.01491
G1 X149.531 Y149.884 E0.11585
G1 X149.531 Y150.407 E0.01491
G1 X152.405 Y153.281 E0.11585
G1 X152.405 Y153.805 E0.01491
G1 X149.531 Y150.93 E0.11585
G1 X149.531 Y151.454 E0.01491
G1 X152.405 Y154.328 E0.11585
G1 X152.405 Y154.851 E0.01491
G1 X149.531 Y151.977 E0.11585
G1 X149.531 Y152.5 E0.01491
G1 X152.405 Y155.374 E0.11585
G1 X152.405 Y155.898 E0.01491
G1 X149.531 Y153.023 E0.11585
G1 X149.531 Y153.547 E0.01491
G1 X152.37 Y156.386 E0.11447
G1 X151.847 Y156.386 E0.01491
G1 X149.531 Y154.07 E0.09338
G1 X149.531 Y154.593 E0.01491
G1 X151.324 Y156.386 E0.07229
G1 X150.801 Y156.386 E0.01491
G1 X149.531 Y155.116 E0.0512
G1 X149.531 Y155.64 E0.01491
G1 X150.742 Y156.851 E0.04884
G1 X150.742 Y157.375 E0.01491
G1 X149.531 Y156.163 E0.04884
G1 X149.531 Y156.686 E0.01491
G1 X150.742 Y157.898 E0.04884
G1 X150.742 Y158.229 E0.00944
G1 X150.55 Y158.229 E0.00548
G1 X149.531 Y157.209 E0.0411
G1 X149.531 Y157.732 E0.01491
G1 X150.186 Y158.388 E0.02642
G1 X148.72 Y141.2 F15000
;TYPE:Gap fill
;WIDTH:0.579949
G1 F4800
G1 X139.329 Y141.2 E0.38372
G1 X139.195 Y141.2 E0.00549
G1 X139.06 Y141.2 E0.00549
;LAYER_CHANGE
;Z:0.2625
;HEIGHT:0.0625
;BEFORE_LAYER_CHANGE
;0.2625
TIMELAPSE_TAKE_FRAME


G1 Z0.2625 F15000
;AFTER_LAYER_CHANGE
;0.2625
G92 E0
M104 S250 ; set temperature
G1 E-0.75 F3000
G1 Z0.6625 F15000
G1 X163.301 Y141.613
G1 Z0.2625
G1 E0.75 F1800
;TYPE:Internal perimeter
;WIDTH:0.4129
G1 F4031
G1 X163.301 Y141.216 E0.00376
G1 X154.803 Y141.216 E0.08071
G1 X154.803 Y140.223 E0.00943
G1 X164.13 Y140.223 E0.08859
G1 X164.13 Y159.777 E0.18573
G1 X154.803 Y159.777 E0.08859
G1 X154.803 Y158.784 E0.00943
G1 X163.301 Y158.784 E0.08071
G1 X163.301 Y141.673 E0.16252
M107
G1 X162.905 Y141.613 F15000
;TYPE:External perimeter
;WIDTH:0.4064
G1 F3600
M106 S191.25
G1 X154.407 Y141.613 E0.0794
G1 X154.407 Y139.827 E0.01669
G1 X164.526 Y139.827 E0.09455
G1 X164.526 Y160.173 E0.19011
G1 X154.407 Y160.173 E0.09455
G1 X154.407 Y158.387 E0.01669
G1 X162.905 Y158.387 E0.0794
G1 X162.905 Y141.673 E0.15618
M107
;WIPE_START
G1 X162.905 Y141.213 F15000
;WIPE_END
G1 X154.988 Y140.72
;TYPE:Gap fill
;WIDTH:0.651199
G1 F4031
G1 X155.3 Y140.72 E0.00473
G1 X159.393 Y140.72 E0.06207
G1 X163.486 Y140.72 E0.06207
G1 X163.619 Y140.734 E0.00203
M107
;WIDTH:0.626849
G1 X163.667 Y140.883 E0.00228
M107
;WIDTH:0.511145
G1 X163.716 Y141.031 E0.00185
M107
;WIDTH:0.472577
G1 X163.716 Y158.969 E0.19582
M107
;WIDTH:0.511147
G1 X163.667 Y159.117 E0.00185
M107
;WIDTH:0.636993
G1 X163.619 Y159.266 E0.00232
G1 X163.486 Y159.28 E0.00199
G1 X154.988 Y159.28 E0.12599
M107
G1 E-0.75 F3000
G1 Z0.6625 F15000
G1 X144.738 Y155.053
G1 Z0.2625
G1 E0.75 F1800
;TYPE:Internal perimeter
;WIDTH:0.4129
G1 F4031
G1 X141.298 Y155.053 E0.03267
G1 X141.298 Y144.947 E0.09598
G1 X144.738 Y144.947 E0.03267
G1 X144.738 Y154.993 E0.09541
M107
G1 X145.137 Y155.452 F15000
G1 F4031
G1 X140.898 Y155.452 E0.04026
G1 X140.898 Y144.548 E0.10357
G1 X145.137 Y144.548 E0.04026
G1 X145.137 Y155.392 E0.103
M107
G1 X145.533 Y155.849 F15000
;TYPE:External perimeter
;WIDTH:0.4064
G1 F3600
M106 S191.25
G1 X140.502 Y155.849 E0.04701
G1 X140.502 Y144.151 E0.10929
G1 X145.533 Y144.151 E0.04701
G1 X145.533 Y155.789 E0.10873
M107
;WIPE_START
G1 X145.187 Y155.649 F15000
;WIPE_END
G1 X143.81 Y154.933
;TYPE:Solid infill
;WIDTH:0.414274
G1 F4031
G1 X144.446 Y154.297 E0.00857
G1 X144.446 Y153.732 E0.00538
G1 X143.417 Y154.761 E0.01387
G1 X142.852 Y154.761 E0.00538
G1 X144.446 Y153.167 E0.02148
G1 X144.446 Y152.602 E0.00538
G1 X142.287 Y154.761 E0.0291
G1 X141.722 Y154.761 E0.00538
G1 X144.446 Y152.037 E0.03671
G1 X144.446 Y151.472 E0.00538
G1 X141.59 Y154.329 E0.0385
G1 X141.59 Y153.764 E0.00538
G1 X144.446 Y150.907 E0.0385
G1 X144.446 Y150.343 E0.00538
G1 X141.59 Y153.199 E0.0385
G1 X141.59 Y152.634 E0.00538
G1 X144.446 Y149.778 E0.0385
G1 X144.446 Y149.213 E0.00538
G1 X141.59 Y152.069 E0.0385
G1 X141.59 Y151.504 E0.00538
G1 X144.446 Y148.648 E0.0385
G1 X144.446 Y148.083 E0.00538
G1 X141.59 Y150.939 E0.0385
G1 X141.59 Y150.374 E0.00538
G1 X144.446 Y147.518 E0.0385
G1 X144.446 Y146.953 E0.00538
G1 X141.59 Y149.809 E0.0385
G1 X141.59 Y149.244 E0.00538
G1 X144.446 Y146.388 E0.0385
G1 X144.446 Y145.823 E0.00538
G1 X141.59 Y148.679 E0.0385
G1 X141.59 Y148.114 E0.00538
G1 X144.446 Y145.258 E0.0385
G1 X144.446 Y145.239 E0.00018
G1 X143.9 Y145.239 E0.0052
G1 X141.59 Y147.549 E0.03114
G1 X141.59 Y146.984 E0.00538
G1 X143.335 Y145.239 E0.02353
G1 X142.77 Y145.239 E0.00538
G1 X141.59 Y146.419 E0.01591
G1 X141.59 Y145.855 E0.00538
G1 X142.205 Y145.239 E0.0083
G1 X141.64 Y145.239 E0.00538
G1 X141.418 Y145.461 E0.003
M107
G1 E-0.75 F3000
G1 Z0.6625 F15000
G1 X149.169 Y141.773
G1 Z0.2625
G1 E0.75 F1800
;TYPE:Internal perimeter
;WIDTH:0.4129
G1 F4031
G1 X149.169 Y141.554 E0.00209
G1 X150.928 Y141.554 E0.0167
G1 X150.928 Y143.195 E0.01559
G1 X151.005 Y143.195 E0.00073
G1 X151.005 Y143.264 E0.00066
G1 X152.751 Y143.264 E0.01659
G1 X152.751 Y156.736 E0.12795
G1 X151.005 Y156.736 E0.01659
G1 X151.005 Y156.805 E0.00066
G1 X150.928 Y156.805 E0.00073
G1 X150.928 Y158.446 E0.01559
G1 X149.169 Y158.446 E0.0167
G1 X149.169 Y141.833 E0.15779
M107
G1 X148.77 Y141.773 F15000
G1 F4031
G1 X148.77 Y141.154 E0.00588
G1 X151.327 Y141.154 E0.02429
G1 X151.327 Y142.796 E0.01559
G1 X151.404 Y142.796 E0.00073
G1 X151.404 Y142.865 E0.00066
G1 X153.15 Y142.865 E0.01659
G1 X153.15 Y157.135 E0.13554
G1 X151.404 Y157.135 E0.01659
G1 X151.404 Y157.204 E0.00066
G1 X151.327 Y157.204 E0.00073
G1 X151.327 Y158.846 E0.01559
G1 X148.77 Y158.846 E0.02429
G1 X148.77 Y141.833 E0.16159
M107
G1 X148.374 Y141.773 F15000
;TYPE:External perimeter
;WIDTH:0.4064
G1 F3600
M106 S191.25
G1 X138.795 Y141.773 E0.0895
G1 X138.795 Y140.758 E0.00949
G1 X151.724 Y140.758 E0.1208
G1 X151.724 Y142.399 E0.01534
G1 X151.8 Y142.399 E0.00072
G1 X151.8 Y142.469 E0.00064
G1 X161.121 Y142.469 E0.08709
G1 X161.121 Y143.371 E0.00843
G1 X153.547 Y143.371 E0.07077
G1 X153.547 Y156.629 E0.12388
G1 X161.121 Y156.629 E0.07077
G1 X161.121 Y157.531 E0.00843
G1 X151.8 Y157.531 E0.08709
G1 X151.8 Y157.601 E0.00064
G1 X151.724 Y157.601 E0.00072
G1 X151.724 Y159.242 E0.01534
G1 X138.795 Y159.242 E0.1208
G1 X138.795 Y158.227 E0.00949
G1 X148.374 Y158.227 E0.0895
G1 X148.374 Y141.833 E0.15317
M107
;WIPE_START
G1 X148.374 Y141.373 F15000
;WIPE_END
G1 X148.587 Y141.266
;TYPE:Gap fill
;WIDTH:0.665702
G1 F4031
G1 X148.424 Y141.266 E0.00253
G1 X148.26 Y141.266 E0.00253
G1 X143.781 Y141.266 E0.06946
G1 X139.303 Y141.266 E0.06946
G1 X138.976 Y141.266 E0.00506
M107
G1 E-0.75 F3000
G1 Z0.6625 F15000
G1 X153.334 Y142.92
G1 Z0.2625
G1 E0.75 F1800
;WIDTH:0.552733
G1 F4031
G1 X160.67 Y142.92 E0.09407
G1 X160.805 Y142.92 E0.00173
G1 X160.939 Y142.92 E0.00173
M107
G1 E-0.75 F3000
G1 Z0.6625 F15000
G1 X160.939 Y157.08
G1 Z0.2625
G1 E0.75 F1800
;WIDTH:0.552736
G1 F4031
G1 X160.805 Y157.08 E0.00173
G1 X160.67 Y157.08 E0.00173
G1 X153.334 Y157.08 E0.09407
M107
G1 X151.791 Y156.652 F15000
;TYPE:Solid infill
;WIDTH:0.415223
G1 F4031
G1 X152.459 Y155.984 E0.00903
G1 X152.459 Y155.419 E0.0054
G1 X151.204 Y156.674 E0.01696
M107
G1 X150.117 Y158.327 F15000
G1 F4031
G1 X150.636 Y157.807 E0.00702
G1 X150.636 Y157.242 E0.0054
G1 X149.723 Y158.155 E0.01233
G1 X149.461 Y158.155 E0.00251
G1 X149.461 Y157.852 E0.00289
