; generated by SuperSlicer 2.4 on 2022-06-14 at 23:09:46 UTC


;
;

;
;
; 

; external perimeters extrusion width = 0.40mm
; perimeters extrusion width = 0.48mm
; infill extrusion width = 0.60mm
; solid infill extrusion width = 0.56mm
; top infill extrusion width = 0.40mm
; first layer extrusion width = 0.48mm

; external perimeters extrusion width = 0.40mm
; perimeters extrusion width = 0.48mm
; infill extrusion width = 0.60mm
; solid infill extrusion width = 0.56mm
; top infill extrusion width = 0.40mm
; first layer extrusion width = 0.48mm

; external perimeters extrusion width = 0.40mm
; perimeters extrusion width = 0.48mm
; infill extrusion width = 0.60mm
; solid infill extrusion width = 0.56mm
; top infill extrusion width = 0.40mm
; first layer extrusion width = 0.48mm

; external perimeters extrusion width = 0.40mm
; perimeters extrusion width = 0.48mm
; infill extrusion width = 0.60mm
; solid infill extrusion width = 0.56mm
; top infill extrusion width = 0.40mm
; first layer extrusion width = 0.48mm

; object:{"name":"[a]_z_anchor_gantry_x1","id":"[a]_z_anchor_gantry_x1.stl id:0 copy 0","object_center":[166.784175,160.500000,0.000000],"boundingbox_center":[166.784175,160.500000,11.237503],"boundingbox_size":[36.038803,19.568207,22.475006]}
; object:{"name":"[a]_z_anchor_frame_x1","id":"[a]_z_anchor_frame_x1.stl id:1 copy 0","object_center":[130.980783,160.499999,0.000000],"boundingbox_center":[130.980783,160.499999,7.237500],"boundingbox_size":[31.567810,20.736328,14.475000]}
; object:{"name":"[a]_z_anchor_frame_3hole_x1","id":"[a]_z_anchor_frame_3hole_x1.stl id:2 copy 0","object_center":[133.989858,138.631834,0.000000],"boundingbox_center":[133.989858,138.631834,7.500000],"boundingbox_size":[29.999996,18.999996,15.000000]}
; object:{"name":"[a]_z_anchor_frame_2hole_x1","id":"[a]_z_anchor_frame_2hole_x1.stl id:3 copy 0","object_center":[165.989862,139.264919,0.000000],"boundingbox_center":[165.989862,139.264919,7.500000],"boundingbox_size":[30.000004,19.000000,15.000000]}
; plater:{"center":[150.000227,149.999999,0.000000],"boundingbox_center":[150.000227,149.999999,11.237503],"boundingbox_size":[69.606699,41.736327,22.475006]}

;TYPE:Custom
print_start EXTRUDER=255 BED=110 CHAMBER=50
M107
G21 ; set units to millimeters
G90 ; use absolute coordinates
M83 ; use relative distances for extrusion
; Filament gcode
SET_PRESSURE_ADVANCE ADVANCE=0.045
SET_PRESSURE_ADVANCE EXTRUDER=extruder SMOOTH_TIME=0.04
M104 S255 ; set temperature
M109 S255 ; set temperature and wait for it to be reached
M190 S110 ; set bed temperature and wait for it to be reached
M107
;LAYER_CHANGE
;Z:0.25
;HEIGHT:0.25
;BEFORE_LAYER_CHANGE
;0.25
TIMELAPSE_TAKE_FRAME


G1 Z0.25 F36000
;AFTER_LAYER_CHANGE
;0.25
G92 E0
; INIT printing object [a]_z_anchor_gantry_x1.stl id:0 copy 0
G1 E-0.75 F3000
M204 S1500
G1 Z0.65 F36000
; printing object [a]_z_anchor_gantry_x1.stl id:0 copy 0
G1 X178.336 Y165.448
G1 Z0.25
G1 E0.75 F1800
;TYPE:Internal perimeter
;WIDTH:0.48
G1 F900
G1 X178.336 Y168.067 E0.1062
G1 X182.881 Y168.066 E0.18428
G1 X182.881 Y165.021 E0.12348
G1 X181.684 Y165.021 E0.04852
G1 X178.336 Y165.021 E0.13576
G1 X178.336 Y165.388 E0.01485
M204 S1000
G1 X178.762 Y165.448 F36000
;TYPE:External perimeter
G1 F900
G1 X178.763 Y167.641 E0.08891
G1 X182.455 Y167.64 E0.1497
G1 X182.454 Y165.447 E0.08891
G1 X181.684 Y165.447 E0.03125
G1 X178.822 Y165.448 E0.11602
;WIPE_START
M204 S1500
G1 X178.362 Y165.448 F36000
;WIPE_END
G1 X178.335 Y156.302
;TYPE:Internal perimeter
G1 F900
G1 X178.335 Y156.728 E0.01729
G1 X182.88 Y156.728 E0.18428
G1 X182.88 Y153.682 E0.12349
G1 X181.683 Y153.683 E0.04852
G1 X178.335 Y153.683 E0.13576
G1 X178.335 Y156.242 E0.10377
M204 S1000
G1 X178.761 Y156.302 F36000
;TYPE:External perimeter
G1 F900
G1 X182.453 Y156.302 E0.1497
G1 X182.453 Y154.109 E0.08891
G1 X181.683 Y154.109 E0.03123
G1 X178.761 Y154.109 E0.11847
G1 X178.761 Y156.242 E0.08648
;WIPE_START
M204 S1500
G1 X178.761 Y156.702 F36000
;WIPE_END
G1 X175.426 Y164.595
;TYPE:Internal perimeter
G1 F900
G1 X174.656 Y164.596 E0.03123
G1 X170.881 Y164.596 E0.15304
G1 X170.882 Y168.494 E0.15806
G1 X176.279 Y168.493 E0.21885
G1 X176.279 Y164.595 E0.15806
G1 X175.486 Y164.595 E0.03214
G1 X175.853 Y165.448 F36000
G1 F900
G1 X175.853 Y165.022 E0.01729
G1 X174.656 Y165.022 E0.04852
G1 X171.308 Y165.022 E0.13576
G1 X171.308 Y168.068 E0.12348
G1 X175.853 Y168.067 E0.18428
G1 X175.853 Y165.508 E0.10376
M204 S1000
G1 X175.426 Y165.448 F36000
;TYPE:External perimeter
G1 F900
G1 X174.656 Y165.448 E0.03125
G1 X171.734 Y165.449 E0.11846
G1 X171.734 Y167.641 E0.08891
G1 X175.427 Y167.641 E0.1497
G1 X175.426 Y165.508 E0.08647
;WIPE_START
M204 S1500
G1 X175.426 Y165.048 F36000
;WIPE_END
G1 X177.483 Y165.448
;TYPE:Internal perimeter
G1 F900
G1 X177.484 Y168.591 E0.12743
G1 X176.706 Y168.591 E0.03154
G1 X176.705 Y164.169 E0.17929
G1 X174.656 Y164.169 E0.08309
G1 X170.455 Y164.17 E0.17033
G1 X170.456 Y168.591 E0.17929
G1 X163.659 Y168.592 E0.27558
G1 X163.658 Y153.161 E0.6257
G1 X170.454 Y153.16 E0.27557
G1 X170.454 Y157.582 E0.17929
G1 X176.705 Y157.581 E0.25343
G1 X176.704 Y153.159 E0.17929
G1 X177.482 Y153.159 E0.03154
G1 X177.483 Y157.581 E0.17929
G1 X183.145 Y157.581 E0.2296
G1 X183.146 Y164.168 E0.26711
G1 X177.483 Y164.169 E0.22961
G1 X177.483 Y165.388 E0.04943
G1 X176.278 Y156.302 F36000
G1 F900
G1 X176.278 Y153.257 E0.12349
G1 X174.655 Y153.257 E0.06581
G1 X170.88 Y153.257 E0.15304
G1 X170.881 Y157.155 E0.15805
G1 X176.278 Y157.155 E0.21885
G1 X176.278 Y156.362 E0.03214
G1 X175.852 Y156.302 F36000
G1 F900
G1 X175.851 Y153.683 E0.1062
G1 X174.655 Y153.683 E0.04852
G1 X171.307 Y153.684 E0.13576
G1 X171.307 Y156.729 E0.12348
G1 X175.852 Y156.729 E0.18428
G1 X175.852 Y156.362 E0.01485
M204 S1000
G1 X175.425 Y156.302 F36000
;TYPE:External perimeter
G1 F900
G1 X175.425 Y154.11 E0.08891
G1 X174.655 Y154.11 E0.03123
G1 X171.733 Y154.11 E0.11847
G1 X171.733 Y156.303 E0.08891
G1 X175.365 Y156.302 E0.14727
;WIPE_START
M204 S1500
G1 X175.825 Y156.302 F36000
;WIPE_END
G1 X177.91 Y165.448
;TYPE:Internal perimeter
G1 F900
G1 X177.91 Y168.493 E0.12349
G1 X183.573 Y168.493 E0.22961
G1 X183.573 Y169.016 E0.02123
G1 X163.233 Y169.019 E0.82474
G1 X163.231 Y152.734 E0.66028
G1 X177.477 Y152.733 E0.57764
G1 X183.571 Y152.732 E0.24707
G1 X183.571 Y153.256 E0.02123
G1 X181.683 Y153.256 E0.07655
G1 X177.908 Y153.257 E0.15304
G1 X177.909 Y157.155 E0.15806
G1 X183.571 Y157.154 E0.2296
G1 X183.572 Y164.595 E0.30169
G1 X181.684 Y164.595 E0.07657
G1 X177.91 Y164.595 E0.15304
G1 X177.91 Y165.388 E0.03214
G1 X178.234 Y152.306 F36000
G1 F900
G1 X183.997 Y152.306 E0.23368
G1 X183.999 Y169.443 E0.69484
G1 X162.807 Y169.445 E0.85931
G1 X162.805 Y153.419 E0.64979
G1 X162.805 Y152.308 E0.04506
G1 X176.88 Y152.307 E0.57073
G1 X176.88 Y151.719 E0.02382
G1 X177.807 Y151.719 E0.03759
G1 X177.807 Y152.306 E0.02381
G1 X178.174 Y152.306 E0.01485
M204 S1000
G1 X178.234 Y151.88 F36000
;TYPE:External perimeter
G1 F900
G1 X181.328 Y151.88 E0.12548
G1 X184.423 Y151.88 E0.12549
G1 X184.426 Y169.529 E0.71561
G1 X184.085 Y169.869 E0.01954
G1 X152.43 Y169.872 E1.28352
G1 X152.43 Y169.172 E0.0284
G1 X162.38 Y169.171 E0.40346
G1 X162.379 Y153.419 E0.63868
G1 X162.378 Y152.582 E0.03394
G1 X157.403 Y152.583 E0.20173
G1 X152.428 Y152.583 E0.20173
G1 X152.428 Y151.883 E0.0284
G1 X176.454 Y151.88 E0.97419
G1 X176.454 Y151.293 E0.02382
G1 X178.234 Y151.293 E0.07217
G1 X178.234 Y151.586 E0.01191
G1 X178.234 Y151.82 E0.00947
;WIPE_START
M204 S1500
G1 X178.234 Y152.28 F36000
;WIPE_END
G1 X177.678 Y152.995
;TYPE:Gap fill
;WIDTH:0.185441
G1 F900
G1 X177.744 Y152.995 E0.00083
G1 X180.526 Y152.995 E0.03488
G1 X183.309 Y152.994 E0.03488
G1 X183.375 Y152.994 E0.00083
G1 X183.438 Y153.452 F36000
;WIDTH:0.779641
G1 F900
G1 X183.438 Y153.633 E0.01253
G1 X183.438 Y153.815 E0.01253
G1 X183.439 Y155.205 E0.09599
G1 X183.439 Y156.595 E0.09599
G1 X183.439 Y156.777 E0.01253
G1 X183.439 Y156.958 E0.01253
G1 X182.219 Y157.645 F36000
;TYPE:Solid infill
;WIDTH:0.46802
G1 F1200
G1 X182.898 Y158.323 E0.03794
G1 X182.898 Y158.926 E0.02384
G1 X181.8 Y157.828 E0.0614
G1 X181.197 Y157.828 E0.02384
G1 X182.898 Y159.529 E0.09511
G1 X182.898 Y160.132 E0.02384
G1 X180.594 Y157.828 E0.12883
G1 X179.991 Y157.828 E0.02384
G1 X182.898 Y160.735 E0.16254
G1 X182.898 Y161.338 E0.02384
G1 X179.388 Y157.828 E0.19625
G1 X178.785 Y157.828 E0.02384
G1 X182.898 Y161.941 E0.22996
G1 X182.898 Y162.544 E0.02384
G1 X178.182 Y157.828 E0.26368
G1 X177.58 Y157.828 E0.02384
G1 X182.899 Y163.147 E0.29739
G1 X182.899 Y163.75 E0.02384
G1 X177.165 Y158.016 E0.3206
G1 X176.696 Y158.016 E0.01853
G1 X176.696 Y157.828 E0.00743
G1 X176.374 Y157.829 E0.01273
G1 X182.466 Y163.921 E0.34064
G1 X181.864 Y163.921 E0.02384
G1 X175.771 Y157.829 E0.34064
G1 X175.168 Y157.829 E0.02384
G1 X181.261 Y163.921 E0.34064
G1 X180.658 Y163.921 E0.02384
G1 X174.565 Y157.829 E0.34064
G1 X173.962 Y157.829 E0.02384
G1 X180.055 Y163.921 E0.34064
G1 X179.452 Y163.921 E0.02384
G1 X173.359 Y157.829 E0.34064
G1 X172.757 Y157.829 E0.02384
G1 X178.849 Y163.921 E0.34064
G1 X178.246 Y163.922 E0.02384
G1 X172.154 Y157.829 E0.34064
G1 X171.551 Y157.829 E0.02384
G1 X177.827 Y164.105 E0.35089
G1 X177.036 Y163.917 F36000
G1 F1200
G1 X170.765 Y157.646 E0.35064
G1 X170.39 Y153.654 F36000
G1 F1200
G1 X170.144 Y153.407 E0.01377
G1 X169.541 Y153.407 E0.02384
G1 X170.207 Y154.073 E0.03723
G1 X170.207 Y154.676 E0.02384
G1 X168.938 Y153.407 E0.07094
G1 X168.335 Y153.408 E0.02384
G1 X170.207 Y155.279 E0.10465
G1 X170.207 Y155.882 E0.02384
G1 X167.732 Y153.408 E0.13836
G1 X167.129 Y153.408 E0.02384
G1 X170.207 Y156.485 E0.17208
G1 X170.207 Y157.088 E0.02384
G1 X166.526 Y153.408 E0.20579
G1 X165.924 Y153.408 E0.02384
G1 X176.438 Y163.922 E0.58785
G1 X175.835 Y163.922 E0.02384
G1 X165.321 Y153.408 E0.58785
G1 X164.718 Y153.408 E0.02384
G1 X175.232 Y163.922 E0.58785
G1 X174.629 Y163.922 E0.02384
G1 X164.115 Y153.408 E0.58785
G1 X163.905 Y153.408 E0.00831
G1 X163.905 Y153.801 E0.01553
G1 X174.026 Y163.922 E0.56589
G1 X173.423 Y163.922 E0.02384
G1 X163.905 Y154.404 E0.53218
G1 X163.905 Y155.007 E0.02384
G1 X172.82 Y163.922 E0.49846
G1 X172.217 Y163.922 E0.02384
G1 X163.905 Y155.61 E0.46475
G1 X163.905 Y156.213 E0.02384
G1 X171.614 Y163.922 E0.43104
G1 X171.012 Y163.922 E0.02384
G1 X163.905 Y156.816 E0.39733
G1 X163.905 Y157.419 E0.02384
G1 X170.409 Y163.922 E0.36362
G1 X170.208 Y163.922 E0.00794
G1 X170.208 Y164.324 E0.01589
G1 X163.905 Y158.022 E0.35238
G1 X163.905 Y158.625 E0.02384
G1 X170.208 Y164.927 E0.35238
G1 X170.208 Y165.53 E0.02384
G1 X163.905 Y159.228 E0.35238
G1 X163.905 Y159.831 E0.02384
G1 X170.208 Y166.133 E0.35238
G1 X170.208 Y166.736 E0.02384
G1 X163.906 Y160.434 E0.35238
G1 X163.906 Y161.037 E0.02384
G1 X170.208 Y167.34 E0.35238
G1 X170.208 Y167.943 E0.02384
G1 X163.906 Y161.64 E0.35238
G1 X163.906 Y162.243 E0.02384
G1 X170.007 Y168.344 E0.34113
G1 X169.404 Y168.344 E0.02384
G1 X163.906 Y162.846 E0.30742
G1 X163.906 Y163.449 E0.02384
G1 X168.801 Y168.344 E0.27371
G1 X168.198 Y168.344 E0.02384
G1 X163.906 Y164.052 E0.23999
G1 X163.906 Y164.655 E0.02384
G1 X167.595 Y168.344 E0.20628
G1 X166.993 Y168.345 E0.02384
G1 X163.906 Y165.258 E0.17257
G1 X163.906 Y165.861 E0.02384
G1 X166.39 Y168.345 E0.13886
G1 X165.787 Y168.345 E0.02384
G1 X163.906 Y166.464 E0.10515
G1 X163.906 Y167.067 E0.02384
G1 X165.184 Y168.345 E0.07144
G1 X164.581 Y168.345 E0.02384
G1 X163.906 Y167.67 E0.03773
G1 X163.906 Y168.273 E0.02384
G1 X164.161 Y168.528 E0.01426
G1 X162.611 Y169.521 F36000
;TYPE:Gap fill
;WIDTH:0.36235
G1 F900
G1 X162.456 Y169.521 E0.00453
G1 X157.618 Y169.522 E0.14204
G1 X152.78 Y169.522 E0.14204
G1 X152.626 Y169.522 E0.00453
G1 E-0.75 F3000
G1 Z0.65 F36000
G1 X152.624 Y152.233
G1 Z0.25
G1 E0.75 F1800
;WIDTH:0.362361
G1 F900
G1 X152.778 Y152.233 E0.00453
G1 X162.454 Y152.232 E0.28409
G1 X162.609 Y152.232 E0.00453
G1 X170.65 Y152.996 F36000
;WIDTH:0.185657
G1 F900
G1 X170.716 Y152.996 E0.00083
G1 X173.579 Y152.995 E0.03595
G1 X176.442 Y152.995 E0.03595
G1 X176.508 Y152.995 E0.00083
G1 X177.093 Y153.355 F36000
;WIDTH:0.439836
G1 F900
G1 X177.093 Y153.548 E0.00709
G1 X177.093 Y155.583 E0.07474
G1 X177.094 Y157.619 E0.07474
G1 X177.094 Y157.812 E0.00709
G1 X177.344 Y152.537 F36000
;WIDTH:0.588971
G1 F900
G1 X177.344 Y152.403 E0.00681
G1 X177.344 Y152.269 E0.00681
G1 X177.344 Y152.183 E0.00441
G1 X177.344 Y152.049 E0.00681
G1 X177.344 Y151.915 E0.00681
G1 X177.094 Y163.938 F36000
;WIDTH:0.439837
G1 F900
G1 X177.094 Y164.132 E0.00709
G1 X177.095 Y168.202 E0.14949
G1 X177.095 Y168.395 E0.00709
G1 X176.51 Y168.755 F36000
;WIDTH:0.185575
G1 F900
G1 X176.444 Y168.755 E0.00083
G1 X170.717 Y168.756 E0.07185
G1 X170.651 Y168.756 E0.00083
G1 X177.68 Y168.755 F36000
;WIDTH:0.185559
G1 F900
G1 X177.745 Y168.755 E0.00083
G1 X183.311 Y168.754 E0.06982
G1 X183.377 Y168.754 E0.00083
G1 X183.44 Y168.297 F36000
;WIDTH:0.780012
G1 F900
G1 X183.44 Y168.115 E0.01254
G1 X183.44 Y167.934 E0.01254
G1 X183.44 Y165.154 E0.19203
G1 X183.44 Y164.972 E0.01254
G1 X183.44 Y164.79 E0.01254
G1 E-0.75 F3000
G1 Z0.65 F36000
G1 X158.956 Y165.31
G1 Z0.25
G1 E0.75 F1800
;TYPE:Internal perimeter
;WIDTH:0.48
G1 F900
G1 X155.316 Y165.31 E0.14761
G1 X155.315 Y156.445 E0.35947
G1 X158.955 Y156.444 E0.14761
G1 X158.956 Y165.25 E0.35703
G1 X159.383 Y165.736 F36000
G1 F900
G1 X154.89 Y165.736 E0.18219
G1 X154.889 Y156.018 E0.39404
G1 X159.382 Y156.018 E0.18219
G1 X159.383 Y165.676 E0.39161
G1 X159.809 Y166.162 F36000
G1 F900
G1 X154.463 Y166.163 E0.21676
G1 X154.462 Y155.592 E0.42862
G1 X159.808 Y155.592 E0.21676
G1 X159.809 Y166.102 E0.42618
M204 S1000
G1 X160.236 Y166.589 F36000
;TYPE:External perimeter
G1 F900
G1 X154.037 Y166.589 E0.25134
G1 X154.036 Y155.166 E0.46319
G1 X160.234 Y155.165 E0.25134
G1 X160.234 Y155.309 E0.00584
G1 X160.236 Y166.529 E0.45491
;WIPE_START
M204 S1500
G1 X159.889 Y166.389 F36000
;WIPE_END
G1 X158.892 Y157.37
;TYPE:Solid infill
;WIDTH:0.455879
G1 F1200
G1 X158.213 Y156.692 E0.03695
G1 X157.61 Y156.692 E0.02322
G1 X158.708 Y157.79 E0.05981
G1 X158.708 Y158.393 E0.02322
G1 X157.007 Y156.692 E0.09264
G1 X156.404 Y156.692 E0.02322
G1 X158.709 Y158.996 E0.12548
G1 X158.709 Y159.599 E0.02322
G1 X155.802 Y156.692 E0.15832
G1 X155.562 Y156.692 E0.00922
G1 X155.562 Y157.056 E0.014
G1 X158.709 Y160.202 E0.17135
G1 X158.709 Y160.805 E0.02322
G1 X155.562 Y157.659 E0.17135
G1 X155.562 Y158.262 E0.02322
G1 X158.709 Y161.408 E0.17135
G1 X158.709 Y162.011 E0.02322
G1 X155.562 Y158.865 E0.17135
G1 X155.563 Y159.468 E0.02322
G1 X158.709 Y162.614 E0.17135
G1 X158.709 Y163.217 E0.02322
G1 X155.563 Y160.071 E0.17135
G1 X155.563 Y160.674 E0.02322
G1 X158.709 Y163.82 E0.17135
G1 X158.709 Y164.423 E0.02322
G1 X155.563 Y161.277 E0.17135
G1 X155.563 Y161.88 E0.02322
G1 X158.709 Y165.026 E0.17135
G1 X158.709 Y165.062 E0.0014
G1 X158.143 Y165.063 E0.02181
G1 X155.563 Y162.483 E0.1405
G1 X155.563 Y163.086 E0.02322
G1 X157.54 Y165.063 E0.10766
G1 X156.937 Y165.063 E0.02322
G1 X155.563 Y163.689 E0.07483
G1 X155.563 Y164.292 E0.02322
G1 X156.334 Y165.063 E0.04199
G1 X155.731 Y165.063 E0.02322
G1 X155.38 Y164.711 E0.01914
; INIT stop printing object [a]_z_anchor_gantry_x1.stl id:0 copy 0
; INIT printing object [a]_z_anchor_frame_2hole_x1.stl id:3 copy 0
G1 E-0.75 F3000
G1 Z0.65 F36000
; stop printing object [a]_z_anchor_gantry_x1.stl id:0 copy 0
; printing object [a]_z_anchor_frame_2hole_x1.stl id:3 copy 0
G1 X163.579 Y142.398
G1 Z0.25
G1 E0.75 F1800
;TYPE:Internal perimeter
;WIDTH:0.48
G1 F900
G1 X163.65 Y142.428 E0.00314
G1 X164.02 Y142.536 E0.01565
G1 X164.621 Y142.633 E0.02467
G1 X165.262 Y142.633 E0.02599
G1 X165.895 Y142.531 E0.026
G1 X166.472 Y142.338 E0.02467
G1 X166.82 Y142.172 E0.01565
G1 X167.335 Y141.847 E0.02467
G1 X167.814 Y141.422 E0.026
G1 X168.22 Y140.926 E0.026
G1 X168.524 Y140.399 E0.02467
G1 X168.675 Y140.044 E0.01565
G1 X168.845 Y139.459 E0.02467
G1 X168.918 Y138.855 E0.02467
G1 X168.918 Y138.47 E0.01565
G1 X168.845 Y137.866 E0.02467
G1 X168.675 Y137.281 E0.02467
G1 X168.524 Y136.926 E0.01565
G1 X168.22 Y136.399 E0.02467
G1 X167.835 Y135.928 E0.02467
