; generated by SuperSlicer 2.4 on 2022-06-13 at 20:03:01 UTC


;
;

;
;
; 

; external perimeters extrusion width = 0.40mm
; perimeters extrusion width = 0.48mm
; infill extrusion width = 0.60mm
; solid infill extrusion width = 0.56mm
; top infill extrusion width = 0.40mm
; first layer extrusion width = 0.48mm

; external perimeters extrusion width = 0.40mm
; perimeters extrusion width = 0.48mm
; infill extrusion width = 0.60mm
; solid infill extrusion width = 0.56mm
; top infill extrusion width = 0.40mm
; first layer extrusion width = 0.48mm

; external perimeters extrusion width = 0.40mm
; perimeters extrusion width = 0.48mm
; infill extrusion width = 0.60mm
; solid infill extrusion width = 0.56mm
; top infill extrusion width = 0.40mm
; first layer extrusion width = 0.48mm

; object:{"name":"[a]_z_anchor_frame_3hole_x1","id":"[a]_z_anchor_frame_3hole_x1.stl id:0 copy 0","object_center":[149.999999,161.368163,0.000000],"boundingbox_center":[149.999999,161.368163,7.500000],"boundingbox_size":[29.999996,18.999996,15.000000]}
; object:{"name":"[a]_z_anchor_frame_x1","id":"[a]_z_anchor_frame_x1.stl id:1 copy 0","object_center":[130.980783,139.500003,0.000000],"boundingbox_center":[130.980783,139.500003,7.237500],"boundingbox_size":[31.567810,20.736328,14.475000]}
; object:{"name":"[a]_z_anchor_gantry_x1","id":"[a]_z_anchor_gantry_x1.stl id:2 copy 0","object_center":[166.784175,139.500004,0.000000],"boundingbox_center":[166.784175,139.500004,11.237503],"boundingbox_size":[36.038803,19.568207,22.475006]}
; plater:{"center":[150.000227,150.000000,0.000000],"boundingbox_center":[150.000227,150.000000,11.237503],"boundingbox_size":[69.606699,41.736322,22.475006]}

;TYPE:Custom
print_start EXTRUDER=255 BED=110 CHAMBER=50
M107
G21 ; set units to millimeters
G90 ; use absolute coordinates
M83 ; use relative distances for extrusion
; Filament gcode
SET_PRESSURE_ADVANCE ADVANCE=0.055
M104 S255 ; set temperature
M109 S255 ; set temperature and wait for it to be reached
M190 S110 ; set bed temperature and wait for it to be reached
M107
;LAYER_CHANGE
;Z:0.25
;HEIGHT:0.25
;BEFORE_LAYER_CHANGE
;0.25
TIMELAPSE_TAKE_FRAME


G1 Z0.25 F36000
;AFTER_LAYER_CHANGE
;0.25
G92 E0
; INIT printing object [a]_z_anchor_frame_3hole_x1.stl id:0 copy 0
G1 E-0.75 F3000
M204 S1500
G1 Z0.65 F36000
; printing object [a]_z_anchor_frame_3hole_x1.stl id:0 copy 0
G1 X149.346 Y161.715
G1 Z0.25
G1 E0.75 F1800
;TYPE:Internal perimeter
;WIDTH:0.48
G1 F900
G1 X149.724 Y161.859 E0.01652
G1 X148.832 Y162.245 E0.03965
G1 X148.371 Y162.54 E0.02237
G1 X148.113 Y162.753 E0.01364
G1 X147.752 Y163.133 E0.02139
G1 X147.553 Y163.401 E0.01364
G1 X147.281 Y163.877 E0.02237
G1 X147.081 Y164.414 E0.02336
G1 X146.97 Y164.975 E0.02336
G1 X146.951 Y165.523 E0.02237
G1 X146.979 Y165.856 E0.01364
G1 X147.092 Y166.392 E0.02237
G1 X147.289 Y166.904 E0.02237
G1 X147.446 Y167.199 E0.01364
G1 X147.76 Y167.648 E0.02237
G1 X148.159 Y168.059 E0.02336
G1 X148.618 Y168.4 E0.02336
G1 X149.105 Y168.652 E0.02237
G1 X149.418 Y168.769 E0.01364
G1 X149.951 Y168.897 E0.02237
G1 X150.506 Y168.939 E0.02272
G1 X151.107 Y168.887 E0.02461
G1 X151.647 Y168.751 E0.02272
G1 X152.15 Y168.533 E0.02237
G1 X152.438 Y168.365 E0.01364
G1 X152.875 Y168.033 E0.02237
G1 X153.252 Y167.636 E0.02237
G1 X153.452 Y167.367 E0.01365
G1 X153.723 Y166.891 E0.02237
G1 X153.923 Y166.355 E0.02336
G1 X154.034 Y165.794 E0.02336
G1 X154.053 Y165.246 E0.02237
G1 X154.025 Y164.913 E0.01364
G1 X153.912 Y164.376 E0.02237
G1 X153.706 Y163.842 E0.02336
G1 X153.417 Y163.348 E0.02336
G1 X153.063 Y162.919 E0.02272
G1 X152.61 Y162.522 E0.0246
G1 X152.137 Y162.227 E0.02272
G1 X151.291 Y161.872 E0.03745
G1 X152.15 Y161.507 E0.03805
G1 X152.634 Y161.202 E0.02336
G1 X153.063 Y160.824 E0.02336
G1 X153.41 Y160.399 E0.02237
G1 X153.589 Y160.117 E0.01364
G1 X153.815 Y159.644 E0.02139
G1 X153.921 Y159.327 E0.01365
G1 X154.031 Y158.79 E0.02237
G1 X154.055 Y158.219 E0.02336
G1 X153.99 Y157.674 E0.02237
G1 X153.911 Y157.35 E0.01364
G1 X153.726 Y156.859 E0.02139
G1 X153.571 Y156.563 E0.01364
G1 X153.26 Y156.112 E0.02237
G1 X152.864 Y155.698 E0.02336
G1 X152.407 Y155.354 E0.02336
G1 X151.922 Y155.098 E0.02237
G1 X151.61 Y154.979 E0.01364
G1 X151.077 Y154.847 E0.02243
G1 X150.519 Y154.803 E0.02282
G1 X150.198 Y154.815 E0.01314
G1 X149.68 Y154.898 E0.02139
G1 X149.359 Y154.991 E0.01364
G1 X148.854 Y155.205 E0.02237
G1 X148.37 Y155.51 E0.02336
G1 X147.941 Y155.889 E0.02336
G1 X147.594 Y156.313 E0.02237
G1 X147.415 Y156.595 E0.01364
G1 X147.189 Y157.068 E0.02139
G1 X147.083 Y157.385 E0.01364
G1 X146.973 Y157.922 E0.02237
G1 X146.949 Y158.494 E0.02336
G1 X147.014 Y159.038 E0.02237
G1 X147.093 Y159.363 E0.01364
G1 X147.287 Y159.875 E0.02237
G1 X147.56 Y160.351 E0.02237
G1 X147.761 Y160.618 E0.01364
G1 X148.14 Y161.014 E0.02237
G1 X148.597 Y161.359 E0.02336
G1 X149.082 Y161.614 E0.02237
G1 X149.29 Y161.693 E0.00909
G1 X148.386 Y163.084 F36000
G1 F900
G1 X148.079 Y163.408 E0.01823
G1 X147.91 Y163.635 E0.01154
G1 X147.668 Y164.059 E0.01991
G1 X147.493 Y164.53 E0.02055
G1 X147.395 Y165.024 E0.02055
G1 X147.378 Y165.512 E0.01991
G1 X147.402 Y165.793 E0.01154
G1 X147.502 Y166.271 E0.01991
G1 X147.678 Y166.726 E0.01991
G1 X147.81 Y166.976 E0.01154
G1 X148.09 Y167.376 E0.01991
G1 X148.44 Y167.737 E0.02055
G1 X148.845 Y168.037 E0.02055
G1 X149.278 Y168.262 E0.01991
G1 X149.543 Y168.361 E0.01154
G1 X150.017 Y168.475 E0.01991
G1 X150.504 Y168.511 E0.01991
G1 X150.771 Y168.499 E0.01091
G1 X151.036 Y168.465 E0.01091
G1 X151.509 Y168.346 E0.01991
G1 X151.957 Y168.152 E0.01991
G1 X152.201 Y168.01 E0.01154
G1 X152.589 Y167.714 E0.01992
G1 X152.925 Y167.361 E0.01991
G1 X153.094 Y167.134 E0.01154
G1 X153.336 Y166.71 E0.01991
G1 X153.511 Y166.238 E0.02055
G1 X153.609 Y165.744 E0.02055
G1 X153.626 Y165.257 E0.01991
G1 X153.602 Y164.975 E0.01154
G1 X153.502 Y164.497 E0.01991
G1 X153.321 Y164.028 E0.02055
G1 X153.067 Y163.593 E0.02055
G1 X152.756 Y163.217 E0.01992
G1 X152.562 Y163.033 E0.01091
G1 X152.354 Y162.865 E0.01091
G1 X151.941 Y162.606 E0.01992
G1 X151.476 Y162.412 E0.02055
G1 X151.002 Y162.297 E0.01991
G1 X150.775 Y162.271 E0.00933
G1 X150.236 Y162.267 E0.022
G1 X149.752 Y162.348 E0.02003
G1 X149.481 Y162.429 E0.01154
G1 X149.033 Y162.622 E0.01991
G1 X148.622 Y162.885 E0.01991
G1 X148.431 Y163.044 E0.01014
M204 S1000
G1 X148.695 Y163.378 F36000
;TYPE:External perimeter
G1 F900
G1 X148.406 Y163.683 E0.01718
G1 X148.268 Y163.868 E0.00943
G1 X148.056 Y164.24 E0.01746
G1 X147.904 Y164.647 E0.01774
G1 X147.819 Y165.073 E0.01774
G1 X147.805 Y165.501 E0.01746
G1 X147.824 Y165.731 E0.00943
G1 X147.912 Y166.15 E0.01746
G1 X148.066 Y166.549 E0.01746
G1 X148.175 Y166.753 E0.00943
G1 X148.42 Y167.104 E0.01746
G1 X148.722 Y167.415 E0.01774
G1 X149.071 Y167.675 E0.01774
G1 X149.451 Y167.871 E0.01746
G1 X149.668 Y167.952 E0.00943
G1 X150.083 Y168.052 E0.01746
G1 X150.327 Y168.07 E0.00997
G1 X150.51 Y168.084 E0.00748
G1 X150.734 Y168.074 E0.00915
G1 X150.956 Y168.046 E0.00915
G1 X151.234 Y167.976 E0.01167
G1 X151.371 Y167.941 E0.00578
G1 X151.764 Y167.771 E0.01746
G1 X151.963 Y167.655 E0.00943
G1 X152.304 Y167.396 E0.01746
G1 X152.598 Y167.086 E0.01746
G1 X152.736 Y166.9 E0.00943
G1 X152.82 Y166.753 E0.00692
G1 X152.948 Y166.529 E0.01054
G1 X153.1 Y166.121 E0.01774
G1 X153.185 Y165.695 E0.01774
G1 X153.199 Y165.268 E0.01746
G1 X153.18 Y165.037 E0.00943
G1 X153.092 Y164.619 E0.01746
G1 X152.935 Y164.213 E0.01774
G1 X152.716 Y163.838 E0.01774
G1 X152.444 Y163.508 E0.01746
G1 X152.281 Y163.354 E0.00915
G1 X152.107 Y163.213 E0.00915
G1 X151.744 Y162.986 E0.01746
G1 X151.343 Y162.818 E0.01774
G1 X150.927 Y162.718 E0.01746
G1 X150.749 Y162.697 E0.00734
G1 X150.698 Y162.691 E0.0021
G1 X150.27 Y162.694 E0.01746
G1 X150.202 Y162.705 E0.00283
G1 X149.848 Y162.765 E0.01463
G1 X149.627 Y162.83 E0.00943
G1 X149.234 Y163 E0.01746
G1 X148.874 Y163.23 E0.01746
G1 X148.742 Y163.339 E0.00699
;WIPE_START
M204 S1500
G1 X148.311 Y163.268 F36000
;WIPE_END
G1 X149.498 Y161.316
;TYPE:Internal perimeter
G1 F900
G1 X149.522 Y161.326 E0.00105
G1 X149.98 Y161.439 E0.01928
G1 X150.261 Y161.474 E0.01154
G1 X150.749 Y161.475 E0.01991
G1 X151.23 Y161.397 E0.01991
G1 X151.502 Y161.319 E0.01154
G1 X151.951 Y161.128 E0.01991
G1 X152.377 Y160.86 E0.02055
G1 X152.755 Y160.527 E0.02055
G1 X153.064 Y160.149 E0.01991
G1 X153.215 Y159.911 E0.01154
G1 X153.419 Y159.484 E0.01928
G1 X153.509 Y159.216 E0.01154
G1 X153.607 Y158.738 E0.01991
G1 X153.628 Y158.235 E0.02055
G1 X153.57 Y157.751 E0.01991
G1 X153.503 Y157.476 E0.01154
G1 X153.336 Y157.034 E0.01928
G1 X153.205 Y156.784 E0.01154
G1 X152.928 Y156.382 E0.01991
G1 X152.58 Y156.018 E0.02055
G1 X152.178 Y155.715 E0.02055
G1 X151.747 Y155.487 E0.01991
G1 X151.482 Y155.387 E0.01154
G1 X151.008 Y155.269 E0.01994
G1 X150.511 Y155.23 E0.02036
G1 X150.24 Y155.24 E0.01106
G1 X149.774 Y155.315 E0.01928
G1 X149.502 Y155.393 E0.01154
G1 X149.053 Y155.584 E0.01991
G1 X148.627 Y155.852 E0.02055
G1 X148.249 Y156.185 E0.02055
G1 X147.94 Y156.563 E0.01991
G1 X147.789 Y156.802 E0.01154
G1 X147.585 Y157.228 E0.01928
G1 X147.496 Y157.496 E0.01154
G1 X147.397 Y157.974 E0.01991
G1 X147.376 Y158.477 E0.02055
G1 X147.434 Y158.962 E0.01991
G1 X147.501 Y159.236 E0.01154
G1 X147.674 Y159.693 E0.01991
G1 X147.917 Y160.116 E0.01991
G1 X148.086 Y160.342 E0.01154
G1 X148.424 Y160.694 E0.01991
G1 X148.826 Y160.997 E0.02055
G1 X149.258 Y161.225 E0.01992
G1 X149.442 Y161.295 E0.00804
M204 S1000
G1 X149.649 Y160.918 F36000
;TYPE:External perimeter
G1 F900
G1 X150.058 Y161.019 E0.01718
G1 X150.287 Y161.048 E0.00943
G1 X150.715 Y161.048 E0.01746
G1 X151.137 Y160.98 E0.01746
G1 X151.359 Y160.916 E0.00943
G1 X151.753 Y160.749 E0.01746
G1 X152.121 Y160.518 E0.01774
G1 X152.447 Y160.23 E0.01774
G1 X152.718 Y159.899 E0.01746
G1 X152.842 Y159.704 E0.00943
G1 X153.023 Y159.324 E0.01718
G1 X153.048 Y159.247 E0.00332
G1 X153.096 Y159.105 E0.00612
G1 X153.182 Y158.686 E0.01746
G1 X153.201 Y158.252 E0.01774
G1 X153.174 Y158.026 E0.00926
G1 X153.15 Y157.827 E0.00819
G1 X153.095 Y157.602 E0.00943
G1 X152.946 Y157.209 E0.01718
G1 X152.839 Y157.004 E0.00943
G1 X152.698 Y156.798 E0.01018
G1 X152.597 Y156.652 E0.00728
G1 X152.296 Y156.338 E0.01774
G1 X151.949 Y156.076 E0.01774
G1 X151.571 Y155.877 E0.01746
G1 X151.355 Y155.794 E0.00943
G1 X150.939 Y155.691 E0.01746
G1 X150.513 Y155.656 E0.01746
G1 X150.282 Y155.665 E0.00943
G1 X149.867 Y155.732 E0.01718
G1 X149.645 Y155.796 E0.00943
G1 X149.458 Y155.875 E0.00826
G1 X149.251 Y155.963 E0.0092
G1 X148.883 Y156.195 E0.01774
G1 X148.557 Y156.482 E0.01774
G1 X148.286 Y156.813 E0.01746
G1 X148.219 Y156.919 E0.0051
G1 X148.162 Y157.008 E0.00433
G1 X147.981 Y157.388 E0.01718
G1 X147.908 Y157.607 E0.00943
G1 X147.822 Y158.026 E0.01746
G1 X147.803 Y158.461 E0.01774
G1 X147.854 Y158.885 E0.01746
G1 X147.909 Y159.11 E0.00943
G1 X148.06 Y159.51 E0.01746
G1 X148.274 Y159.881 E0.01746
G1 X148.412 Y160.066 E0.00943
G1 X148.708 Y160.375 E0.01746
G1 X149.055 Y160.636 E0.01774
G1 X149.433 Y160.836 E0.01746
G1 X149.593 Y160.897 E0.00698
;WIPE_START
M204 S1500
G1 X149.745 Y161.306 F36000
;WIPE_END
G1 X146.402 Y161.312
;TYPE:Internal perimeter
G1 F900
G1 X146.373 Y161.073 E0.00982
G1 X146.204 Y160.489 E0.02483
G1 X146.053 Y160.134 E0.01575
G1 X145.765 Y159.636 E0.02349
G1 X145.533 Y159.327 E0.01575
G1 X145.134 Y158.912 E0.02349
G1 X144.835 Y158.668 E0.01575
G1 X144.321 Y158.343 E0.02483
G1 X143.731 Y158.091 E0.02617
G1 X143.092 Y157.934 E0.02688
G1 X142.299 Y157.891 E0.03241
G1 X141.564 Y157.993 E0.03028
G1 X141.178 Y158.104 E0.01639
G1 X140.619 Y158.343 E0.02483
G1 X140.077 Y158.685 E0.02617
G1 X139.597 Y159.111 E0.02616
G1 X139.212 Y159.582 E0.02483
G1 X139.006 Y159.908 E0.01575
G1 X138.745 Y160.458 E0.02483
G1 X138.567 Y161.073 E0.02617
G1 X138.493 Y161.677 E0.02483
G1 X138.493 Y162.063 E0.01575
G1 X138.567 Y162.667 E0.02483
G1 X138.736 Y163.251 E0.02483
G1 X138.887 Y163.606 E0.01575
G1 X139.191 Y164.133 E0.02483
G1 X139.587 Y164.618 E0.02553
G1 X140.09 Y165.063 E0.02742
G1 X140.619 Y165.398 E0.02553
G1 X141.178 Y165.636 E0.02483
G1 X141.549 Y165.743 E0.01575
G1 X142.149 Y165.841 E0.02483
G1 X142.79 Y165.841 E0.02617
G1 X143.391 Y165.743 E0.02483
G1 X143.762 Y165.636 E0.01575
G1 X144.321 Y165.398 E0.02483
G1 X144.863 Y165.055 E0.02617
G1 X145.343 Y164.63 E0.02617
G1 X145.728 Y164.159 E0.02483
G1 X145.934 Y163.832 E0.01575
G1 X146.195 Y163.283 E0.02483
G1 X146.373 Y162.667 E0.02617
G1 X146.446 Y162.063 E0.02483
G1 X146.446 Y161.677 E0.01575
G1 X146.409 Y161.372 E0.01256
G1 X145.979 Y161.364 F36000
G1 F900
G1 X145.954 Y161.159 E0.00842
G1 X145.802 Y160.632 E0.02237
G1 X145.671 Y160.325 E0.01364
G1 X145.408 Y159.871 E0.02139
G1 X145.208 Y159.604 E0.01364
G1 X144.845 Y159.226 E0.02139
G1 X144.586 Y159.014 E0.01364
G1 X144.122 Y158.721 E0.02237
G1 X143.596 Y158.497 E0.02336
G1 X143.029 Y158.357 E0.02383
G1 X142.317 Y158.319 E0.02911
G1 X141.653 Y158.411 E0.02735
G1 X141.322 Y158.507 E0.01407
G1 X140.817 Y158.721 E0.02237
G1 X140.334 Y159.027 E0.02336
G1 X139.905 Y159.407 E0.02336
G1 X139.559 Y159.831 E0.02237
G1 X139.38 Y160.114 E0.01364
G1 X139.145 Y160.609 E0.02237
G1 X138.986 Y161.159 E0.02336
G1 X138.92 Y161.703 E0.02237
G1 X138.92 Y162.037 E0.01364
G1 X138.986 Y162.581 E0.02237
G1 X139.138 Y163.108 E0.02237
G1 X139.269 Y163.416 E0.01364
G1 X139.543 Y163.89 E0.02237
G1 X139.895 Y164.321 E0.02272
G1 X140.347 Y164.721 E0.02461
G1 X140.817 Y165.019 E0.02272
G1 X141.322 Y165.234 E0.02237
G1 X141.643 Y165.327 E0.01364
G1 X142.184 Y165.415 E0.02237
G1 X142.756 Y165.415 E0.02336
G1 X143.297 Y165.327 E0.02237
G1 X143.618 Y165.234 E0.01364
G1 X144.122 Y165.019 E0.02237
G1 X144.606 Y164.713 E0.02336
G1 X145.034 Y164.333 E0.02336
G1 X145.381 Y163.909 E0.02237
G1 X145.56 Y163.626 E0.01364
G1 X145.795 Y163.131 E0.02237
G1 X145.954 Y162.581 E0.02336
G1 X146.02 Y162.037 E0.02237
G1 X146.02 Y161.703 E0.01364
G1 X145.986 Y161.423 E0.0115
G1 X145.556 Y161.415 F36000
G1 F900
G1 X145.535 Y161.244 E0.00701
G1 X145.399 Y160.776 E0.01991
G1 X145.288 Y160.516 E0.01154
G1 X145.052 Y160.107 E0.01928
G1 X144.882 Y159.881 E0.01154
G1 X144.555 Y159.54 E0.01928
G1 X144.336 Y159.361 E0.01154
G1 X143.924 Y159.1 E0.01992
G1 X143.46 Y158.903 E0.02055
G1 X142.966 Y158.781 E0.02078
G1 X142.335 Y158.747 E0.02581
G1 X141.742 Y158.829 E0.02443
G1 X141.465 Y158.909 E0.01175
G1 X141.016 Y159.1 E0.01991
G1 X140.591 Y159.369 E0.02055
G1 X140.214 Y159.703 E0.02055
G1 X139.905 Y160.081 E0.01991
G1 X139.754 Y160.32 E0.01154
G1 X139.545 Y160.761 E0.01991
G1 X139.405 Y161.244 E0.02055
G1 X139.346 Y161.729 E0.01991
G1 X139.346 Y162.012 E0.01154
G1 X139.405 Y162.496 E0.01991
G1 X139.541 Y162.965 E0.01991
G1 X139.651 Y163.225 E0.01154
G1 X139.895 Y163.647 E0.01991
G1 X140.204 Y164.025 E0.01991
G1 X140.397 Y164.21 E0.01091
G1 X140.604 Y164.379 E0.01091
G1 X141.016 Y164.64 E0.01991
G1 X141.465 Y164.831 E0.01991
G1 X141.737 Y164.91 E0.01154
G1 X142.218 Y164.988 E0.01991
G1 X142.722 Y164.988 E0.02055
G1 X143.203 Y164.91 E0.01991
G1 X143.475 Y164.831 E0.01154
G1 X143.924 Y164.64 E0.01991
G1 X144.349 Y164.371 E0.02055
G1 X144.726 Y164.037 E0.02055
G1 X145.035 Y163.659 E0.01991
G1 X145.186 Y163.42 E0.01154
G1 X145.395 Y162.979 E0.01991
G1 X145.535 Y162.496 E0.02055
G1 X145.594 Y162.012 E0.01991
G1 X145.594 Y161.729 E0.01154
G1 X145.563 Y161.475 E0.01045
M204 S1000
G1 X145.132 Y161.466 F36000
;TYPE:External perimeter
G1 F900
G1 X145.116 Y161.33 E0.00561
G1 X144.997 Y160.919 E0.01746
G1 X144.924 Y160.749 E0.00753
G1 X144.906 Y160.707 E0.0019
G1 X144.696 Y160.342 E0.01718
G1 X144.557 Y160.157 E0.00943
G1 X144.265 Y159.854 E0.01718
G1 X144.086 Y159.708 E0.00943
G1 X143.725 Y159.479 E0.01746
G1 X143.325 Y159.309 E0.01774
G1 X142.903 Y159.205 E0.01774
G1 X142.477 Y159.17 E0.01746
G1 X142.352 Y159.175 E0.00508
G1 X142.246 Y159.179 E0.00435
G1 X141.83 Y159.247 E0.01718
G1 X141.714 Y159.281 E0.00494
G1 X141.608 Y159.311 E0.00449
G1 X141.305 Y159.44 E0.01344
G1 X141.215 Y159.479 E0.00402
G1 X140.983 Y159.626 E0.01122
G1 X140.848 Y159.711 E0.00652
G1 X140.522 Y159.999 E0.01774
G1 X140.252 Y160.331 E0.01746
G1 X140.128 Y160.526 E0.00943
