; generated by SuperSlicer 2.4 on 2022-06-16 at 20:56:12 UTC


;
;

;
;
; 

; external perimeters extrusion width = 0.40mm
; perimeters extrusion width = 0.45mm
; infill extrusion width = 0.72mm
; solid infill extrusion width = 0.56mm
; top infill extrusion width = 0.40mm
; first layer extrusion width = 0.48mm

; object:{"name":"[a]_z_link_x18","id":"[a]_z_link_x18.stl id:0 copy 0","object_center":[150.000000,150.000000,0.000000],"boundingbox_center":[150.000000,150.000000,7.237501],"boundingbox_size":[29.341217,20.736328,14.475002]}
; plater:{"center":[150.000000,150.000000,0.000000],"boundingbox_center":[150.000000,150.000000,7.237501],"boundingbox_size":[29.341217,20.736328,14.475002]}

;TYPE:Custom
print_start EXTRUDER=255 BED=110 CHAMBER=50
M107
G21 ; set units to millimeters
G90 ; use absolute coordinates
M83 ; use relative distances for extrusion
; Filament gcode
SET_PRESSURE_ADVANCE ADVANCE=0.045
SET_PRESSURE_ADVANCE EXTRUDER=extruder SMOOTH_TIME=0.04
M104 S255 ; set temperature
M109 S255 ; set temperature and wait for it to be reached
M190 S110 ; set bed temperature and wait for it to be reached
M107
;LAYER_CHANGE
;Z:0.25
;HEIGHT:0.25
;BEFORE_LAYER_CHANGE
;0.25
TIMELAPSE_TAKE_FRAME


G1 Z0.25 F42000
;AFTER_LAYER_CHANGE
;0.25
G92 E0
; INIT printing object [a]_z_link_x18.stl id:0 copy 0
G1 E-0.75 F3000
M204 S1500
G1 Z0.65 F42000
; printing object [a]_z_link_x18.stl id:0 copy 0
G1 X154.959 Y140.375
G1 Z0.25
G1 E0.75 F1800
;TYPE:Internal perimeter
;WIDTH:0.48
G1 F900
G1 X163.963 Y140.375 E0.3651
G1 X163.963 Y159.625 E0.78057
G1 X154.959 Y159.625 E0.3651
G1 X154.959 Y158.951 E0.02736
G1 X163.468 Y158.951 E0.34503
G1 X163.468 Y141.049 E0.72584
G1 X154.959 Y141.049 E0.34503
G1 X154.959 Y140.435 E0.02493
M204 S1000
G1 X154.532 Y139.948 F42000
;TYPE:External perimeter
G1 F900
G1 X164.39 Y139.948 E0.39968
G1 X164.39 Y160.052 E0.81514
G1 X154.532 Y160.052 E0.39968
G1 X154.532 Y158.524 E0.06194
G1 X163.042 Y158.524 E0.34503
G1 X163.042 Y141.476 E0.69127
G1 X154.532 Y141.476 E0.34503
G1 X154.532 Y140.008 E0.0595
;WIPE_START
M204 S1500
G1 X154.879 Y140.148 F42000
;WIPE_END
G1 X155.155 Y140.712
;TYPE:Gap fill
;WIDTH:0.336692
G1 F900
G1 X155.296 Y140.712 E0.00381
G1 X163.626 Y140.712 E0.22422
;WIDTH:0.239337
G1 X163.716 Y140.854 E0.00296
;WIDTH:0.156956
G1 X163.716 Y159.146 E0.17972
;WIDTH:0.239343
G1 X163.626 Y159.288 E0.00296
;WIDTH:0.336706
G1 X155.155 Y159.288 E0.22804
G1 E-0.75 F3000
G1 Z0.65 F42000
G1 X152.027 Y156.009
G1 Z0.25
G1 E0.75 F1800
;TYPE:Internal perimeter
;WIDTH:0.48
G1 F900
G1 X150.348 Y156.009 E0.06806
G1 X150.348 Y157.826 E0.07369
G1 X149.906 Y157.826 E0.01794
G1 X149.906 Y142.174 E0.63467
G1 X150.348 Y142.174 E0.01794
G1 X150.348 Y143.991 E0.07369
G1 X152.027 Y143.991 E0.06806
G1 X152.027 Y155.949 E0.48486
G1 X152.453 Y156.435 F42000
G1 F900
G1 X150.775 Y156.435 E0.06806
G1 X150.775 Y158.253 E0.07369
G1 X149.479 Y158.253 E0.05252
G1 X149.479 Y141.747 E0.66924
G1 X150.775 Y141.747 E0.05252
G1 X150.775 Y143.565 E0.07369
G1 X152.453 Y143.565 E0.06806
G1 X152.453 Y156.375 E0.51944
G1 X152.879 Y156.766 F42000
G1 F900
G1 X152.879 Y156.862 E0.00389
G1 X151.201 Y156.862 E0.06806
G1 X151.201 Y158.679 E0.07369
G1 X149.053 Y158.679 E0.08709
G1 X149.053 Y145.812 E0.52173
G1 X149.053 Y141.321 E0.18209
G1 X151.201 Y141.321 E0.08709
G1 X151.201 Y143.138 E0.07369
G1 X152.879 Y143.138 E0.06806
G1 X152.879 Y156.706 E0.55012
M204 S1000
G1 X153.306 Y156.766 F42000
;TYPE:External perimeter
G1 F900
G1 X160.91 Y156.766 E0.30832
G1 X160.91 Y157.288 E0.02118
G1 X151.627 Y157.288 E0.37637
G1 X151.627 Y159.105 E0.07369
G1 X139.006 Y159.105 E0.51175
G1 X139.006 Y158.894 E0.00859
G1 X139.006 Y158.47 E0.01717
G1 X148.627 Y158.47 E0.39008
G1 X148.627 Y145.812 E0.51326
G1 X148.627 Y141.53 E0.17362
G1 X143.816 Y141.53 E0.19504
G1 X139.006 Y141.53 E0.19504
G1 X139.006 Y140.895 E0.02576
G1 X151.627 Y140.895 E0.51175
G1 X151.627 Y141.009 E0.00464
G1 X151.627 Y142.712 E0.06905
G1 X160.91 Y142.712 E0.37637
G1 X160.91 Y143.234 E0.02118
G1 X153.306 Y143.234 E0.30832
G1 X153.306 Y156.706 E0.54623
;WIPE_START
M204 S1500
G1 X153.306 Y157.166 F42000
;WIPE_END
G1 X153.075 Y157.027
;TYPE:Gap fill
;WIDTH:0.184174
G1 F900
G1 X153.141 Y157.027 E0.00081
G1 X160.714 Y157.027 E0.09401
G1 E-0.75 F3000
G1 Z0.65 F42000
G1 X148.857 Y158.788
G1 Z0.25
G1 E0.75 F1800
;WIDTH:0.297137
G1 F900
G1 X148.735 Y158.788 E0.00282
G1 X139.324 Y158.788 E0.21794
G1 X139.202 Y158.788 E0.00282
G1 E-0.75 F3000
G1 Z0.65 F42000
G1 X139.202 Y141.212
G1 Z0.25
G1 E0.75 F1800
;WIDTH:0.29714
G1 F900
G1 X139.324 Y141.212 E0.00282
G1 X148.857 Y141.212 E0.22076
G1 X151.101 Y144.055 F42000
;TYPE:Solid infill
;WIDTH:0.465179
G1 F1200
G1 X151.779 Y144.733 E0.03771
G1 X151.779 Y145.336 E0.02369
G1 X150.681 Y144.238 E0.06103
G1 X150.153 Y144.238 E0.02076
G1 X150.153 Y144.313 E0.00294
G1 X151.779 Y145.939 E0.09038
G1 X151.779 Y146.542 E0.02369
G1 X150.153 Y144.916 E0.09038
G1 X150.153 Y145.519 E0.02369
G1 X151.779 Y147.145 E0.09038
G1 X151.779 Y147.748 E0.02369
G1 X150.153 Y146.122 E0.09038
G1 X150.153 Y146.725 E0.02369
G1 X151.779 Y148.351 E0.09038
G1 X151.779 Y148.954 E0.02369
G1 X150.153 Y147.328 E0.09038
G1 X150.153 Y147.931 E0.02369
G1 X151.779 Y149.557 E0.09038
G1 X151.779 Y150.16 E0.02369
G1 X150.153 Y148.534 E0.09038
G1 X150.153 Y149.137 E0.02369
G1 X151.779 Y150.763 E0.09038
G1 X151.779 Y151.366 E0.02369
G1 X150.153 Y149.74 E0.09038
G1 X150.153 Y150.342 E0.02369
G1 X151.779 Y151.969 E0.09038
G1 X151.779 Y152.572 E0.02369
G1 X150.153 Y150.945 E0.09038
G1 X150.153 Y151.548 E0.02369
G1 X151.779 Y153.175 E0.09038
G1 X151.779 Y153.778 E0.02369
G1 X150.153 Y152.151 E0.09038
G1 X150.153 Y152.754 E0.02369
G1 X151.779 Y154.381 E0.09038
G1 X151.779 Y154.984 E0.02369
G1 X150.153 Y153.357 E0.09038
G1 X150.153 Y153.96 E0.02369
G1 X151.779 Y155.587 E0.09038
G1 X151.779 Y155.762 E0.00688
G1 X151.352 Y155.762 E0.01681
G1 X150.153 Y154.563 E0.06661
G1 X150.153 Y155.166 E0.02369
G1 X150.932 Y155.945 E0.04329
G1 X153.075 Y142.973 F42000
;TYPE:Gap fill
;WIDTH:0.184164
G1 F900
G1 X153.141 Y142.973 E0.00081
G1 X160.714 Y142.973 E0.094
G1 E-0.75 F3000
G1 Z0.65 F42000
G1 X144.053 Y145.567
G1 Z0.25
G1 E0.75 F1800
;TYPE:Internal perimeter
;WIDTH:0.48
G1 F900
G1 X144.053 Y154.433 E0.35947
G1 X141.918 Y154.433 E0.08655
G1 X141.918 Y145.567 E0.35947
G1 X143.993 Y145.567 E0.08412
G1 X144.479 Y145.141 F42000
G1 F900
G1 X144.479 Y154.859 E0.39404
G1 X141.492 Y154.859 E0.12112
G1 X141.492 Y145.141 E0.39404
G1 X144.419 Y145.141 E0.11869
G1 X144.905 Y144.715 F42000
G1 F900
G1 X144.905 Y155.285 E0.42862
G1 X141.065 Y155.285 E0.1557
G1 X141.065 Y144.715 E0.42862
G1 X144.845 Y144.715 E0.15327
M204 S1000
G1 X145.332 Y144.288 F42000
;TYPE:External perimeter
G1 F900
G1 X145.332 Y155.712 E0.46319
G1 X140.639 Y155.712 E0.19027
G1 X140.639 Y144.288 E0.46319
G1 X145.272 Y144.288 E0.18784
;WIPE_START
M204 S1500
G1 X145.132 Y144.635 F42000
;WIPE_END
G1 X143.127 Y145.631
;TYPE:Solid infill
;WIDTH:0.446546
G1 F1200
G1 X143.805 Y146.31 E0.0362
G1 X143.805 Y146.913 E0.02274
G1 X142.707 Y145.815 E0.05858
G1 X142.165 Y145.815 E0.02044
G1 X142.165 Y145.876 E0.0023
G1 X143.805 Y147.516 E0.08749
G1 X143.805 Y148.119 E0.02274
G1 X142.165 Y146.479 E0.08749
G1 X142.165 Y147.082 E0.02274
G1 X143.805 Y148.722 E0.08749
G1 X143.805 Y149.325 E0.02274
G1 X142.165 Y147.684 E0.08749
G1 X142.165 Y148.287 E0.02274
G1 X143.805 Y149.927 E0.08749
G1 X143.805 Y150.53 E0.02274
G1 X142.165 Y148.89 E0.08749
G1 X142.165 Y149.493 E0.02274
G1 X143.805 Y151.133 E0.08749
G1 X143.805 Y151.736 E0.02274
G1 X142.165 Y150.096 E0.08749
G1 X142.165 Y150.699 E0.02274
G1 X143.805 Y152.339 E0.08749
G1 X143.805 Y152.942 E0.02274
G1 X142.165 Y151.302 E0.08749
G1 X142.165 Y151.905 E0.02274
G1 X143.805 Y153.545 E0.08749
G1 X143.805 Y154.148 E0.02274
G1 X142.165 Y152.508 E0.08749
G1 X142.165 Y153.111 E0.02274
G1 X143.24 Y154.185 E0.05732
G1 X142.637 Y154.185 E0.02274
G1 X141.982 Y153.531 E0.03493
; INIT stop printing object [a]_z_link_x18.stl id:0 copy 0
;LAYER_CHANGE
;Z:0.45
;HEIGHT:0.2
;BEFORE_LAYER_CHANGE
;0.45
TIMELAPSE_TAKE_FRAME


; stop printing object [a]_z_link_x18.stl id:0 copy 0
G1 Z0.45 F42000
;AFTER_LAYER_CHANGE
;0.45
G92 E0
M104 S250 ; set temperature
; INIT printing object [a]_z_link_x18.stl id:0 copy 0
G1 E-0.75 F3000
G1 Z0.85 F42000
; printing object [a]_z_link_x18.stl id:0 copy 0
G1 X154.866 Y158.833
G1 Z0.45
G1 E0.75 F1800
;TYPE:Internal perimeter
;WIDTH:0.45
G1 X163.35 Y158.833 E0.26279
G1 X163.35 Y141.167 E0.54714
G1 X154.866 Y141.167 E0.26279
G1 X154.866 Y140.289 E0.02718
G1 X164.081 Y140.289 E0.28541
G1 X164.081 Y159.711 E0.6015
G1 X154.866 Y159.711 E0.28541
G1 X154.866 Y158.893 E0.02532
M107
M204 S1000
G1 X154.484 Y158.451 F42000
;TYPE:External perimeter
;WIDTH:0.4
G1 F4800
M106 S191.25
G1 X162.968 Y158.451 E0.23051
G1 X162.968 Y141.549 E0.45918
G1 X154.484 Y141.549 E0.23051
G1 X154.484 Y139.907 E0.0446
G1 X164.463 Y139.907 E0.27111
G1 X164.463 Y160.093 E0.54838
G1 X154.484 Y160.093 E0.27111
G1 X154.484 Y158.511 E0.04297
M107
;WIPE_START
M204 S1500
G1 X154.83 Y158.651 F42000
;WIPE_END
G1 X155.053 Y159.272
;TYPE:Gap fill
;WIDTH:0.545833
G1 F1800
G1 X155.179 Y159.272 E0.00481
G1 X155.304 Y159.272 E0.00481
G1 X163.538 Y159.272 E0.31503
G1 X163.633 Y159.263 E0.00366
M107
;WIDTH:0.50874
G1 X163.695 Y159.081 E0.00681
M107
;WIDTH:0.398542
G1 X163.716 Y159.02 E0.00173
G1 X163.716 Y140.98 E0.48812
M107
;WIDTH:0.453637
G1 X163.654 Y140.798 E0.006
M107
;WIDTH:0.651854
G1 X163.538 Y140.728 E0.00626
M107
;WIDTH:0.545816
G1 X155.053 Y140.728 E0.32464
M107
G1 E-0.75 F3000
G1 Z0.85 F42000
G1 X144.346 Y145.411
G1 Z0.45
G1 E0.75 F1800
;TYPE:Internal perimeter
;WIDTH:0.45
G1 X144.346 Y154.589 E0.28425
G1 X141.762 Y154.589 E0.08004
G1 X141.762 Y145.411 E0.28425
G1 X144.286 Y145.411 E0.07818
M107
G1 X144.753 Y145.004 F42000
G1 F1800
G1 X144.753 Y154.996 E0.30946
G1 X141.355 Y154.996 E0.10525
G1 X141.355 Y145.004 E0.30946
G1 X144.693 Y145.004 E0.1034
M107
G1 X145.16 Y144.597 F42000
G1 F1800
G1 X145.16 Y155.403 E0.33468
G1 X140.948 Y155.403 E0.13047
G1 X140.948 Y144.597 E0.33468
G1 X145.1 Y144.597 E0.12861
M107
M204 S1000
G1 X145.542 Y144.215 F42000
;TYPE:External perimeter
;WIDTH:0.4
G1 F4800
M106 S191.25
G1 X145.542 Y155.785 E0.31433
G1 X140.566 Y155.785 E0.1352
G1 X140.566 Y144.215 E0.31433
G1 X145.482 Y144.215 E0.13357
M107
;WIPE_START
M204 S1500
G1 X145.342 Y144.561 F42000
;WIPE_END
G1 X143.256 Y154.544
;TYPE:Solid infill
;WIDTH:0.521183
G1 F3600
G1 X144.079 Y153.721 E0.04261
G1 X144.079 Y152.99 E0.02677
G1 X142.747 Y154.322 E0.06896
G1 X142.029 Y154.322 E0.02631
G1 X142.029 Y154.309 E0.00046
G1 X144.079 Y152.259 E0.10617
G1 X144.079 Y151.528 E0.02677
G1 X142.029 Y153.578 E0.10617
G1 X142.029 Y152.847 E0.02677
G1 X144.079 Y150.796 E0.10617
G1 X144.079 Y150.065 E0.02677
G1 X142.029 Y152.116 E0.10617
G1 X142.029 Y151.384 E0.02677
G1 X144.079 Y149.334 E0.10617
G1 X144.079 Y148.603 E0.02677
G1 X142.029 Y150.653 E0.10617
G1 X142.029 Y149.922 E0.02677
G1 X144.079 Y147.871 E0.10617
G1 X144.079 Y147.14 E0.02677
G1 X142.029 Y149.191 E0.10617
G1 X142.029 Y148.459 E0.02677
G1 X144.079 Y146.409 E0.10617
G1 X144.079 Y145.678 E0.02675
G1 X142.029 Y147.728 E0.10616
G1 X142.029 Y146.997 E0.02677
G1 X143.347 Y145.678 E0.06828
G1 X142.616 Y145.678 E0.02677
G1 X141.806 Y146.488 E0.04193
M107
G1 E-0.75 F3000
G1 Z0.85 F42000
G1 X149.583 Y142.018
G1 Z0.45
G1 E0.75 F1800
;TYPE:Internal perimeter
;WIDTH:0.45
G1 X150.318 Y142.018 E0.02278
G1 X150.318 Y143.659 E0.05084
G1 X152.347 Y143.659 E0.06283
G1 X152.347 Y156.341 E0.39277
G1 X150.318 Y156.341 E0.06283
G1 X150.318 Y157.982 E0.05084
G1 X149.583 Y157.982 E0.02278
G1 X149.583 Y142.078 E0.4926
M107
G1 X149.176 Y141.779 F42000
G1 F1800
G1 X149.176 Y141.611 E0.00522
G1 X150.725 Y141.611 E0.04799
G1 X150.725 Y143.252 E0.05084
G1 X152.754 Y143.252 E0.06283
G1 X152.754 Y156.748 E0.41799
G1 X150.725 Y156.748 E0.06283
G1 X150.725 Y158.389 E0.05084
G1 X149.176 Y158.389 E0.04799
G1 X149.176 Y141.839 E0.5126
M107
G1 X148.769 Y141.779 F42000
G1 F1800
G1 X148.769 Y141.203 E0.01783
G1 X151.132 Y141.203 E0.07321
G1 X151.132 Y142.845 E0.05084
G1 X153.161 Y142.845 E0.06283
G1 X153.161 Y157.155 E0.4432
G1 X151.132 Y157.155 E0.06283
G1 X151.132 Y158.797 E0.05084
G1 X148.769 Y158.797 E0.07321
G1 X148.769 Y141.839 E0.5252
M107
M204 S1000
G1 X148.387 Y141.779 F42000
;TYPE:External perimeter
;WIDTH:0.4
G1 F4800
M106 S191.25
G1 X138.775 Y141.779 E0.26113
G1 X138.775 Y140.821 E0.02602
G1 X151.514 Y140.821 E0.34611
G1 X151.514 Y140.965 E0.0039
G1 X151.514 Y142.463 E0.04069
G1 X161.141 Y142.463 E0.26153
G1 X161.141 Y143.308 E0.02295
G1 X153.543 Y143.308 E0.20642
G1 X153.543 Y156.692 E0.36363
G1 X161.141 Y156.692 E0.20642
G1 X161.141 Y157.537 E0.02295
G1 X151.514 Y157.537 E0.26153
G1 X151.515 Y159.179 E0.0446
G1 X138.775 Y159.179 E0.34611
G1 X138.775 Y158.221 E0.02602
G1 X148.387 Y158.221 E0.26113
G1 X148.387 Y141.839 E0.44506
M107
;WIPE_START
M204 S1500
G1 X148.387 Y141.379 F42000
;WIPE_END
G1 X148.594 Y141.3
;TYPE:Gap fill
;WIDTH:0.675876
G1 F1800
G1 X139.254 Y141.3 E0.4498
G1 X139.095 Y141.3 E0.00762
G1 X138.937 Y141.3 E0.00762
M107
G1 E-0.75 F3000
G1 Z0.85 F42000
G1 X149.951 Y142.205
G1 Z0.45
G1 E0.75 F1800
;WIDTH:0.403649
G1 X149.951 Y142.385 E0.00495
G1 X149.951 Y143.042 E0.01802
G1 X149.951 Y143.699 E0.01802
G1 X149.951 Y143.879 E0.00495
M107
G1 X153.336 Y142.885 F42000
;WIDTH:0.562915
G1 F1800
G1 X153.596 Y142.885 E0.01029
G1 X157.157 Y142.885 E0.1409
G1 X160.719 Y142.885 E0.1409
G1 X160.849 Y142.885 E0.00514
G1 X160.979 Y142.885 E0.00514
M107
G1 E-0.75 F3000
G1 Z0.85 F42000
G1 X160.979 Y157.115
G1 Z0.45
G1 E0.75 F1800
G1 X160.849 Y157.115 E0.00514
G1 X160.719 Y157.115 E0.00514
G1 X153.336 Y157.115 E0.29208
M107
G1 X152.302 Y155.251 F42000
;TYPE:Solid infill
;WIDTH:0.527096
G1 F3600
G1 X151.48 Y156.074 E0.04309
G1 X150.748 Y156.074 E0.02708
G1 X152.08 Y154.742 E0.06974
G1 X152.08 Y154.011 E0.02708
G1 X150.218 Y155.873 E0.09751
G1 X149.85 Y155.873 E0.01364
G1 X149.85 Y155.51 E0.01344
G1 X152.08 Y153.28 E0.1168
G1 X152.08 Y152.548 E0.02708
G1 X149.85 Y154.779 E0.1168
G1 X149.85 Y154.048 E0.02708
G1 X152.08 Y151.817 E0.1168
G1 X152.08 Y151.086 E0.02708
G1 X149.85 Y153.316 E0.1168
G1 X149.85 Y152.585 E0.02708
G1 X152.08 Y150.355 E0.1168
G1 X152.08 Y149.623 E0.02708
G1 X149.85 Y151.854 E0.1168
G1 X149.85 Y151.122 E0.02708
G1 X152.08 Y148.892 E0.1168
G1 X152.08 Y148.161 E0.02708
G1 X149.85 Y150.391 E0.1168
G1 X149.85 Y149.66 E0.02708
G1 X152.08 Y147.429 E0.1168
G1 X152.08 Y146.698 E0.02708
G1 X149.85 Y148.929 E0.1168
G1 X149.85 Y148.197 E0.02708
G1 X152.08 Y145.967 E0.1168
G1 X152.08 Y145.236 E0.02708
G1 X149.85 Y147.466 E0.1168
G1 X149.85 Y146.735 E0.02708
G1 X152.08 Y144.504 E0.1168
G1 X152.08 Y143.926 E0.02142
G1 X151.927 Y143.926 E0.00566
G1 X149.85 Y146.004 E0.10879
G1 X149.85 Y145.272 E0.02708
G1 X151.196 Y143.926 E0.0705
G1 X150.465 Y143.926 E0.02708
G1 X149.627 Y144.763 E0.04385
M107
G1 X149.951 Y156.121 F42000
;TYPE:Gap fill
;WIDTH:0.403717
G1 F1800
G1 X149.951 Y156.301 E0.00495
G1 X149.951 Y156.958 E0.01802
G1 X149.951 Y157.615 E0.01802
G1 X149.951 Y157.795 E0.00495
M107
G1 X148.594 Y158.7 F42000
;WIDTH:0.675893
G1 F1800
G1 X148.436 Y158.7 E0.00762
G1 X148.277 Y158.7 E0.00762
G1 X139.254 Y158.7 E0.43457
G1 X139.095 Y158.7 E0.00762
G1 X138.937 Y158.7 E0.00762
M107
; INIT stop printing object [a]_z_link_x18.stl id:0 copy 0
;LAYER_CHANGE
;Z:0.65
;HEIGHT:0.2
;BEFORE_LAYER_CHANGE
;0.65
TIMELAPSE_TAKE_FRAME


; stop printing object [a]_z_link_x18.stl id:0 copy 0
G1 Z0.65 F42000
;AFTER_LAYER_CHANGE
;0.65
G92 E0
; INIT printing object [a]_z_link_x18.stl id:0 copy 0
G1 E-0.75 F3000
G1 Z1.05 F42000
; printing object [a]_z_link_x18.stl id:0 copy 0
G1 X154.854 Y159.715
G1 Z0.65
G1 E0.75 F1800
;TYPE:Internal perimeter
;WIDTH:0.45
G1 X154.854 Y158.8 E0.02835
G1 X163.317 Y158.8 E0.26212
G1 X163.317 Y141.2 E0.54508
G1 X154.854 Y141.2 E0.26212
G1 X154.854 Y140.285 E0.02835
G1 X164.114 Y140.285 E0.2868
G1 X164.114 Y159.715 E0.60178
G1 X154.914 Y159.715 E0.28494
M107
M204 S1000
G1 X154.472 Y160.097 F42000
;TYPE:External perimeter
;WIDTH:0.4
G1 F4800
