; generated by SuperSlicer 2.4 on 2022-05-25 at 05:53:31 UTC


;
;

;
;
; 

; external perimeters extrusion width = 0.40mm
; perimeters extrusion width = 0.45mm
; infill extrusion width = 0.72mm
; solid infill extrusion width = 0.56mm
; top infill extrusion width = 0.40mm
; first layer extrusion width = 0.48mm

; external perimeters extrusion width = 0.40mm
; perimeters extrusion width = 0.45mm
; infill extrusion width = 0.72mm
; solid infill extrusion width = 0.56mm
; top infill extrusion width = 0.40mm
; first layer extrusion width = 0.48mm

; external perimeters extrusion width = 0.40mm
; perimeters extrusion width = 0.45mm
; infill extrusion width = 0.72mm
; solid infill extrusion width = 0.56mm
; top infill extrusion width = 0.40mm
; first layer extrusion width = 0.48mm

; object:{"name":"adapter-printer","id":"adapter-printer.stl id:0 copy 0","object_center":[154.624789,133.184196,0.000000],"boundingbox_center":[154.624789,133.184196,6.000000],"boundingbox_size":[10.900001,11.000000,12.000001]}
; object:{"name":"fan-shroud","id":"fan-shroud.stl id:1 copy 0","object_center":[162.912893,158.500001,0.000000],"boundingbox_center":[162.912893,158.500001,9.950000],"boundingbox_size":[43.300001,27.631611,19.900001]}
; object:{"name":"print-fan-support","id":"print-fan-support.stl id:2 copy 0","object_center":[130.184054,142.455627,0.000000],"boundingbox_center":[130.184054,142.455627,7.700000],"boundingbox_size":[29.493896,14.300000,15.400000]}
; plater:{"center":[150.000000,150.000001,0.000000],"boundingbox_center":[150.000000,150.000001,9.950000],"boundingbox_size":[69.125788,44.631611,19.900001]}

;TYPE:Custom
print_start EXTRUDER=250 BED=110 CHAMBER=50
M107
G21 ; set units to millimeters
G90 ; use absolute coordinates
M83 ; use relative distances for extrusion
; Filament gcode
SET_PRESSURE_ADVANCE ADVANCE=0.03465
M104 S250 ; set temperature
M109 S250 ; set temperature and wait for it to be reached
M190 S110 ; set bed temperature and wait for it to be reached
M107
;LAYER_CHANGE
;Z:0.25
;HEIGHT:0.25
;BEFORE_LAYER_CHANGE
;0.25


G1 Z0.25 F27000
;AFTER_LAYER_CHANGE
;0.25
G92 E0
; INIT printing object adapter-printer.stl id:0 copy 0
G1 E-0.75 F3000
M204 S1500
G1 Z0.65 F27000
; printing object adapter-printer.stl id:0 copy 0
G1 X154.924 Y129.378
G1 Z0.25
G1 E0.75 F1800
;TYPE:Internal perimeter
;WIDTH:0.48
G1 F900
G1 X158.381 Y129.378 E0.14155
G1 X158.381 Y136.99 E0.31168
G1 X154.924 Y136.99 E0.14155
G1 X154.879 Y136.701 E0.01199
G1 X155.206 Y136.598 E0.01401
G1 X155.636 Y136.407 E0.01926
G1 X156.185 Y136.052 E0.02677
G1 X156.674 Y135.587 E0.02764
G1 X157.042 Y135.08 E0.02566
G1 X157.249 Y134.685 E0.01826
G1 X157.409 Y134.267 E0.01832
G1 X157.552 Y133.597 E0.02807
G1 X157.566 Y132.96 E0.02607
G1 X157.512 Y132.53 E0.01772
G1 X157.409 Y132.103 E0.01802
G1 X157.171 Y131.514 E0.026
G1 X156.818 Y130.958 E0.02699
G1 X156.358 Y130.462 E0.02767
G1 X155.812 Y130.059 E0.02781
G1 X155.23 Y129.778 E0.02646
G1 X154.879 Y129.668 E0.01504
G1 X154.915 Y129.438 E0.00953
G1 X152.762 Y128.952 F27000
G1 F900
G1 X158.807 Y128.952 E0.24753
G1 X158.807 Y137.416 E0.34659
G1 X152.762 Y137.416 E0.24753
G1 X152.753 Y136.182 E0.05057
G1 X153.138 Y136.305 E0.01658
G1 X153.548 Y136.383 E0.01709
G1 X154.132 Y136.4 E0.02389
G1 X154.7 Y136.31 E0.02357
G1 X155.055 Y136.199 E0.01523
G1 X155.432 Y136.031 E0.01689
G1 X155.919 Y135.716 E0.02378
G1 X156.351 Y135.304 E0.02442
G1 X156.679 Y134.854 E0.02278
G1 X156.859 Y134.509 E0.01597
G1 X156.999 Y134.145 E0.01595
G1 X157.127 Y133.547 E0.02504
G1 X157.139 Y132.982 E0.02314
G1 X157.092 Y132.607 E0.01547
G1 X157.002 Y132.233 E0.01575
G1 X156.79 Y131.71 E0.02312
G1 X156.479 Y131.219 E0.02381
G1 X156.073 Y130.781 E0.02444
G1 X155.591 Y130.425 E0.02454
G1 X155.073 Y130.175 E0.02355
G1 X154.718 Y130.064 E0.01523
G1 X154.312 Y129.986 E0.0169
G1 X153.731 Y129.967 E0.02381
G1 X153.158 Y130.056 E0.02375
G1 X152.752 Y130.186 E0.01745
G1 X152.761 Y129.012 E0.04806
G1 X152.339 Y128.526 F27000
G1 F900
G1 X159.233 Y128.526 E0.28231
G1 X159.233 Y137.843 E0.38151
G1 X152.339 Y137.843 E0.28231
G1 X152.337 Y136.066 E0.07276
G1 X152.321 Y135.471 E0.02435
G1 X152.933 Y135.792 E0.02827
G1 X153.244 Y135.891 E0.01337
G1 X153.595 Y135.958 E0.01465
G1 X154.104 Y135.973 E0.02086
G1 X154.602 Y135.894 E0.02065
G1 X154.904 Y135.799 E0.01295
G1 X155.228 Y135.655 E0.01453
G1 X155.654 Y135.379 E0.02079
G1 X156.029 Y135.022 E0.0212
G1 X156.315 Y134.629 E0.01991
G1 X156.47 Y134.333 E0.01369
G1 X156.589 Y134.023 E0.01358
G1 X156.702 Y133.497 E0.02202
G1 X156.712 Y133.004 E0.02021
G1 X156.672 Y132.684 E0.01321
G1 X156.595 Y132.364 E0.01348
G1 X156.41 Y131.906 E0.02024
G1 X156.14 Y131.48 E0.02063
G1 X155.787 Y131.101 E0.02121
G1 X155.369 Y130.792 E0.02128
G1 X154.915 Y130.573 E0.02064
G1 X154.614 Y130.478 E0.01295
G1 X154.265 Y130.411 E0.01453
G1 X153.757 Y130.395 E0.0208
G1 X153.256 Y130.473 E0.02076
G1 X152.95 Y130.57 E0.01317
G1 X152.61 Y130.727 E0.0153
G1 X152.32 Y130.942 E0.01481
G1 X152.337 Y130.303 E0.02618
G1 X152.339 Y128.586 E0.07031
M204 S1000
G1 X151.913 Y128.099 F27000
;TYPE:External perimeter
G1 F900
G1 X159.66 Y128.099 E0.31721
G1 X159.66 Y138.269 E0.41642
G1 X151.913 Y138.269 E0.31721
G1 X151.911 Y136.072 E0.08998
G1 X151.897 Y135.58 E0.02016
G1 X151.882 Y135.4 E0.00739
G1 X151.813 Y134.619 E0.03209
G1 X151.813 Y134.165 E0.0186
G1 X151.876 Y134.148 E0.00268
G1 X152.07 Y134.484 E0.01586
G1 X152.373 Y134.899 E0.02107
G1 X152.707 Y135.192 E0.0182
G1 X153.097 Y135.397 E0.01805
G1 X153.349 Y135.477 E0.01081
G1 X153.507 Y135.507 E0.0066
G1 X153.642 Y135.533 E0.0056
G1 X154.077 Y135.546 E0.01782
G1 X154.504 Y135.478 E0.01773
G1 X154.753 Y135.4 E0.01067
G1 X155.024 Y135.279 E0.01217
G1 X155.389 Y135.043 E0.01779
G1 X155.707 Y134.74 E0.01798
G1 X155.952 Y134.404 E0.01703
G1 X156.081 Y134.157 E0.0114
G1 X156.179 Y133.901 E0.01121
G1 X156.276 Y133.448 E0.01899
G1 X156.285 Y133.026 E0.01727
G1 X156.252 Y132.761 E0.01096
G1 X156.237 Y132.696 E0.0027
G1 X156.188 Y132.495 E0.00851
G1 X156.129 Y132.348 E0.00648
G1 X156.029 Y132.101 E0.01088
G1 X155.801 Y131.742 E0.01744
G1 X155.502 Y131.42 E0.01798
G1 X155.148 Y131.158 E0.01801
G1 X154.758 Y130.97 E0.01773
G1 X154.51 Y130.892 E0.01067
G1 X154.468 Y130.884 E0.00174
G1 X154.218 Y130.836 E0.01043
G1 X154.179 Y130.835 E0.00159
G1 X153.783 Y130.822 E0.01621
G1 X153.354 Y130.889 E0.01777
G1 X153.104 Y130.968 E0.01074
G1 X152.829 Y131.095 E0.01243
G1 X152.467 Y131.363 E0.0184
G1 X152.178 Y131.742 E0.01952
G1 X152.073 Y131.88 E0.0071
G1 X151.936 Y132.101 E0.01068
G1 X151.925 Y132.119 E0.00085
G1 X151.881 Y132.223 E0.00461
G1 X151.873 Y132.221 E0.00035
M204 S1500
G1 X151.866 Y132.257 F27000
;TYPE:Thin wall
;WIDTH:0.149984
G1 F900
G1 X151.798 Y132.349 E0.00112
;WIDTH:0.320962
G1 X151.779 Y132.376 E0.00086
G1 X151.777 Y132.506 E0.00342
;WIDTH:0.364828
G1 X151.776 Y132.637 E0.00397
G1 X151.76 Y132.779 E0.00435
G1 X151.745 Y132.921 E0.00435
G1 X151.743 Y132.955 E0.00101
G1 X151.739 Y133.317 E0.01103
G1 X151.74 Y133.345 E0.00086
G1 X151.757 Y133.575 E0.00701
G1 X151.75 Y133.776 E0.0061
;WIDTH:0.323442
G1 X151.748 Y133.827 E0.00135
;WIDTH:0.286885
G1 X151.777 Y133.987 E0.00373
;WIDTH:0.203257
G1 X151.795 Y134.085 E0.00149
;WIDTH:0.082689
G1 X151.803 Y134.124 E0.00013
;WIDTH:0.009188
G1 X151.795 Y134.085 E0.00001
;WIDTH:0.022584
G1 X151.777 Y133.987 E0.00017
;WIDTH:0.031876
G1 X151.748 Y133.827 E0.00041
;WIDTH:0.035938
G1 X151.75 Y133.776 E0.00015
;WIDTH:0.040537
G1 X151.757 Y133.575 E0.00068
G1 X151.74 Y133.345 E0.00078
G1 X151.739 Y133.317 E0.0001
G1 X151.743 Y132.955 E0.00123
G1 X151.745 Y132.921 E0.00011
G1 X151.76 Y132.779 E0.00048
G1 X151.776 Y132.637 E0.00048
G1 X151.777 Y132.506 E0.00044
;WIDTH:0.035662
G1 X151.779 Y132.376 E0.00038
G1 X151.798 Y132.349 E0.0001
;WIDTH:0.016665
G1 X151.866 Y132.257 E0.00012
M204 S1000
G1 X151.873 Y132.221 F27000
;TYPE:External perimeter
;WIDTH:0.48
G1 F900
G1 X151.813 Y132.209 E0.00251
G1 X151.813 Y131.749 E0.01883
G1 X151.897 Y130.789 E0.03948
G1 X151.911 Y130.297 E0.02016
G1 X151.913 Y128.159 E0.08752
;WIPE_START
M204 S1500
G1 X152.259 Y128.299 F27000
;WIPE_END
G1 X152.953 Y129.486
;TYPE:Gap fill
;WIDTH:0.832995
G1 F900
G1 X153.098 Y129.485 E0.0108
;WIDTH:0.764314
G1 X153.296 Y129.49 E0.01352
;WIDTH:0.738381
G1 X153.483 Y129.476 E0.01238
;WIDTH:0.680284
G1 X153.671 Y129.461 E0.01133
G1 X153.73 Y129.459 E0.00353
G1 X154.037 Y129.464 E0.01851
G1 X154.345 Y129.47 E0.01851
G1 X154.395 Y129.472 E0.003
;WIDTH:0.655334
G1 X154.551 Y129.484 E0.00907
;WIDTH:0.705886
G1 X154.707 Y129.496 E0.00983
G1 X155.416 Y129.61 F27000
;WIDTH:0.142309
G1 F900
G1 X155.536 Y129.637 E0.00105
;WIDTH:0.205903
G1 X155.686 Y129.672 E0.00225
;WIDTH:0.286027
G1 X155.836 Y129.706 E0.00344
;WIDTH:0.366152
G1 X155.986 Y129.74 E0.00462
;WIDTH:0.457269
G1 X156.018 Y129.749 E0.00125
G1 X156.19 Y129.806 E0.00685
;WIDTH:0.594111
G1 X156.355 Y129.86 E0.00906
G1 X158.317 Y130.304 F27000
;TYPE:Solid infill
;WIDTH:0.587721
G1 F1200
G1 X157.638 Y129.625 E0.04811
G1 X157.035 Y129.625 E0.03023
G1 X158.133 Y130.724 E0.07786
G1 X158.133 Y131.327 E0.03023
G1 X156.595 Y129.788 E0.1091
G1 X156.445 Y130.241 E0.02394
G1 X157.964 Y131.76 E0.10766
G1 X156.236 Y130.223 F27000
;TYPE:Gap fill
;WIDTH:0.201539
G1 F900
G1 X156.169 Y130.175 E0.00118
G1 X155.796 Y129.924 E0.00637
G1 X155.424 Y129.674 E0.00637
G1 X155.332 Y129.635 E0.00142
G1 X157.862 Y131.796 F27000
;WIDTH:0.651722
G1 F900
G1 X157.888 Y131.98 E0.01071
;WIDTH:0.623289
G1 X157.899 Y132.08 E0.00547
G1 X157.92 Y132.259 E0.00988
;WIDTH:0.540047
G1 X157.942 Y132.438 E0.00844
G1 X157.944 Y132.465 E0.00127
G1 X157.958 Y132.694 E0.01072
;WIDTH:0.477957
G1 X157.973 Y132.923 E0.00935
G1 X157.973 Y132.954 E0.00126
G1 X157.97 Y133.289 E0.01365
G1 X157.966 Y133.624 E0.01365
G1 X157.964 Y133.665 E0.00169
G1 X157.947 Y133.825 E0.00653
;WIDTH:0.540371
G1 X157.93 Y133.984 E0.00748
;WIDTH:0.585245
G1 X157.913 Y134.143 E0.00818
;WIDTH:0.630119
G1 X157.897 Y134.302 E0.00887
G1 X157.882 Y134.413 E0.00617
G1 X157.852 Y134.588 E0.00985
G1 X158.317 Y135.56 F27000
;TYPE:Solid infill
;WIDTH:0.515124
G1 F1200
G1 X157.462 Y134.705 E0.05313
G1 X157.393 Y134.69 E0.00309
G1 X157.284 Y135.13 E0.0199
G1 X158.133 Y135.979 E0.05278
G1 X158.133 Y136.582 E0.02649
G1 X157.025 Y135.473 E0.06891
G1 X156.742 Y135.794 E0.01877
G1 X157.691 Y136.743 E0.05899
G1 X157.088 Y136.743 E0.02649
G1 X156.459 Y136.114 E0.03908
G1 X156.338 Y136.252 E0.00807
G1 X156.108 Y136.366 E0.01127
G1 X156.669 Y136.926 E0.03482
G1 X156.018 Y136.602 F27000
;TYPE:Gap fill
;WIDTH:0.371694
G1 F900
G1 X155.836 Y136.629 E0.00563
;WIDTH:0.329818
G1 X155.693 Y136.662 E0.00387
;WIDTH:0.249743
G1 X155.551 Y136.696 E0.00275
;WIDTH:0.169669
G1 X155.409 Y136.729 E0.00163
G1 X154.704 Y136.852 F27000
;WIDTH:0.770417
G1 F900
G1 X154.541 Y136.872 E0.01131
;WIDTH:0.698605
G1 X154.378 Y136.892 E0.01018
G1 X154.193 Y136.907 E0.01148
G1 X154.135 Y136.909 E0.00362
G1 X153.517 Y136.9 E0.03826
G1 X153.466 Y136.897 E0.00319
;WIDTH:0.734078
G1 X153.294 Y136.88 E0.01128
G1 X153.184 Y136.881 E0.00721
;WIDTH:0.794523
G1 X153.073 Y136.882 E0.00785
;WIDTH:0.829282
G1 X152.954 Y136.879 E0.00891
; INIT stop printing object adapter-printer.stl id:0 copy 0
; INIT printing object print-fan-support.stl id:2 copy 0
G1 E-0.75 F3000
G1 Z0.65 F27000
; stop printing object adapter-printer.stl id:0 copy 0
; printing object print-fan-support.stl id:2 copy 0
G1 X142.937 Y141.275
G1 Z0.25
G1 E0.75 F1800
;TYPE:Internal perimeter
;WIDTH:0.48
G1 F900
G1 X142.937 Y141.902 E0.02566
G1 X139.411 Y145.818 E0.21578
G1 X120.344 Y147.612 E0.78417
G1 X117.431 Y147.612 E0.11925
G1 X117.431 Y141.179 E0.26338
G1 X138.675 Y137.438 E0.88325
G1 X142.892 Y141.235 E0.23235
G1 X143.363 Y141.085 F27000
G1 F900
G1 X143.363 Y142.066 E0.04013
G1 X139.616 Y146.227 E0.2293
G1 X120.364 Y148.038 E0.7918
G1 X117.005 Y148.038 E0.13753
G1 X117.005 Y140.821 E0.29549
G1 X138.806 Y136.982 E0.90642
G1 X143.319 Y141.045 E0.24863
G1 X143.79 Y140.896 F27000
G1 F900
G1 X143.79 Y142.229 E0.05461
G1 X139.822 Y146.636 E0.24281
G1 X120.384 Y148.464 E0.79943
G1 X116.578 Y148.464 E0.1558
G1 X116.578 Y140.464 E0.3276
G1 X138.937 Y136.526 E0.92958
G1 X139.018 Y136.599 E0.00448
G1 X143.745 Y140.855 E0.26044
M204 S1000
G1 X144.216 Y140.706 F27000
;TYPE:External perimeter
G1 F900
G1 X144.216 Y142.393 E0.06908
G1 X140.027 Y147.045 E0.25632
G1 X120.404 Y148.891 E0.80706
G1 X116.152 Y148.891 E0.17408
G1 X116.152 Y140.106 E0.35971
G1 X139.068 Y136.07 E0.95274
G1 X139.303 Y136.283 E0.01299
G1 X144.171 Y140.666 E0.26821
;WIPE_START
M204 S1500
G1 X143.938 Y140.993 F27000
;WIPE_END
G1 X140.155 Y138.856
;TYPE:Solid infill
;WIDTH:0.46848
G1 F1200
G1 X142.69 Y141.391 E0.14327
G1 X142.69 Y141.807 E0.01662
G1 X142.601 Y141.905 E0.00529
G1 X138.428 Y137.733 E0.23583
G1 X137.916 Y137.823 E0.0208
G1 X142.315 Y142.223 E0.24866
G1 X142.03 Y142.54 E0.01706
G1 X137.403 Y137.913 E0.26149
G1 X136.89 Y138.003 E0.0208
G1 X141.744 Y142.857 E0.27432
G1 X141.458 Y143.174 E0.01706
G1 X136.378 Y138.094 E0.28715
G1 X135.865 Y138.184 E0.0208
G1 X141.173 Y143.492 E0.29997
G1 X140.887 Y143.809 E0.01706
G1 X135.352 Y138.274 E0.3128
G1 X134.84 Y138.365 E0.0208
G1 X140.601 Y144.126 E0.32563
G1 X140.316 Y144.444 E0.01706
G1 X134.327 Y138.455 E0.33846
G1 X133.814 Y138.545 E0.0208
G1 X140.03 Y144.761 E0.35129
G1 X139.744 Y145.078 E0.01706
G1 X133.302 Y138.635 E0.36412
G1 X132.789 Y138.726 E0.0208
G1 X139.459 Y145.395 E0.37695
G1 X139.291 Y145.581 E0.00998
G1 X139.063 Y145.603 E0.00918
G1 X132.276 Y138.816 E0.38355
G1 X131.764 Y138.906 E0.0208
G1 X138.512 Y145.654 E0.38138
G1 X137.961 Y145.706 E0.02212
G1 X131.251 Y138.997 E0.37921
G1 X130.738 Y139.087 E0.0208
G1 X137.409 Y145.758 E0.37703
G1 X136.858 Y145.81 E0.02212
G1 X130.226 Y139.177 E0.37486
G1 X129.713 Y139.267 E0.0208
G1 X136.307 Y145.862 E0.37269
G1 X135.756 Y145.914 E0.02212
G1 X129.2 Y139.358 E0.37052
G1 X128.688 Y139.448 E0.0208
G1 X135.205 Y145.965 E0.36834
G1 X134.654 Y146.017 E0.02212
G1 X128.175 Y139.538 E0.36617
G1 X127.662 Y139.629 E0.0208
G1 X134.103 Y146.069 E0.364
G1 X133.552 Y146.121 E0.02212
G1 X127.15 Y139.719 E0.36182
G1 X126.637 Y139.809 E0.0208
G1 X133.001 Y146.173 E0.35965
G1 X132.449 Y146.225 E0.02212
G1 X126.124 Y139.899 E0.35748
G1 X125.612 Y139.99 E0.0208
G1 X131.898 Y146.276 E0.35531
G1 X131.347 Y146.328 E0.02212
G1 X125.099 Y140.08 E0.35313
G1 X124.586 Y140.17 E0.0208
G1 X130.796 Y146.38 E0.35096
G1 X130.245 Y146.432 E0.02212
G1 X124.074 Y140.261 E0.34879
G1 X123.561 Y140.351 E0.0208
G1 X129.694 Y146.484 E0.34661
G1 X129.143 Y146.536 E0.02212
G1 X123.048 Y140.441 E0.34444
G1 X122.536 Y140.531 E0.0208
G1 X128.592 Y146.587 E0.34227
G1 X128.041 Y146.639 E0.02212
G1 X122.023 Y140.622 E0.3401
G1 X121.51 Y140.712 E0.0208
G1 X127.489 Y146.691 E0.33792
G1 X126.938 Y146.743 E0.02212
G1 X120.998 Y140.802 E0.33575
G1 X120.485 Y140.892 E0.0208
G1 X126.387 Y146.795 E0.33358
G1 X125.836 Y146.847 E0.02212
G1 X119.972 Y140.983 E0.3314
G1 X119.46 Y141.073 E0.0208
G1 X125.285 Y146.898 E0.32923
G1 X124.734 Y146.95 E0.02212
G1 X118.947 Y141.163 E0.32706
G1 X118.434 Y141.254 E0.0208
G1 X124.183 Y147.002 E0.32489
G1 X123.632 Y147.054 E0.02212
G1 X117.922 Y141.344 E0.32271
G1 X117.678 Y141.387 E0.00987
G1 X117.678 Y141.704 E0.01267
G1 X123.081 Y147.106 E0.30531
G1 X122.529 Y147.158 E0.02212
G1 X117.678 Y142.307 E0.27416
G1 X117.678 Y142.91 E0.0241
G1 X121.978 Y147.209 E0.24302
G1 X121.427 Y147.261 E0.02212
G1 X117.678 Y143.512 E0.21187
G1 X117.678 Y144.115 E0.0241
G1 X120.876 Y147.313 E0.18072
G1 X120.324 Y147.364 E0.02214
G1 X117.678 Y144.718 E0.14954
G1 X117.678 Y145.321 E0.0241
G1 X119.721 Y147.364 E0.11546
G1 X119.118 Y147.364 E0.0241
G1 X117.678 Y145.924 E0.08139
G1 X117.678 Y146.527 E0.0241
G1 X118.515 Y147.364 E0.04731
G1 X117.913 Y147.364 E0.0241
G1 X117.495 Y146.947 E0.02359
; INIT stop printing object print-fan-support.stl id:2 copy 0
; INIT printing object fan-shroud.stl id:1 copy 0
G1 E-0.75 F3000
G1 Z0.65 F27000
; stop printing object print-fan-support.stl id:2 copy 0
; printing object fan-shroud.stl id:1 copy 0
G1 X149.494 Y156.655
G1 Z0.25
G1 E0.75 F1800
