; generated by SuperSlicer 2.5.59 on 2022-09-03 at 08:49:28 UTC


;
;

;
;
; 

; external perimeters extrusion width = 0.50mm
; perimeters extrusion width = 0.50mm
; infill extrusion width = 0.50mm
; solid infill extrusion width = 0.56mm
; top infill extrusion width = 0.40mm

; object:{"name":"adapter_lock_8mm_deeper","id":"adapter_lock_8mm_deeper.stl id:0 copy 0","object_center":[150.053229,149.945148,0.000000],"boundingbox_center":[150.053229,149.945148,13.000000],"boundingbox_size":[68.287481,68.708966,26.000000]}
; plater:{"center":[150.053229,149.945148,0.000000],"boundingbox_center":[150.053229,149.945148,13.000000],"boundingbox_size":[68.287481,68.708966,26.000000]}

M73 P0 R33
;TYPE:Custom
; custom gcode: start_gcode
PRINT_START EXTRUDER=250 BED=110
; custom gcode end: start_gcode
M107
G21 ; set units to millimeters
G90 ; use absolute coordinates
M83 ; use relative distances for extrusion
; custom gcode: start_filament_gcode
; Filament gcode
SET_PRESSURE_ADVANCE ADVANCE=0.03
SET_PRESSURE_ADVANCE EXTRUDER=extruder SMOOTH_TIME=0.04
; custom gcode end: start_filament_gcode
;_TOOLCHANGE 0
M104 S250 ; set temperature
M109 S250 ; set temperature and wait for it to be reached
M190 S110 ; set bed temperature and wait for it to be reached
;LAYER_CHANGE
;Z:0.24
;HEIGHT:0.24
G1 Z0.24 F36000
G92 E0
M73 P1 R32
G1 E-0.5 F1800
; printing object adapter_lock_8mm_deeper.stl id:0 copy 0
M204 S2000
G1 X132.811 Y181.941 F36000
G1 E0.5 F1800
;TYPE:Internal perimeter
;WIDTH:0.5
G1 X141.329 Y173.424 E0.53905
G1 X138.395 Y171.811 E0.14981
G1 X136.824 Y170.814 E0.08329
G1 X135.318 Y169.72 E0.08329
G1 X133.884 Y168.534 E0.08329
G1 X132.527 Y167.26 E0.08329
G1 X131.253 Y165.903 E0.08329
G1 X130.067 Y164.469 E0.08329
G1 X128.973 Y162.963 E0.08329
G1 X127.976 Y161.392 E0.08329
G1 X126.663 Y159.004 E0.12192
G1 X125.403 Y160.264 E0.07973
G1 X118.269 Y167.399 E0.45154
G1 X132.811 Y181.941 E0.92036
G1 X132.811 Y181.307 F36000
G1 F1800
G1 X140.589 Y173.529 E0.49225
G1 X138.167 Y172.197 E0.12371
G1 X136.571 Y171.185 E0.08455
G1 X135.043 Y170.075 E0.08455
G1 X133.587 Y168.87 E0.08455
G1 X132.21 Y167.577 E0.08455
G1 X130.917 Y166.2 E0.08455
G1 X129.712 Y164.744 E0.08455
G1 X128.602 Y163.215 E0.08455
G1 X127.589 Y161.62 E0.08455
G1 X126.558 Y159.744 E0.09582
G1 X125.72 Y160.581 E0.053
G1 X118.903 Y167.399 E0.43147
G1 X132.811 Y181.307 E0.88022
M204 S1000
G1 X132.811 Y180.673 F36000
;TYPE:External perimeter
G1 F1800
G1 X139.85 Y173.634 E0.44545
G1 X137.938 Y172.584 E0.09761
G1 X136.319 Y171.556 E0.08581
G1 X134.768 Y170.429 E0.08581
G1 X133.29 Y169.207 E0.08581
G1 X131.893 Y167.894 E0.08581
G1 X130.58 Y166.496 E0.08581
G1 X129.358 Y165.019 E0.08581
G1 X128.231 Y163.468 E0.08581
G1 X127.203 Y161.849 E0.08581
G1 X126.453 Y160.483 E0.06972
G1 X126.037 Y160.898 E0.02627
G1 X119.537 Y167.399 E0.4114
G1 X132.811 Y180.673 E0.84008
;WIPE_START
M204 S4000
G1 X133.094 Y180.956 F36000
;WIPE_END
G1 E-0.5 F1800
; acceleration to travel
M204 S10000
G1 X149.4 Y174.449 F36000
; decel to extrusion
M204 S2000
G1 X152.661 Y173.148
; end travel
G1 E0.5 F1800
;TYPE:Internal perimeter
G1 X154.319 Y173.148 E0.07422
G1 X156.003 Y173.042 E0.07548
G1 X157.676 Y172.83 E0.07548
G1 X159.333 Y172.514 E0.07548
G1 X160.967 Y172.095 E0.07548
G1 X162.571 Y171.574 E0.07548
G1 X164.139 Y170.953 E0.07548
G1 X165.666 Y170.234 E0.07549
G1 X167.144 Y169.422 E0.07548
G1 X168.568 Y168.518 E0.07548
G1 X169.932 Y167.527 E0.07549
G1 X170.342 Y167.188 E0.02381
G1 X171.232 Y166.451 E0.05168
G1 X172.462 Y165.297 E0.07548
G1 X173.616 Y164.067 E0.07548
G1 X174.691 Y162.768 E0.07548
G1 X175.683 Y161.403 E0.07548
G1 X176.587 Y159.979 E0.07548
G1 X177.399 Y158.501 E0.07548
G1 X178.118 Y156.974 E0.07549
G1 X178.738 Y155.406 E0.07548
G1 X179.26 Y153.802 E0.07548
G1 X179.679 Y152.168 E0.07548
G1 X179.995 Y150.511 E0.07548
G1 X180.207 Y148.838 E0.07548
G1 X180.313 Y147.154 E0.07548
G1 X180.313 Y145.468 E0.07549
G1 X180.207 Y143.784 E0.07548
G1 X179.995 Y142.111 E0.07548
G1 X179.679 Y140.454 E0.07548
G1 X179.26 Y138.82 E0.07549
G1 X178.738 Y137.216 E0.07548
G1 X178.118 Y135.648 E0.07548
G1 X177.399 Y134.121 E0.07548
G1 X176.587 Y132.643 E0.07548
G1 X175.683 Y131.219 E0.07548
G1 X174.692 Y129.854 E0.07548
G1 X174.399 Y129.501 E0.0205
G1 X173.616 Y128.555 E0.05498
G1 X172.462 Y127.325 E0.07548
G1 X171.232 Y126.17 E0.07548
G1 X169.932 Y125.095 E0.07549
G1 X168.568 Y124.104 E0.07548
G1 X167.144 Y123.2 E0.07548
G1 X165.665 Y122.387 E0.07548
G1 X164.139 Y121.669 E0.07548
G1 X162.571 Y121.048 E0.07548
G1 X160.967 Y120.527 E0.07548
G1 X159.333 Y120.108 E0.07548
G1 X157.676 Y119.792 E0.07548
G1 X156.003 Y119.58 E0.07549
G1 X154.319 Y119.474 E0.07548
G1 X152.632 Y119.474 E0.07549
G1 X150.949 Y119.58 E0.07548
G1 X149.276 Y119.792 E0.07549
G1 X147.619 Y120.108 E0.07548
G1 X145.985 Y120.527 E0.07548
G1 X144.381 Y121.048 E0.07549
G1 X142.812 Y121.669 E0.07548
G1 X141.286 Y122.387 E0.07548
G1 X139.808 Y123.2 E0.07549
G1 X138.384 Y124.104 E0.07548
G1 X137.019 Y125.095 E0.07548
G1 X135.72 Y126.17 E0.07548
G1 X134.49 Y127.325 E0.07549
G1 X133.335 Y128.555 E0.07548
G1 X132.26 Y129.854 E0.07549
G1 X131.269 Y131.219 E0.07548
G1 X130.365 Y132.643 E0.07549
G1 X129.552 Y134.121 E0.07548
G1 X128.834 Y135.648 E0.07548
G1 X128.213 Y137.216 E0.07548
G1 X127.692 Y138.82 E0.07549
G1 X127.272 Y140.454 E0.07548
G1 X126.956 Y142.111 E0.07548
G1 X126.745 Y143.784 E0.07548
G1 X126.639 Y145.468 E0.07548
G1 X126.639 Y147.154 E0.07549
G1 X126.745 Y148.838 E0.07548
G1 X126.956 Y150.511 E0.07548
G1 X127.272 Y152.168 E0.07549
G1 X127.692 Y153.802 E0.07548
G1 X128.213 Y155.406 E0.07548
G1 X128.834 Y156.974 E0.07548
G1 X129.552 Y158.501 E0.07549
G1 X130.365 Y159.979 E0.07548
G1 X131.269 Y161.403 E0.07548
G1 X132.26 Y162.768 E0.07548
G1 X133.335 Y164.067 E0.07548
G1 X134.49 Y165.297 E0.07548
G1 X135.72 Y166.451 E0.07548
G1 X137.019 Y167.527 E0.07548
G1 X138.384 Y168.518 E0.07549
G1 X139.808 Y169.422 E0.07548
G1 X141.286 Y170.234 E0.07548
G1 X142.812 Y170.953 E0.07549
G1 X144.381 Y171.574 E0.07548
G1 X145.985 Y172.095 E0.07548
G1 X147.619 Y172.514 E0.07548
G1 X149.276 Y172.83 E0.07548
G1 X150.949 Y173.042 E0.07548
G1 X152.632 Y173.148 E0.07548
G1 X152.661 Y173.148 E0.00126
G1 X152.661 Y172.699 F36000
G1 F1800
G1 X154.305 Y172.699 E0.07359
G1 X155.96 Y172.595 E0.07422
G1 X157.606 Y172.387 E0.07422
G1 X159.235 Y172.076 E0.07422
G1 X160.842 Y171.664 E0.07422
G1 X162.419 Y171.151 E0.07422
G1 X163.961 Y170.541 E0.07422
G1 X165.462 Y169.835 E0.07422
G1 X166.915 Y169.036 E0.07422
G1 X168.316 Y168.147 E0.07422
G1 X169.657 Y167.172 E0.07422
G1 X170.056 Y166.842 E0.02318
G1 X170.935 Y166.115 E0.05105
G1 X172.144 Y164.979 E0.07422
G1 X173.28 Y163.77 E0.07422
G1 X174.337 Y162.492 E0.07422
G1 X175.312 Y161.151 E0.07422
G1 X176.201 Y159.75 E0.07422
G1 X177 Y158.297 E0.07422
G1 X177.706 Y156.796 E0.07422
G1 X178.316 Y155.254 E0.07422
G1 X178.829 Y153.677 E0.07422
G1 X179.241 Y152.07 E0.07422
G1 X179.552 Y150.441 E0.07422
G1 X179.76 Y148.796 E0.07422
G1 X179.864 Y147.14 E0.07422
G1 X179.864 Y145.482 E0.07422
G1 X179.76 Y143.826 E0.07422
G1 X179.552 Y142.181 E0.07422
G1 X179.241 Y140.552 E0.07422
G1 X178.829 Y138.945 E0.07422
G1 X178.316 Y137.368 E0.07422
G1 X177.706 Y135.826 E0.07422
G1 X177 Y134.325 E0.07422
G1 X176.201 Y132.872 E0.07422
G1 X175.312 Y131.471 E0.07422
G1 X174.337 Y130.129 E0.07422
G1 X174.054 Y129.787 E0.01987
G1 X173.28 Y128.851 E0.05435
G1 X172.144 Y127.642 E0.07422
G1 X170.935 Y126.507 E0.07422
G1 X169.657 Y125.45 E0.07422
G1 X168.316 Y124.475 E0.07422
G1 X166.915 Y123.586 E0.07422
G1 X165.462 Y122.787 E0.07422
G1 X163.961 Y122.081 E0.07422
G1 X162.419 Y121.47 E0.07422
G1 X160.842 Y120.958 E0.07422
G1 X159.235 Y120.545 E0.07422
G1 X157.606 Y120.235 E0.07422
G1 X155.96 Y120.027 E0.07422
G1 X154.305 Y119.923 E0.07422
G1 X152.647 Y119.923 E0.07422
G1 X150.991 Y120.027 E0.07422
G1 X149.346 Y120.235 E0.07422
G1 X147.717 Y120.545 E0.07422
G1 X146.11 Y120.958 E0.07422
G1 X144.533 Y121.47 E0.07422
G1 X142.991 Y122.081 E0.07422
G1 X141.49 Y122.787 E0.07422
G1 X140.036 Y123.586 E0.07422
G1 X138.636 Y124.475 E0.07422
G1 X137.294 Y125.45 E0.07422
G1 X136.016 Y126.507 E0.07422
G1 X134.807 Y127.642 E0.07422
G1 X133.672 Y128.851 E0.07422
G1 X132.615 Y130.129 E0.07422
G1 X131.64 Y131.471 E0.07422
G1 X130.751 Y132.872 E0.07422
G1 X129.952 Y134.325 E0.07422
G1 X129.246 Y135.826 E0.07422
G1 X128.635 Y137.368 E0.07422
G1 X128.123 Y138.945 E0.07422
G1 X127.71 Y140.552 E0.07422
G1 X127.4 Y142.181 E0.07422
G1 X127.192 Y143.826 E0.07422
G1 X127.088 Y145.482 E0.07422
G1 X127.088 Y147.14 E0.07422
G1 X127.192 Y148.796 E0.07422
G1 X127.4 Y150.441 E0.07422
G1 X127.71 Y152.07 E0.07422
G1 X128.123 Y153.677 E0.07422
G1 X128.635 Y155.254 E0.07422
G1 X129.246 Y156.796 E0.07422
G1 X129.952 Y158.297 E0.07422
G1 X130.751 Y159.75 E0.07422
G1 X131.64 Y161.151 E0.07422
G1 X132.615 Y162.492 E0.07422
G1 X133.672 Y163.77 E0.07422
G1 X134.807 Y164.979 E0.07422
G1 X136.016 Y166.115 E0.07422
G1 X137.294 Y167.172 E0.07422
G1 X138.636 Y168.147 E0.07422
G1 X140.036 Y169.036 E0.07422
G1 X141.49 Y169.835 E0.07422
G1 X142.991 Y170.541 E0.07422
G1 X144.533 Y171.151 E0.07422
G1 X146.11 Y171.664 E0.07422
G1 X147.717 Y172.076 E0.07422
G1 X149.346 Y172.387 E0.07422
G1 X150.991 Y172.595 E0.07422
G1 X152.647 Y172.699 E0.07422
G1 X152.661 Y172.699 E0.00063
M204 S1000
G1 X152.661 Y172.251 F36000
;TYPE:External perimeter
G1 F1800
G1 X154.291 Y172.251 E0.07296
G1 X155.918 Y172.148 E0.07296
G1 X157.536 Y171.944 E0.07296
G1 X159.137 Y171.639 E0.07296
G1 X160.716 Y171.233 E0.07296
G1 X162.267 Y170.729 E0.07296
G1 X163.783 Y170.129 E0.07296
G1 X165.258 Y169.435 E0.07296
G1 X166.687 Y168.649 E0.07296
G1 X168.063 Y167.776 E0.07296
G1 X169.382 Y166.818 E0.07296
G1 X169.771 Y166.496 E0.02255
G1 X170.639 Y165.778 E0.05042
G1 X171.827 Y164.662 E0.07296
G1 X172.943 Y163.474 E0.07296
G1 X173.982 Y162.217 E0.07296
G1 X174.941 Y160.898 E0.07296
G1 X175.814 Y159.522 E0.07296
G1 X176.6 Y158.093 E0.07296
G1 X177.294 Y156.618 E0.07296
G1 X177.894 Y155.102 E0.07296
G1 X178.398 Y153.551 E0.07296
G1 X178.803 Y151.972 E0.07296
G1 X179.109 Y150.371 E0.07296
G1 X179.313 Y148.753 E0.07296
G1 X179.416 Y147.126 E0.07296
G1 X179.416 Y145.496 E0.07296
M73 P2 R32
G1 X179.313 Y143.869 E0.07296
G1 X179.109 Y142.251 E0.07296
G1 X178.803 Y140.65 E0.07296
G1 X178.398 Y139.07 E0.07296
G1 X177.894 Y137.52 E0.07296
G1 X177.294 Y136.004 E0.07296
G1 X176.6 Y134.529 E0.07296
G1 X175.814 Y133.1 E0.07296
G1 X174.941 Y131.723 E0.07296
G1 X173.982 Y130.404 E0.07296
G1 X173.708 Y130.073 E0.01924
G1 X172.943 Y129.148 E0.05372
G1 X171.827 Y127.96 E0.07296
G1 X170.639 Y126.844 E0.07296
G1 X169.382 Y125.804 E0.07296
G1 X168.063 Y124.846 E0.07296
G1 X166.687 Y123.972 E0.07296
G1 X165.258 Y123.187 E0.07296
G1 X163.783 Y122.493 E0.07296
G1 X162.267 Y121.893 E0.07296
G1 X160.716 Y121.389 E0.07296
G1 X159.137 Y120.983 E0.07296
G1 X157.536 Y120.678 E0.07296
G1 X155.918 Y120.474 E0.07296
G1 X154.291 Y120.371 E0.07296
G1 X152.661 Y120.371 E0.07296
G1 X151.033 Y120.474 E0.07296
G1 X149.416 Y120.678 E0.07296
G1 X147.814 Y120.983 E0.07296
G1 X146.235 Y121.389 E0.07296
G1 X144.685 Y121.893 E0.07296
G1 X143.169 Y122.493 E0.07296
G1 X141.694 Y123.187 E0.07296
G1 X140.265 Y123.972 E0.07296
G1 X138.888 Y124.846 E0.07296
G1 X137.569 Y125.804 E0.07296
G1 X136.313 Y126.844 E0.07296
G1 X135.125 Y127.96 E0.07296
G1 X134.009 Y129.148 E0.07296
G1 X132.969 Y130.404 E0.07296
G1 X132.011 Y131.723 E0.07296
G1 X131.137 Y133.1 E0.07296
G1 X130.352 Y134.529 E0.07296
G1 X129.658 Y136.004 E0.07296
G1 X129.058 Y137.52 E0.07296
G1 X128.554 Y139.07 E0.07296
G1 X128.148 Y140.65 E0.07296
G1 X127.843 Y142.251 E0.07296
G1 X127.638 Y143.869 E0.07296
G1 X127.536 Y145.496 E0.07296
G1 X127.536 Y147.126 E0.07296
G1 X127.638 Y148.753 E0.07296
G1 X127.843 Y150.371 E0.07296
G1 X128.148 Y151.972 E0.07296
G1 X128.554 Y153.551 E0.07296
G1 X129.058 Y155.102 E0.07296
G1 X129.658 Y156.618 E0.07296
G1 X130.352 Y158.093 E0.07296
G1 X131.137 Y159.522 E0.07296
G1 X132.011 Y160.898 E0.07296
G1 X132.969 Y162.217 E0.07296
G1 X134.009 Y163.474 E0.07296
G1 X135.125 Y164.662 E0.07296
G1 X136.313 Y165.778 E0.07296
G1 X137.569 Y166.818 E0.07296
G1 X138.888 Y167.776 E0.07296
G1 X140.265 Y168.649 E0.07296
G1 X141.694 Y169.435 E0.07296
G1 X143.169 Y170.129 E0.07296
G1 X144.685 Y170.729 E0.07296
G1 X146.235 Y171.233 E0.07296
G1 X147.814 Y171.639 E0.07296
G1 X149.416 Y171.944 E0.07296
G1 X151.033 Y172.148 E0.07296
G1 X152.661 Y172.251 E0.07296
;WIPE_START
M204 S4000
G1 X152.853 Y172.601 F36000
;WIPE_END
G1 E-0.5 F1800
; acceleration to travel
M204 S10000
G1 X136.151 Y180.995 F36000
; decel to extrusion
M204 S2000
G1 X132.811 Y182.674
; end travel
G1 E0.5 F1800
;TYPE:Internal perimeter
G1 X117.536 Y167.399 E0.96673
G1 X126.449 Y158.486 E0.56406
G1 X125.601 Y156.346 E0.10299
G1 X125.026 Y154.576 E0.08329
G1 X124.563 Y152.774 E0.08329
G1 X124.215 Y150.945 E0.08329
G1 X123.981 Y149.099 E0.08329
G1 X123.865 Y147.242 E0.08329
G1 X123.865 Y145.38 E0.08329
G1 X123.981 Y143.523 E0.08329
G1 X124.215 Y141.676 E0.08329
G1 X124.563 Y139.848 E0.08329
G1 X125.026 Y138.046 E0.08329
G1 X125.601 Y136.276 E0.08329
G1 X126.287 Y134.545 E0.08329
G1 X127.079 Y132.861 E0.08329
G1 X127.976 Y131.23 E0.08329
G1 X128.973 Y129.659 E0.08329
G1 X130.067 Y128.153 E0.08329
G1 X131.253 Y126.719 E0.08329
G1 X132.527 Y125.362 E0.08329
G1 X133.884 Y124.088 E0.08329
G1 X135.318 Y122.902 E0.08329
G1 X136.824 Y121.808 E0.08329
G1 X138.395 Y120.811 E0.08329
G1 X140.026 Y119.914 E0.08329
G1 X141.71 Y119.122 E0.08329
G1 X143.44 Y118.437 E0.08329
G1 X145.21 Y117.861 E0.08329
G1 X147.013 Y117.399 E0.08329
G1 X148.841 Y117.05 E0.08329
G1 X150.688 Y116.817 E0.08329
G1 X152.545 Y116.7 E0.08329
G1 X154.406 Y116.7 E0.08329
G1 X154.851 Y116.728 E0.01995
G1 X156.264 Y116.817 E0.06334
G1 X158.11 Y117.05 E0.08329
G1 X159.939 Y117.399 E0.08329
G1 X161.741 Y117.861 E0.08329
G1 X163.511 Y118.437 E0.08329
G1 X165.242 Y119.122 E0.08329
G1 X166.926 Y119.914 E0.08329
G1 X168.557 Y120.811 E0.08329
G1 X170.128 Y121.808 E0.08329
G1 X171.634 Y122.902 E0.08329
G1 X173.068 Y124.088 E0.08329
G1 X174.424 Y125.362 E0.08329
G1 X175.699 Y126.719 E0.08329
G1 X176.885 Y128.153 E0.08329
G1 X177.979 Y129.659 E0.08329
G1 X178.976 Y131.23 E0.08329
G1 X179.873 Y132.861 E0.08329
G1 X180.665 Y134.545 E0.08329
G1 X181.35 Y136.276 E0.08329
G1 X181.925 Y138.046 E0.08329
G1 X182.388 Y139.848 E0.08329
G1 X182.737 Y141.676 E0.08329
G1 X182.97 Y143.523 E0.08329
G1 X183.087 Y145.38 E0.08329
G1 X183.087 Y147.242 E0.08329
G1 X182.97 Y149.099 E0.08329
G1 X182.737 Y150.945 E0.08329
G1 X182.388 Y152.774 E0.08329
G1 X181.925 Y154.576 E0.08329
G1 X181.35 Y156.346 E0.08329
G1 X180.665 Y158.077 E0.08329
G1 X179.873 Y159.761 E0.08329
G1 X178.976 Y161.392 E0.08329
G1 X177.979 Y162.963 E0.08329
G1 X176.885 Y164.469 E0.08329
G1 X175.699 Y165.903 E0.08329
G1 X174.424 Y167.26 E0.08329
G1 X173.068 Y168.534 E0.08329
G1 X171.634 Y169.72 E0.08329
G1 X170.128 Y170.814 E0.08329
G1 X168.557 Y171.811 E0.08329
G1 X166.926 Y172.708 E0.08329
G1 X165.242 Y173.5 E0.08329
G1 X163.511 Y174.185 E0.08329
G1 X161.741 Y174.761 E0.08329
G1 X159.939 Y175.223 E0.08329
G1 X158.11 Y175.572 E0.08329
G1 X156.264 Y175.805 E0.08329
G1 X154.406 Y175.922 E0.08329
G1 X152.545 Y175.922 E0.08329
G1 X150.688 Y175.805 E0.08329
G1 X148.841 Y175.572 E0.08329
G1 X147.013 Y175.223 E0.08329
G1 X145.21 Y174.761 E0.08329
G1 X143.44 Y174.185 E0.08329
G1 X141.907 Y173.578 E0.07381
G1 X132.811 Y182.674 E0.57565
G1 X132.811 Y183.308 F36000
G1 F1800
G1 X116.902 Y167.399 E1.00687
G1 X125.923 Y158.377 E0.57095
G1 X125.179 Y156.498 E0.09044
G1 X124.595 Y154.701 E0.08455
G1 X124.126 Y152.872 E0.08455
G1 X123.771 Y151.016 E0.08455
G1 X123.535 Y149.141 E0.08455
G1 X123.416 Y147.256 E0.08455
G1 X123.416 Y145.366 E0.08455
G1 X123.535 Y143.481 E0.08455
G1 X123.771 Y141.606 E0.08455
G1 X124.126 Y139.75 E0.08455
G1 X124.595 Y137.92 E0.08455
G1 X125.179 Y136.124 E0.08455
G1 X125.875 Y134.367 E0.08455
G1 X126.679 Y132.657 E0.08455
G1 X127.589 Y131.002 E0.08455
G1 X128.602 Y129.407 E0.08455
G1 X129.712 Y127.878 E0.08455
G1 X130.917 Y126.422 E0.08455
