; generated by SuperSlicer 2.5.59 on 2022-09-14 at 03:16:41 UTC


;
;

;
;
; 

; external perimeters extrusion width = 0.40mm
; perimeters extrusion width = 0.40mm
; infill extrusion width = 0.50mm
; solid infill extrusion width = 0.56mm
; top infill extrusion width = 0.40mm
; first layer extrusion width = 0.80mm

; external perimeters extrusion width = 0.40mm
; perimeters extrusion width = 0.40mm
; infill extrusion width = 0.50mm
; solid infill extrusion width = 0.56mm
; top infill extrusion width = 0.40mm
; first layer extrusion width = 0.80mm

; object:{"name":"bear_upgrade_big_case_clamp_r2","id":"bear_upgrade_big_case_clamp_r2.stl id:0 copy 0","object_center":[160.061358,141.841326,0.000000],"boundingbox_center":[160.061358,141.841326,7.443107],"boundingbox_size":[46.531464,46.531394,14.886214]}
; object:{"name":"psu_upper_mount_black","id":"psu_upper_mount_black.stl id:1 copy 0","object_center":[138.902991,163.012700,0.000000],"boundingbox_center":[138.902991,163.012700,10.000000],"boundingbox_size":[44.354332,36.769553,20.000000]}
; plater:{"center":[150.026458,149.986553,0.000000],"boundingbox_center":[150.026458,149.986553,10.000000],"boundingbox_size":[66.601265,62.821847,20.000000]}

M73 P0 R50
;TYPE:Custom
; custom gcode: start_gcode
PRINT_START EXTRUDER=255 BED=110 AREA_START=112.544,114.311 AREA_END=187.592,185.413
; custom gcode end: start_gcode
M107
G21 ; set units to millimeters
G90 ; use absolute coordinates
M83 ; use relative distances for extrusion
; custom gcode: start_filament_gcode
; Filament gcode
SET_PRESSURE_ADVANCE ADVANCE=0.02
SET_PRESSURE_ADVANCE EXTRUDER=extruder SMOOTH_TIME=0.04
; custom gcode end: start_filament_gcode
;_TOOLCHANGE 0
M104 S255 ; set temperature
M109 S255 ; set temperature and wait for it to be reached
M190 S110 ; set bed temperature and wait for it to be reached
;LAYER_CHANGE
;Z:0.24
;HEIGHT:0.24
G1 Z0.24 F36000
G92 E0
G1 E-0.5 F1800
M204 S2000
G1 X135.052 Y135.052 F36000
G1 E0.5 F1800
;TYPE:Skirt
;WIDTH:0.4
G1 F900
G1 X134.273 Y135.831 E0.03525
G1 X113.745 Y159.99 E1.01419
G1 X112.899 Y161.746 E0.06237
G1 X112.958 Y163.493 E0.05589
G1 X115.944 Y174.637 E0.36911
G1 X116.945 Y176.371 E0.06402
G1 X124.556 Y183.982 E0.34435
G1 X126.129 Y184.936 E0.05883
G1 X127.871 Y185.07 E0.05589
G1 X157.749 Y180.529 E0.96683
G1 X159.902 Y179.441 E0.07717
G1 X162.301 Y176.995 E0.10959
G1 X186.447 Y145.507 E1.26944
G1 X187.245 Y143.154 E0.07947
G1 X187.245 Y141.102 E0.06566
G1 X187.037 Y139.851 E0.04057
M73 P1 R50
G1 X186.113 Y138.368 E0.05589
G1 X165.217 Y117.472 E0.94539
G1 X163.742 Y116.55 E0.05564
G1 X158.988 Y114.913 E0.16085
G1 X158.391 Y114.754 E0.01974
G1 X157.531 Y114.658 E0.02769
G1 X156.468 Y114.754 E0.03416
G1 X155.453 Y115.086 E0.03415
G1 X154.537 Y115.634 E0.03415
G1 X154.051 Y116.053 E0.02053
G1 X135.052 Y135.052 E0.85957
G1 X135.297 Y135.297 F36000
G1 F900
G1 X134.518 Y136.076 E0.03525
G1 X114.009 Y160.214 E1.01329
G1 X113.255 Y161.737 E0.05438
G1 X113.293 Y163.403 E0.0533
G1 X116.279 Y174.548 E0.36911
G1 X117.19 Y176.126 E0.05828
G1 X124.801 Y183.737 E0.34435
M73 P1 R49
G1 X126.159 Y184.581 E0.05115
G1 X127.819 Y184.728 E0.0533
G1 X157.697 Y180.187 E0.96683
G1 X159.657 Y179.196 E0.07026
G1 X162.026 Y176.784 E0.10814
G1 X186.172 Y145.296 E1.26944
G1 X186.899 Y143.154 E0.07235
G1 X186.899 Y141.102 E0.06566
G1 X186.734 Y140.036 E0.03449
G1 X185.868 Y138.613 E0.0533
G1 X164.972 Y117.717 E0.94539
G1 X163.629 Y116.878 E0.05065
G1 X158.875 Y115.241 E0.16085
G1 X158.314 Y115.092 E0.01855
G1 X157.531 Y115.004 E0.02521
G1 X156.545 Y115.092 E0.03168
G1 X155.604 Y115.398 E0.03167
G1 X154.753 Y115.905 E0.03167
G1 X154.296 Y116.298 E0.01929
G1 X135.297 Y135.297 E0.85957
G1 X135.542 Y135.542 F36000
G1 F900
G1 X134.763 Y136.321 E0.03525
G1 X114.273 Y160.438 E1.01239
G1 X113.611 Y161.733 E0.04651
G1 X113.627 Y163.313 E0.05057
G1 X116.613 Y174.458 E0.36911
G1 X117.435 Y175.881 E0.05255
G1 X125.046 Y183.492 E0.34435
G1 X126.194 Y184.226 E0.04359
G1 X127.767 Y184.385 E0.05057
G1 X157.645 Y179.845 E0.96683
G1 X159.412 Y178.951 E0.06334
G1 X161.751 Y176.574 E0.10669
G1 X185.897 Y145.085 E1.26944
G1 X186.552 Y143.154 E0.06523
G1 X186.552 Y141.102 E0.06566
G1 X186.427 Y140.219 E0.02853
G1 X185.623 Y138.858 E0.05057
G1 X164.727 Y117.962 E0.94539
M73 P2 R49
G1 X163.516 Y117.205 E0.04567
G1 X158.762 Y115.568 E0.16085
G1 X158.237 Y115.43 E0.01737
G1 X157.531 Y115.35 E0.02273
G1 X156.622 Y115.43 E0.0292
G1 X155.754 Y115.71 E0.02919
G1 X154.969 Y116.176 E0.02919
G1 X154.541 Y116.543 E0.01805
G1 X135.542 Y135.542 E0.85957
G1 E-0.5 F1800
; printing object bear_upgrade_big_case_clamp_r2.stl id:0 copy 0
; acceleration to travel
M204 S10000
G1 X157.765 Y151.717 F36000
; decel to extrusion
M204 S2000
G1 X162.21 Y154.952
; end travel
G1 E0.5 F1800
;TYPE:Internal perimeter
;WIDTH:0.696744
G1 F900
G1 X161.891 Y154.768 E0.02176
;WIDTH:0.748495
G1 X161.573 Y154.585 E0.02351
G1 X160.876 Y154.351 E0.04706
G1 X160.357 Y154.252 E0.03379
G1 X159.806 Y154.221 E0.03532
G1 X159.113 Y154.278 E0.04449
G1 X158.399 Y154.453 E0.04707
G1 X157.756 Y154.728 E0.04471
G1 X157.486 Y154.458 E0.02444
G1 X157.677 Y154.349 E0.01408
G1 X157.911 Y154.142 E0.01999
G1 X160.475 Y151.578 E0.23199
G1 X160.413 Y151.826 E0.01639
G1 X160.432 Y152.504 E0.04342
G1 X160.593 Y153.082 E0.03838
G1 X160.819 Y153.514 E0.03119
G1 X161.166 Y153.945 E0.03538
G1 X161.665 Y154.444 E0.04518
G1 X161.937 Y154.698 E0.02382
;WIDTH:0.696744
G1 X162.21 Y154.952 E0.02205
G1 E-0.5 F1800
G1 X164.345 Y158.343 F36000
G1 E0.5 F1800
;WIDTH:0.896009
G1 F900
G1 X164.274 Y157.896 E0.03513
G1 X164.084 Y157.172 E0.05796
G1 X163.836 Y156.597 E0.04859
G1 X164.114 Y156.763 E0.02509
G1 X164.731 Y156.987 E0.05089
G1 X165.48 Y157.051 E0.05826
G1 X165.679 Y157.009 E0.01578
G1 X164.345 Y158.343 E0.14633
G1 E-0.5 F1800
G1 X163.047 Y160.596 F36000
G1 E0.5 F1800
;WIDTH:0.860301
G1 F900
G1 X163.1 Y160.452 E0.01136
;WIDTH:0.804398
G1 X163.153 Y160.309 E0.01058
;WIDTH:0.748495
G1 X163.207 Y160.165 E0.00979
G1 X163.406 Y159.587 E0.03916
G1 X163.507 Y158.983 E0.03915
G1 X163.507 Y158.371 E0.03916
G1 X163.395 Y157.718 E0.04241
G1 X163.208 Y157.189 E0.03591
G1 X162.917 Y156.65 E0.03916
G1 X162.541 Y156.167 E0.03916
G1 X162.091 Y155.753 E0.03915
G1 X161.579 Y155.418 E0.03916
G1 X161.019 Y155.172 E0.03916
G1 X160.425 Y155.021 E0.03915
G1 X159.787 Y154.969 E0.041
G1 X159.206 Y155.021 E0.03732
G1 X158.612 Y155.171 E0.03916
G1 X158.013 Y155.436 E0.04191
G1 X157.589 Y155.715 E0.03253
G1 X157.294 Y155.324 E0.03136
G1 X156.119 Y154.149 E0.10632
G1 X156.732 Y154.035 E0.03993
G1 X157.215 Y153.76 E0.03551
G1 X157.382 Y153.612 E0.01428
G1 X160.714 Y150.28 E0.3015
G1 X161.452 Y151.002 E0.06607
G1 X161.287 Y151.385 E0.02667
G1 X161.157 Y151.902 E0.03413
G1 X161.171 Y152.387 E0.03101
G1 X161.372 Y152.98 E0.04009
G1 X161.695 Y153.415 E0.03471
G1 X162.721 Y154.441 E0.0928
G1 X163.357 Y155.077 E0.05754
G1 X164.059 Y155.731 E0.06139
G1 X164.487 Y156.03 E0.03339
G1 X164.916 Y156.185 E0.02918
G1 X165.436 Y156.23 E0.0334
G1 X166.007 Y156.108 E0.03735
G1 X166.385 Y155.914 E0.0272
G1 X166.72 Y156.285 E0.03202
G1 X167.14 Y156.711 E0.03825
G1 X163.486 Y160.365 E0.33064
G1 X163.363 Y160.458 E0.0099
;WIDTH:0.804398
G1 X163.239 Y160.552 E0.01069
;WIDTH:0.860301
G1 X163.116 Y160.645 E0.01149
;WIDTH:0.916204
G1 X162.993 Y160.739 E0.01228
G1 X163.047 Y160.596 E0.01215
G1 E-0.5 F1800
G1 X162.21 Y154.952 F36000
G1 E0.5 F1800
;WIDTH:0.696744
G1 F900
G1 X162.484 Y155.193 E0.02164
;WIDTH:0.600828
G1 X162.759 Y155.434 E0.01842
G1 X163.014 Y155.691 E0.01827
;WIDTH:0.64624
G1 X163.269 Y155.948 E0.01978
G1 X163.367 Y156.053 E0.00784
G1 E-0.5 F1800
G1 X159.285 Y162.382 F36000
G1 E0.5 F1800
;WIDTH:0.836585
G1 F900
G1 X159.508 Y162.409 E0.0162
G1 X160.127 Y162.409 E0.0446
G1 X160.432 Y162.359 E0.02231
G1 X160.738 Y162.31 E0.02231
G1 X161.323 Y162.108 E0.04463
G1 X161.6 Y161.981 E0.02196
;WIDTH:0.9162
G1 X161.877 Y161.855 E0.02418
G1 X161.675 Y162.085 E0.02439
;WIDTH:0.830352
G1 X161.472 Y162.316 E0.02197
G1 X160.57 Y163.218 E0.09119
G1 X160.125 Y163.221 E0.03186
G1 X159.285 Y162.382 E0.0849
G1 X160.119 Y161.609 F36000
;WIDTH:0.748495
G1 F900
G1 X160.247 Y161.598 E0.00823
G1 X160.802 Y161.463 E0.03656
G1 X161.025 Y161.363 E0.01563
G1 X161.248 Y161.263 E0.01563
G1 X161.451 Y161.127 E0.01563
G1 X161.654 Y160.991 E0.01563
G1 X162.01 Y160.657 E0.03126
G1 X162.306 Y160.269 E0.03126
G1 X162.534 Y159.837 E0.03125
G1 X162.688 Y159.373 E0.03126
G1 X162.764 Y158.891 E0.03125
G1 X162.759 Y158.402 E0.03126
G1 X162.674 Y157.921 E0.03125
G1 X162.511 Y157.461 E0.03125
G1 X162.275 Y157.035 E0.03114
G1 X161.97 Y156.651 E0.03137
G1 X161.607 Y156.324 E0.03125
G1 X161.196 Y156.061 E0.03126
G1 X160.747 Y155.869 E0.03126
G1 X160.272 Y155.754 E0.03125
G1 X159.785 Y155.718 E0.03125
G1 X159.298 Y155.763 E0.03126
G1 X158.826 Y155.888 E0.03126
G1 X158.381 Y156.089 E0.03125
G1 X157.974 Y156.36 E0.03126
G1 X157.498 Y156.836 E0.04305
G1 X157.42 Y156.905 E0.0067
;WIDTH:0.815347
G1 X157.342 Y156.975 E0.00734
;WIDTH:0.882199
G1 X157.264 Y157.044 E0.00798
;WIDTH:0.94905
G1 X157.185 Y157.114 E0.00863
;WIDTH:1.015902
G1 X157.107 Y157.183 E0.00927
G1 X157.103 Y157.049 E0.01192
;WIDTH:0.94905
G1 X157.098 Y156.914 E0.01109
;WIDTH:0.882199
G1 X157.094 Y156.78 E0.01027
;WIDTH:0.815347
G1 X157.09 Y156.645 E0.00944
;WIDTH:0.748495
G1 X157.085 Y156.511 E0.00861
G1 X156.963 Y156.121 E0.02611
G1 X156.765 Y155.853 E0.02132
G1 X154.323 Y153.412 E0.22092
G1 X156.059 Y153.412 E0.11103
G1 X156.463 Y153.337 E0.02631
G1 X156.852 Y153.083 E0.02974
G1 X160.712 Y149.224 E0.34922
G1 X161.677 Y150.182 E0.08705
G1 X161.929 Y150.426 E0.02241
G1 X162.583 Y150.966 E0.05426
G1 X162.256 Y151.269 E0.02851
G1 X162.031 Y151.558 E0.02342
G1 X161.902 Y151.978 E0.02813
G1 X161.91 Y152.269 E0.01861
G1 X162.03 Y152.625 E0.02405
G1 X162.225 Y152.886 E0.02083
G1 X163.25 Y153.912 E0.0928
G1 X163.868 Y154.529 E0.05584
G1 X164.255 Y154.89 E0.0339
G1 X164.668 Y155.265 E0.0357
G1 X164.935 Y155.411 E0.01945
G1 X165.395 Y155.483 E0.02981
G1 X165.738 Y155.409 E0.02241
G1 X166.034 Y155.24 E0.02184
G1 X166.414 Y154.79 E0.03765
G1 X166.63 Y155.007 E0.01957
G1 X166.945 Y155.413 E0.03287
G1 X167.319 Y155.83 E0.03586
G1 X168.197 Y156.712 E0.07963
G1 X160.898 Y164.011 E0.66045
G1 X159.798 Y164.011 E0.07044
G1 X157.84 Y162.053 E0.17717
G1 X157.65 Y161.845 E0.01798
;WIDTH:0.822898
G1 X157.461 Y161.637 E0.01989
G1 X157.262 Y161.442 E0.01973
G1 X157.063 Y161.248 E0.01973
G1 X156.678 Y160.839 E0.03976
G1 X156.462 Y160.649 E0.02033
;WIDTH:0.748495
G1 X156.247 Y160.46 E0.01837
G1 X154.996 Y159.21 E0.11313
G1 X156.494 Y157.712 E0.13548
G1 X156.594 Y157.648 E0.00762
;WIDTH:0.820075
G1 X156.694 Y157.584 E0.0084
;WIDTH:0.891656
G1 X156.794 Y157.52 E0.00918
;WIDTH:1.000797
G1 X156.895 Y157.456 E0.01037
G1 X156.995 Y157.391 E0.01037
G1 X156.991 Y157.534 E0.01239
;WIDTH:0.830704
G1 X156.987 Y157.676 E0.01017
G1 X156.926 Y158.068 E0.02842
;WIDTH:0.748495
G1 X156.864 Y158.461 E0.02542
G1 X156.883 Y159.083 E0.03984
G1 X157.007 Y159.608 E0.03451
G1 X157.165 Y159.973 E0.02541
;WIDTH:0.792417
G1 X157.322 Y160.337 E0.02701
G1 X157.708 Y160.782 E0.04004
G1 X158.161 Y161.154 E0.03987
G1 X158.521 Y161.318 E0.02695
;WIDTH:0.748495
G1 X158.882 Y161.483 E0.02535
G1 X159.357 Y161.598 E0.03125
G1 X159.844 Y161.633 E0.03125
G1 X160.119 Y161.609 E0.01768
G1 E-0.5 F1800
M204 S1500
G1 X159.487 Y164.759 F36000
G1 E0.5 F1800
;TYPE:External perimeter
G1 F900
G1 X153.938 Y159.21 E0.50217
G1 X156.179 Y156.968 E0.20278
G1 X156.331 Y156.749 E0.01708
G1 X156.326 Y156.529 E0.0141
G1 X156.235 Y156.383 E0.01099
G1 X153.78 Y153.927 E0.22217
G1 X153.551 Y153.819 E0.01619
G1 X153.395 Y153.868 E0.01044
G1 X153.24 Y153.916 E0.01044
G1 X152.448 Y154.708 E0.07164
G1 X152.29 Y154.55 E0.01429
G1 X152.131 Y154.274 E0.02039
G1 X152.13 Y154.046 E0.01456
G1 X152.274 Y153.778 E0.0195
G1 X152.688 Y153.364 E0.03742
G1 X153.027 Y153.014 E0.03122
G1 X153.367 Y152.663 E0.03122
G1 X156.059 Y152.663 E0.17223
G1 X156.193 Y152.638 E0.00877
G1 X156.323 Y152.554 E0.00991
G1 X160.71 Y148.167 E0.39693
G1 X162.205 Y149.651 E0.13476
G1 X162.406 Y149.849 E0.01809
G1 X163.129 Y150.447 E0.06003
G1 X163.697 Y151.015 E0.05134
G1 X163.133 Y151.476 E0.04661
G1 X162.69 Y151.915 E0.0399
G1 X162.649 Y152.151 E0.01538
G1 X162.754 Y152.357 E0.01478
G1 X163.779 Y153.383 E0.0928
G1 X164.378 Y153.981 E0.05413
G1 X164.765 Y154.342 E0.0339
G1 X165.139 Y154.68 E0.03223
G1 X165.355 Y154.735 E0.01427
G1 X165.568 Y154.654 E0.01457
G1 X165.902 Y154.223 E0.0349
G1 X166.404 Y153.722 E0.04539
G1 X167.195 Y154.513 E0.07158
G1 X167.503 Y154.914 E0.03236
G1 X167.85 Y155.302 E0.0333
G1 X169.255 Y156.713 E0.12741
G1 X161.208 Y164.759 E0.72806
G1 X159.487 Y164.759 E0.11011
;WIPE_START
M204 S5000
G1 X159.487 Y164.359 F36000
;WIPE_END
G1 E-0.5 F1800
M204 S2000
G1 X162.993 Y160.739 F36000
G1 E0.5 F1800
;TYPE:Internal perimeter
;WIDTH:0.916204
G1 F900
G1 X162.782 Y160.978 E0.02534
;WIDTH:0.836846
G1 X162.571 Y161.218 E0.02301
G1 X162.346 Y161.432 E0.02239
G1 X162.122 Y161.647 E0.02239
G1 X162 Y161.751 E0.01156
;WIDTH:0.9162
G1 X161.877 Y161.855 E0.01273
G1 E-0.5 F1800
M204 S1500
G1 X160.055 Y160.868 F36000
G1 E0.5 F1800
;TYPE:External perimeter
;WIDTH:0.748495
G1 F900
G1 X160.589 Y160.746 E0.03504
G1 X160.754 Y160.668 E0.01168
G1 X160.919 Y160.59 E0.01168
G1 X161.069 Y160.486 E0.01168
G1 X161.219 Y160.382 E0.01168
G1 X161.481 Y160.128 E0.02336
G1 X161.699 Y159.831 E0.02356
G1 X161.862 Y159.508 E0.02316
G1 X161.971 Y159.16 E0.02336
G1 X162.021 Y158.798 E0.02336
G1 X162.011 Y158.433 E0.02336
G1 X161.941 Y158.075 E0.02336
G1 X161.813 Y157.733 E0.02336
G1 X161.632 Y157.418 E0.02324
G1 X161.399 Y157.135 E0.02348
G1 X161.124 Y156.895 E0.02336
G1 X160.813 Y156.704 E0.02336
G1 X160.474 Y156.566 E0.02336
G1 X160.118 Y156.486 E0.02336
G1 X159.754 Y156.466 E0.02336
G1 X159.391 Y156.506 E0.02336
G1 X158.864 Y156.686 E0.03562
G1 X158.409 Y156.969 E0.03428
G1 X158.108 Y157.271 E0.02729
G1 X157.796 Y157.783 E0.03836
G1 X157.657 Y158.192 E0.02763
G1 X157.607 Y158.553 E0.02336
G1 X157.617 Y158.918 E0.02336
G1 X157.687 Y159.277 E0.02336
G1 X157.815 Y159.619 E0.02336
G1 X157.997 Y159.935 E0.02336
G1 X158.229 Y160.217 E0.02336
G1 X158.505 Y160.457 E0.02336
G1 X158.816 Y160.648 E0.02336
G1 X159.154 Y160.785 E0.02336
G1 X159.51 Y160.865 E0.02336
G1 X160.055 Y160.868 E0.03486
;WIPE_START
M204 S5000
G1 X160.202 Y160.496 F36000
;WIPE_END
G1 E-0.5 F1800
M204 S2000
G1 X156.159 Y159.12 F36000
G1 E0.5 F1800
;TYPE:Internal perimeter
;WIDTH:0.822812
G1 F900
G1 X156.056 Y159.12 E0.00728
G1 X156.005 Y159.21 E0.00728
G1 X156.056 Y159.299 E0.00728
G1 X156.159 Y159.299 E0.00728
G1 X156.21 Y159.21 E0.00728
G1 E-0.5 F1800
G1 X160.484 Y153.081 F36000
G1 E0.5 F1800
;TYPE:Solid infill
;WIDTH:0.853402
G1 X159.588 Y153.081 E0.06569
G1 X158.841 Y153.829 E0.07746
G1 X160.699 Y153.829 E0.13616
G1 E-0.5
; acceleration to travel
M204 S10000
G1 X173.936 Y147.394 F36000
; decel to extrusion
M204 S2000
G1 X176.578 Y146.109
; end travel
G1 E0.5 F1800
;TYPE:Internal perimeter
;WIDTH:0.89601
G1 F900
G1 X175.229 Y147.459 E0.14798
G1 X175.271 Y147.261 E0.01569
G1 X175.207 Y146.511 E0.05835
G1 X175.099 Y146.156 E0.02881
G1 X174.817 Y145.616 E0.04719
G1 X175.11 Y145.754 E0.02509
G1 X175.819 Y145.991 E0.05796
G1 X176.578 Y146.109 E0.0596
G1 E-0.5 F1800
G1 X173.172 Y143.989 F36000
G1 E0.5 F1800
;WIDTH:0.696424
G1 F900
G1 X172.918 Y143.717 E0.02204
;WIDTH:0.748495
G1 X172.665 Y143.445 E0.02382
G1 X172.166 Y142.946 E0.04512
G1 X171.735 Y142.598 E0.03544
G1 X171.303 Y142.372 E0.03122
G1 X170.725 Y142.211 E0.03836
G1 X170.047 Y142.192 E0.04338
G1 X169.798 Y142.254 E0.01644
G1 X171.958 Y140.095 E0.19541
G1 X172.491 Y139.552 E0.0487
G1 X172.678 Y139.266 E0.02183
G1 X172.948 Y139.536 E0.02443
G1 X172.888 Y139.658 E0.00866
G1 X172.673 Y140.179 E0.03606
G1 X172.498 Y140.893 E0.04706
G1 X172.443 Y141.627 E0.04707
G1 X172.472 Y142.137 E0.03273
G1 X172.584 Y142.714 E0.03759
G1 X172.805 Y143.353 E0.04328
G1 X172.988 Y143.671 E0.02351
;WIDTH:0.696424
G1 X173.172 Y143.989 E0.02175
G1 E-0.5 F1800
G1 X176.348 Y145.246 F36000
G1 E0.5 F1800
;WIDTH:0.748495
G1 F900
