; generated by SuperSlicer 2.4 on 2022-06-03 at 23:23:43 UTC


;
;

;
;
; 

; external perimeters extrusion width = 0.40mm
; perimeters extrusion width = 0.48mm
; infill extrusion width = 0.60mm
; solid infill extrusion width = 0.56mm
; top infill extrusion width = 0.40mm
; support material extrusion width = 0.40mm
; first layer extrusion width = 0.44mm

; object:{"name":"Body1","id":"Body1.stl id:0 copy 0","object_center":[150.000000,150.000000,0.000000],"boundingbox_center":[150.000000,150.000000,10.000000],"boundingbox_size":[18.063629,15.500000,20.000000]}
; plater:{"center":[150.000000,150.000000,0.000000],"boundingbox_center":[150.000000,150.000000,10.000000],"boundingbox_size":[18.063629,15.500000,20.000000]}

;TYPE:Custom
print_start EXTRUDER=255 BED=110 CHAMBER=50
M107
G21 ; set units to millimeters
G90 ; use absolute coordinates
M83 ; use relative distances for extrusion
; Filament gcode
SET_PRESSURE_ADVANCE ADVANCE=0.055
M104 S255 ; set temperature
M109 S255 ; set temperature and wait for it to be reached
M190 S110 ; set bed temperature and wait for it to be reached
M107
;LAYER_CHANGE
;Z:0.25
;HEIGHT:0.25
;BEFORE_LAYER_CHANGE
;0.25
TIMELAPSE_TAKE_FRAME


G1 Z0.25 F36000
;AFTER_LAYER_CHANGE
;0.25
G92 E0
; INIT printing object Body1.stl id:0 copy 0
G1 E-0.75 F3000
M204 S1500
G1 Z0.65 F36000
; printing object Body1.stl id:0 copy 0
G1 X137.163 Y140.521
G1 Z0.25
G1 E0.75 F1800
;TYPE:Support material
;WIDTH:0.44
G1 F900
G1 X146.732 Y140.521 E0.35389
G1 X145.9 Y141.606 E0.05059
G1 X143.726 Y141.606 E0.08037
G1 X143.68 Y141.609 E0.00173
G1 X143.621 Y141.616 E0.00218
G1 X143.5 Y141.632 E0.00453
G1 X143.41 Y141.657 E0.00346
G1 X143.226 Y141.732 E0.00733
G1 X143.146 Y141.779 E0.00346
G1 X143.05 Y141.853 E0.00447
G1 X142.988 Y141.9 E0.00286
G1 X142.922 Y141.966 E0.00346
G1 X142.802 Y142.123 E0.00733
G1 X142.778 Y142.164 E0.00173
G1 X142.755 Y142.204 E0.00173
G1 X142.679 Y142.387 E0.00733
G1 X142.655 Y142.478 E0.00346
G1 X142.631 Y142.657 E0.00671
G1 X142.628 Y142.704 E0.00173
G1 X142.628 Y157.296 E0.53966
G1 X142.631 Y157.343 E0.00173
G1 X142.655 Y157.522 E0.00671
G1 X142.679 Y157.613 E0.00346
G1 X142.747 Y157.778 E0.00662
G1 X142.755 Y157.796 E0.00071
G1 X142.802 Y157.877 E0.00346
G1 X142.922 Y158.034 E0.00733
G1 X142.988 Y158.1 E0.00346
G1 X143.146 Y158.221 E0.00733
G1 X143.226 Y158.268 E0.00346
G1 X143.41 Y158.343 E0.00733
G1 X143.455 Y158.355 E0.00173
G1 X143.5 Y158.368 E0.00173
G1 X143.68 Y158.391 E0.00671
G1 X143.726 Y158.394 E0.00173
G1 X145.9 Y158.394 E0.08037
G1 X146.732 Y159.479 E0.05058
G1 X137.163 Y159.479 E0.35389
G1 X137.163 Y140.581 E0.69895
G1 E-0.75 F3000
G1 Z0.65 F36000
G1 X146.137 Y159.383
G1 Z0.25
G1 E0.75 F1800
G1 F900
G1 X146.137 Y159.135 E0.00918
G1 X145.77 Y158.657 E0.02227
G1 X145.707 Y158.657 E0.00232
G1 X145.707 Y159.217 E0.0207
G1 X145.278 Y159.217 E0.01588
G1 X145.278 Y158.657 E0.0207
G1 X144.849 Y158.657 E0.01588
G1 X144.849 Y159.217 E0.0207
G1 X144.419 Y159.217 E0.01588
G1 X144.419 Y158.657 E0.0207
G1 X143.99 Y158.657 E0.01588
G1 X143.99 Y159.217 E0.0207
G1 X143.561 Y159.217 E0.01588
G1 X143.561 Y158.641 E0.02131
G1 X143.449 Y158.626 E0.00419
G1 X143.387 Y158.609 E0.00237
G1 X143.325 Y158.593 E0.00237
G1 X143.132 Y158.513 E0.00774
G1 X143.132 Y159.217 E0.02604
G1 X142.702 Y159.217 E0.01588
G1 X142.702 Y158.179 E0.03838
G1 X142.583 Y158.023 E0.00727
G1 X142.519 Y157.912 E0.00473
G1 X142.505 Y157.878 E0.00135
G1 X142.43 Y157.697 E0.00725
G1 X142.423 Y157.673 E0.00095
G1 X142.396 Y157.574 E0.00379
G1 X142.369 Y157.368 E0.00766
G1 X142.365 Y157.305 E0.00236
G1 X142.365 Y142.695 E0.5403
G1 X142.369 Y142.632 E0.00236
G1 X142.396 Y142.426 E0.00766
G1 X142.43 Y142.303 E0.00473
G1 X142.519 Y142.088 E0.0086
G1 X142.583 Y141.977 E0.00473
G1 X142.702 Y141.821 E0.00727
G1 X142.702 Y140.783 E0.03838
G1 X143.132 Y140.783 E0.01588
G1 X143.132 Y141.487 E0.02604
G1 X143.325 Y141.407 E0.00774
G1 X143.449 Y141.374 E0.00473
G1 X143.561 Y141.359 E0.00419
G1 X143.561 Y140.783 E0.02131
G1 X143.99 Y140.783 E0.01588
G1 X143.99 Y141.343 E0.0207
G1 X144.419 Y141.343 E0.01588
G1 X144.419 Y140.783 E0.0207
G1 X144.849 Y140.783 E0.01588
G1 X144.849 Y141.343 E0.0207
G1 X145.278 Y141.343 E0.01588
G1 X145.278 Y140.783 E0.0207
G1 X145.707 Y140.783 E0.01588
G1 X145.707 Y141.343 E0.0207
G1 X145.77 Y141.343 E0.00232
G1 X146.137 Y140.865 E0.02227
G1 X146.137 Y140.617 E0.00918
G1 E-0.75 F3000
G1 Z0.65 F36000
G1 X142.273 Y159.383
G1 Z0.25
G1 E0.75 F1800
G1 F900
G1 X142.273 Y140.783 E0.68788
G1 X141.844 Y140.783 E0.01588
G1 X141.844 Y159.217 E0.68174
G1 X141.414 Y159.217 E0.01588
G1 X141.414 Y140.783 E0.68174
G1 X140.985 Y140.783 E0.01588
G1 X140.985 Y159.217 E0.68174
G1 X140.556 Y159.217 E0.01588
G1 X140.556 Y140.783 E0.68174
G1 X140.127 Y140.783 E0.01588
G1 X140.127 Y159.217 E0.68174
G1 X139.697 Y159.217 E0.01588
G1 X139.697 Y140.783 E0.68174
G1 X139.268 Y140.783 E0.01588
G1 X139.268 Y159.217 E0.68174
G1 X138.839 Y159.217 E0.01588
G1 X138.839 Y140.783 E0.68174
G1 X138.41 Y140.783 E0.01588
G1 X138.41 Y159.217 E0.68174
G1 X137.98 Y159.217 E0.01588
G1 X137.98 Y140.783 E0.68174
G1 X137.551 Y140.783 E0.01588
G1 X137.551 Y159.383 E0.68788
G1 E-0.75 F3000
G1 Z0.65 F36000
G1 X144.72 Y156.302
G1 Z0.25
G1 E0.75 F1800
;TYPE:Internal perimeter
G1 F900
G1 X144.72 Y143.698 E0.46616
G1 X155.61 Y143.696 E0.40276
G1 X155.363 Y144.062 E0.01636
G1 X155.01 Y144.662 E0.02573
G1 X154.696 Y145.283 E0.02573
G1 X154.421 Y145.922 E0.02573
G1 X154.186 Y146.577 E0.02573
G1 X153.993 Y147.245 E0.02573
G1 X153.862 Y147.834 E0.02228
G1 X153.734 Y148.607 E0.02901
G1 X153.669 Y149.305 E0.0259
G1 X153.647 Y150 E0.02573
G1 X153.669 Y150.695 E0.02573
G1 X153.734 Y151.388 E0.02573
G1 X153.842 Y152.075 E0.02573
G1 X153.993 Y152.755 E0.02573
G1 X154.186 Y153.423 E0.02573
G1 X154.421 Y154.078 E0.02573
G1 X154.696 Y154.717 E0.02573
G1 X155.01 Y155.338 E0.02573
G1 X155.363 Y155.938 E0.02573
G1 X155.61 Y156.304 E0.01636
G1 X144.78 Y156.302 E0.40054
G1 X144.334 Y156.689 F36000
G1 F900
G1 X144.334 Y143.311 E0.49474
G1 X156.377 Y143.309 E0.4454
G1 X156.066 Y143.711 E0.01879
G1 X155.69 Y144.269 E0.02487
G1 X155.349 Y144.848 E0.02484
G1 X155.046 Y145.447 E0.02484
G1 X154.781 Y146.064 E0.02484
G1 X154.554 Y146.696 E0.02484
G1 X154.368 Y147.341 E0.02484
G1 X154.242 Y147.907 E0.02144
G1 X154.118 Y148.657 E0.02811
G1 X154.055 Y149.329 E0.02495
G1 X154.034 Y150 E0.02484
G1 X154.055 Y150.671 E0.02484
G1 X154.117 Y151.34 E0.02484
G1 X154.222 Y152.003 E0.02484
G1 X154.368 Y152.659 E0.02484
G1 X154.554 Y153.304 E0.02484
G1 X154.781 Y153.936 E0.02484
G1 X155.046 Y154.553 E0.02484
G1 X155.349 Y155.152 E0.02484
G1 X155.69 Y155.731 E0.02484
G1 X156.066 Y156.289 E0.02487
G1 X156.377 Y156.691 E0.01879
G1 X144.394 Y156.689 E0.44318
G1 X143.947 Y157.075 F36000
G1 F900
G1 X143.947 Y142.925 E0.52331
G1 X156.604 Y142.923 E0.46808
G1 X157.254 Y142.907 E0.02405
G1 X156.779 Y143.42 E0.02585
G1 X156.379 Y143.938 E0.02419
G1 X156.017 Y144.475 E0.02397
G1 X155.689 Y145.033 E0.02395
G1 X155.396 Y145.611 E0.02394
G1 X155.14 Y146.205 E0.02394
G1 X154.922 Y146.815 E0.02395
G1 X154.742 Y147.437 E0.02394
G1 X154.621 Y147.981 E0.02061
G1 X154.501 Y148.707 E0.02722
G1 X154.44 Y149.353 E0.024
G1 X154.42 Y150 E0.02394
G1 X154.44 Y150.647 E0.02394
G1 X154.501 Y151.292 E0.02395
G1 X154.602 Y151.931 E0.02394
G1 X154.742 Y152.563 E0.02395
G1 X154.922 Y153.185 E0.02394
G1 X155.14 Y153.795 E0.02395
G1 X155.396 Y154.389 E0.02394
G1 X155.689 Y154.967 E0.02394
G1 X156.017 Y155.525 E0.02395
G1 X156.379 Y156.062 E0.02397
G1 X156.779 Y156.58 E0.02419
G1 X157.254 Y157.093 E0.02585
G1 X156.604 Y157.077 E0.02405
G1 X144.007 Y157.075 E0.46586
M204 S1000
G1 X143.616 Y157.406 F36000
;TYPE:External perimeter
G1 F900
G1 X143.588 Y157.369 E0.00173
G1 X143.57 Y157.326 E0.00173
G1 X143.561 Y157.258 E0.00251
G1 X143.561 Y142.742 E0.53687
G1 X143.57 Y142.674 E0.00251
G1 X143.588 Y142.631 E0.00173
G1 X143.616 Y142.594 E0.00173
G1 X143.654 Y142.566 E0.00173
G1 X143.697 Y142.548 E0.00173
G1 X143.764 Y142.539 E0.00251
G1 X150.206 Y142.538 E0.23824
G1 X156.599 Y142.537 E0.23645
G1 X157.103 Y142.524 E0.01864
G1 X157.335 Y142.504 E0.00862
G1 X158.089 Y142.439 E0.02799
G1 X158.433 Y142.439 E0.01272
G1 X158.168 Y142.674 E0.01311
G1 X158.007 Y142.818 E0.00798
G1 X157.754 Y142.99 E0.0113
G1 X157.505 Y143.204 E0.01215
G1 X157.286 Y143.435 E0.01178
G1 X157.075 Y143.67 E0.01169
G1 X156.693 Y144.164 E0.0231
G1 X156.344 Y144.681 E0.02306
G1 X156.028 Y145.218 E0.02305
G1 X155.746 Y145.774 E0.02305
G1 X155.5 Y146.347 E0.02305
G1 X155.29 Y146.934 E0.02305
G1 X155.158 Y147.389 E0.01752
G1 X155.117 Y147.532 E0.00553
G1 X155.001 Y148.054 E0.01977
G1 X154.981 Y148.141 E0.00328
G1 X154.884 Y148.756 E0.02305
G1 X154.826 Y149.377 E0.02305
G1 X154.807 Y150 E0.02305
G1 X154.826 Y150.623 E0.02305
G1 X154.884 Y151.244 E0.02305
G1 X154.981 Y151.859 E0.02305
G1 X155.117 Y152.468 E0.02305
G1 X155.29 Y153.066 E0.02305
G1 X155.5 Y153.653 E0.02305
G1 X155.746 Y154.226 E0.02305
G1 X156.028 Y154.782 E0.02305
G1 X156.344 Y155.319 E0.02305
G1 X156.693 Y155.836 E0.02306
G1 X157.075 Y156.33 E0.0231
G1 X157.286 Y156.565 E0.01169
G1 X157.505 Y156.796 E0.01178
G1 X157.754 Y157.01 E0.01215
G1 X158.007 Y157.182 E0.0113
G1 X158.433 Y157.561 E0.02109
G1 X158.089 Y157.561 E0.01272
G1 X157.335 Y157.496 E0.02799
G1 X157.103 Y157.476 E0.00862
G1 X156.599 Y157.463 E0.01864
G1 X150.205 Y157.462 E0.23647
G1 X143.764 Y157.461 E0.23822
G1 X143.697 Y157.452 E0.00251
G1 X143.666 Y157.439 E0.00124
;WIPE_START
M204 S1500
G1 X143.629 Y157.361 F36000
;WIPE_END
G1 X154.673 Y143.754
;TYPE:Solid infill
;WIDTH:0.431169
G1 F1200
G1 X155.073 Y144.153 E0.02047
G1 X154.899 Y144.526 E0.01489
G1 X154.293 Y143.92 E0.03103
G1 X153.747 Y143.92 E0.0198
G1 X154.725 Y144.898 E0.05011
G1 X154.55 Y145.27 E0.01489
G1 X153.201 Y143.92 E0.06918
G1 X152.654 Y143.92 E0.0198
G1 X154.376 Y145.642 E0.08825
G1 X154.202 Y146.015 E0.01489
G1 X152.108 Y143.921 E0.10733
G1 X151.562 Y143.921 E0.0198
G1 X154.028 Y146.387 E0.1264
G1 X153.97 Y146.511 E0.00496
G1 X153.92 Y146.826 E0.01155
G1 X151.015 Y143.921 E0.14888
G1 X150.469 Y143.921 E0.0198
G1 X153.846 Y147.298 E0.17307
G1 X153.772 Y147.77 E0.01732
G1 X149.923 Y143.921 E0.19726
G1 X149.377 Y143.921 E0.0198
G1 X153.697 Y148.242 E0.22145
G1 X153.623 Y148.714 E0.01732
G1 X148.83 Y143.921 E0.24563
G1 X148.284 Y143.921 E0.0198
G1 X153.548 Y149.186 E0.26982
G1 X153.474 Y149.658 E0.01732
G1 X147.738 Y143.921 E0.29401
G1 X147.191 Y143.921 E0.0198
G1 X153.448 Y150.178 E0.32068
G1 X153.55 Y150.827 E0.0238
G1 X146.645 Y143.921 E0.35392
G1 X146.099 Y143.922 E0.0198
G1 X153.653 Y151.475 E0.38715
G1 X153.755 Y152.124 E0.0238
G1 X145.553 Y143.922 E0.42039
G1 X145.006 Y143.922 E0.0198
G1 X153.857 Y152.772 E0.45363
G1 X153.959 Y153.421 E0.0238
G1 X144.944 Y144.406 E0.46205
G1 X144.944 Y144.952 E0.0198
G1 X154.446 Y154.454 E0.48701
G1 X154.98 Y155.535 E0.04367
G1 X144.944 Y145.499 E0.51437
G1 X144.944 Y146.045 E0.0198
G1 X154.979 Y156.08 E0.51431
G1 X154.433 Y156.08 E0.01981
G1 X144.944 Y146.592 E0.48631
G1 X144.944 Y147.138 E0.0198
G1 X153.886 Y156.08 E0.4583
G1 X153.34 Y156.08 E0.01981
G1 X144.944 Y147.684 E0.43029
G1 X144.944 Y148.231 E0.0198
G1 X152.793 Y156.08 E0.40228
G1 X152.247 Y156.079 E0.01981
G1 X144.944 Y148.777 E0.37427
G1 X144.944 Y149.323 E0.0198
G1 X151.7 Y156.079 E0.34626
G1 X151.154 Y156.079 E0.01981
G1 X144.944 Y149.87 E0.31825
G1 X144.944 Y150.416 E0.0198
G1 X150.607 Y156.079 E0.29025
G1 X150.061 Y156.079 E0.01981
G1 X144.944 Y150.963 E0.26224
G1 X144.944 Y151.509 E0.0198
G1 X149.514 Y156.079 E0.23423
G1 X148.968 Y156.079 E0.01981
G1 X144.944 Y152.055 E0.20622
G1 X144.944 Y152.602 E0.0198
G1 X148.421 Y156.079 E0.17821
G1 X147.875 Y156.079 E0.01981
G1 X144.944 Y153.148 E0.1502
G1 X144.944 Y153.695 E0.0198
G1 X147.328 Y156.079 E0.12219
G1 X146.782 Y156.079 E0.01981
G1 X144.944 Y154.241 E0.09418
G1 X144.944 Y154.787 E0.0198
G1 X146.235 Y156.078 E0.06618
G1 X145.689 Y156.078 E0.01981
G1 X144.944 Y155.334 E0.03817
G1 X144.944 Y155.88 E0.0198
G1 X145.309 Y156.244 E0.01867
; INIT stop printing object Body1.stl id:0 copy 0
;LAYER_CHANGE
;Z:0.45
;HEIGHT:0.2
;BEFORE_LAYER_CHANGE
;0.45
TIMELAPSE_TAKE_FRAME


; stop printing object Body1.stl id:0 copy 0
G1 Z0.45 F36000
;AFTER_LAYER_CHANGE
;0.45
G92 E0
M104 S250 ; set temperature
; INIT printing object Body1.stl id:0 copy 0
; printing object Body1.stl id:0 copy 0
G1 X144.779 Y156.243
;TYPE:Internal perimeter
;WIDTH:0.48
G1 F9000
G1 X144.779 Y143.757 E0.41795
G1 X155.498 Y143.757 E0.3588
G1 X155.313 Y144.031 E0.01109
G1 X154.959 Y144.634 E0.02341
G1 X154.643 Y145.258 E0.02341
G1 X154.366 Y145.9 E0.02341
G1 X154.13 Y146.559 E0.02341
G1 X153.936 Y147.231 E0.02341
G1 X153.784 Y147.914 E0.02341
G1 X153.675 Y148.605 E0.02341
G1 X153.61 Y149.301 E0.02341
G1 X153.588 Y150 E0.02341
G1 X153.61 Y150.699 E0.02341
G1 X153.675 Y151.395 E0.02341
G1 X153.784 Y152.086 E0.02341
G1 X153.936 Y152.769 E0.02341
G1 X154.13 Y153.441 E0.02341
G1 X154.366 Y154.1 E0.02341
G1 X154.643 Y154.742 E0.02341
G1 X154.959 Y155.366 E0.02341
G1 X155.313 Y155.969 E0.02341
G1 X155.498 Y156.243 E0.01109
G1 X144.839 Y156.243 E0.35679
M107
G1 X144.342 Y156.68 F36000
G1 F9000
G1 X144.342 Y143.32 E0.44721
G1 X156.358 Y143.319 E0.40221
G1 X156.059 Y143.707 E0.01638
G1 X155.683 Y144.264 E0.02251
G1 X155.342 Y144.844 E0.0225
G1 X155.039 Y145.443 E0.0225
G1 X154.773 Y146.061 E0.0225
G1 X154.546 Y146.693 E0.0225
G1 X154.36 Y147.339 E0.0225
G1 X154.214 Y147.995 E0.0225
G1 X154.109 Y148.659 E0.0225
G1 X154.046 Y149.328 E0.0225
G1 X154.025 Y150 E0.0225
G1 X154.046 Y150.672 E0.0225
G1 X154.109 Y151.341 E0.0225
G1 X154.214 Y152.005 E0.0225
G1 X154.36 Y152.661 E0.0225
G1 X154.546 Y153.307 E0.0225
G1 X154.773 Y153.939 E0.0225
G1 X155.039 Y154.557 E0.0225
G1 X155.342 Y155.156 E0.0225
G1 X155.683 Y155.736 E0.0225
G1 X156.059 Y156.293 E0.02251
G1 X156.358 Y156.681 E0.01638
G1 X144.402 Y156.68 E0.4002
M107
G1 X143.905 Y157.117 F36000
G1 F9000
G1 X143.905 Y142.883 E0.47647
G1 X156.603 Y142.882 E0.42503
G1 X157.367 Y142.865 E0.02557
G1 X156.813 Y143.445 E0.02683
G1 X156.414 Y143.963 E0.02188
G1 X156.053 Y144.498 E0.02159
G1 X155.726 Y145.053 E0.02158
G1 X155.435 Y145.629 E0.02158
G1 X155.18 Y146.221 E0.02158
G1 X154.963 Y146.828 E0.02158
G1 X154.784 Y147.447 E0.02158
G1 X154.644 Y148.077 E0.02158
G1 X154.543 Y148.714 E0.02158
G1 X154.483 Y149.356 E0.02158
G1 X154.463 Y150 E0.02158
G1 X154.483 Y150.644 E0.02158
G1 X154.543 Y151.286 E0.02158
G1 X154.644 Y151.923 E0.02158
G1 X154.784 Y152.553 E0.02158
G1 X154.963 Y153.172 E0.02158
G1 X155.18 Y153.779 E0.02158
G1 X155.435 Y154.371 E0.02158
G1 X155.726 Y154.947 E0.02158
G1 X156.053 Y155.502 E0.02158
G1 X156.414 Y156.037 E0.02159
G1 X156.813 Y156.555 E0.02188
G1 X157.367 Y157.135 E0.02683
G1 X156.603 Y157.118 E0.02557
G1 X143.965 Y157.117 E0.42302
M107
M204 S1000
G1 X143.541 Y157.396 F36000
;TYPE:External perimeter
;WIDTH:0.4
G1 F4800
M106 S191.25
G1 X143.518 Y157.339 E0.00166
G1 X143.508 Y157.262 E0.00215
G1 X143.508 Y142.738 E0.39715
G1 X143.518 Y142.661 E0.00215
G1 X143.541 Y142.604 E0.00166
G1 X143.578 Y142.556 E0.00166
G1 X143.627 Y142.519 E0.00166
G1 X143.683 Y142.496 E0.00166
G1 X143.761 Y142.486 E0.00215
G1 X156.599 Y142.485 E0.35106
G1 X157.596 Y142.463 E0.02729
G1 X157.664 Y142.457 E0.00186
G1 X158.086 Y142.419 E0.0116
G1 X158.476 Y142.428 E0.01066
G1 X157.762 Y143.026 E0.02548
G1 X157.355 Y143.437 E0.01582
G1 X157.324 Y143.468 E0.00118
G1 X157.115 Y143.704 E0.00865
G1 X156.736 Y144.196 E0.01696
G1 X156.536 Y144.491 E0.00975
G1 X156.389 Y144.709 E0.0072
G1 X156.075 Y145.244 E0.01695
G1 X155.795 Y145.797 E0.01695
G1 X155.55 Y146.366 E0.01695
G1 X155.445 Y146.658 E0.00848
G1 X155.341 Y146.95 E0.00848
G1 X155.168 Y147.546 E0.01695
G1 X155.034 Y148.151 E0.01695
G1 X154.937 Y148.763 E0.01695
G1 X154.879 Y149.38 E0.01695
G1 X154.86 Y150 E0.01695
G1 X154.879 Y150.62 E0.01695
G1 X154.937 Y151.237 E0.01695
G1 X155.034 Y151.849 E0.01695
G1 X155.151 Y152.378 E0.0148
G1 X155.168 Y152.454 E0.00215
G1 X155.341 Y153.05 E0.01695
G1 X155.445 Y153.342 E0.00848
G1 X155.55 Y153.634 E0.00848
G1 X155.795 Y154.203 E0.01695
