; generated by SuperSlicer 2.4 on 2022-06-04 at 00:19:31 UTC


;
;

;
;
; 

; external perimeters extrusion width = 0.40mm
; perimeters extrusion width = 0.48mm
; infill extrusion width = 0.60mm
; solid infill extrusion width = 0.56mm
; top infill extrusion width = 0.40mm
; first layer extrusion width = 0.44mm

; object:{"name":"Body4","id":"Body4.stl id:0 copy 0","object_center":[150.000000,150.000000,0.000000],"boundingbox_center":[150.000000,150.000000,23.750000],"boundingbox_size":[26.498793,26.497254,47.500000]}
; plater:{"center":[150.000000,150.000000,0.000000],"boundingbox_center":[150.000000,150.000000,23.750000],"boundingbox_size":[26.498793,26.497254,47.500000]}

;TYPE:Custom
print_start EXTRUDER=255 BED=110 CHAMBER=50
M107
G21 ; set units to millimeters
G90 ; use absolute coordinates
M83 ; use relative distances for extrusion
; Filament gcode
SET_PRESSURE_ADVANCE ADVANCE=0.055
M104 S255 ; set temperature
M109 S255 ; set temperature and wait for it to be reached
M190 S110 ; set bed temperature and wait for it to be reached
M107
;LAYER_CHANGE
;Z:0.25
;HEIGHT:0.25
;BEFORE_LAYER_CHANGE
;0.25
TIMELAPSE_TAKE_FRAME


G1 Z0.25 F36000
;AFTER_LAYER_CHANGE
;0.25
G92 E0
; INIT printing object Body4.stl id:0 copy 0
G1 E-0.75 F3000
G1 Z0.65 F36000
; printing object Body4.stl id:0 copy 0
M204 S1000
G1 X141.607 Y141.26
G1 Z0.25
G1 E0.75 F1800
;TYPE:External perimeter
;WIDTH:0.44
G1 F900
G1 X140.931 Y141.964 E0.03609
G1 X140.313 Y142.72 E0.03609
G1 X139.759 Y143.523 E0.03609
G1 X139.271 Y144.368 E0.03609
G1 X138.853 Y145.249 E0.03609
G1 X138.507 Y146.162 E0.03609
G1 X138.235 Y147.099 E0.03609
G1 X138.04 Y148.055 E0.03609
G1 X137.922 Y149.024 E0.03609
G1 X137.883 Y149.999 E0.03609
G1 X137.91 Y150.675 E0.02501
G1 X137.922 Y150.974 E0.01108
G1 X138.043 Y151.957 E0.03663
G1 X138.235 Y152.899 E0.03555
G1 X138.507 Y153.836 E0.03609
G1 X138.853 Y154.749 E0.03609
G1 X139.271 Y155.63 E0.03609
G1 X139.759 Y156.475 E0.03609
G1 X140.313 Y157.278 E0.03609
G1 X140.404 Y157.39 E0.00531
G1 X140.931 Y158.034 E0.03078
G1 X141.607 Y158.738 E0.03609
G1 X142.337 Y159.385 E0.03609
G1 X143.117 Y159.971 E0.03609
G1 X143.439 Y160.175 E0.01408
G1 X143.942 Y160.493 E0.02201
G1 X144.806 Y160.947 E0.03609
G1 X145.704 Y161.329 E0.03609
G1 X146.629 Y161.638 E0.03609
G1 X147.577 Y161.872 E0.03609
G1 X148.54 Y162.028 E0.03609
G1 X149.513 Y162.107 E0.03609
G1 X150.489 Y162.107 E0.03609
G1 X151.461 Y162.028 E0.03609
G1 X152.424 Y161.872 E0.03609
G1 X153.372 Y161.638 E0.03609
G1 X154.298 Y161.329 E0.03609
G1 X155.195 Y160.947 E0.03609
G1 X155.496 Y160.789 E0.01255
G1 X156.059 Y160.493 E0.02354
G1 X156.465 Y160.236 E0.01775
G1 X156.884 Y159.971 E0.01834
G1 X157.664 Y159.385 E0.03609
G1 X158.395 Y158.738 E0.03609
G1 X159.071 Y158.034 E0.03609
G1 X159.688 Y157.278 E0.03609
G1 X160.242 Y156.475 E0.03609
G1 X160.486 Y156.053 E0.01805
G1 X160.693 Y155.695 E0.01527
G1 X160.73 Y155.63 E0.00278
G1 X161.148 Y154.749 E0.03609
G1 X161.494 Y153.836 E0.03609
G1 X161.766 Y152.899 E0.03609
G1 X161.859 Y152.441 E0.01727
G1 X161.961 Y151.943 E0.01882
G1 X162.079 Y150.974 E0.03609
G1 X162.118 Y149.999 E0.03609
G1 X162.078 Y149.017 E0.03634
G1 X161.961 Y148.055 E0.03584
G1 X161.766 Y147.099 E0.03609
G1 X161.494 Y146.162 E0.03609
G1 X161.305 Y145.661 E0.0198
G1 X161.148 Y145.249 E0.0163
G1 X161.126 Y145.201 E0.00196
G1 X160.73 Y144.368 E0.03413
G1 X160.653 Y144.234 E0.00572
G1 X160.486 Y143.945 E0.01233
G1 X160.375 Y143.753 E0.00822
G1 X160.242 Y143.523 E0.00983
G1 X160.121 Y143.348 E0.00786
G1 X159.688 Y142.72 E0.02823
G1 X159.071 Y141.964 E0.03609
G1 X158.395 Y141.26 E0.03609
G1 X157.664 Y140.613 E0.03609
G1 X156.884 Y140.027 E0.03609
G1 X156.059 Y139.505 E0.03609
G1 X155.195 Y139.051 E0.03609
G1 X154.298 Y138.669 E0.03609
G1 X153.372 Y138.36 E0.03609
G1 X152.424 Y138.126 E0.03609
G1 X151.461 Y137.97 E0.03609
G1 X150.489 Y137.891 E0.03609
G1 X149.513 Y137.891 E0.03609
G1 X148.54 Y137.97 E0.03609
G1 X147.577 Y138.126 E0.03609
G1 X146.629 Y138.36 E0.03609
G1 X145.704 Y138.669 E0.03609
G1 X144.806 Y139.051 E0.03609
G1 X143.942 Y139.505 E0.03609
G1 X143.536 Y139.762 E0.01775
G1 X143.117 Y140.027 E0.01834
G1 X142.337 Y140.613 E0.03609
G1 X141.651 Y141.22 E0.03387
;WIPE_START
M204 S1500
G1 X141.221 Y141.154 F36000
;WIPE_END
G1 X141.277 Y140.924
;TYPE:Internal perimeter
G1 F900
G1 X141.525 Y140.681 E0.01284
G1 X142.254 Y140.066 E0.03526
G1 X143.027 Y139.509 E0.03526
G1 X143.841 Y139.012 E0.03526
G1 X144.689 Y138.577 E0.03526
G1 X145.568 Y138.208 E0.03526
G1 X146.473 Y137.907 E0.03526
G1 X147.397 Y137.675 E0.03526
G1 X148.337 Y137.513 E0.03526
G1 X149.286 Y137.423 E0.03526
G1 X150.239 Y137.405 E0.03526
G1 X150.882 Y137.441 E0.02383
G1 X151.191 Y137.459 E0.01142
G1 X152.136 Y137.585 E0.03526
G1 X153.069 Y137.782 E0.03526
G1 X153.984 Y138.049 E0.03526
G1 X154.876 Y138.384 E0.03526
G1 X155.74 Y138.786 E0.03526
G1 X156.572 Y139.253 E0.03526
G1 X157.366 Y139.78 E0.03526
G1 X158.118 Y140.367 E0.03526
G1 X158.823 Y141.008 E0.03526
G1 X159.478 Y141.701 E0.03526
G1 X160.078 Y142.442 E0.03526
G1 X160.621 Y143.225 E0.03526
G1 X161.103 Y144.048 E0.03526
G1 X161.521 Y144.905 E0.03526
G1 X161.873 Y145.791 E0.03526
G1 X162.157 Y146.7 E0.03526
G1 X162.372 Y147.629 E0.03526
G1 X162.516 Y148.572 E0.03526
G1 X162.588 Y149.522 E0.03526
G1 X162.588 Y150.476 E0.03526
G1 X162.516 Y151.426 E0.03526
G1 X162.372 Y152.369 E0.03526
G1 X162.157 Y153.298 E0.03526
G1 X161.873 Y154.207 E0.03526
G1 X161.521 Y155.093 E0.03526
G1 X161.103 Y155.95 E0.03526
G1 X160.621 Y156.773 E0.03526
G1 X160.107 Y157.514 E0.03337
G1 X159.477 Y158.297 E0.03717
G1 X158.823 Y158.99 E0.03523
G1 X158.118 Y159.631 E0.03526
G1 X157.366 Y160.218 E0.03526
G1 X156.572 Y160.745 E0.03526
G1 X155.74 Y161.212 E0.03526
G1 X154.876 Y161.614 E0.03526
G1 X153.984 Y161.949 E0.03526
G1 X153.068 Y162.216 E0.03526
G1 X152.136 Y162.413 E0.03526
G1 X151.191 Y162.539 E0.03526
G1 X150.239 Y162.593 E0.03526
G1 X149.286 Y162.575 E0.03526
G1 X148.337 Y162.485 E0.03526
G1 X147.397 Y162.323 E0.03526
G1 X146.473 Y162.091 E0.03526
G1 X145.568 Y161.79 E0.03526
G1 X144.689 Y161.421 E0.03526
G1 X143.841 Y160.986 E0.03526
G1 X143.027 Y160.489 E0.03526
G1 X142.254 Y159.932 E0.03526
G1 X141.525 Y159.317 E0.03526
G1 X140.844 Y158.65 E0.03526
G1 X140.216 Y157.932 E0.03526
G1 X139.644 Y157.17 E0.03526
G1 X139.132 Y156.366 E0.03526
G1 X138.681 Y155.526 E0.03526
G1 X138.296 Y154.654 E0.03526
G1 X137.977 Y153.755 E0.03526
G1 X137.728 Y152.835 E0.03526
G1 X137.548 Y151.899 E0.03526
G1 X137.44 Y150.952 E0.03526
G1 X137.404 Y149.999 E0.03526
G1 X137.44 Y149.046 E0.03526
G1 X137.548 Y148.099 E0.03526
G1 X137.728 Y147.163 E0.03526
G1 X137.977 Y146.243 E0.03526
G1 X138.296 Y145.344 E0.03526
G1 X138.681 Y144.472 E0.03526
G1 X139.132 Y143.632 E0.03526
G1 X139.644 Y142.828 E0.03526
G1 X140.216 Y142.066 E0.03526
G1 X140.844 Y141.348 E0.03526
G1 X141.234 Y140.966 E0.02019
M204 S1000
G1 X141.006 Y140.648 F36000
;TYPE:External perimeter
G1 F900
G1 X141.265 Y140.395 E0.01339
G1 X142.016 Y139.762 E0.03634
G1 X142.475 Y139.431 E0.02092
G1 X142.813 Y139.187 E0.01542
G1 X143.651 Y138.674 E0.03634
G1 X144.526 Y138.227 E0.03634
G1 X145.138 Y137.97 E0.02453
G1 X145.432 Y137.846 E0.01181
G1 X146.364 Y137.536 E0.03634
G1 X146.607 Y137.475 E0.00925
G1 X147.317 Y137.296 E0.02709
G1 X147.858 Y137.203 E0.02028
G1 X148.286 Y137.13 E0.01606
G1 X149.264 Y137.037 E0.03634
G1 X150.246 Y137.018 E0.03634
G1 X150.904 Y137.056 E0.02438
G1 X151.227 Y137.074 E0.01196
G1 X152.201 Y137.204 E0.03634
G1 X153.163 Y137.407 E0.03634
G1 X153.557 Y137.522 E0.01518
G1 X154.106 Y137.682 E0.02116
G1 X155.026 Y138.028 E0.03634
G1 X155.917 Y138.442 E0.03634
G1 X156.501 Y138.77 E0.02478
G1 X156.774 Y138.923 E0.01156
G1 X157.592 Y139.467 E0.03634
G1 X158.367 Y140.071 E0.03634
G1 X158.723 Y140.395 E0.01779
G1 X159.094 Y140.732 E0.01855
G1 X159.768 Y141.446 E0.03634
G1 X160.188 Y141.964 E0.02463
G1 X160.387 Y142.21 E0.01171
G1 X160.947 Y143.018 E0.03634
G1 X161.192 Y143.437 E0.01797
G1 X161.443 Y143.865 E0.01837
G1 X161.874 Y144.748 E0.03634
G1 X162.238 Y145.661 E0.03634
G1 X162.531 Y146.599 E0.03634
G1 X162.752 Y147.557 E0.03634
G1 X162.9 Y148.528 E0.03634
G1 X162.974 Y149.508 E0.03634
G1 X162.974 Y150.49 E0.03634
G1 X162.9 Y151.47 E0.03634
G1 X162.771 Y152.316 E0.03164
G1 X162.752 Y152.441 E0.0047
G1 X162.531 Y153.399 E0.03634
G1 X162.238 Y154.337 E0.03634
G1 X161.874 Y155.25 E0.03634
G1 X161.443 Y156.133 E0.03634
G1 X161.243 Y156.475 E0.01469
G1 X160.947 Y156.981 E0.02165
G1 X160.417 Y157.746 E0.03442
G1 X160.387 Y157.788 E0.00192
G1 X159.768 Y158.552 E0.03634
G1 X159.094 Y159.266 E0.03634
G1 X158.367 Y159.927 E0.03634
G1 X157.592 Y160.531 E0.03634
G1 X156.774 Y161.075 E0.03634
G1 X155.917 Y161.556 E0.03634
G1 X155.026 Y161.97 E0.03634
G1 X154.871 Y162.028 E0.0061
G1 X154.106 Y162.316 E0.03024
G1 X153.163 Y162.591 E0.03634
G1 X152.201 Y162.794 E0.03634
G1 X151.227 Y162.924 E0.03634
G1 X150.246 Y162.98 E0.03634
G1 X149.428 Y162.964 E0.03028
G1 X149.264 Y162.961 E0.00606
G1 X148.286 Y162.868 E0.03634
G1 X147.802 Y162.785 E0.01817
G1 X147.317 Y162.702 E0.01817
G1 X146.364 Y162.462 E0.03634
G1 X145.925 Y162.316 E0.01714
G1 X145.432 Y162.152 E0.0192
G1 X145.316 Y162.103 E0.00465
G1 X144.526 Y161.771 E0.03169
G1 X143.651 Y161.324 E0.03634
G1 X142.813 Y160.811 E0.03634
G1 X142.016 Y160.236 E0.03634
G1 X141.265 Y159.603 E0.03634
G1 X140.563 Y158.915 E0.03634
G1 X139.916 Y158.176 E0.03634
G1 X139.562 Y157.704 E0.0218
G1 X139.327 Y157.39 E0.01454
G1 X138.798 Y156.561 E0.03634
G1 X138.334 Y155.695 E0.03634
G1 X138.056 Y155.066 E0.02543
G1 X137.937 Y154.797 E0.01091
G1 X137.608 Y153.87 E0.03634
G1 X137.351 Y152.922 E0.03634
G1 X137.166 Y151.957 E0.03634
G1 X137.055 Y150.981 E0.03634
G1 X137.018 Y149.999 E0.03634
G1 X137.055 Y149.017 E0.03634
G1 X137.166 Y148.041 E0.03634
G1 X137.351 Y147.076 E0.03634
G1 X137.608 Y146.128 E0.03634
G1 X137.937 Y145.201 E0.03634
G1 X138.137 Y144.748 E0.01832
G1 X138.334 Y144.303 E0.01802
G1 X138.798 Y143.437 E0.03634
G1 X139.327 Y142.608 E0.03634
G1 X139.916 Y141.822 E0.03634
G1 X140.563 Y141.083 E0.03634
G1 X140.964 Y140.69 E0.02074
;WIPE_START
M204 S1500
G1 X141.355 Y140.745 F36000
;WIPE_END
G1 X141.568 Y140.974
;TYPE:Gap fill
;WIDTH:0.188076
G1 F900
G1 X141.689 Y140.861 E0.00212
G1 X141.938 Y140.646 E0.00423
G1 X142.186 Y140.432 E0.00423
G1 X142.297 Y140.344 E0.00182
G1 X142.404 Y140.258 E0.00176
G1 X142.692 Y140.046 E0.00461
G1 X142.981 Y139.833 E0.00461
G1 X143.073 Y139.771 E0.00143
G1 X143.162 Y139.711 E0.00137
G1 X143.492 Y139.506 E0.005
G1 X143.821 Y139.301 E0.005
G1 X143.959 Y139.223 E0.00204
G1 X144.33 Y139.03 E0.00538
G1 X144.702 Y138.838 E0.00538
G1 X144.791 Y138.796 E0.00127
G1 X145.204 Y138.621 E0.00577
G1 X145.617 Y138.447 E0.00577
G1 X145.653 Y138.433 E0.00049
G1 X146.096 Y138.285 E0.00602
G1 X146.54 Y138.137 E0.00602
G1 X146.565 Y138.13 E0.00034
G1 X147.006 Y138.02 E0.00585
G1 X147.447 Y137.91 E0.00585
G1 X147.532 Y137.893 E0.00111
G1 X147.95 Y137.823 E0.00546
G1 X148.369 Y137.753 E0.00546
G1 X148.514 Y137.734 E0.00188
G1 X148.907 Y137.7 E0.00508
G1 X149.3 Y137.665 E0.00508
G1 X149.4 Y137.66 E0.0013
G1 X149.506 Y137.655 E0.00136
G1 X149.87 Y137.652 E0.00469
G1 X150.234 Y137.648 E0.00469
G1 X150.365 Y137.652 E0.00168
G1 X150.5 Y137.656 E0.00174
G1 X150.834 Y137.679 E0.0043
G1 X151.168 Y137.702 E0.0043
G1 X151.327 Y137.719 E0.00207
G1 X151.492 Y137.737 E0.00213
G1 X151.793 Y137.781 E0.00392
G1 X152.094 Y137.826 E0.00392
G1 X152.282 Y137.861 E0.00245
G1 X152.474 Y137.897 E0.00251
G1 X152.741 Y137.958 E0.00353
G1 X153.009 Y138.019 E0.00353
G1 X153.222 Y138.076 E0.00284
G1 X153.44 Y138.135 E0.0029
G1 X153.673 Y138.208 E0.00315
G1 X153.906 Y138.281 E0.00315
G1 X154.143 Y138.365 E0.00322
G1 X154.379 Y138.448 E0.00322
G1 X154.582 Y138.53 E0.00282
G1 X154.781 Y138.61 E0.00276
G1 X155.038 Y138.724 E0.00361
G1 X155.298 Y138.84 E0.00367
G1 X155.464 Y138.922 E0.00238
G1 X155.629 Y139.004 E0.00238
G1 X155.902 Y139.152 E0.004
G1 X156.179 Y139.302 E0.00406
G1 X156.312 Y139.381 E0.00199
G1 X156.445 Y139.461 E0.00199
G1 X156.731 Y139.646 E0.00438
G1 X157.016 Y139.831 E0.00438
G1 X157.122 Y139.906 E0.00167
G1 X157.224 Y139.978 E0.0016
G1 X157.812 Y140.428 E0.00953
G1 X157.961 Y140.552 E0.0025
G1 X158.259 Y140.82 E0.00515
G1 X158.557 Y141.087 E0.00515
G1 X158.654 Y141.181 E0.00173
G1 X159.247 Y141.804 E0.01108
G1 X159.296 Y141.86 E0.00096
G1 X159.587 Y142.217 E0.00592
G1 X159.886 Y142.585 E0.00611
G1 X160.152 Y142.97 E0.00602
G1 X160.418 Y143.355 E0.00602
G1 X160.445 Y143.397 E0.00065
G1 X160.667 Y143.78 E0.00569
G1 X160.89 Y144.162 E0.00569
G1 X160.942 Y144.259 E0.00142
G1 X161.12 Y144.631 E0.00531
G1 X161.299 Y145.003 E0.00531
G1 X161.367 Y145.159 E0.00219
G1 X161.506 Y145.515 E0.00492
G1 X161.644 Y145.872 E0.00492
G1 X161.681 Y145.978 E0.00145
G1 X161.719 Y146.089 E0.00151
G1 X161.821 Y146.427 E0.00454
G1 X161.922 Y146.764 E0.00454
G1 X161.958 Y146.902 E0.00184
G1 X161.995 Y147.045 E0.0019
G1 X162.064 Y147.36 E0.00415
G1 X162.132 Y147.675 E0.00415
G1 X162.163 Y147.845 E0.00222
G1 X162.194 Y148.02 E0.00228
G1 X162.233 Y148.31 E0.00376
G1 X162.273 Y148.599 E0.00376
G1 X162.293 Y148.801 E0.00261
G1 X162.313 Y149.007 E0.00267
G1 X162.344 Y149.532 E0.00676
G1 X162.348 Y149.764 E0.00299
G1 X162.353 Y149.997 E0.00299
G1 X162.348 Y150.234 E0.00305
G1 X162.344 Y150.466 E0.00299
G1 X162.313 Y150.991 E0.00676
G1 X162.293 Y151.197 E0.00267
G1 X162.273 Y151.399 E0.00261
G1 X162.233 Y151.688 E0.00376
G1 X162.194 Y151.978 E0.00376
G1 X162.163 Y152.153 E0.00228
G1 X162.132 Y152.323 E0.00222
G1 X162.064 Y152.638 E0.00415
G1 X161.995 Y152.953 E0.00415
G1 X161.958 Y153.096 E0.0019
G1 X161.922 Y153.234 E0.00184
G1 X161.821 Y153.571 E0.00454
G1 X161.718 Y153.913 E0.0046
G1 X161.644 Y154.126 E0.0029
G1 X161.367 Y154.839 E0.00984
G1 X161.299 Y154.995 E0.00219
G1 X161.12 Y155.367 E0.00531
G1 X160.942 Y155.739 E0.00531
G1 X160.89 Y155.836 E0.00142
G1 X160.445 Y156.601 E0.01138
G1 X160.418 Y156.643 E0.00065
G1 X159.915 Y157.371 E0.01138
G1 X159.876 Y157.423 E0.00084
G1 X159.296 Y158.139 E0.01186
G1 X159.247 Y158.194 E0.00094
G1 X158.95 Y158.506 E0.00554
G1 X158.654 Y158.817 E0.00554
G1 X158.557 Y158.911 E0.00173
G1 X157.961 Y159.446 E0.0103
G1 X157.812 Y159.57 E0.0025
G1 X157.518 Y159.795 E0.00477
G1 X157.224 Y160.02 E0.00477
G1 X157.122 Y160.092 E0.0016
G1 X157.016 Y160.167 E0.00167
G1 X156.731 Y160.352 E0.00438
G1 X156.445 Y160.537 E0.00438
G1 X156.312 Y160.617 E0.00199
G1 X156.175 Y160.698 E0.00205
G1 X155.902 Y160.846 E0.004
G1 X155.629 Y160.994 E0.004
G1 X155.464 Y161.076 E0.00238
G1 X155.294 Y161.16 E0.00244
G1 X155.038 Y161.274 E0.00361
G1 X154.781 Y161.388 E0.00361
G1 X154.582 Y161.468 E0.00276
G1 X154.383 Y161.548 E0.00276
G1 X154.143 Y161.633 E0.00328
G1 X153.906 Y161.717 E0.00322
G1 X153.673 Y161.79 E0.00315
G1 X153.435 Y161.864 E0.00321
G1 X153.222 Y161.922 E0.00284
G1 X153.009 Y161.979 E0.00284
G1 X152.741 Y162.04 E0.00353
G1 X152.474 Y162.101 E0.00353
G1 X152.282 Y162.137 E0.00251
G1 X152.094 Y162.172 E0.00245
G1 X151.793 Y162.217 E0.00392
G1 X151.492 Y162.261 E0.00392
G1 X151.327 Y162.279 E0.00213
G1 X151.168 Y162.296 E0.00207
G1 X150.834 Y162.319 E0.0043
G1 X150.5 Y162.342 E0.0043
G1 X150.365 Y162.346 E0.00174
G1 X150.234 Y162.35 E0.00168
G1 X149.87 Y162.346 E0.00469
G1 X149.506 Y162.343 E0.00469
G1 X149.4 Y162.338 E0.00136
G1 X149.3 Y162.333 E0.0013
G1 X148.514 Y162.264 E0.01015
G1 X148.369 Y162.245 E0.00188
G1 X147.95 Y162.175 E0.00546
G1 X147.532 Y162.105 E0.00546
G1 X147.447 Y162.088 E0.00111
G1 X147.006 Y161.978 E0.00585
G1 X146.565 Y161.868 E0.00585
G1 X146.54 Y161.861 E0.00034
G1 X146.096 Y161.713 E0.00602
G1 X145.653 Y161.565 E0.00602
G1 X145.617 Y161.551 E0.00049
G1 X145.204 Y161.377 E0.00577
G1 X144.791 Y161.202 E0.00577
G1 X144.702 Y161.16 E0.00127
G1 X144.33 Y160.968 E0.00538
G1 X143.959 Y160.775 E0.00538
G1 X143.821 Y160.697 E0.00204
G1 X143.162 Y160.287 E0.01
G1 X143.073 Y160.227 E0.00137
G1 X142.981 Y160.165 E0.00143
G1 X142.692 Y159.952 E0.00461
G1 X142.404 Y159.74 E0.00461
G1 X142.297 Y159.654 E0.00176
G1 X142.186 Y159.566 E0.00182
G1 X141.689 Y159.137 E0.00845
