; generated by SuperSlicer 2.5.59 on 2022-09-23 at 00:55:15 UTC


;
;

;
;
; 

; external perimeters extrusion width = 0.40mm
; perimeters extrusion width = 0.40mm
; infill extrusion width = 0.50mm
; solid infill extrusion width = 0.56mm
; top infill extrusion width = 0.40mm
; first layer extrusion width = 0.80mm

; external perimeters extrusion width = 0.40mm
; perimeters extrusion width = 0.40mm
; infill extrusion width = 0.50mm
; solid infill extrusion width = 0.56mm
; top infill extrusion width = 0.40mm
; first layer extrusion width = 0.80mm

; object:{"name":"Bridging Directional Test v5","id":"Bridging Directional Test v5.stl id:0 copy 0","object_center":[172.139218,127.860782,0.000000],"boundingbox_center":[172.139218,127.860782,2.750000],"boundingbox_size":[69.458352,69.458352,5.500000]}
; object:{"name":"Overhang Directional Test v4","id":"Overhang Directional Test v4.stl id:1 copy 0","object_center":[131.261670,168.738330,0.000000],"boundingbox_center":[131.261670,168.738330,11.597674],"boundingbox_size":[64.784532,64.784532,23.195349]}
; plater:{"center":[152.868899,147.131101,0.000000],"boundingbox_center":[152.868899,147.131101,11.597674],"boundingbox_size":[107.998989,107.998989,23.195349]}

M73 P0 R41


; Pre-Processed for Cancel-Object support by preprocess_cancellation v0.2.0
; 2 known objects
EXCLUDE_OBJECT_DEFINE NAME=Bridging_Directional_Test_v5_stl_id_0_copy_0 CENTER=171.803,127.887 POLYGON=[[172.029,93.105],[171.746,93.161],[171.489,93.274],[171.21,93.486],[137.769,126.927],[137.582,127.16],[137.458,127.412],[137.39,127.689],[137.384,127.979],[137.44,128.256],[137.552,128.511],[137.764,128.789],[171.205,162.231],[171.437,162.417],[171.696,162.544],[171.967,162.61],[172.257,162.616],[172.547,162.556],[172.789,162.448],[173.068,162.236],[206.509,128.795],[206.688,128.578],[206.821,128.308],[206.889,128.028],[206.895,127.793],[206.827,127.432],[206.7,127.166],[206.509,126.926],[173.075,93.492],[172.844,93.306],[172.581,93.177],[172.306,93.111],[172.029,93.105]]
EXCLUDE_OBJECT_DEFINE NAME=Overhang_Directional_Test_v4_stl_id_1_copy_0 CENTER=131.321,168.748 POLYGON=[[141.082,136.425],[110.053,147.813],[98.948,158.918],[110.336,189.947],[121.441,201.052],[152.47,189.664],[163.575,178.559],[152.187,147.53],[141.082,136.425]]
;TYPE:Custom
; custom gcode: start_gcode
PRINT_START EXTRUDER=260 BED=110 AREA_START=104.592,88.7941 AREA_END=211.206,195.408
; custom gcode end: start_gcode
M107
G21 ; set units to millimeters
G90 ; use absolute coordinates
M83 ; use relative distances for extrusion
; custom gcode: start_filament_gcode
; Filament gcode
SET_PRESSURE_ADVANCE ADVANCE=0.02
SET_PRESSURE_ADVANCE EXTRUDER=extruder SMOOTH_TIME=0.04
; custom gcode end: start_filament_gcode
;_TOOLCHANGE 0
M104 S260 ; set temperature
M109 S260 ; set temperature and wait for it to be reached
M190 S110 ; set bed temperature and wait for it to be reached
;LAYER_CHANGE
;Z:0.24
;HEIGHT:0.24
G1 Z0.24 F36000
G92 E0
G1 E-0.7 F1800
M204 S2000
G1 X129.532 Y129.56 F36000
G1 E0.7 F1800
;TYPE:Skirt
;WIDTH:0.4
G1 X106.622 Y152.465 E1.0364
G1 X106.063 Y153.128 E0.02774
G1 X105.602 Y153.861 E0.02769
G1 X105.416 Y154.247 E0.0137
G1 X105.035 Y155.481 E0.04134
G1 X104.938 Y156.342 E0.02769
G1 X104.968 Y157.249 E0.02904
G1 X108.444 Y185.089 E0.89757
G1 X108.606 Y185.888 E0.02608
G1 X109.078 Y187.091 E0.04134
G1 X109.538 Y187.824 E0.02769
G1 X110.098 Y188.487 E0.02774
G1 X114.989 Y193.378 E0.22128
G1 X115.651 Y193.937 E0.02774
G1 X116.384 Y194.398 E0.02769
G1 X116.77 Y194.584 E0.0137
G1 X118.005 Y194.965 E0.04134
G1 X118.865 Y195.062 E0.02769
G1 X119.772 Y195.032 E0.02904
G1 X147.613 Y191.556 E0.89757
G1 X148.412 Y191.394 E0.02608
G1 X149.229 Y191.108 E0.02769
G1 X150.348 Y190.462 E0.04134
G1 X151.01 Y189.902 E0.02774
G1 X209.317 Y131.595 E2.63796
M73 P1 R41
G1 X209.791 Y131.043 E0.02327
G1 X210.241 Y130.338 E0.02674
G1 X210.738 Y128.984 E0.04615
G1 X210.851 Y128.159 E0.02666
G1 X210.795 Y127.042 E0.03579
G1 X210.369 Y125.641 E0.04685
G1 X209.96 Y124.915 E0.02664
G1 X209.399 Y124.221 E0.02854
G1 X175.866 Y90.675 E1.5174
G1 X175.312 Y90.203 E0.02329
G1 X174.343 Y89.623 E0.03612
G1 X173.559 Y89.335 E0.02674
G1 X172.435 Y89.149 E0.03644
G1 X171.297 Y89.208 E0.03645
G1 X170.199 Y89.511 E0.03644
G1 X169.194 Y90.04 E0.03635
G1 X168.5 Y90.601 E0.02854
G1 X129.532 Y129.56 E1.76279
G1 X129.777 Y129.805 F36000
G1 F1800
G1 X106.867 Y152.71 E1.0364
G1 X106.334 Y153.344 E0.0265
G1 X105.914 Y154.011 E0.02521
G1 X105.729 Y154.397 E0.0137
G1 X105.373 Y155.558 E0.03886
G1 X105.285 Y156.342 E0.02521
G1 X105.312 Y157.206 E0.02766
G1 X108.787 Y185.047 E0.89757
G1 X108.944 Y185.811 E0.02497
G1 X109.39 Y186.941 E0.03886
G1 X109.809 Y187.608 E0.02521
G1 X110.343 Y188.242 E0.0265
G1 X115.234 Y193.133 E0.22128
G1 X115.867 Y193.666 E0.0265
G1 X116.534 Y194.086 E0.02521
G1 X116.92 Y194.271 E0.0137
G1 X118.082 Y194.627 E0.03886
G1 X118.865 Y194.715 E0.02521
G1 X119.729 Y194.688 E0.02766
G1 X147.57 Y191.213 E0.89757
G1 X148.335 Y191.056 E0.02497
G1 X149.078 Y190.796 E0.02521
G1 X150.132 Y190.191 E0.03886
G1 X150.765 Y189.657 E0.0265
G1 X209.072 Y131.35 E2.63796
G1 X209.521 Y130.826 E0.02207
G1 X209.931 Y130.184 E0.02434
G1 X210.402 Y128.901 E0.04375
G1 X210.505 Y128.149 E0.02427
G1 X210.455 Y127.105 E0.03343
G1 X210.051 Y125.777 E0.04441
G1 X209.678 Y125.117 E0.02426
G1 X209.154 Y124.466 E0.02674
G1 X175.621 Y90.92 E1.5174
G1 X175.096 Y90.473 E0.02206
G1 X174.189 Y89.934 E0.03376
G1 X173.475 Y89.671 E0.02434
G1 X172.425 Y89.495 E0.03405
G1 X171.362 Y89.548 E0.03405
G1 X170.336 Y89.829 E0.03405
G1 X169.396 Y90.322 E0.03397
G1 X168.745 Y90.846 E0.02674
G1 X129.777 Y129.805 E1.76278
G1 X130.022 Y130.05 F36000
G1 F1800
G1 X107.112 Y152.955 E1.0364
G1 X106.604 Y153.56 E0.02525
G1 X106.226 Y154.161 E0.02273
G1 X106.041 Y154.547 E0.0137
G1 X105.711 Y155.635 E0.03638
G1 X105.631 Y156.342 E0.02273
G1 X105.655 Y157.163 E0.02629
G1 X109.131 Y185.004 E0.89757
G1 X109.281 Y185.734 E0.02386
G1 X109.702 Y186.791 E0.03638
G1 X110.08 Y187.392 E0.02273
G1 X110.588 Y187.997 E0.02525
G1 X115.479 Y192.888 E0.22128
G1 X116.083 Y193.396 E0.02525
G1 X116.685 Y193.774 E0.02273
G1 X117.071 Y193.959 E0.0137
G1 X118.159 Y194.289 E0.03638
G1 X118.865 Y194.369 E0.02273
G1 X119.686 Y194.345 E0.02629
G1 X147.527 Y190.869 E0.89757
G1 X148.258 Y190.719 E0.02386
G1 X148.928 Y190.484 E0.02273
G1 X149.916 Y189.92 E0.03638
G1 X150.52 Y189.412 E0.02525
G1 X208.828 Y131.105 E2.63796
G1 X209.251 Y130.609 E0.02088
G1 X209.62 Y130.031 E0.02195
G1 X210.066 Y128.817 E0.04135
G1 X210.159 Y128.14 E0.02188
G1 X210.114 Y127.169 E0.03107
G1 X209.733 Y125.914 E0.04196
G1 X209.397 Y125.319 E0.02187
G1 X208.909 Y124.711 E0.02493
G1 X175.376 Y91.165 E1.5174
G1 X174.88 Y90.744 E0.02083
G1 X174.035 Y90.244 E0.03139
G1 X173.391 Y90.007 E0.02195
G1 X172.416 Y89.841 E0.03165
G1 X171.428 Y89.888 E0.03166
G1 X170.473 Y90.147 E0.03165
G1 X169.597 Y90.603 E0.03158
G1 X168.989 Y91.091 E0.02493
G1 X130.022 Y130.05 E1.76278
M73 P2 R41
G1 E-0.7
; printing object Bridging Directional Test v5.stl id:0 copy 0
EXCLUDE_OBJECT_START NAME=Bridging_Directional_Test_v5_stl_id_0_copy_0
; acceleration to travel
M204 S10000
G1 X164.19 Y128.226 F36000
; decel to extrusion
M204 S2000
G1 X171.023 Y127.861
; end travel
G1 E0.7 F1800
;TYPE:Internal perimeter
;WIDTH:0.8
G1 X171.655 Y127.376 E0.0547
G1 X172.139 Y126.745 E0.0547
M73 P2 R40
G1 X172.624 Y127.376 E0.0547
G1 X173.255 Y127.861 E0.0547
G1 X172.624 Y128.345 E0.0547
G1 X172.139 Y128.977 E0.0547
G1 X171.655 Y128.345 E0.0547
G1 X171.023 Y127.861 E0.0547
G1 E-0.7
; acceleration to travel
M204 S10000
G1 X145.476 Y127.035 F36000
; decel to extrusion
M204 S2000
G1 X140.367 Y126.87
; end travel
G1 E0.7 F1800
G1 X142.246 Y124.991 E0.18261
G1 X144.126 Y126.87 E0.18261
G1 X140.367 Y126.87 E0.25825
G1 X138.56 Y127.619 F36000
G1 F1800
G1 X142.246 Y123.933 E0.3582
G1 X145.933 Y127.619 E0.3582
G1 X138.56 Y127.619 E0.50657
G1 E-0.7
; acceleration to travel
M204 S10000
G1 X167.368 Y104.476 F36000
; decel to extrusion
M204 S2000
G1 X173.13 Y99.847
; end travel
G1 E0.7 F1800
G1 X173.13 Y96.089 E0.25823
G1 X175.009 Y97.968 E0.18259
G1 X173.13 Y99.847 E0.1826
G1 X172.381 Y101.654 F36000
G1 F1800
G1 X172.381 Y94.282 E0.50654
G1 X176.067 Y97.968 E0.35818
G1 X172.381 Y101.654 E0.3582
G1 E-0.7
; acceleration to travel
M204 S10000
G1 X195.524 Y124.318 F36000
; decel to extrusion
M204 S2000
G1 X200.153 Y128.851
; end travel
G1 E0.7 F1800
G1 X203.911 Y128.851 E0.25825
G1 X202.032 Y130.73 E0.18261
G1 X200.153 Y128.851 E0.18261
G1 X198.346 Y128.103 F36000
G1 F1800
G1 X205.718 Y128.103 E0.50657
G1 X202.032 Y131.789 E0.3582
G1 X198.346 Y128.103 E0.3582
G1 E-0.7
; acceleration to travel
M204 S10000
G1 X174.116 Y152.812 F36000
; decel to extrusion
M204 S2000
G1 X169.27 Y157.754
; end travel
G1 E0.7 F1800
G1 X171.149 Y155.874 E0.18261
G1 X171.149 Y159.633 E0.25825
G1 X169.27 Y157.754 E0.18261
G1 X168.211 Y157.754 F36000
G1 F1800
G1 X171.897 Y154.067 E0.3582
G1 X171.897 Y161.44 E0.50657
G1 X168.211 Y157.754 E0.3582
G1 X167.682 Y157.224 F36000
;TYPE:External perimeter
G1 F1800
G1 X171.633 Y153.273 E0.38392
G1 X171.633 Y130.093 E1.59275
G1 X171.577 Y129.669 E0.02934
G1 X171.401 Y129.244 E0.03161
G1 X171.121 Y128.879 E0.03161
G1 X170.756 Y128.599 E0.03161
G1 X170.331 Y128.423 E0.03161
G1 X169.907 Y128.367 E0.02934
G1 X137.816 Y128.367 E2.205
G1 X137.726 Y128.157 E0.01573
G1 X137.684 Y127.936 E0.01544
G1 X137.69 Y127.725 E0.01452
G1 X137.743 Y127.513 E0.01497
G1 X137.839 Y127.318 E0.01496
G1 X137.993 Y127.128 E0.01683
G1 X142.246 Y122.874 E0.41332
G1 X146.727 Y127.354 E0.43535
G1 X169.907 Y127.354 E1.59275
G1 X170.331 Y127.298 E0.02934
G1 X170.756 Y127.122 E0.03161
G1 X171.121 Y126.842 E0.03161
G1 X171.401 Y126.477 E0.03161
G1 X171.577 Y126.052 E0.03161
G1 X171.633 Y125.629 E0.02934
G1 X171.633 Y93.538 E2.205
G1 X171.844 Y93.447 E0.0158
G1 X172.058 Y93.406 E0.01496
G1 X172.275 Y93.412 E0.01496
G1 X172.487 Y93.464 E0.01496
G1 X172.682 Y93.561 E0.015
G1 X172.865 Y93.708 E0.01611
G1 X177.126 Y97.968 E0.414
G1 X172.646 Y102.448 E0.43535
G1 X172.646 Y125.629 E1.59275
G1 X172.702 Y126.052 E0.02934
G1 X172.878 Y126.477 E0.03161
G1 X173.158 Y126.842 E0.03161
G1 X173.523 Y127.122 E0.03161
G1 X173.948 Y127.298 E0.03161
G1 X174.371 Y127.354 E0.02934
G1 X206.462 Y127.354 E2.205
G1 X206.553 Y127.564 E0.01573
G1 X206.594 Y127.785 E0.01544
G1 X206.588 Y127.997 E0.01452
G1 X206.536 Y128.208 E0.01497
G1 X206.439 Y128.403 E0.01498
G1 X206.286 Y128.594 E0.01681
G1 X202.032 Y132.848 E0.41332
G1 X197.552 Y128.367 E0.43535
G1 X174.371 Y128.367 E1.59275
G1 X173.948 Y128.423 E0.02934
G1 X173.523 Y128.599 E0.03161
G1 X173.158 Y128.879 E0.03161
G1 X172.878 Y129.244 E0.03161
G1 X172.702 Y129.669 E0.03161
G1 X172.646 Y130.093 E0.02934
G1 X172.646 Y162.184 E2.205
G1 X172.435 Y162.274 E0.01573
G1 X172.215 Y162.316 E0.01544
G1 X172.003 Y162.31 E0.01452
G1 X171.792 Y162.257 E0.01497
G1 X171.597 Y162.161 E0.01496
G1 X171.406 Y162.007 E0.01683
G1 X167.152 Y157.754 E0.41332
G1 X167.682 Y157.224 E0.05143
;WIPE_START
M204 S5500
G1 X168.068 Y157.328 F36000
;WIPE_END
G1 E-0.7 F1800
M204 S2000
G1 X172.106 Y153.37 F36000
G1 E0.7 F1800
;TYPE:Gap fill
;WIDTH:0.284019
G1 X172.123 Y153.24 E0.00281
;WIDTH:0.376301
G1 X172.139 Y153.109 E0.00393
G1 X172.139 Y130.07 E0.68692
G1 X172.139 Y129.898 E0.00514
;WIDTH:0.455435
G1 X172.139 Y129.746 E0.00561
;WIDTH:0.499589
G1 X172.139 Y129.619 E0.00524
G1 X172.139 Y129.544 E0.00306
G1 E-0.7
G1 X170.456 Y127.861 F36000
G1 E0.7 F1800
;WIDTH:0.499587
G1 X170.254 Y127.861 E0.00831
;WIDTH:0.455435
G1 X170.102 Y127.861 E0.00561
;WIDTH:0.376303
G1 X169.93 Y127.861 E0.00514
G1 X146.891 Y127.861 E0.68692
G1 X146.76 Y127.844 E0.00393
;WIDTH:0.284019
G1 X146.63 Y127.827 E0.00281
G1 E-0.7
; acceleration to travel
M204 S10000
G1 X167.888 Y126.452 F36000
; decel to extrusion
M204 S2000
G1 X172.139 Y126.177
; end travel
G1 E0.7 F1800
;WIDTH:0.499589
G1 X172.139 Y125.975 E0.00831
;WIDTH:0.455434
G1 X172.139 Y125.824 E0.00561
;WIDTH:0.376301
G1 X172.139 Y125.651 E0.00514
G1 X172.139 Y102.613 E0.68692
G1 X172.156 Y102.482 E0.00393
;WIDTH:0.284019
G1 X172.173 Y102.351 E0.00281
G1 E-0.7
; acceleration to travel
M204 S10000
G1 X173.548 Y123.609 F36000
; decel to extrusion
M204 S2000
G1 X173.823 Y127.861
; end travel
G1 E0.7 F1800
;WIDTH:0.499589
G1 X173.897 Y127.861 E0.00306
G1 X174.025 Y127.861 E0.00524
;WIDTH:0.455434
G1 X174.176 Y127.861 E0.00561
;WIDTH:0.376302
G1 X185.868 Y127.861 E0.3486
G1 X197.387 Y127.861 E0.34346
G1 X197.518 Y127.877 E0.00393
;WIDTH:0.284019
G1 X197.649 Y127.894 E0.00281
G1 E-0.7
; stop printing object Bridging Directional Test v5.stl id:0 copy 0
EXCLUDE_OBJECT_END NAME=Bridging_Directional_Test_v5_stl_id_0_copy_0
; printing object Overhang Directional Test v4.stl id:1 copy 0
EXCLUDE_OBJECT_START NAME=Overhang_Directional_Test_v4_stl_id_1_copy_0
; acceleration to travel
M204 S10000
G1 X155.698 Y148.883 F36000
; decel to extrusion
M204 S2000
G1 X147.307 Y153.08
; end travel
G1 E0.7 F1800
;TYPE:Internal perimeter
;WIDTH:0.8
G1 X140.555 Y159.832 E0.6561
G1 X139.892 Y160.597 E0.06957
G1 X139.292 Y161.532 E0.07632
G1 X138.831 Y162.542 E0.07632
G1 X138.518 Y163.608 E0.07632
G1 X138.359 Y164.707 E0.07632
G1 X138.359 Y165.818 E0.07632
G1 X138.518 Y166.918 E0.07632
G1 X138.831 Y167.984 E0.07632
G1 X139.292 Y168.994 E0.07632
G1 X139.892 Y169.928 E0.07632
G1 X140.556 Y170.694 E0.06957
G1 X150.783 Y180.921 E0.99381
G1 X146.92 Y184.784 E0.37539
G1 X140.168 Y178.032 E0.6561
G1 X139.403 Y177.369 E0.06956
G1 X138.468 Y176.769 E0.07632
G1 X137.458 Y176.307 E0.07632
G1 X136.392 Y175.994 E0.07632
G1 X135.293 Y175.836 E0.07632
G1 X134.182 Y175.836 E0.07632
G1 X133.082 Y175.994 E0.07632
G1 X132.016 Y176.307 E0.07632
G1 X131.006 Y176.769 E0.07632
G1 X130.072 Y177.369 E0.07632
G1 X129.306 Y178.032 E0.06957
G1 X119.079 Y188.26 E0.99381
G1 X115.216 Y184.396 E0.37539
G1 X121.968 Y177.644 E0.6561
G1 X122.631 Y176.879 E0.06956
G1 X123.231 Y175.945 E0.07632
G1 X123.693 Y174.934 E0.07632
G1 X124.006 Y173.869 E0.07632
G1 X124.164 Y172.769 E0.07632
G1 X124.164 Y171.658 E0.07632
G1 X124.006 Y170.559 E0.07632
G1 X123.693 Y169.493 E0.07632
G1 X123.231 Y168.483 E0.07632
G1 X122.631 Y167.548 E0.07632
G1 X121.968 Y166.783 E0.06957
G1 X111.74 Y156.556 E0.99381
M73 P3 R40
G1 X115.604 Y152.693 E0.37539
G1 X122.356 Y159.445 E0.6561
G1 X123.121 Y160.108 E0.06957
G1 X124.055 Y160.708 E0.07632
G1 X125.066 Y161.169 E0.07632
G1 X126.131 Y161.482 E0.07632
G1 X127.231 Y161.641 E0.07632
G1 X128.342 Y161.641 E0.07632
G1 X129.441 Y161.482 E0.07632
G1 X130.507 Y161.169 E0.07632
G1 X131.517 Y160.708 E0.07632
G1 X132.452 Y160.108 E0.07632
G1 X133.217 Y159.444 E0.06957
G1 X143.444 Y149.217 E0.99381
G1 X147.307 Y153.08 E0.37539
G1 X148.366 Y153.08 F36000
G1 F1800
G1 X141.104 Y160.343 E0.70569
G1 X140.493 Y161.047 E0.06405
G1 X139.951 Y161.891 E0.06897
G1 X139.534 Y162.804 E0.06897
G1 X139.251 Y163.768 E0.06896
G1 X139.108 Y164.761 E0.06897
G1 X139.108 Y165.765 E0.06896
G1 X139.251 Y166.758 E0.06897
G1 X139.534 Y167.721 E0.06896
G1 X139.951 Y168.634 E0.06897
G1 X140.493 Y169.479 E0.06897
G1 X141.104 Y170.183 E0.06405
G1 X151.841 Y180.921 E1.04341
G1 X146.92 Y185.843 E0.47825
G1 X139.657 Y178.58 E0.70569
G1 X138.953 Y177.97 E0.06405
G1 X138.109 Y177.427 E0.06897
G1 X137.196 Y177.01 E0.06897
G1 X136.232 Y176.727 E0.06896
G1 X135.239 Y176.585 E0.06897
G1 X134.235 Y176.585 E0.06896
G1 X133.242 Y176.727 E0.06897
G1 X132.279 Y177.01 E0.06896
G1 X131.366 Y177.427 E0.06897
G1 X130.521 Y177.97 E0.06897
G1 X129.817 Y178.58 E0.06405
G1 X119.079 Y189.318 E1.04341
G1 X114.157 Y184.396 E0.47825
G1 X121.42 Y177.134 E0.70569
G1 X122.03 Y176.43 E0.06405
G1 X122.573 Y175.585 E0.06897
G1 X122.99 Y174.672 E0.06897
G1 X123.273 Y173.709 E0.06896
G1 X123.415 Y172.716 E0.06897
G1 X123.415 Y171.712 E0.06896
G1 X123.273 Y170.718 E0.06897
G1 X122.99 Y169.755 E0.06896
G1 X122.573 Y168.842 E0.06897
G1 X122.03 Y167.998 E0.06897
G1 X121.42 Y167.293 E0.06405
G1 X110.682 Y156.556 E1.04341
G1 X115.604 Y151.634 E0.47825
G1 X122.866 Y158.896 E0.70569
G1 X123.57 Y159.507 E0.06405
