; generated by SuperSlicer 2.5.59 on 2022-09-09 at 03:35:30 UTC


;
;

;
;
; 

; external perimeters extrusion width = 0.40mm
; perimeters extrusion width = 0.40mm
; infill extrusion width = 0.72mm
; solid infill extrusion width = 0.56mm
; top infill extrusion width = 0.40mm

; object:{"name":"Calibration Flower v7","id":"Calibration Flower v7.stl id:0 copy 0","object_center":[150.000000,150.000000,0.000000],"boundingbox_center":[150.000000,150.000000,2.500000],"boundingbox_size":[111.015765,107.480231,5.000000]}
; plater:{"center":[150.000000,150.000000,0.000000],"boundingbox_center":[150.000000,150.000000,2.500000],"boundingbox_size":[111.015765,107.480231,5.000000]}

M73 P0 R55
;TYPE:Custom
; custom gcode: start_gcode
PRINT_START EXTRUDER=250 BED=110 AREA_START=94.868,96.6446 AREA_END=205.132,203.355
; custom gcode end: start_gcode
M107
G21 ; set units to millimeters
G90 ; use absolute coordinates
M83 ; use relative distances for extrusion
; custom gcode: start_filament_gcode
; Filament gcode
SET_PRESSURE_ADVANCE ADVANCE=0.03
SET_PRESSURE_ADVANCE EXTRUDER=extruder SMOOTH_TIME=0.04
; custom gcode end: start_filament_gcode
;_TOOLCHANGE 0
M104 S250 ; set temperature
M109 S250 ; set temperature and wait for it to be reached
M190 S110 ; set bed temperature and wait for it to be reached
;LAYER_CHANGE
;Z:0.24
;HEIGHT:0.24
G1 Z0.24 F27000
G92 E0
M73 P0 R54
G1 E-0.5 F1800
; printing object Calibration Flower v7.stl id:0 copy 0
M204 S2000
G1 X170.33 Y202.11 F27000
G1 E0.5 F1800
;TYPE:Internal perimeter
;WIDTH:0.348495
G1 X165.152 Y196.932 E0.20182
G1 X164.738 Y196.66 E0.01363
G1 X164.289 Y196.574 E0.0126
G1 X135.711 Y196.574 E0.78762
G1 X135.262 Y196.66 E0.0126
G1 X134.848 Y196.932 E0.01363
G1 X129.67 Y202.11 E0.20182
G1 X128.401 Y202.11 E0.03496
G1 X112.459 Y186.167 E0.62137
G1 X112.459 Y184.899 E0.03496
G1 X114.515 Y182.842 E0.08016
G1 X114.82 Y182.335 E0.01631
G1 X114.86 Y181.807 E0.01458
G1 X114.763 Y181.475 E0.00954
G1 X114.515 Y181.117 E0.012
G1 X99.667 Y166.269 E0.57872
G1 X99.667 Y165 E0.03496
G1 X101.292 Y163.375 E0.06333
G1 X101.563 Y162.962 E0.01363
G1 X101.649 Y162.513 E0.0126
G1 X101.649 Y133.934 E0.78762
G1 X101.563 Y133.485 E0.0126
G1 X101.292 Y133.071 E0.01363
G1 X96.113 Y127.893 E0.20182
G1 X96.113 Y126.625 E0.03496
G1 X112.056 Y110.682 E0.62137
G1 X113.325 Y110.682 E0.03496
G1 X115.381 Y112.739 E0.08016
G1 X115.543 Y112.875 E0.00583
G1 X115.889 Y113.043 E0.01059
G1 X116.416 Y113.084 E0.01458
G1 X116.748 Y112.987 E0.00954
G1 X117.106 Y112.739 E0.012
G1 X131.955 Y97.89 E0.57872
G1 X133.223 Y97.89 E0.03496
G1 X134.848 Y99.515 E0.06333
G1 X135.262 Y99.787 E0.01363
G1 X135.711 Y99.872 E0.0126
G1 X164.289 Y99.872 E0.78762
G1 X164.738 Y99.787 E0.0126
G1 X165.152 Y99.515 E0.01363
G1 X166.777 Y97.89 E0.06333
G1 X168.045 Y97.89 E0.03496
G1 X182.894 Y112.739 E0.57872
G1 X183.252 Y112.987 E0.012
G1 X183.584 Y113.084 E0.00954
G1 X184.111 Y113.043 E0.01458
G1 X184.619 Y112.739 E0.01631
G1 X186.675 Y110.682 E0.08016
G1 X187.944 Y110.682 E0.03496
G1 X203.887 Y126.625 E0.62137
G1 X203.887 Y127.893 E0.03496
G1 X198.708 Y133.071 E0.20182
G1 X198.437 Y133.485 E0.01363
G1 X198.351 Y133.934 E0.0126
G1 X198.351 Y162.513 E0.78762
G1 X198.437 Y162.962 E0.0126
G1 X198.708 Y163.375 E0.01363
G1 X200.333 Y165 E0.06333
G1 X200.333 Y166.269 E0.03496
G1 X185.485 Y181.117 E0.57872
G1 X185.237 Y181.475 E0.012
G1 X185.14 Y181.807 E0.00954
G1 X185.18 Y182.335 E0.01458
G1 X185.485 Y182.842 E0.01631
G1 X187.541 Y184.899 E0.08016
G1 X187.541 Y186.167 E0.03496
G1 X171.599 Y202.11 E0.62137
M73 P1 R54
G1 X170.33 Y202.11 E0.03496
G1 X170.186 Y202.458 F27000
G1 F1800
G1 X164.906 Y197.178 E0.2058
G1 X164.61 Y196.984 E0.00974
G1 X164.289 Y196.923 E0.009
G1 X135.711 Y196.923 E0.78762
G1 X135.39 Y196.984 E0.009
G1 X135.094 Y197.178 E0.00974
G1 X129.814 Y202.458 E0.2058
G1 X128.257 Y202.458 E0.04291
G1 X112.11 Y186.312 E0.62932
G1 X112.11 Y184.754 E0.04291
G1 X114.269 Y182.596 E0.08413
G1 X114.486 Y182.233 E0.01165
G1 X114.515 Y181.856 E0.01042
G1 X114.446 Y181.619 E0.00681
G1 X114.269 Y181.364 E0.00857
G1 X99.318 Y166.413 E0.5827
G1 X99.318 Y164.856 E0.04291
G1 X101.045 Y163.129 E0.06731
G1 X101.239 Y162.834 E0.00974
G1 X101.301 Y162.513 E0.009
G1 X101.301 Y133.934 E0.78762
G1 X101.239 Y133.613 E0.009
G1 X101.045 Y133.318 E0.00974
G1 X95.765 Y128.037 E0.2058
G1 X95.765 Y126.48 E0.04291
G1 X111.912 Y110.333 E0.62932
G1 X113.469 Y110.333 E0.04291
G1 X115.628 Y112.492 E0.08413
G1 X115.99 Y112.71 E0.01165
G1 X116.367 Y112.739 E0.01042
G1 X116.604 Y112.669 E0.00681
G1 X116.86 Y112.492 E0.00857
G1 X131.81 Y97.542 E0.5827
G1 X133.367 Y97.542 E0.04291
G1 X135.094 Y99.269 E0.06731
G1 X135.39 Y99.463 E0.00974
G1 X135.711 Y99.524 E0.009
G1 X164.289 Y99.524 E0.78762
G1 X164.61 Y99.463 E0.009
G1 X164.906 Y99.269 E0.00974
G1 X166.633 Y97.542 E0.06731
G1 X168.19 Y97.542 E0.04291
G1 X183.14 Y112.492 E0.5827
G1 X183.396 Y112.669 E0.00857
G1 X183.633 Y112.739 E0.00681
G1 X184.01 Y112.71 E0.01042
G1 X184.372 Y112.492 E0.01165
G1 X186.531 Y110.333 E0.08413
G1 X188.088 Y110.333 E0.04291
G1 X204.235 Y126.48 E0.62932
G1 X204.235 Y128.037 E0.04291
G1 X198.955 Y133.318 E0.2058
G1 X198.761 Y133.613 E0.00974
G1 X198.699 Y133.934 E0.009
G1 X198.699 Y162.513 E0.78762
G1 X198.761 Y162.834 E0.009
G1 X198.955 Y163.129 E0.00974
G1 X200.682 Y164.856 E0.06731
G1 X200.682 Y166.413 E0.04291
G1 X185.731 Y181.364 E0.5827
G1 X185.554 Y181.619 E0.00857
G1 X185.485 Y181.856 E0.00681
G1 X185.514 Y182.233 E0.01042
G1 X185.731 Y182.596 E0.01165
G1 X187.89 Y184.754 E0.08413
G1 X187.89 Y186.312 E0.04291
G1 X171.743 Y202.458 E0.62932
G1 X170.186 Y202.458 E0.04291
G1 X170.042 Y202.807 F27000
G1 F1800
G1 X164.659 Y197.424 E0.20978
G1 X164.59 Y197.366 E0.0025
G1 X164.289 Y197.271 E0.00868
G1 X135.711 Y197.271 E0.78762
G1 X135.518 Y197.308 E0.0054
G1 X135.341 Y197.424 E0.00584
G1 X129.958 Y202.807 E0.20978
G1 X128.113 Y202.807 E0.05087
G1 X111.762 Y186.456 E0.63728
G1 X111.762 Y184.61 E0.05087
G1 X114.022 Y182.349 E0.08811
G1 X114.153 Y182.132 E0.00699
G1 X114.17 Y181.906 E0.00625
G1 X114.129 Y181.763 E0.00409
G1 X114.022 Y181.61 E0.00514
G1 X98.97 Y166.557 E0.58668
G1 X98.97 Y164.712 E0.05087
G1 X100.799 Y162.882 E0.07129
G1 X100.915 Y162.705 E0.00584
G1 X100.952 Y162.513 E0.0054
G1 X100.952 Y133.934 E0.78762
G1 X100.915 Y133.741 E0.0054
G1 X100.799 Y133.564 E0.00584
G1 X95.416 Y128.182 E0.20978
G1 X95.416 Y126.336 E0.05087
G1 X111.767 Y109.985 E0.63728
G1 X113.613 Y109.985 E0.05087
G1 X115.874 Y112.246 E0.08811
G1 X116.091 Y112.376 E0.00699
G1 X116.318 Y112.394 E0.00625
G1 X116.46 Y112.352 E0.00409
G1 X116.613 Y112.246 E0.00514
G1 X131.666 Y97.193 E0.58668
G1 X133.512 Y97.193 E0.05087
G1 X134.81 Y98.491 E0.0506
G1 X135.41 Y99.081 E0.02318
G1 X135.711 Y99.175 E0.00868
G1 X164.289 Y99.175 E0.78762
G1 X164.482 Y99.139 E0.0054
G1 X164.659 Y99.022 E0.00584
G1 X166.488 Y97.193 E0.07129
G1 X168.334 Y97.193 E0.05087
G1 X183.387 Y112.246 E0.58668
G1 X183.42 Y112.277 E0.00126
G1 X183.682 Y112.394 E0.00791
G1 X183.909 Y112.376 E0.00625
G1 X184.126 Y112.246 E0.00699
G1 X186.387 Y109.985 E0.08811
G1 X188.233 Y109.985 E0.05087
G1 X204.584 Y126.336 E0.63728
G1 X204.584 Y128.182 E0.05087
G1 X199.201 Y133.564 E0.20978
G1 X199.143 Y133.634 E0.0025
G1 X199.048 Y133.934 E0.00868
G1 X199.048 Y162.513 E0.78762
G1 X199.085 Y162.705 E0.0054
G1 X199.201 Y162.882 E0.00584
G1 X201.03 Y164.712 E0.07129
G1 X201.03 Y166.557 E0.05087
G1 X185.978 Y181.61 E0.58668
G1 X185.947 Y181.644 E0.00126
G1 X185.83 Y181.906 E0.00791
G1 X185.847 Y182.132 E0.00625
G1 X185.978 Y182.349 E0.00699
G1 X188.238 Y184.61 E0.08811
G1 X188.238 Y186.456 E0.05087
G1 X171.887 Y202.807 E0.63728
G1 X170.042 Y202.807 E0.05087
M204 S1000
G1 X169.897 Y203.155 F27000
;TYPE:External perimeter
G1 F1800
G1 X164.413 Y197.671 E0.21376
G1 X164.289 Y197.62 E0.00368
G1 X135.711 Y197.62 E0.78762
G1 X135.587 Y197.671 E0.00368
G1 X130.103 Y203.155 E0.21376
G1 X127.968 Y203.155 E0.05883
G1 X111.413 Y186.6 E0.64524
G1 X111.413 Y184.466 E0.05883
G1 X113.776 Y182.103 E0.09209
G1 X113.825 Y181.955 E0.0043
G1 X113.776 Y181.856 E0.00304
G1 X98.621 Y166.702 E0.59065
G1 X98.621 Y164.567 E0.05883
G1 X100.552 Y162.636 E0.07527
G1 X100.604 Y162.513 E0.00368
G1 X100.604 Y133.934 E0.78762
G1 X100.552 Y133.811 E0.00368
G1 X95.068 Y128.326 E0.21376
G1 X95.068 Y126.192 E0.05883
G1 X111.623 Y109.636 E0.64524
G1 X113.758 Y109.636 E0.05883
G1 X116.12 Y111.999 E0.09209
G1 X116.268 Y112.049 E0.0043
G1 X116.367 Y111.999 E0.00304
G1 X131.522 Y96.845 E0.59065
G1 X133.656 Y96.845 E0.05883
G1 X135.587 Y98.776 E0.07527
G1 X135.711 Y98.827 E0.00368
G1 X164.289 Y98.827 E0.78762
G1 X164.413 Y98.776 E0.00368
G1 X166.344 Y96.845 E0.07527
G1 X168.478 Y96.845 E0.05883
G1 X183.633 Y111.999 E0.59065
M73 P2 R54
G1 X183.732 Y112.049 E0.00304
G1 X183.88 Y111.999 E0.0043
G1 X186.242 Y109.636 E0.09209
G1 X188.377 Y109.636 E0.05883
G1 X204.932 Y126.192 E0.64524
G1 X204.932 Y128.326 E0.05883
G1 X199.448 Y133.811 E0.21376
G1 X199.396 Y133.934 E0.00368
G1 X199.396 Y162.513 E0.78762
G1 X199.448 Y162.636 E0.00368
G1 X201.379 Y164.567 E0.07527
G1 X201.379 Y166.702 E0.05883
G1 X186.224 Y181.856 E0.59065
G1 X186.175 Y181.955 E0.00304
G1 X186.224 Y182.103 E0.0043
G1 X188.587 Y184.466 E0.09209
G1 X188.587 Y186.6 E0.05883
G1 X172.032 Y203.155 E0.64524
G1 X169.897 Y203.155 E0.05883
;WIPE_START
M204 S4000
G1 X169.897 Y202.755 F27000
;WIPE_END
G1 E-0.5 F1800
; acceleration to travel
M204 S10000
G1 X183.636 Y153.417 F27000
; decel to extrusion
M204 S2000
G1 X186.384 Y143.549
; end travel
G1 E0.5 F1800
;TYPE:Internal perimeter
G1 X186.751 Y143.297 E0.01227
G1 X201.926 Y128.121 E0.59147
G1 X202.062 Y127.959 E0.00583
G1 X202.158 Y127.798 E0.00517
G1 X202.271 Y127.438 E0.01041
G1 X202.271 Y127.08 E0.00985
G1 X202.158 Y126.72 E0.01041
G1 X201.926 Y126.396 E0.01096
G1 X188.172 Y112.642 E0.53607
G1 X187.849 Y112.41 E0.01096
G1 X187.488 Y112.298 E0.01041
G1 X187.131 Y112.298 E0.00985
G1 X186.77 Y112.41 E0.01041
G1 X186.447 Y112.642 E0.01096
G1 X171.272 Y127.818 E0.59147
G1 X171.136 Y127.98 E0.00583
G1 X170.967 Y128.325 E0.01059
G1 X170.927 Y128.853 E0.01458
G1 X171.024 Y129.185 E0.00954
G1 X171.272 Y129.543 E0.012
G1 X185.026 Y143.297 E0.53607
G1 X185.333 Y143.521 E0.01048
G1 X185.61 Y143.622 E0.00811
G1 X185.979 Y143.651 E0.01022
G1 X186.384 Y143.549 E0.0115
G1 X186.069 Y143.274 F27000
G1 F1800
G1 X186.242 Y143.231 E0.00493
G1 X186.504 Y143.051 E0.00876
G1 X201.68 Y127.875 E0.59147
G1 X201.777 Y127.759 E0.00416
G1 X201.845 Y127.644 E0.00369
G1 X201.935 Y127.259 E0.0109
G1 X201.845 Y126.874 E0.0109
G1 X201.68 Y126.643 E0.00783
G1 X187.926 Y112.889 E0.53607
G1 X187.695 Y112.723 E0.00783
G1 X187.31 Y112.633 E0.0109
G1 X186.925 Y112.723 E0.0109
G1 X186.694 Y112.889 E0.00783
G1 X171.518 Y128.064 E0.59147
G1 X171.301 Y128.427 E0.01165
G1 X171.272 Y128.803 E0.01042
G1 X171.341 Y129.041 E0.00681
G1 X171.518 Y129.296 E0.00857
G1 X185.272 Y143.051 E0.53607
G1 X185.492 Y143.21 E0.00748
G1 X185.689 Y143.283 E0.00579
G1 X185.953 Y143.303 E0.0073
G1 X186.069 Y143.274 E0.00329
G1 X185.835 Y142.937 F27000
G1 F1800
G1 X185.927 Y142.956 E0.00259
G1 X186.101 Y142.912 E0.00493
G1 X186.258 Y142.804 E0.00526
G1 X201.434 Y127.629 E0.59147
G1 X201.492 Y127.559 E0.0025
G1 X201.533 Y127.49 E0.00221
G1 X201.587 Y127.259 E0.00654
G1 X201.533 Y127.028 E0.00654
G1 X201.434 Y126.889 E0.0047
G1 X187.679 Y113.135 E0.53607
G1 X187.541 Y113.036 E0.0047
G1 X187.31 Y112.982 E0.00654
G1 X187.079 Y113.036 E0.00654
G1 X186.94 Y113.135 E0.0047
G1 X171.764 Y128.311 E0.59147
M73 P2 R53
G1 X171.634 Y128.528 E0.00699
G1 X171.617 Y128.754 E0.00625
G1 X171.658 Y128.897 E0.00409
G1 X171.764 Y129.05 E0.00514
G1 X185.163 Y142.449 E0.52222
G1 X185.65 Y142.9 E0.0183
G1 X185.835 Y142.937 E0.00519
M204 S1000
G1 X185.901 Y142.608 F27000
;TYPE:External perimeter
G1 F1800
G1 X186.012 Y142.558 E0.00334
G1 X201.187 Y127.382 E0.59147
G1 X201.207 Y127.359 E0.00083
G1 X201.236 Y127.284 E0.00221
G1 X201.187 Y127.136 E0.00432
G1 X187.433 Y113.381 E0.53607
G1 X187.335 Y113.332 E0.00301
G1 X187.186 Y113.381 E0.00432
G1 X172.011 Y128.557 E0.59147
G1 X171.962 Y128.705 E0.0043
G1 X172.011 Y128.803 E0.00304
G1 X185.765 Y142.558 E0.53607
G1 X185.901 Y142.608 E0.004
;WIPE_START
M204 S4000
G1 X186.041 Y142.233 F27000
;WIPE_END
G1 E-0.5 F1800
; acceleration to travel
M204 S10000
G1 X169.036 Y159.363 F27000
; decel to extrusion
M204 S2000
G1 X165.635 Y162.789
; end travel
G1 E0.5 F1800
;TYPE:Internal perimeter
G1 X166.162 Y162.83 E0.01458
G1 X166.495 Y162.733 E0.00954
G1 X166.852 Y162.485 E0.012
G1 X183.805 Y145.533 E0.66071
G1 X184.065 Y145.145 E0.01286
G1 X184.161 Y144.721 E0.01198
G1 X184.138 Y144.428 E0.00811
G1 X184.005 Y144.072 E0.01048
G1 X183.805 Y143.808 E0.00913
G1 X170.406 Y130.409 E0.52222
G1 X170.048 Y130.161 E0.012
G1 X169.716 Y130.064 E0.00954
G1 X169.188 Y130.104 E0.01458
G1 X168.681 Y130.409 E0.01631
G1 X157.058 Y142.031 E0.45298
G1 X156.789 Y142.438 E0.01345
G1 X156.705 Y142.797 E0.01015
G1 X156.71 Y143.041 E0.00675
G1 X156.829 Y143.437 E0.01138
G1 X157.058 Y143.756 E0.01082
G1 X161.526 Y148.223 E0.17412
G1 X157.058 Y152.691 E0.17412
G1 X156.909 Y152.872 E0.00648
G1 X156.741 Y153.246 E0.01129
G1 X156.705 Y153.65 E0.01119
G1 X156.789 Y154.009 E0.01015
G1 X157.058 Y154.416 E0.01345
G1 X165.127 Y162.485 E0.31449
G1 X165.289 Y162.621 E0.00583
G1 X165.635 Y162.789 E0.01059
G1 X165.736 Y162.456 F27000
G1 F1800
G1 X166.113 Y162.485 E0.01042
G1 X166.35 Y162.415 E0.00681
G1 X166.606 Y162.238 E0.00857
G1 X183.558 Y145.286 E0.66071
G1 X183.744 Y145.01 E0.00919
G1 X183.813 Y144.707 E0.00856
G1 X183.796 Y144.497 E0.00579
G1 X183.701 Y144.243 E0.00748
G1 X183.558 Y144.054 E0.00652
G1 X170.159 Y130.655 E0.52222
G1 X169.904 Y130.478 E0.00857
G1 X169.666 Y130.409 E0.00681
G1 X169.289 Y130.438 E0.01042
G1 X168.927 Y130.655 E0.01165
G1 X157.305 Y142.277 E0.45298
G1 X157.113 Y142.568 E0.00961
G1 X157.052 Y142.824 E0.00725
G1 X157.056 Y142.999 E0.00482
G1 X157.123 Y143.243 E0.00696
G1 X157.305 Y143.509 E0.0089
G1 X162.019 Y148.223 E0.18372
G1 X157.305 Y152.937 E0.18372
G1 X157.271 Y152.973 E0.00137
G1 X157.101 Y153.257 E0.00911
G1 X157.052 Y153.623 E0.01016
G1 X157.113 Y153.878 E0.00725
G1 X157.305 Y154.169 E0.00961
G1 X165.374 Y162.238 E0.31449
G1 X165.736 Y162.456 E0.01165
G1 X166.206 Y162.098 F27000
G1 F1800
G1 X166.359 Y161.992 E0.00514
G1 X183.312 Y145.04 E0.66071
G1 X183.424 Y144.874 E0.00551
G1 X183.454 Y144.566 E0.00852
G1 X183.312 Y144.3 E0.00832
G1 X169.913 Y130.901 E0.52222
G1 X169.759 Y130.795 E0.00514
G1 X169.617 Y130.754 E0.00409
G1 X169.391 Y130.771 E0.00625
G1 X169.174 Y130.901 E0.00699
G1 X157.551 Y142.524 E0.45298
G1 X157.52 Y142.557 E0.00126
G1 X157.4 Y142.852 E0.00877
G1 X157.415 Y143.025 E0.0048
G1 X157.551 Y143.263 E0.00755
G1 X162.512 Y148.223 E0.19333
G1 X157.551 Y153.184 E0.19333
G1 X157.499 Y153.244 E0.0022
G1 X157.402 Y153.49 E0.00728
G1 X157.436 Y153.748 E0.00719
G1 X157.551 Y153.923 E0.00576
G1 X165.62 Y161.992 E0.31449
G1 X165.838 Y162.122 E0.00699
G1 X166.064 Y162.14 E0.00625
G1 X166.206 Y162.098 E0.00409
M204 S1000
G1 X166.014 Y161.795 F27000
;TYPE:External perimeter
G1 F1800
G1 X166.113 Y161.746 E0.00304
G1 X182.458 Y145.4 E0.63705
G1 X183.103 Y144.738 E0.02547
G1 X183.116 Y144.677 E0.00171
G1 X183.065 Y144.547 E0.00386
G1 X169.666 Y131.148 E0.52222
G1 X169.568 Y131.099 E0.00304
G1 X169.42 Y131.148 E0.0043
G1 X157.798 Y142.77 E0.45298
G1 X157.747 Y142.88 E0.00332
G1 X157.798 Y143.017 E0.00403
G1 X163.004 Y148.223 E0.20293
G1 X157.798 Y153.43 E0.20293
G1 X157.748 Y153.532 E0.00313
G1 X157.798 Y153.677 E0.00421
G1 X165.867 Y161.746 E0.31449
G1 X166.014 Y161.795 E0.0043
;WIPE_START
M204 S4000
G1 X166.141 Y161.415 F27000
;WIPE_END
G1 E-0.5 F1800
; acceleration to travel
M204 S10000
G1 X180.525 Y177.366 F27000
; decel to extrusion
M204 S2000
G1 X183.401 Y180.556
; end travel
G1 E0.5 F1800
;TYPE:Internal perimeter
G1 X183.929 Y180.596 E0.01458
G1 X184.261 Y180.499 E0.00954
G1 X184.619 Y180.251 E0.012
G1 X198.373 Y166.497 E0.53607
G1 X198.605 Y166.174 E0.01096
G1 X198.717 Y165.813 E0.01041
G1 X198.717 Y165.456 E0.00985
G1 X198.605 Y165.095 E0.01041
