; generated by SuperSlicer 2.5.59 on 2022-09-10 at 07:39:20 UTC


;
;

;
;
; 

; external perimeters extrusion width = 0.40mm
; perimeters extrusion width = 0.40mm
; infill extrusion width = 0.50mm
; solid infill extrusion width = 0.56mm
; top infill extrusion width = 0.40mm
; first layer extrusion width = 0.80mm

; object:{"name":"Calibration Flower v7","id":"Calibration Flower v7.stl id:0 copy 0","object_center":[148.750000,150.517767,0.000000],"boundingbox_center":[148.750000,150.517767,2.500000],"boundingbox_size":[111.015765,107.480231,5.000000]}
; plater:{"center":[148.750000,150.517767,0.000000],"boundingbox_center":[148.750000,150.517767,2.500000],"boundingbox_size":[111.015765,107.480231,5.000000]}

M73 P0 R57
;TYPE:Custom
; custom gcode: start_gcode
PRINT_START EXTRUDER=255 BED=110 AREA_START=89.3224,92.8694 AREA_END=208.178,208.166
; custom gcode end: start_gcode
M107
G21 ; set units to millimeters
G90 ; use absolute coordinates
M83 ; use relative distances for extrusion
; custom gcode: start_filament_gcode
; Filament gcode
SET_PRESSURE_ADVANCE ADVANCE=0.02
SET_PRESSURE_ADVANCE EXTRUDER=extruder SMOOTH_TIME=0.04
; custom gcode end: start_filament_gcode
;_TOOLCHANGE 0
M104 S255 ; set temperature
M109 S255 ; set temperature and wait for it to be reached
M190 S110 ; set bed temperature and wait for it to be reached
;LAYER_CHANGE
;Z:0.24
;HEIGHT:0.24
G1 Z0.24 F36000
G92 E0
G1 E-0.5 F1800
M204 S2000
G1 X107.329 Y107.329 F36000
G1 E0.5 F1800
;TYPE:Skirt
;WIDTH:0.4
G1 F900
G1 X90.801 Y123.857 E0.74776
M73 P0 R56
G1 X90.064 Y124.888 E0.04057
G1 X89.669 Y126.59 E0.05589
G1 X89.685 Y129.251 E0.08511
G1 X93.244 Y167.684 E1.2348
G1 X93.841 Y169.418 E0.05868
G1 X106.653 Y189.347 E0.75791
G1 X107.171 Y189.99 E0.02642
G1 X123.868 Y206.687 E0.75544
G1 X124.9 Y207.425 E0.04057
G1 X126.602 Y207.82 E0.05589
G1 X170.898 Y207.82 E1.41708
G1 X172.149 Y207.612 E0.04057
G1 X173.632 Y206.687 E0.05589
G1 X190.329 Y189.99 E0.75544
G1 X190.847 Y189.347 E0.02642
G1 X203.659 Y169.418 E0.75791
M73 P1 R56
G1 X204.256 Y167.684 E0.05868
G1 X207.815 Y129.251 E1.2348
G1 X207.831 Y126.59 E0.08511
G1 X207.623 Y125.34 E0.04057
G1 X206.699 Y123.857 E0.05589
G1 X190.001 Y107.159 E0.75544
G1 X189.358 Y106.641 E0.02642
G1 X169.43 Y93.83 E0.75791
G1 X167.339 Y93.216 E0.0697
G1 X130.161 Y93.216 E1.18939
G1 X128.07 Y93.83 E0.0697
G1 X108.142 Y106.641 E0.75791
G1 X107.499 Y107.159 E0.02642
G1 X107.329 Y107.329 E0.00767
G1 X107.574 Y107.574 F36000
G1 F900
G1 X91.046 Y124.102 E0.74776
G1 X90.409 Y124.972 E0.03449
G1 X90.015 Y126.59 E0.0533
G1 X90.03 Y129.219 E0.08408
G1 X93.589 Y167.652 E1.2348
G1 X94.133 Y169.231 E0.05342
G1 X106.944 Y189.16 E0.75791
G1 X107.416 Y189.745 E0.02406
G1 X124.113 Y206.443 E0.75544
G1 X124.983 Y207.079 E0.03449
G1 X126.602 Y207.473 E0.0533
G1 X170.898 Y207.473 E1.41708
G1 X171.963 Y207.308 E0.03449
G1 X173.387 Y206.443 E0.0533
G1 X190.084 Y189.745 E0.75544
G1 X190.556 Y189.16 E0.02406
G1 X203.367 Y169.231 E0.75791
G1 X203.911 Y167.652 E0.05342
G1 X207.47 Y129.219 E1.2348
G1 X207.485 Y126.59 E0.08408
G1 X207.32 Y125.525 E0.03449
G1 X206.454 Y124.102 E0.0533
G1 X189.757 Y107.404 E0.75544
G1 X189.171 Y106.932 E0.02406
G1 X169.243 Y94.121 E0.75791
G1 X167.339 Y93.562 E0.06346
G1 X130.161 Y93.562 E1.18939
M73 P2 R56
G1 X128.257 Y94.121 E0.06346
G1 X108.329 Y106.932 E0.75791
G1 X107.743 Y107.404 E0.02406
G1 X107.574 Y107.574 E0.00767
G1 X107.819 Y107.819 F36000
G1 F900
G1 X91.291 Y124.347 E0.74776
G1 X90.755 Y125.06 E0.02853
G1 X90.361 Y126.59 E0.05057
G1 X90.375 Y129.187 E0.08306
G1 X93.934 Y167.62 E1.2348
G1 X94.424 Y169.044 E0.04816
G1 X107.235 Y188.972 E0.75791
G1 X107.661 Y189.5 E0.02169
G1 X124.358 Y206.198 E0.75544
G1 X125.071 Y206.733 E0.02853
G1 X126.602 Y207.127 E0.05057
G1 X170.898 Y207.127 E1.41708
G1 X171.781 Y207.002 E0.02853
M73 P2 R55
G1 X173.142 Y206.198 E0.05057
G1 X189.839 Y189.5 E0.75544
G1 X190.265 Y188.972 E0.02169
G1 X203.076 Y169.044 E0.75791
G1 X203.566 Y167.62 E0.04816
G1 X207.125 Y129.187 E1.2348
G1 X207.139 Y126.59 E0.08306
G1 X207.013 Y125.708 E0.02853
G1 X206.209 Y124.347 E0.05057
G1 X189.512 Y107.649 E0.75544
G1 X188.984 Y107.224 E0.02169
G1 X169.055 Y94.412 E0.75791
G1 X167.339 Y93.908 E0.05721
G1 X130.161 Y93.908 E1.18939
G1 X128.445 Y94.412 E0.05721
G1 X108.516 Y107.224 E0.75791
G1 X107.988 Y107.649 E0.02169
G1 X107.819 Y107.819 E0.00767
G1 E-0.5 F1800
; printing object Calibration Flower v7.stl id:0 copy 0
; acceleration to travel
M204 S10000
G1 X179.581 Y131.714 F36000
; decel to extrusion
M204 S2000
G1 X193.934 Y136.493
; end travel
G1 E0.5 F1800
;TYPE:Internal perimeter
;WIDTH:0.748495
G1 F900
G1 X193.603 Y136.724 E0.0258
;WIDTH:0.676006
G1 X193.273 Y136.955 E0.02312
G1 X193.575 Y136.679 E0.02345
;WIDTH:0.748495
G1 X193.877 Y136.403 E0.02618
G1 X196.049 Y134.23 E0.19656
G1 X196.466 Y133.798 E0.03842
;WIDTH:0.703818
G1 X196.882 Y133.366 E0.03596
G1 X196.769 Y133.552 E0.01306
;WIDTH:0.748495
G1 X196.656 Y133.739 E0.01396
G1 X196.525 Y134.427 E0.04487
G1 X196.525 Y137.5 E0.19656
G1 X196.543 Y137.908 E0.02618
;WIDTH:0.676004
G1 X196.561 Y138.317 E0.02345
G1 X196.49 Y137.92 E0.02312
;WIDTH:0.748495
G1 X196.42 Y137.523 E0.0258
G1 X195.977 Y136.926 E0.04755
G1 X195.287 Y136.524 E0.05114
G1 X194.669 Y136.384 E0.04051
G1 X193.934 Y136.493 E0.04755
G1 X195.743 Y135.68 F36000
;WIDTH:0.929814
G1 F900
G1 X195.627 Y135.68 E0.00937
G1 X195.569 Y135.781 E0.00937
G1 X195.627 Y135.881 E0.00937
G1 X195.743 Y135.881 E0.00937
G1 X195.802 Y135.781 E0.00937
G1 E-0.5 F1800
; acceleration to travel
M204 S10000
G1 X187.046 Y143.272 F36000
; decel to extrusion
M204 S2000
G1 X185.294 Y144.771
; end travel
G1 E0.5 F1800
;WIDTH:0.906729
G1 F900
G1 X184.464 Y145.601 E0.09222
G1 X184.341 Y145.766 E0.01613
;WIDTH:0.827456
G1 X184.218 Y145.931 E0.01464
;WIDTH:0.748182
G1 X184.095 Y146.096 E0.01314
;WIDTH:0.668909
G1 X183.973 Y146.261 E0.01165
G1 X183.699 Y146.562 E0.02308
;WIDTH:0.589638
G1 X183.426 Y146.864 E0.02012
G1 X182.818 Y147.471 E0.04246
G1 X182.608 Y147.748 E0.01715
;WIDTH:0.668913
G1 X182.398 Y148.025 E0.01967
G1 X182.333 Y148.183 E0.00969
;WIDTH:0.748185
G1 X182.267 Y148.341 E0.01094
;WIDTH:0.827457
G1 X182.202 Y148.499 E0.01218
;WIDTH:0.906729
G1 X182.136 Y148.657 E0.01343
G1 X182.173 Y149.126 E0.03694
G1 X182.244 Y149.258 E0.01179
;WIDTH:0.852826
G1 X182.315 Y149.391 E0.01105
;WIDTH:0.798923
G1 X182.385 Y149.523 E0.0103
;WIDTH:0.74502
G1 X182.456 Y149.656 E0.00956
G1 X182.347 Y149.552 E0.00956
;WIDTH:0.798923
G1 X182.239 Y149.448 E0.0103
;WIDTH:0.852826
G1 X182.13 Y149.345 E0.01105
;WIDTH:0.906729
G1 X182.021 Y149.241 E0.01179
G1 X181.58 Y149.079 E0.03694
G1 X180.988 Y149.033 E0.04655
G1 X180.532 Y149.148 E0.03695
G1 X181.363 Y148.317 E0.09222
G1 X181.485 Y148.152 E0.01613
;WIDTH:0.827457
G1 X181.608 Y147.987 E0.01464
;WIDTH:0.748185
G1 X181.731 Y147.823 E0.01314
;WIDTH:0.668913
G1 X181.854 Y147.658 E0.01165
G1 X182.127 Y147.356 E0.02308
;WIDTH:0.589638
G1 X182.401 Y147.054 E0.02012
G1 X183.009 Y146.447 E0.04246
G1 X183.218 Y146.17 E0.01715
;WIDTH:0.668909
G1 X183.428 Y145.894 E0.01967
G1 X183.494 Y145.736 E0.00969
;WIDTH:0.748182
G1 X183.559 Y145.578 E0.01094
;WIDTH:0.827456
G1 X183.625 Y145.42 E0.01218
;WIDTH:0.906729
G1 X183.69 Y145.262 E0.01343
G1 X183.653 Y144.793 E0.03694
G1 X183.582 Y144.66 E0.01179
;WIDTH:0.852825
G1 X183.512 Y144.528 E0.01105
;WIDTH:0.798922
G1 X183.441 Y144.395 E0.0103
;WIDTH:0.745018
G1 X183.371 Y144.263 E0.00956
G1 X183.479 Y144.366 E0.00956
;WIDTH:0.798922
G1 X183.588 Y144.47 E0.0103
;WIDTH:0.852825
G1 X183.696 Y144.574 E0.01105
;WIDTH:0.906729
G1 X183.805 Y144.677 E0.01179
G1 X184.247 Y144.839 E0.03694
G1 X184.838 Y144.885 E0.04655
G1 X185.294 Y144.771 E0.03695
G1 E-0.5 F1800
; acceleration to travel
M204 S10000
G1 X170.691 Y132.418 F36000
; decel to extrusion
M204 S2000
G1 X167.771 Y129.948
; end travel
G1 E0.5 F1800
;WIDTH:0.79675
G1 F900
G1 X167.398 Y130.205 E0.03101
;WIDTH:0.676002
G1 X167.025 Y130.463 E0.02599
G1 X167.371 Y130.16 E0.02636
;WIDTH:0.79675
G1 X167.717 Y129.857 E0.03145
G1 X169.014 Y128.56 E0.12554
G1 X169.209 Y128.332 E0.02052
;WIDTH:0.703816
G1 X169.404 Y128.104 E0.01796
G1 X169.254 Y128.359 E0.01771
;WIDTH:0.79675
G1 X169.104 Y128.614 E0.02023
G1 X169.041 Y129.434 E0.05626
G1 X169.192 Y129.95 E0.0368
G1 X169.406 Y130.207 E0.02286
;WIDTH:0.676002
G1 X169.62 Y130.463 E0.01915
G1 X169.364 Y130.249 E0.01915
;WIDTH:0.79675
G1 X169.107 Y130.035 E0.02286
G1 X168.591 Y129.885 E0.0368
G1 X167.771 Y129.948 E0.05626
G1 E-0.5 F1800
G1 X165.316 Y131.943 F36000
G1 E0.5 F1800
G1 F900
G1 X165.689 Y131.685 E0.03101
;WIDTH:0.676002
G1 X166.062 Y131.427 E0.02599
G1 X165.716 Y131.73 E0.02636
;WIDTH:0.79675
G1 X165.37 Y132.033 E0.03145
G1 X164.073 Y133.331 E0.12554
G1 X163.878 Y133.558 E0.02052
;WIDTH:0.703816
G1 X163.683 Y133.786 E0.01796
G1 X163.832 Y133.531 E0.01771
;WIDTH:0.79675
G1 X163.982 Y133.276 E0.02023
G1 X164.045 Y132.456 E0.05626
G1 X163.894 Y131.94 E0.0368
G1 X163.737 Y131.74 E0.0174
;WIDTH:0.69002
G1 X163.58 Y131.54 E0.0149
G1 X163.78 Y131.698 E0.0149
;WIDTH:0.79675
G1 X163.98 Y131.855 E0.0174
G1 X164.496 Y132.006 E0.0368
G1 X165.316 Y131.943 E0.05626
G1 E-0.5 F1800
; acceleration to travel
M204 S10000
G1 X147.072 Y141.501 F36000
; decel to extrusion
M204 S2000
G1 X143.424 Y143.412
; end travel
G1 E0.5 F1800
;WIDTH:0.748495
G1 F900
G1 X143.73 Y143.406 E0.01959
G1 X144.072 Y143.34 E0.02232
G1 X144.462 Y143.205 E0.02641
G1 X144.875 Y142.979 E0.03008
G1 X145.264 Y142.658 E0.03232
G1 X148.694 Y139.228 E0.31031
G1 X148.806 Y139.228 E0.00718
G1 X152.236 Y142.658 E0.31031
G1 X152.446 Y142.847 E0.01808
G1 X152.92 Y143.151 E0.03605
G1 X153.428 Y143.34 E0.03465
G1 X153.77 Y143.406 E0.02232
G1 X154.076 Y143.412 E0.01959
G1 X154.083 Y143.718 E0.01959
G1 X154.148 Y144.061 E0.02232
G1 X154.283 Y144.451 E0.02641
G1 X154.51 Y144.863 E0.03008
G1 X154.831 Y145.253 E0.03232
G1 X158.316 Y148.738 E0.31539
G1 X154.831 Y152.224 E0.31539
G1 X154.456 Y152.696 E0.03855
G1 X154.219 Y153.186 E0.03485
G1 X154.083 Y153.759 E0.03763
G1 X154.076 Y154.065 E0.01959
G1 X153.77 Y154.071 E0.01959
G1 X153.428 Y154.136 E0.02232
G1 X153.038 Y154.272 E0.02641
G1 X152.625 Y154.498 E0.03008
G1 X152.236 Y154.819 E0.03232
G1 X148.806 Y158.249 E0.31031
G1 X148.694 Y158.249 E0.00718
G1 X145.264 Y154.819 E0.31031
G1 X144.792 Y154.445 E0.03855
G1 X144.302 Y154.208 E0.03485
G1 X143.73 Y154.071 E0.03763
G1 X143.424 Y154.065 E0.01959
G1 X143.417 Y153.759 E0.01959
G1 X143.352 Y153.416 E0.02232
G1 X143.217 Y153.026 E0.02641
G1 X142.99 Y152.614 E0.03008
G1 X142.669 Y152.224 E0.03232
G1 X139.184 Y148.738 E0.31539
M73 P3 R55
G1 X142.669 Y145.253 E0.31539
G1 X143.044 Y144.781 E0.03855
G1 X143.281 Y144.29 E0.03485
G1 X143.417 Y143.718 E0.03763
G1 X143.424 Y143.412 E0.01959
G1 X144.309 Y142.447 F36000
G1 F900
G1 X144.735 Y142.129 E0.03404
G1 X148.384 Y138.48 E0.33015
G1 X149.116 Y138.48 E0.04685
G1 X152.765 Y142.129 E0.33015
G1 X153.141 Y142.42 E0.03045
G1 X153.616 Y142.616 E0.03288
G1 X153.861 Y142.663 E0.01594
G1 X154.237 Y142.671 E0.02405
G1 X154.786 Y142.541 E0.03614
G1 X155.029 Y142.379 E0.01869
;WIDTH:0.690024
G1 X155.272 Y142.216 E0.01712
G1 X155.11 Y142.459 E0.01712
;WIDTH:0.748495
G1 X154.947 Y142.702 E0.01869
G1 X154.818 Y143.252 E0.03614
G1 X154.826 Y143.627 E0.02405
G1 X154.872 Y143.872 E0.01594
G1 X155.041 Y144.298 E0.02929
G1 X155.36 Y144.724 E0.03404
G1 X159.375 Y148.738 E0.36328
G1 X155.36 Y152.753 E0.36328
G1 X155.225 Y152.904 E0.01292
G1 X154.969 Y153.326 E0.03162
G1 X154.826 Y153.849 E0.03471
G1 X154.818 Y154.225 E0.02405
G1 X154.947 Y154.775 E0.03614
G1 X155.166 Y155.074 E0.02375
;WIDTH:0.676006
G1 X155.386 Y155.374 E0.02128
G1 X155.086 Y155.155 E0.02128
;WIDTH:0.748495
G1 X154.786 Y154.936 E0.02375
G1 X154.237 Y154.806 E0.03614
G1 X153.861 Y154.814 E0.02405
G1 X153.616 Y154.861 E0.01594
G1 X153.191 Y155.029 E0.02929
G1 X152.765 Y155.348 E0.03404
G1 X149.116 Y158.997 E0.33015
G1 X148.384 Y158.997 E0.04685
G1 X144.735 Y155.348 E0.33015
G1 X144.585 Y155.213 E0.01292
G1 X144.162 Y154.957 E0.03162
G1 X143.639 Y154.814 E0.03471
G1 X143.263 Y154.806 E0.02405
G1 X142.714 Y154.936 E0.03614
G1 X142.414 Y155.155 E0.02375
;WIDTH:0.676006
G1 X142.114 Y155.374 E0.02128
G1 X142.334 Y155.074 E0.02128
;WIDTH:0.748495
G1 X142.553 Y154.775 E0.02375
G1 X142.682 Y154.225 E0.03614
G1 X142.674 Y153.849 E0.02405
G1 X142.628 Y153.605 E0.01594
G1 X142.459 Y153.179 E0.02929
G1 X142.14 Y152.753 E0.03404
G1 X138.125 Y148.738 E0.36328
G1 X142.14 Y144.724 E0.36328
G1 X142.275 Y144.573 E0.01292
G1 X142.531 Y144.151 E0.03162
G1 X142.674 Y143.627 E0.03471
G1 X142.682 Y143.252 E0.02405
G1 X142.553 Y142.702 E0.03614
G1 X142.39 Y142.459 E0.01869
;WIDTH:0.690024
G1 X142.228 Y142.216 E0.01712
G1 X142.471 Y142.379 E0.01712
;WIDTH:0.748495
G1 X142.714 Y142.541 E0.01869
G1 X143.263 Y142.671 E0.03614
G1 X143.639 Y142.663 E0.02405
G1 X143.884 Y142.616 E0.01594
G1 X144.309 Y142.447 E0.02929
G1 E-0.5 F1800
; acceleration to travel
M204 S10000
G1 X134.205 Y133.693 F36000
; decel to extrusion
M204 S2000
G1 X132.184 Y131.943
; end travel
G1 E0.5 F1800
;WIDTH:0.79675
G1 F900
G1 X133.004 Y132.006 E0.05626
G1 X133.52 Y131.855 E0.0368
G1 X133.72 Y131.698 E0.0174
;WIDTH:0.69002
G1 X133.92 Y131.54 E0.0149
G1 X133.763 Y131.74 E0.0149
;WIDTH:0.79675
G1 X133.606 Y131.94 E0.0174
G1 X133.455 Y132.456 E0.0368
G1 X133.518 Y133.276 E0.05626
G1 X133.776 Y133.649 E0.03101
;WIDTH:0.676002
G1 X134.034 Y134.022 E0.02599
G1 X133.731 Y133.676 E0.02636
;WIDTH:0.79675
G1 X133.427 Y133.331 E0.03145
G1 X132.13 Y132.033 E0.12554
G1 X131.902 Y131.838 E0.02052
;WIDTH:0.703816
G1 X131.674 Y131.643 E0.01796
G1 X131.929 Y131.793 E0.01771
;WIDTH:0.79675
G1 X132.184 Y131.943 E0.02023
G1 E-0.5 F1800
G1 X129.729 Y129.948 F36000
G1 E0.5 F1800
G1 F900
G1 X128.909 Y129.885 E0.05626
G1 X128.393 Y130.035 E0.0368
G1 X128.136 Y130.249 E0.02286
;WIDTH:0.676002
G1 X127.88 Y130.463 E0.01915
G1 X128.094 Y130.207 E0.01915
;WIDTH:0.79675
G1 X128.308 Y129.95 E0.02286
G1 X128.459 Y129.434 E0.0368
G1 X128.396 Y128.614 E0.05626
G1 X128.138 Y128.241 E0.03101
;WIDTH:0.676002
G1 X127.88 Y127.868 E0.02599
G1 X128.183 Y128.214 E0.02636
;WIDTH:0.79675
G1 X128.486 Y128.56 E0.03145
G1 X129.783 Y129.857 E0.12554
G1 X130.011 Y130.052 E0.02052
;WIDTH:0.703816
G1 X130.239 Y130.247 E0.01796
G1 X129.984 Y130.097 E0.01771
;WIDTH:0.79675
G1 X129.729 Y129.948 E0.02023
G1 E-0.5 F1800
; acceleration to travel
M204 S10000
G1 X118.059 Y117.894 F36000
; decel to extrusion
M204 S2000
G1 X115.725 Y115.483
; end travel
G1 E0.5 F1800
;WIDTH:0.796752
G1 F900
G1 X115.982 Y115.856 E0.03101
;WIDTH:0.676006
G1 X116.24 Y116.229 E0.02599
G1 X115.937 Y115.883 E0.02636
;WIDTH:0.796752
G1 X115.634 Y115.537 E0.03145
G1 X114.337 Y114.24 E0.12554
G1 X114.109 Y114.045 E0.02052
;WIDTH:0.70382
G1 X113.881 Y113.85 E0.01796
G1 X114.136 Y113.999 E0.01771
;WIDTH:0.796752
G1 X114.391 Y114.149 E0.02023
G1 X115.211 Y114.212 E0.05626
G1 X115.727 Y114.062 E0.0368
G1 X115.927 Y113.904 E0.0174
;WIDTH:0.690028
G1 X116.127 Y113.747 E0.0149
G1 X115.969 Y113.947 E0.0149
;WIDTH:0.796752
G1 X115.812 Y114.147 E0.0174
G1 X115.661 Y114.663 E0.0368
G1 X115.725 Y115.483 E0.05626
G1 E-0.5 F1800
; acceleration to travel
M204 S10000
G1 X105.592 Y132.991 F36000
; decel to extrusion
M204 S2000
G1 X103.566 Y136.493
; end travel
G1 E0.5 F1800
;WIDTH:0.748495
G1 F900
G1 X102.831 Y136.384 E0.04755
G1 X102.058 Y136.588 E0.05114
G1 X101.523 Y136.926 E0.04051
G1 X101.08 Y137.523 E0.04755
G1 X101.01 Y137.92 E0.0258
;WIDTH:0.676004
G1 X100.939 Y138.317 E0.02312
G1 X100.957 Y137.908 E0.02345
;WIDTH:0.748495
G1 X100.975 Y137.5 E0.02618
G1 X100.975 Y134.427 E0.19656
G1 X100.844 Y133.739 E0.04487
G1 X100.623 Y133.434 E0.02407
;WIDTH:0.676006
G1 X100.402 Y133.13 E0.02157
G1 X100.658 Y133.411 E0.02181
;WIDTH:0.748495
G1 X100.914 Y133.693 E0.02434
G1 X103.045 Y135.825 E0.1929
G1 X103.518 Y136.282 E0.04209
;WIDTH:0.703814
G1 X103.991 Y136.739 E0.03939
G1 X103.779 Y136.616 E0.01471
;WIDTH:0.748495
G1 X103.566 Y136.493 E0.01572
G1 X101.873 Y135.68 F36000
;WIDTH:0.929814
G1 F900
G1 X101.757 Y135.68 E0.00937
G1 X101.698 Y135.781 E0.00937
G1 X101.757 Y135.881 E0.00937
