; generated by SuperSlicer 2.4 on 2022-06-22 at 22:48:22 UTC


;
;

;
;
; 

; external perimeters extrusion width = 0.40mm
; perimeters extrusion width = 0.48mm
; infill extrusion width = 0.60mm
; solid infill extrusion width = 0.56mm
; top infill extrusion width = 0.40mm
; first layer extrusion width = 0.48mm

; object:{"name":"Classic__spool_arm_left","id":"Classic__spool_arm_left.stl id:0 copy 0","object_center":[150.000000,150.000000,0.000000],"boundingbox_center":[150.000000,150.000000,17.700005],"boundingbox_size":[75.958313,236.799740,35.400009]}
; plater:{"center":[150.000000,150.000000,0.000000],"boundingbox_center":[150.000000,150.000000,17.700005],"boundingbox_size":[75.958313,236.799740,35.400009]}

;TYPE:Custom
print_start EXTRUDER=255 BED=110 CHAMBER=50
M107
G21 ; set units to millimeters
G90 ; use absolute coordinates
M83 ; use relative distances for extrusion
; Filament gcode
SET_PRESSURE_ADVANCE ADVANCE=0.045
SET_PRESSURE_ADVANCE EXTRUDER=extruder SMOOTH_TIME=0.04
M104 S255 ; set temperature
M109 S255 ; set temperature and wait for it to be reached
M190 S110 ; set bed temperature and wait for it to be reached
M107
;LAYER_CHANGE
;Z:0.25
;HEIGHT:0.25
;BEFORE_LAYER_CHANGE
;0.25
TIMELAPSE_TAKE_FRAME


G1 Z0.25 F36000
;AFTER_LAYER_CHANGE
;0.25
G92 E0
; INIT printing object Classic__spool_arm_left.stl id:0 copy 0
G1 E-0.75 F3000
M204 S1500
G1 Z0.65 F36000
; printing object Classic__spool_arm_left.stl id:0 copy 0
G1 X142.53 Y134.342
G1 Z0.25
G1 E0.75 F1800
;TYPE:Internal perimeter
;WIDTH:0.48
G1 F900
G1 X142.171 Y134.855 E0.0254
G1 X141.859 Y135.524 E0.02994
G1 X141.668 Y136.237 E0.02994
G1 X141.604 Y136.973 E0.02994
G1 X141.668 Y137.708 E0.02994
G1 X141.859 Y138.422 E0.02994
G1 X142.171 Y139.091 E0.02994
G1 X142.594 Y139.696 E0.02994
G1 X143.117 Y140.218 E0.02994
G1 X143.721 Y140.641 E0.02994
G1 X144.391 Y140.953 E0.02994
G1 X145.104 Y141.144 E0.02994
G1 X145.839 Y141.209 E0.02994
G1 X146.575 Y141.144 E0.02994
G1 X147.288 Y140.953 E0.02994
G1 X147.957 Y140.641 E0.02994
G1 X148.562 Y140.218 E0.02994
G1 X149.084 Y139.696 E0.02994
G1 X149.507 Y139.091 E0.02994
G1 X149.819 Y138.422 E0.02994
G1 X150.01 Y137.708 E0.02994
G1 X150.075 Y136.973 E0.02994
G1 X150.01 Y136.237 E0.02994
G1 X149.819 Y135.524 E0.02993
G1 X149.507 Y134.855 E0.02994
G1 X149.084 Y134.25 E0.02994
G1 X148.562 Y133.728 E0.02994
G1 X147.957 Y133.305 E0.02994
G1 X147.288 Y132.993 E0.02994
G1 X146.575 Y132.802 E0.02994
G1 X145.839 Y132.737 E0.02994
G1 X145.104 Y132.802 E0.02994
G1 X144.39 Y132.993 E0.02994
G1 X143.721 Y133.305 E0.02994
G1 X143.117 Y133.728 E0.02994
G1 X142.595 Y134.25 E0.02993
G1 X142.565 Y134.293 E0.0021
G1 X142.88 Y134.587 F36000
G1 F900
G1 X142.542 Y135.069 E0.02389
G1 X142.261 Y135.671 E0.02691
G1 X142.089 Y136.312 E0.02691
G1 X142.031 Y136.973 E0.02691
G1 X142.089 Y137.634 E0.02691
G1 X142.261 Y138.275 E0.02691
G1 X142.542 Y138.877 E0.02691
G1 X142.922 Y139.421 E0.02691
G1 X143.392 Y139.89 E0.02691
G1 X143.935 Y140.271 E0.02691
G1 X144.537 Y140.551 E0.02691
G1 X145.178 Y140.723 E0.02691
G1 X145.839 Y140.781 E0.02691
G1 X146.5 Y140.723 E0.02691
G1 X147.142 Y140.551 E0.02691
G1 X147.743 Y140.271 E0.02691
G1 X148.287 Y139.89 E0.02691
G1 X148.756 Y139.421 E0.02691
G1 X149.137 Y138.877 E0.02691
G1 X149.417 Y138.275 E0.02691
G1 X149.589 Y137.634 E0.02691
G1 X149.647 Y136.973 E0.02691
G1 X149.589 Y136.312 E0.02691
G1 X149.417 Y135.671 E0.02691
G1 X149.137 Y135.069 E0.02691
G1 X148.756 Y134.525 E0.02691
G1 X148.287 Y134.056 E0.02691
G1 X147.743 Y133.675 E0.02691
G1 X147.142 Y133.395 E0.02691
G1 X146.5 Y133.223 E0.02691
G1 X145.839 Y133.165 E0.02691
G1 X145.178 Y133.223 E0.02691
G1 X144.537 Y133.395 E0.02691
G1 X143.935 Y133.675 E0.02691
G1 X143.392 Y134.056 E0.02691
G1 X142.914 Y134.537 E0.02749
G1 X143.229 Y134.831 F36000
G1 F900
G1 X142.912 Y135.283 E0.02238
G1 X142.663 Y135.817 E0.02389
G1 X142.511 Y136.386 E0.02389
G1 X142.459 Y136.973 E0.02389
G1 X142.511 Y137.56 E0.02389
G1 X142.663 Y138.129 E0.02389
G1 X142.912 Y138.663 E0.02389
G1 X143.25 Y139.145 E0.02389
G1 X143.667 Y139.562 E0.02389
G1 X144.149 Y139.9 E0.02389
G1 X144.683 Y140.149 E0.02389
G1 X145.252 Y140.301 E0.02389
G1 X145.839 Y140.353 E0.02389
G1 X146.426 Y140.301 E0.02389
G1 X146.995 Y140.149 E0.02389
G1 X147.529 Y139.9 E0.02389
G1 X148.012 Y139.562 E0.02389
G1 X148.428 Y139.145 E0.02389
G1 X148.766 Y138.663 E0.02389
G1 X149.015 Y138.129 E0.02389
G1 X149.168 Y137.56 E0.02389
G1 X149.219 Y136.973 E0.02389
G1 X149.168 Y136.386 E0.02389
G1 X149.015 Y135.817 E0.02389
G1 X148.766 Y135.283 E0.02389
G1 X148.428 Y134.801 E0.02389
G1 X148.012 Y134.384 E0.02389
G1 X147.529 Y134.046 E0.02389
G1 X146.995 Y133.797 E0.02389
G1 X146.426 Y133.645 E0.02389
G1 X145.839 Y133.593 E0.02389
G1 X145.252 Y133.645 E0.02389
G1 X144.683 Y133.797 E0.02389
G1 X144.149 Y134.046 E0.02389
G1 X143.667 Y134.384 E0.02389
G1 X143.266 Y134.784 E0.02297
M204 S1000
G1 X143.578 Y135.076 F36000
;TYPE:External perimeter
G1 F900
G1 X143.283 Y135.497 E0.02086
G1 X143.065 Y135.963 E0.02086
G1 X142.932 Y136.46 E0.02086
G1 X142.887 Y136.973 E0.02086
G1 X142.932 Y137.486 E0.02086
G1 X143.065 Y137.983 E0.02086
G1 X143.283 Y138.449 E0.02086
G1 X143.578 Y138.87 E0.02086
G1 X143.942 Y139.234 E0.02086
G1 X144.363 Y139.529 E0.02086
G1 X144.578 Y139.63 E0.00962
G1 X144.83 Y139.747 E0.01124
G1 X145.327 Y139.88 E0.02086
G1 X145.839 Y139.925 E0.02086
G1 X146.352 Y139.88 E0.02086
G1 X146.849 Y139.747 E0.02086
G1 X147.315 Y139.529 E0.02086
G1 X147.737 Y139.234 E0.02086
G1 X148.1 Y138.87 E0.02086
G1 X148.395 Y138.449 E0.02086
G1 X148.613 Y137.983 E0.02086
G1 X148.746 Y137.486 E0.02086
G1 X148.791 Y136.973 E0.02086
G1 X148.746 Y136.46 E0.02086
G1 X148.613 Y135.963 E0.02086
G1 X148.395 Y135.497 E0.02086
G1 X148.1 Y135.076 E0.02086
G1 X147.737 Y134.712 E0.02086
G1 X147.315 Y134.417 E0.02086
G1 X146.849 Y134.199 E0.02086
G1 X146.352 Y134.066 E0.02086
G1 X145.839 Y134.021 E0.02086
G1 X145.327 Y134.066 E0.02086
G1 X144.83 Y134.199 E0.02086
G1 X144.681 Y134.268 E0.00663
G1 X144.363 Y134.417 E0.01423
G1 X144.039 Y134.644 E0.01605
G1 X143.942 Y134.712 E0.00481
G1 X143.62 Y135.033 E0.01843
;WIPE_START
M204 S1500
G1 X143.182 Y135.018 F36000
;WIPE_END
G1 X129.282 Y136.349
;TYPE:Internal perimeter
G1 F900
G1 X129.272 Y136.237 E0.00454
G1 X129.081 Y135.524 E0.02993
G1 X128.769 Y134.855 E0.02994
G1 X128.346 Y134.25 E0.02994
G1 X127.824 Y133.728 E0.02994
G1 X127.219 Y133.305 E0.02994
G1 X126.55 Y132.993 E0.02994
G1 X125.836 Y132.802 E0.02994
G1 X125.101 Y132.737 E0.02994
G1 X124.365 Y132.802 E0.02994
G1 X123.652 Y132.993 E0.02994
G1 X122.983 Y133.305 E0.02994
G1 X122.378 Y133.728 E0.02994
G1 X121.856 Y134.25 E0.02994
G1 X121.433 Y134.855 E0.02994
G1 X121.121 Y135.524 E0.02994
G1 X120.93 Y136.237 E0.02993
G1 X120.865 Y136.973 E0.02994
G1 X120.93 Y137.708 E0.02994
G1 X121.121 Y138.422 E0.02994
G1 X121.433 Y139.091 E0.02994
G1 X121.856 Y139.696 E0.02994
G1 X122.378 Y140.218 E0.02994
G1 X122.983 Y140.641 E0.02994
G1 X123.652 Y140.953 E0.02994
G1 X124.365 Y141.144 E0.02994
G1 X125.101 Y141.209 E0.02994
G1 X125.836 Y141.144 E0.02994
G1 X126.55 Y140.953 E0.02994
G1 X127.219 Y140.641 E0.02994
G1 X127.824 Y140.218 E0.02994
G1 X128.346 Y139.696 E0.02994
G1 X128.769 Y139.091 E0.02994
G1 X129.081 Y138.422 E0.02994
G1 X129.272 Y137.708 E0.02994
G1 X129.337 Y136.973 E0.02994
G1 X129.287 Y136.409 E0.02297
G1 X128.857 Y136.386 F36000
G1 F900
G1 X128.851 Y136.312 E0.00302
G1 X128.679 Y135.671 E0.02691
G1 X128.399 Y135.069 E0.02691
G1 X128.018 Y134.525 E0.02691
G1 X127.548 Y134.056 E0.02691
G1 X127.005 Y133.675 E0.02691
G1 X126.403 Y133.395 E0.02691
G1 X125.762 Y133.223 E0.02691
G1 X125.101 Y133.165 E0.02691
G1 X124.44 Y133.223 E0.02691
G1 X123.799 Y133.395 E0.02691
G1 X123.197 Y133.675 E0.02691
G1 X122.653 Y134.056 E0.02691
G1 X122.184 Y134.525 E0.02691
G1 X121.803 Y135.069 E0.02691
G1 X121.523 Y135.671 E0.02691
G1 X121.351 Y136.312 E0.02691
G1 X121.293 Y136.973 E0.02691
G1 X121.351 Y137.634 E0.02691
G1 X121.523 Y138.275 E0.02691
G1 X121.803 Y138.877 E0.02691
G1 X122.184 Y139.421 E0.02691
G1 X122.653 Y139.89 E0.02691
G1 X123.197 Y140.271 E0.02691
G1 X123.799 Y140.551 E0.02691
G1 X124.44 Y140.723 E0.02691
G1 X125.101 Y140.781 E0.02691
G1 X125.762 Y140.723 E0.02691
G1 X126.403 Y140.551 E0.02691
G1 X127.005 Y140.271 E0.02691
G1 X127.548 Y139.89 E0.02691
G1 X128.018 Y139.421 E0.02691
G1 X128.399 Y138.877 E0.02691
G1 X128.679 Y138.275 E0.02691
G1 X128.851 Y137.634 E0.02691
G1 X128.909 Y136.973 E0.02691
G1 X128.863 Y136.446 E0.02146
G1 X128.433 Y136.423 F36000
G1 F900
G1 X128.429 Y136.386 E0.00151
G1 X128.277 Y135.817 E0.02389
G1 X128.028 Y135.283 E0.02389
G1 X127.69 Y134.801 E0.02389
G1 X127.273 Y134.384 E0.02389
G1 X126.791 Y134.046 E0.02389
G1 X126.257 Y133.797 E0.02389
G1 X125.688 Y133.645 E0.02389
G1 X125.101 Y133.593 E0.02389
G1 X124.514 Y133.645 E0.02389
G1 X123.945 Y133.797 E0.02389
G1 X123.411 Y134.046 E0.02389
G1 X122.929 Y134.384 E0.02389
G1 X122.512 Y134.801 E0.02389
G1 X122.174 Y135.283 E0.02389
G1 X121.925 Y135.817 E0.02389
G1 X121.773 Y136.386 E0.02389
G1 X121.721 Y136.973 E0.02389
G1 X121.773 Y137.56 E0.02389
G1 X121.925 Y138.129 E0.02389
G1 X122.174 Y138.663 E0.02389
G1 X122.512 Y139.145 E0.02389
G1 X122.929 Y139.562 E0.02389
G1 X123.411 Y139.9 E0.02389
G1 X123.945 Y140.149 E0.02389
G1 X124.514 Y140.301 E0.02389
G1 X125.101 Y140.353 E0.02389
G1 X125.688 Y140.301 E0.02389
G1 X126.257 Y140.149 E0.02389
G1 X126.791 Y139.9 E0.02389
G1 X127.273 Y139.562 E0.02389
G1 X127.69 Y139.145 E0.02389
G1 X128.028 Y138.663 E0.02389
G1 X128.277 Y138.129 E0.02389
G1 X128.429 Y137.56 E0.02389
G1 X128.481 Y136.973 E0.02389
G1 X128.438 Y136.483 E0.01994
M204 S1000
G1 X128.008 Y136.46 F36000
;TYPE:External perimeter
G1 F900
G1 X127.875 Y135.963 E0.02086
G1 X127.657 Y135.497 E0.02086
G1 X127.362 Y135.076 E0.02086
G1 X126.998 Y134.712 E0.02086
G1 X126.577 Y134.417 E0.02086
G1 X126.111 Y134.199 E0.02086
G1 X125.614 Y134.066 E0.02086
G1 X125.101 Y134.021 E0.02086
G1 X124.588 Y134.066 E0.02086
G1 X124.091 Y134.199 E0.02086
G1 X123.625 Y134.417 E0.02086
G1 X123.204 Y134.712 E0.02086
G1 X122.84 Y135.076 E0.02086
G1 X122.545 Y135.497 E0.02086
G1 X122.327 Y135.963 E0.02086
G1 X122.194 Y136.46 E0.02086
G1 X122.149 Y136.973 E0.02086
G1 X122.194 Y137.486 E0.02086
G1 X122.327 Y137.983 E0.02086
G1 X122.545 Y138.449 E0.02086
G1 X122.84 Y138.87 E0.02086
G1 X123.204 Y139.234 E0.02086
G1 X123.625 Y139.529 E0.02086
G1 X124.06 Y139.732 E0.01946
G1 X124.091 Y139.747 E0.00141
G1 X124.588 Y139.88 E0.02086
G1 X125.101 Y139.925 E0.02086
G1 X125.614 Y139.88 E0.02086
G1 X126.111 Y139.747 E0.02086
G1 X126.293 Y139.661 E0.00818
G1 X126.577 Y139.529 E0.01268
G1 X126.998 Y139.234 E0.02086
G1 X127.362 Y138.87 E0.02086
G1 X127.657 Y138.449 E0.02086
G1 X127.875 Y137.983 E0.02086
G1 X128.008 Y137.486 E0.02086
G1 X128.053 Y136.973 E0.02086
G1 X128.013 Y136.52 E0.01843
;WIPE_START
M204 S1500
G1 X128.307 Y136.195 F36000
;WIPE_END
G1 X143.91 Y208.093
;TYPE:Internal perimeter
G1 F900
G1 X143.799 Y208.103 E0.00454
G1 X143.085 Y208.294 E0.02994
G1 X142.416 Y208.606 E0.02994
G1 X141.811 Y209.029 E0.02994
G1 X141.289 Y209.552 E0.02994
G1 X140.866 Y210.156 E0.02994
G1 X140.554 Y210.826 E0.02994
G1 X140.363 Y211.539 E0.02993
G1 X140.298 Y212.274 E0.02994
G1 X140.363 Y213.01 E0.02994
G1 X140.554 Y213.723 E0.02994
G1 X140.866 Y214.392 E0.02994
G1 X141.289 Y214.997 E0.02994
G1 X141.811 Y215.519 E0.02994
G1 X142.416 Y215.942 E0.02994
G1 X143.085 Y216.254 E0.02994
G1 X143.799 Y216.446 E0.02994
G1 X144.534 Y216.51 E0.02994
G1 X145.27 Y216.446 E0.02994
G1 X145.983 Y216.254 E0.02994
G1 X146.652 Y215.942 E0.02994
G1 X147.257 Y215.519 E0.02994
G1 X147.779 Y214.997 E0.02994
G1 X148.202 Y214.392 E0.02994
G1 X148.514 Y213.723 E0.02994
G1 X148.705 Y213.01 E0.02994
G1 X148.77 Y212.274 E0.02994
G1 X148.705 Y211.539 E0.02994
G1 X148.514 Y210.825 E0.02994
G1 X148.202 Y210.156 E0.02994
G1 X147.779 Y209.552 E0.02994
G1 X147.257 Y209.029 E0.02994
G1 X146.652 Y208.606 E0.02994
G1 X145.983 Y208.294 E0.02994
G1 X145.27 Y208.103 E0.02994
G1 X144.534 Y208.039 E0.02994
G1 X143.97 Y208.088 E0.02297
G1 X143.947 Y208.518 F36000
G1 F900
G1 X143.873 Y208.524 E0.00302
G1 X143.232 Y208.696 E0.02691
G1 X142.63 Y208.977 E0.02691
G1 X142.087 Y209.357 E0.02691
G1 X141.617 Y209.827 E0.02691
G1 X141.236 Y210.37 E0.02691
G1 X140.956 Y210.972 E0.02691
G1 X140.784 Y211.613 E0.02691
G1 X140.726 Y212.274 E0.02691
G1 X140.784 Y212.935 E0.02691
G1 X140.956 Y213.576 E0.02691
G1 X141.236 Y214.178 E0.02691
G1 X141.617 Y214.722 E0.02691
G1 X142.087 Y215.191 E0.02691
G1 X142.63 Y215.572 E0.02691
G1 X143.232 Y215.852 E0.02691
G1 X143.873 Y216.024 E0.02691
G1 X144.534 Y216.082 E0.02691
G1 X145.195 Y216.024 E0.02691
G1 X145.836 Y215.852 E0.02691
G1 X146.438 Y215.572 E0.02691
G1 X146.982 Y215.191 E0.02691
G1 X147.451 Y214.722 E0.02691
G1 X147.832 Y214.178 E0.02691
G1 X148.112 Y213.577 E0.02691
G1 X148.284 Y212.935 E0.02691
G1 X148.342 Y212.274 E0.02691
G1 X148.284 Y211.613 E0.02691
G1 X148.112 Y210.972 E0.02691
G1 X147.832 Y210.37 E0.02691
G1 X147.451 Y209.827 E0.02691
G1 X146.982 Y209.357 E0.02691
G1 X146.438 Y208.977 E0.02691
G1 X145.836 Y208.696 E0.02691
G1 X145.195 Y208.524 E0.02691
G1 X144.534 Y208.466 E0.02691
G1 X144.007 Y208.513 E0.02146
G1 X143.984 Y208.943 F36000
G1 F900
G1 X143.947 Y208.946 E0.00151
G1 X143.378 Y209.098 E0.02389
G1 X142.844 Y209.347 E0.02389
G1 X142.362 Y209.685 E0.02389
G1 X141.945 Y210.102 E0.02389
G1 X141.607 Y210.584 E0.02389
G1 X141.358 Y211.118 E0.02389
G1 X141.206 Y211.687 E0.02389
G1 X141.154 Y212.274 E0.02389
G1 X141.206 Y212.861 E0.02389
G1 X141.358 Y213.43 E0.02389
G1 X141.607 Y213.964 E0.02389
G1 X141.945 Y214.447 E0.02389
G1 X142.362 Y214.863 E0.02389
G1 X142.844 Y215.201 E0.02389
G1 X143.378 Y215.45 E0.02389
G1 X143.947 Y215.603 E0.02389
G1 X144.534 Y215.654 E0.02389
G1 X145.121 Y215.603 E0.02389
G1 X145.69 Y215.45 E0.02389
G1 X146.224 Y215.201 E0.02389
G1 X146.36 Y215.106 E0.00673
G1 X146.706 Y214.863 E0.01716
G1 X147.123 Y214.447 E0.02389
G1 X147.461 Y213.964 E0.02389
G1 X147.71 Y213.43 E0.02389
G1 X147.862 Y212.861 E0.02389
G1 X147.914 Y212.274 E0.02389
G1 X147.862 Y211.687 E0.02389
G1 X147.71 Y211.118 E0.02389
G1 X147.461 Y210.584 E0.02389
G1 X147.123 Y210.102 E0.02389
G1 X146.706 Y209.685 E0.02389
G1 X146.224 Y209.347 E0.02389
G1 X145.69 Y209.098 E0.02389
G1 X145.121 Y208.946 E0.02389
G1 X144.534 Y208.894 E0.02389
G1 X144.044 Y208.937 E0.01994
M204 S1000
G1 X144.021 Y209.367 F36000
;TYPE:External perimeter
G1 F900
G1 X143.525 Y209.5 E0.02086
G1 X143.233 Y209.636 E0.01303
G1 X143.058 Y209.718 E0.00783
G1 X142.637 Y210.013 E0.02086
G1 X142.273 Y210.377 E0.02086
G1 X141.978 Y210.798 E0.02086
G1 X141.76 Y211.265 E0.02086
G1 X141.627 Y211.762 E0.02086
G1 X141.582 Y212.274 E0.02086
G1 X141.627 Y212.787 E0.02086
G1 X141.667 Y212.934 E0.0062
G1 X141.76 Y213.284 E0.01467
G1 X141.978 Y213.75 E0.02086
G1 X142.273 Y214.172 E0.02086
G1 X142.637 Y214.535 E0.02086
G1 X142.953 Y214.757 E0.01565
G1 X143.058 Y214.83 E0.00522
G1 X143.228 Y214.91 E0.00759
G1 X143.525 Y215.048 E0.01327
G1 X144.021 Y215.181 E0.02086
G1 X144.534 Y215.226 E0.02086
G1 X145.047 Y215.181 E0.02086
G1 X145.544 Y215.048 E0.02086
G1 X145.761 Y214.947 E0.00973
G1 X146.01 Y214.83 E0.01113
G1 X146.115 Y214.757 E0.00522
G1 X146.431 Y214.535 E0.01565
G1 X146.795 Y214.172 E0.02086
G1 X147.09 Y213.75 E0.02086
G1 X147.308 Y213.284 E0.02086
G1 X147.441 Y212.787 E0.02086
G1 X147.486 Y212.274 E0.02086
G1 X147.441 Y211.762 E0.02086
G1 X147.308 Y211.265 E0.02086
G1 X147.09 Y210.798 E0.02086
G1 X146.795 Y210.377 E0.02086
G1 X146.431 Y210.013 E0.02086
G1 X146.01 Y209.718 E0.02086
G1 X145.544 Y209.5 E0.02086
G1 X145.457 Y209.477 E0.00364
G1 X145.047 Y209.367 E0.01722
G1 X144.534 Y209.322 E0.02086
G1 X144.081 Y209.362 E0.01843
;WIPE_START
M204 S1500
G1 X143.756 Y209.068 F36000
;WIPE_END
G1 X161.091 Y211.65
;TYPE:Internal perimeter
G1 F900
G1 X161.037 Y212.274 E0.0254
G1 X161.101 Y213.01 E0.02994
G1 X161.292 Y213.723 E0.02994
G1 X161.604 Y214.392 E0.02994
G1 X162.028 Y214.997 E0.02994
G1 X162.55 Y215.519 E0.02994
G1 X163.154 Y215.942 E0.02994
