; generated by SuperSlicer 2.3.57 on 2022-05-22 at 17:59:31 UTC


;
;

;
;
; TODO: check the size of the extruder and the y-bar clearance. Optimize & test supports.

; external perimeters extrusion width = 0.42mm
; perimeters extrusion width = 0.44mm
; infill extrusion width = 0.44mm
; solid infill extrusion width = 0.44mm
; top infill extrusion width = 0.44mm
; first layer extrusion width = 0.56mm

; object:{"name":"Dock_mount_variable_pt1_v2","id":"Dock_mount_variable_pt1_v2.stl id:0 copy 0","object_center":[150.000000,150.000000,0.000000],"boundingbox_center":[150.000000,150.000000,5.249931],"boundingbox_size":[36.254997,43.279968,10.499863]}
; plater:{"center":[150.000000,150.000000,0.000000],"boundingbox_center":[150.000000,150.000000,5.249931],"boundingbox_size":[36.254997,43.279968,10.499863]}

;TYPE:Custom
print_start EXTRUDER=250 BED=110 CHAMBER=55
M107
G21 ; set units to millimeters
G90 ; use absolute coordinates
M83 ; use relative distances for extrusion
M104 S250 ; set temperature
M109 S250 ; set temperature and wait for it to be reached
M190 S110 ; set bed temperature and wait for it to be reached
M107
;LAYER_CHANGE
;Z:0.3
;HEIGHT:0.3
;BEFORE_LAYER_CHANGE
;0.3


G1 Z0.3 F18000
;AFTER_LAYER_CHANGE
;0.3
G1 E-0.75 F3000
M204 S1500
G1 Z0.7 F18000
G1 X129.709 Y124.366
G1 Z0.3
G1 E0.75 F1800
;TYPE:Skirt
;WIDTH:0.56
G1 F3600
G1 X128.795 Y125.458 E0.08271
G1 X128.365 Y126.221 E0.05091
G1 X128.048 Y127.031 E0.05055
G1 X127.845 Y127.884 E0.05091
G1 X127.764 Y128.756 E0.05091
G1 X127.766 Y171.396 E2.47771
G1 X127.993 Y172.863 E0.08627
G1 X128.56 Y174.235 E0.08627
G1 X129.435 Y175.435 E0.08627
G1 X130.573 Y176.398 E0.08663
G1 X131.455 Y176.898 E0.05891
G1 X132.249 Y177.222 E0.04984
G1 X133.123 Y177.442 E0.05234
G1 X134.013 Y177.535 E0.05199
G1 X166.064 Y177.532 E1.86241
G1 X167.612 Y177.266 E0.09126
G1 X169.068 Y176.617 E0.09264
G1 X170.255 Y175.746 E0.08556
G1 X171.205 Y174.621 E0.08556
G1 X171.635 Y173.858 E0.05091
G1 X171.954 Y173.042 E0.05091
G1 X172.156 Y172.189 E0.05091
G1 X172.236 Y171.317 E0.05091
G1 X172.206 Y128.274 E2.50111
G1 X171.987 Y127.148 E0.06665
G1 X171.566 Y126.081 E0.06665
G1 X170.957 Y125.109 E0.06665
G1 X170.181 Y124.265 E0.06665
G1 X169.263 Y123.576 E0.06665
G1 X168.235 Y123.068 E0.06665
G1 X167.138 Y122.757 E0.06629
G1 X165.996 Y122.65 E0.06665
G1 X133.54 Y122.668 E1.88593
G1 X132.148 Y122.934 E0.08235
G1 X130.846 Y123.51 E0.08271
G1 X129.757 Y124.33 E0.07922
; INIT printing object Dock_mount_variable_pt1_v2.stl id:0 copy 0
G1 E-0.75 F3000
G1 Z0.7 F18000
; printing object Dock_mount_variable_pt1_v2.stl id:0 copy 0
G1 X157.55 Y162.996
G1 Z0.3
G1 E0.75 F1800
;TYPE:Internal perimeter
G1 F3600
G1 X157.128 Y163.304 E0.03039
G1 X156.996 Y163.413 E0.00991
G1 X156.806 Y163.595 E0.01532
G1 X156.693 Y163.719 E0.00973
G1 X156.529 Y163.921 E0.01514
G1 X156.434 Y164.057 E0.00959
G1 X156.295 Y164.276 E0.01511
G1 X156.219 Y164.423 E0.00958
G1 X156.107 Y164.657 E0.0151
G1 X156.05 Y164.812 E0.00958
G1 X155.967 Y165.058 E0.01509
G1 X155.93 Y165.219 E0.00958
G1 X155.877 Y165.473 E0.0151
G1 X155.861 Y165.637 E0.00958
G1 X155.838 Y165.895 E0.01504
G1 X155.846 Y166.151 E0.01492
G1 X155.851 Y166.316 E0.00958
G1 X155.889 Y166.573 E0.0151
G1 X155.916 Y166.736 E0.00958
G1 X155.984 Y166.987 E0.0151
G1 X156.031 Y167.145 E0.00958
G1 X156.129 Y167.385 E0.0151
G1 X156.195 Y167.536 E0.00958
G1 X156.321 Y167.764 E0.0151
G1 X156.406 Y167.905 E0.00958
G1 X156.558 Y168.116 E0.0151
G1 X156.661 Y168.245 E0.00958
G1 X156.836 Y168.436 E0.0151
G1 X156.954 Y168.551 E0.00958
G1 X157.151 Y168.721 E0.0151
G1 X157.283 Y168.819 E0.00958
G1 X157.499 Y168.964 E0.0151
G1 X157.642 Y169.045 E0.00958
G1 X157.874 Y169.164 E0.01509
G1 X158.026 Y169.226 E0.00958
G1 X158.27 Y169.316 E0.0151
G1 X158.429 Y169.358 E0.00958
G1 X158.682 Y169.419 E0.0151
G1 X158.845 Y169.44 E0.00958
G1 X159.103 Y169.471 E0.0151
G1 X159.524 Y169.471 E0.02444
G1 X159.782 Y169.44 E0.0151
G1 X159.945 Y169.419 E0.00958
G1 X160.198 Y169.358 E0.0151
G1 X160.357 Y169.316 E0.00958
G1 X160.601 Y169.226 E0.0151
G1 X160.754 Y169.164 E0.00958
G1 X160.985 Y169.045 E0.01509
G1 X161.129 Y168.964 E0.00958
G1 X161.344 Y168.819 E0.0151
G1 X161.476 Y168.721 E0.00958
G1 X161.673 Y168.551 E0.01509
G1 X161.791 Y168.436 E0.00958
G1 X161.967 Y168.245 E0.0151
G1 X162.07 Y168.116 E0.00958
G1 X162.221 Y167.905 E0.0151
G1 X162.306 Y167.764 E0.00958
G1 X162.432 Y167.536 E0.0151
G1 X162.499 Y167.385 E0.00958
G1 X162.596 Y167.145 E0.01509
G1 X162.643 Y166.987 E0.00958
G1 X162.712 Y166.736 E0.0151
G1 X162.738 Y166.573 E0.00958
G1 X162.776 Y166.316 E0.0151
G1 X162.782 Y166.151 E0.00958
G1 X162.789 Y165.895 E0.01492
G1 X162.766 Y165.637 E0.01504
G1 X162.75 Y165.473 E0.00958
G1 X162.697 Y165.219 E0.0151
G1 X162.66 Y165.058 E0.00958
G1 X162.577 Y164.812 E0.0151
G1 X162.52 Y164.657 E0.00958
G1 X162.408 Y164.423 E0.01509
G1 X162.332 Y164.276 E0.00958
G1 X162.193 Y164.057 E0.01511
G1 X162.099 Y163.921 E0.00959
G1 X161.934 Y163.719 E0.01515
G1 X161.822 Y163.595 E0.00973
G1 X161.631 Y163.413 E0.01531
G1 X161.5 Y163.304 E0.00991
G1 X161.077 Y162.996 E0.0304
G1 X161.461 Y162.728 E0.02724
G1 X161.666 Y162.555 E0.01558
G1 X161.788 Y162.439 E0.00975
G1 X161.966 Y162.245 E0.01529
G1 X162.069 Y162.116 E0.00963
G1 X162.221 Y161.905 E0.01511
G1 X162.306 Y161.764 E0.00959
G1 X162.432 Y161.536 E0.0151
G1 X162.499 Y161.385 E0.00958
G1 X162.596 Y161.145 E0.01509
G1 X162.643 Y160.987 E0.00958
G1 X162.712 Y160.736 E0.0151
G1 X162.738 Y160.573 E0.00958
G1 X162.776 Y160.316 E0.0151
G1 X162.782 Y160.151 E0.00958
G1 X162.789 Y159.895 E0.01492
G1 X162.766 Y159.637 E0.01504
G1 X162.75 Y159.473 E0.00958
G1 X162.697 Y159.219 E0.0151
G1 X162.66 Y159.058 E0.00958
G1 X162.577 Y158.812 E0.0151
G1 X162.52 Y158.657 E0.00958
G1 X162.408 Y158.423 E0.01509
G1 X162.332 Y158.276 E0.00958
G1 X162.193 Y158.057 E0.0151
G1 X162.099 Y157.922 E0.00958
G1 X161.935 Y157.72 E0.0151
G1 X161.825 Y157.598 E0.00958
G1 X161.638 Y157.417 E0.01509
G1 X161.513 Y157.31 E0.00958
G1 X161.306 Y157.152 E0.0151
G1 X161.168 Y157.062 E0.00958
G1 X160.944 Y156.93 E0.01509
G1 X160.796 Y156.859 E0.00958
G1 X160.558 Y156.754 E0.0151
G1 X160.402 Y156.702 E0.00958
G1 X160.153 Y156.626 E0.0151
G1 X159.991 Y156.595 E0.00957
G1 X159.736 Y156.549 E0.0151
G1 X159.571 Y156.538 E0.00959
G1 X159.314 Y156.523 E0.01497
G1 X159.056 Y156.538 E0.01497
G1 X158.892 Y156.549 E0.00958
G1 X158.636 Y156.595 E0.0151
G1 X158.474 Y156.626 E0.00957
G1 X158.226 Y156.702 E0.0151
G1 X158.069 Y156.754 E0.00958
G1 X157.832 Y156.859 E0.0151
G1 X157.683 Y156.93 E0.00958
G1 X157.459 Y157.062 E0.01509
G1 X157.321 Y157.152 E0.00958
G1 X157.115 Y157.31 E0.0151
G1 X156.989 Y157.417 E0.00958
G1 X156.803 Y157.598 E0.0151
G1 X156.692 Y157.72 E0.00958
G1 X156.528 Y157.921 E0.01509
G1 X156.434 Y158.057 E0.00958
G1 X156.295 Y158.276 E0.0151
G1 X156.219 Y158.423 E0.00958
G1 X156.107 Y158.657 E0.0151
G1 X156.05 Y158.812 E0.00958
G1 X155.967 Y159.058 E0.0151
G1 X155.93 Y159.219 E0.00958
G1 X155.877 Y159.473 E0.0151
G1 X155.861 Y159.637 E0.00958
G1 X155.838 Y159.895 E0.01504
G1 X155.846 Y160.151 E0.01491
G1 X155.851 Y160.316 E0.00958
G1 X155.889 Y160.573 E0.0151
G1 X155.916 Y160.736 E0.00958
G1 X155.984 Y160.987 E0.0151
G1 X156.031 Y161.145 E0.00958
G1 X156.129 Y161.385 E0.0151
G1 X156.195 Y161.536 E0.00958
G1 X156.321 Y161.764 E0.0151
G1 X156.406 Y161.905 E0.00958
G1 X156.558 Y162.116 E0.01511
G1 X156.662 Y162.245 E0.00963
G1 X156.84 Y162.439 E0.01529
G1 X156.961 Y162.555 E0.00975
G1 X157.166 Y162.728 E0.01558
G1 X157.501 Y162.962 E0.02375
G1 X157.763 Y162.521 F18000
;TYPE:External perimeter
G1 F3600
G1 X157.784 Y162.534 E0.00143
G1 X157.909 Y162.594 E0.00809
G1 X158.135 Y162.685 E0.01413
G1 X158.276 Y162.714 E0.00837
G1 X158.471 Y162.753 E0.01159
G1 X158.575 Y162.78 E0.00623
G1 X158.79 Y162.832 E0.01288
G1 X158.919 Y162.849 E0.00753
G1 X159.139 Y162.875 E0.01288
G1 X159.489 Y162.875 E0.02033
G1 X159.709 Y162.849 E0.01288
G1 X159.837 Y162.832 E0.00753
G1 X160.053 Y162.78 E0.01288
G1 X160.156 Y162.753 E0.00623
G1 X160.352 Y162.714 E0.01159
G1 X160.493 Y162.685 E0.00837
G1 X160.718 Y162.594 E0.01413
G1 X160.843 Y162.534 E0.00809
G1 X161.043 Y162.415 E0.01345
G1 X161.159 Y162.334 E0.00824
G1 X161.335 Y162.185 E0.01342
G1 X161.434 Y162.091 E0.00793
G1 X161.589 Y161.923 E0.01332
G1 X161.674 Y161.817 E0.00789
G1 X161.807 Y161.631 E0.01325
G1 X161.877 Y161.515 E0.00787
G1 X161.987 Y161.316 E0.01325
G1 X162.042 Y161.192 E0.00787
G1 X162.128 Y160.981 E0.01325
G1 X162.167 Y160.851 E0.00787
G1 X162.227 Y160.631 E0.01325
G1 X162.248 Y160.497 E0.00787
G1 X162.282 Y160.272 E0.01325
G1 X162.286 Y160.136 E0.00787
G1 X162.293 Y159.91 E0.01317
G1 X162.273 Y159.683 E0.01322
G1 X162.26 Y159.548 E0.00787
G1 X162.213 Y159.325 E0.01325
G1 X162.183 Y159.193 E0.00787
G1 X162.11 Y158.977 E0.01325
G1 X162.063 Y158.85 E0.00787
G1 X161.965 Y158.644 E0.01325
G1 X161.902 Y158.524 E0.00787
G1 X161.78 Y158.331 E0.01325
G1 X161.703 Y158.22 E0.00787
G1 X161.559 Y158.043 E0.01325
G1 X161.468 Y157.943 E0.00787
G1 X161.305 Y157.784 E0.01325
G1 X161.201 Y157.696 E0.00787
G1 X161.02 Y157.558 E0.01325
G1 X160.907 Y157.484 E0.00787
G1 X160.71 Y157.368 E0.01325
G1 X160.588 Y157.309 E0.00787
G1 X160.38 Y157.217 E0.01325
G1 X160.251 Y157.174 E0.00787
G1 X160.033 Y157.108 E0.01325
G1 X159.9 Y157.082 E0.00787
G1 X159.676 Y157.041 E0.01325
G1 X159.54 Y157.033 E0.00787
G1 X159.314 Y157.019 E0.0132
G1 X159.087 Y157.033 E0.0132
G1 X158.952 Y157.041 E0.00787
G1 X158.727 Y157.082 E0.01325
G1 X158.594 Y157.108 E0.00787
G1 X158.376 Y157.174 E0.01325
G1 X158.248 Y157.217 E0.00787
G1 X158.039 Y157.309 E0.01325
G1 X157.917 Y157.368 E0.00787
G1 X157.721 Y157.484 E0.01325
G1 X157.607 Y157.558 E0.00787
G1 X157.426 Y157.696 E0.01325
G1 X157.323 Y157.784 E0.00787
G1 X157.159 Y157.943 E0.01325
G1 X157.068 Y158.043 E0.00787
G1 X156.925 Y158.22 E0.01325
G1 X156.847 Y158.331 E0.00787
G1 X156.725 Y158.524 E0.01325
G1 X156.663 Y158.644 E0.00787
G1 X156.565 Y158.85 E0.01325
G1 X156.518 Y158.977 E0.00787
G1 X156.445 Y159.193 E0.01325
G1 X156.415 Y159.325 E0.00787
G1 X156.368 Y159.548 E0.01325
G1 X156.355 Y159.683 E0.00787
G1 X156.334 Y159.91 E0.01322
G1 X156.341 Y160.136 E0.01317
G1 X156.345 Y160.271 E0.00787
G1 X156.379 Y160.497 E0.01325
G1 X156.401 Y160.631 E0.00787
G1 X156.461 Y160.851 E0.01325
G1 X156.499 Y160.981 E0.00787
G1 X156.585 Y161.192 E0.01325
G1 X156.64 Y161.316 E0.00787
G1 X156.75 Y161.515 E0.01325
G1 X156.82 Y161.631 E0.00787
G1 X156.953 Y161.817 E0.01325
G1 X157.038 Y161.923 E0.00789
G1 X157.193 Y162.091 E0.01332
G1 X157.292 Y162.185 E0.00793
G1 X157.469 Y162.334 E0.01342
G1 X157.585 Y162.415 E0.00824
G1 X157.711 Y162.49 E0.00853
;WIPE_START
G1 X157.762 Y162.546 F18000
;WIPE_END
G1 X158.09 Y163.331
G1 F3600
G1 X157.95 Y163.387 E0.00876
G1 X157.747 Y163.488 E0.01319
G1 X157.622 Y163.557 E0.00826
G1 X157.432 Y163.696 E0.01369
G1 X157.326 Y163.783 E0.00799
G1 X157.161 Y163.942 E0.01333
G1 X157.069 Y164.043 E0.00792
G1 X156.925 Y164.22 E0.01326
G1 X156.847 Y164.331 E0.00788
G1 X156.725 Y164.524 E0.01325
G1 X156.663 Y164.644 E0.00787
G1 X156.565 Y164.85 E0.01325
G1 X156.518 Y164.977 E0.00787
G1 X156.445 Y165.193 E0.01325
G1 X156.415 Y165.325 E0.00787
G1 X156.368 Y165.548 E0.01325
G1 X156.355 Y165.683 E0.00787
G1 X156.334 Y165.91 E0.01322
G1 X156.341 Y166.136 E0.01317
G1 X156.345 Y166.271 E0.00787
G1 X156.379 Y166.497 E0.01325
G1 X156.401 Y166.631 E0.00787
G1 X156.461 Y166.851 E0.01325
G1 X156.499 Y166.981 E0.00787
G1 X156.585 Y167.192 E0.01325
G1 X156.64 Y167.316 E0.00787
G1 X156.75 Y167.515 E0.01325
G1 X156.82 Y167.631 E0.00787
G1 X156.953 Y167.816 E0.01325
G1 X157.038 Y167.922 E0.00787
G1 X157.191 Y168.091 E0.01325
G1 X157.289 Y168.185 E0.00787
G1 X157.462 Y168.334 E0.01325
G1 X157.57 Y168.415 E0.00787
G1 X157.759 Y168.542 E0.01325
G1 X157.877 Y168.609 E0.00787
G1 X158.08 Y168.713 E0.01325
G1 X158.206 Y168.764 E0.00787
G1 X158.419 Y168.843 E0.01325
G1 X158.55 Y168.877 E0.00787
G1 X158.772 Y168.931 E0.01325
G1 X158.906 Y168.948 E0.00787
G1 X159.133 Y168.975 E0.01325
G1 X159.495 Y168.975 E0.02102
G1 X159.721 Y168.948 E0.01325
G1 X159.855 Y168.931 E0.00787
G1 X160.077 Y168.877 E0.01325
G1 X160.208 Y168.843 E0.00787
G1 X160.422 Y168.764 E0.01325
G1 X160.547 Y168.713 E0.00787
G1 X160.75 Y168.609 E0.01325
G1 X160.868 Y168.542 E0.00787
G1 X161.057 Y168.415 E0.01325
G1 X161.166 Y168.334 E0.00787
G1 X161.339 Y168.185 E0.01325
G1 X161.436 Y168.091 E0.00787
G1 X161.59 Y167.922 E0.01325
G1 X161.674 Y167.817 E0.00787
G1 X161.807 Y167.631 E0.01325
G1 X161.877 Y167.515 E0.00787
G1 X161.987 Y167.316 E0.01325
G1 X162.042 Y167.192 E0.00787
G1 X162.128 Y166.981 E0.01325
G1 X162.167 Y166.851 E0.00787
G1 X162.227 Y166.631 E0.01325
G1 X162.248 Y166.497 E0.00787
G1 X162.282 Y166.272 E0.01325
G1 X162.286 Y166.136 E0.00787
G1 X162.293 Y165.91 E0.01317
G1 X162.273 Y165.683 E0.01322
G1 X162.26 Y165.548 E0.00787
G1 X162.213 Y165.325 E0.01325
G1 X162.183 Y165.193 E0.00787
G1 X162.11 Y164.977 E0.01325
G1 X162.063 Y164.85 E0.00787
G1 X161.965 Y164.644 E0.01325
G1 X161.902 Y164.524 E0.00787
G1 X161.78 Y164.331 E0.01325
G1 X161.703 Y164.22 E0.00788
G1 X161.559 Y164.043 E0.01327
G1 X161.467 Y163.942 E0.00792
G1 X161.301 Y163.783 E0.01332
G1 X161.195 Y163.696 E0.00799
G1 X161.005 Y163.557 E0.01369
G1 X160.881 Y163.488 E0.00826
G1 X160.677 Y163.387 E0.01319
G1 X160.537 Y163.331 E0.00876
G1 X160.302 Y163.279 E0.01401
G1 X160.198 Y163.263 E0.00609
G1 X160.009 Y163.205 E0.01151
G1 X159.882 Y163.18 E0.00752
G1 X159.664 Y163.141 E0.01288
G1 X159.534 Y163.133 E0.00753
G1 X159.314 Y163.12 E0.01284
G1 X159.093 Y163.133 E0.01284
G1 X158.964 Y163.141 E0.00753
G1 X158.746 Y163.18 E0.01288
G1 X158.619 Y163.205 E0.00752
G1 X158.429 Y163.263 E0.01151
G1 X158.326 Y163.279 E0.00609
G1 X158.149 Y163.318 E0.01052
;WIPE_START
G1 X157.977 Y163.232 F18000
;WIPE_END
G1 X142.45 Y162.996
;TYPE:Internal perimeter
G1 F3600
G1 X142.834 Y162.728 E0.02724
G1 X143.039 Y162.555 E0.01557
G1 X143.16 Y162.439 E0.00975
G1 X143.338 Y162.245 E0.01529
G1 X143.442 Y162.116 E0.00963
G1 X143.594 Y161.905 E0.01511
G1 X143.679 Y161.764 E0.00959
G1 X143.805 Y161.536 E0.0151
G1 X143.871 Y161.385 E0.00958
G1 X143.969 Y161.145 E0.01509
G1 X144.016 Y160.987 E0.00958
G1 X144.084 Y160.736 E0.0151
G1 X144.111 Y160.573 E0.00958
G1 X144.149 Y160.316 E0.0151
G1 X144.154 Y160.151 E0.00958
G1 X144.162 Y159.895 E0.01492
G1 X144.139 Y159.637 E0.01504
G1 X144.123 Y159.473 E0.00958
G1 X144.07 Y159.219 E0.0151
G1 X144.033 Y159.058 E0.00958
G1 X143.95 Y158.812 E0.0151
G1 X143.893 Y158.657 E0.00958
G1 X143.781 Y158.423 E0.0151
G1 X143.705 Y158.276 E0.00958
G1 X143.566 Y158.057 E0.0151
G1 X143.472 Y157.922 E0.00958
G1 X143.308 Y157.72 E0.0151
G1 X143.197 Y157.598 E0.00958
G1 X143.011 Y157.417 E0.01509
G1 X142.885 Y157.31 E0.00958
G1 X142.679 Y157.152 E0.0151
G1 X142.541 Y157.062 E0.00958
G1 X142.317 Y156.93 E0.01509
G1 X142.168 Y156.859 E0.00958
G1 X141.931 Y156.754 E0.0151
G1 X141.774 Y156.702 E0.00958
G1 X141.526 Y156.626 E0.0151
G1 X141.364 Y156.595 E0.00957
G1 X141.108 Y156.549 E0.0151
G1 X140.944 Y156.538 E0.00959
G1 X140.686 Y156.523 E0.01497
G1 X140.429 Y156.538 E0.01497
G1 X140.264 Y156.549 E0.00959
G1 X140.009 Y156.595 E0.0151
G1 X139.847 Y156.626 E0.00957
G1 X139.598 Y156.702 E0.0151
G1 X139.442 Y156.754 E0.00958
G1 X139.204 Y156.859 E0.0151
G1 X139.056 Y156.93 E0.00958
G1 X138.832 Y157.062 E0.01509
G1 X138.694 Y157.152 E0.00958
G1 X138.487 Y157.31 E0.0151
G1 X138.362 Y157.417 E0.00958
G1 X138.175 Y157.598 E0.0151
G1 X138.065 Y157.72 E0.00958
G1 X137.901 Y157.922 E0.01509
G1 X137.807 Y158.057 E0.00958
G1 X137.668 Y158.276 E0.0151
G1 X137.592 Y158.423 E0.00958
G1 X137.48 Y158.657 E0.0151
G1 X137.423 Y158.812 E0.00958
G1 X137.34 Y159.058 E0.0151
G1 X137.303 Y159.219 E0.00958
G1 X137.25 Y159.473 E0.0151
G1 X137.234 Y159.637 E0.00958
G1 X137.211 Y159.895 E0.01504
G1 X137.218 Y160.151 E0.01491
G1 X137.224 Y160.316 E0.00958
G1 X137.262 Y160.573 E0.0151
G1 X137.288 Y160.736 E0.00958
G1 X137.357 Y160.987 E0.0151
G1 X137.404 Y161.145 E0.00958
G1 X137.501 Y161.385 E0.0151
G1 X137.568 Y161.536 E0.00958
G1 X137.694 Y161.764 E0.0151
