; generated by SuperSlicer 2.3.57 on 2022-05-22 at 16:43:30 UTC


;
;

;
;
; TODO: check the size of the extruder and the y-bar clearance. Optimize & test supports.

; external perimeters extrusion width = 0.42mm
; perimeters extrusion width = 0.44mm
; infill extrusion width = 0.44mm
; solid infill extrusion width = 0.44mm
; top infill extrusion width = 0.44mm
; first layer extrusion width = 0.56mm

; object:{"name":"Dock_mount_variable_pt2_v2","id":"Dock_mount_variable_pt2_v2.stl id:0 copy 0","object_center":[150.000000,150.000000,0.000000],"boundingbox_center":[150.000000,150.000000,17.350296],"boundingbox_size":[36.255005,40.279968,34.700592]}
; plater:{"center":[150.000000,150.000000,0.000000],"boundingbox_center":[150.000000,150.000000,17.350296],"boundingbox_size":[36.255005,40.279968,34.700592]}

;TYPE:Custom
print_start EXTRUDER=250 BED=110 CHAMBER=55
M107
G21 ; set units to millimeters
G90 ; use absolute coordinates
M83 ; use relative distances for extrusion
M104 S250 ; set temperature
M109 S250 ; set temperature and wait for it to be reached
M190 S110 ; set bed temperature and wait for it to be reached
M107
;LAYER_CHANGE
;Z:0.3
;HEIGHT:0.3
;BEFORE_LAYER_CHANGE
;0.3


G1 Z0.3 F18000
;AFTER_LAYER_CHANGE
;0.3
G1 E-0.75 F3000
M204 S1500
G1 Z0.7 F18000
G1 X128.459 Y125.857
G1 Z0.3
G1 E0.75 F1800
;TYPE:Skirt
;WIDTH:0.56
G1 F3600
G1 X127.421 Y127.002 E0.08981
G1 X126.864 Y127.893 E0.06106
G1 X126.387 Y128.993 E0.06963
G1 X126.092 Y130.149 E0.06934
G1 X125.978 Y131.316 E0.06815
G1 X125.977 Y169.759 E2.23381
G1 X126.184 Y171.198 E0.08449
G1 X126.718 Y172.551 E0.08449
G1 X127.522 Y173.711 E0.082
G1 X128.689 Y174.803 E0.0929
G1 X129.492 Y175.311 E0.05521
G1 X130.363 Y175.69 E0.05521
G1 X131.281 Y175.934 E0.05521
G1 X132.22 Y176.035 E0.05485
G1 X167.79 Y176.034 E2.06691
G1 X169.216 Y175.82 E0.08378
G1 X170.561 Y175.282 E0.08413
G1 X171.708 Y174.482 E0.08128
G1 X172.791 Y173.324 E0.09215
G1 X173.301 Y172.515 E0.05556
G1 X173.682 Y171.638 E0.05556
G1 X173.924 Y170.713 E0.05556
G1 X174.023 Y169.768 E0.05521
G1 X174.025 Y131.515 E2.2228
G1 X173.952 Y130.438 E0.06273
G1 X173.63 Y129.046 E0.083
G1 X173.108 Y127.839 E0.07639
G1 X172.45 Y126.835 E0.06978
G1 X171.499 Y125.82 E0.08077
G1 X170.412 Y125.028 E0.07818
G1 X169.181 Y124.44 E0.07926
G1 X167.84 Y124.08 E0.08066
G1 X166.468 Y123.962 E0.08007
G1 X132.972 Y123.984 E1.94635
G1 X131.28 Y124.289 E0.09987
G1 X129.802 Y124.907 E0.09312
G1 X128.508 Y125.822 E0.09211
; INIT printing object Dock_mount_variable_pt2_v2.stl id:0 copy 0
G1 E-0.75 F3000
G1 Z0.7 F18000
; printing object Dock_mount_variable_pt2_v2.stl id:0 copy 0
G1 X156.8 Y133.736
G1 Z0.3
G1 E0.75 F1800
;TYPE:Internal perimeter
G1 F3600
G1 X156.765 Y133.882 E0.00877
G1 X156.714 Y134.115 E0.01384
G1 X156.703 Y134.265 E0.00877
G1 X156.688 Y134.469 E0.01184
G1 X156.688 Y134.994 E0.03055
G1 X156.688 Y135.983 E0.05746
G1 X156.688 Y136.478 E0.02873
G1 X156.688 Y136.972 E0.02873
G1 X156.688 Y137.467 E0.02873
G1 X156.688 Y137.961 E0.02873
G1 X156.688 Y138.456 E0.02873
G1 X156.688 Y138.95 E0.02873
G1 X156.688 Y139.444 E0.02873
G1 X156.688 Y139.939 E0.02873
G1 X156.688 Y140.433 E0.02873
G1 X156.688 Y140.928 E0.02873
G1 X156.688 Y141.917 E0.05746
G1 X156.688 Y142.411 E0.02873
G1 X156.688 Y143.4 E0.05746
G1 X156.688 Y143.894 E0.02873
G1 X156.688 Y144.389 E0.02873
G1 X156.688 Y144.883 E0.02873
G1 X156.688 Y145.378 E0.02873
G1 X156.688 Y145.872 E0.02873
G1 X156.688 Y146.367 E0.02873
G1 X156.688 Y146.861 E0.02873
G1 X156.688 Y147.356 E0.02873
G1 X156.688 Y147.85 E0.02873
G1 X156.688 Y148.344 E0.02873
G1 X156.688 Y149.333 E0.05746
G1 X156.688 Y149.828 E0.02873
G1 X156.688 Y150.322 E0.02873
G1 X156.688 Y150.817 E0.02873
G1 X156.688 Y151.311 E0.02873
G1 X156.688 Y151.806 E0.02873
G1 X156.688 Y152.3 E0.02873
G1 X156.688 Y152.794 E0.02873
G1 X156.688 Y153.289 E0.02873
G1 X156.688 Y153.783 E0.02873
G1 X156.688 Y154.278 E0.02873
G1 X156.688 Y154.772 E0.02873
G1 X156.688 Y155.267 E0.02873
G1 X156.688 Y155.761 E0.02873
G1 X156.688 Y156.256 E0.02873
G1 X156.688 Y156.781 E0.03055
G1 X156.703 Y156.985 E0.01184
G1 X156.715 Y157.135 E0.00877
G1 X156.765 Y157.368 E0.01384
G1 X156.8 Y157.515 E0.00877
G1 X156.884 Y157.738 E0.01385
G1 X156.941 Y157.877 E0.00876
G1 X157.056 Y158.086 E0.01385
G1 X157.134 Y158.215 E0.00877
G1 X157.277 Y158.406 E0.01384
G1 X157.375 Y158.52 E0.00876
G1 X157.544 Y158.689 E0.01385
G1 X157.658 Y158.787 E0.00876
G1 X157.849 Y158.929 E0.01384
G1 X157.978 Y159.008 E0.00877
G1 X158.187 Y159.122 E0.01384
G1 X158.326 Y159.18 E0.00876
G1 X158.549 Y159.263 E0.01385
G1 X158.696 Y159.299 E0.00876
G1 X158.929 Y159.349 E0.01384
G1 X159.079 Y159.361 E0.00877
G1 X159.314 Y159.378 E0.01367
G1 X159.548 Y159.361 E0.01367
G1 X159.699 Y159.349 E0.00877
G1 X159.932 Y159.299 E0.01384
G1 X160.078 Y159.263 E0.00877
G1 X160.302 Y159.18 E0.01385
G1 X160.441 Y159.122 E0.00877
G1 X160.65 Y159.008 E0.01384
G1 X160.779 Y158.929 E0.00876
G1 X160.969 Y158.787 E0.01385
G1 X161.084 Y158.689 E0.00877
G1 X161.252 Y158.52 E0.01384
G1 X161.35 Y158.406 E0.00876
G1 X161.493 Y158.215 E0.01384
G1 X161.572 Y158.086 E0.00877
G1 X161.686 Y157.877 E0.01385
G1 X161.744 Y157.738 E0.00876
G1 X161.827 Y157.515 E0.01384
G1 X161.862 Y157.368 E0.00877
G1 X161.913 Y157.135 E0.01384
G1 X161.925 Y156.985 E0.00877
G1 X161.939 Y156.781 E0.01185
G1 X161.939 Y156.256 E0.03055
G1 X161.939 Y155.267 E0.05746
G1 X161.939 Y154.772 E0.02873
G1 X161.939 Y153.783 E0.05746
G1 X161.939 Y153.289 E0.02873
G1 X161.939 Y152.3 E0.05746
G1 X161.939 Y151.806 E0.02873
G1 X161.939 Y150.817 E0.05746
G1 X161.939 Y150.322 E0.02873
G1 X161.939 Y149.828 E0.02873
G1 X161.939 Y149.333 E0.02873
G1 X161.939 Y148.344 E0.05746
G1 X161.939 Y147.356 E0.05746
G1 X161.939 Y146.861 E0.02873
G1 X161.939 Y145.872 E0.05746
G1 X161.939 Y145.378 E0.02873
G1 X161.939 Y144.389 E0.05746
G1 X161.939 Y143.894 E0.02873
G1 X161.939 Y142.906 E0.05746
G1 X161.939 Y142.411 E0.02873
G1 X161.939 Y141.917 E0.02873
G1 X161.939 Y140.928 E0.05746
G1 X161.939 Y140.433 E0.02873
G1 X161.939 Y139.444 E0.05746
G1 X161.939 Y138.95 E0.02873
G1 X161.939 Y137.961 E0.05746
G1 X161.939 Y137.467 E0.02873
G1 X161.939 Y136.478 E0.05746
G1 X161.939 Y135.983 E0.02873
G1 X161.939 Y135.489 E0.02873
G1 X161.939 Y134.994 E0.02873
G1 X161.939 Y134.469 E0.03055
G1 X161.925 Y134.265 E0.01184
G1 X161.913 Y134.115 E0.00877
G1 X161.862 Y133.882 E0.01385
G1 X161.827 Y133.735 E0.00877
G1 X161.744 Y133.512 E0.01384
G1 X161.686 Y133.373 E0.00877
G1 X161.572 Y133.164 E0.01384
G1 X161.493 Y133.035 E0.00876
G1 X161.35 Y132.844 E0.01385
G1 X161.252 Y132.73 E0.00876
G1 X161.084 Y132.561 E0.01384
G1 X160.969 Y132.463 E0.00877
G1 X160.778 Y132.321 E0.01384
G1 X160.65 Y132.242 E0.00876
G1 X160.441 Y132.128 E0.01384
G1 X160.301 Y132.07 E0.00877
G1 X160.078 Y131.987 E0.01385
G1 X159.931 Y131.951 E0.00876
G1 X159.699 Y131.901 E0.01385
G1 X159.548 Y131.889 E0.00877
G1 X159.314 Y131.872 E0.01366
G1 X159.079 Y131.889 E0.01366
G1 X158.929 Y131.901 E0.00877
G1 X158.696 Y131.951 E0.01385
G1 X158.549 Y131.987 E0.00877
G1 X158.326 Y132.07 E0.01385
G1 X158.187 Y132.128 E0.00877
G1 X157.977 Y132.242 E0.01384
G1 X157.849 Y132.321 E0.00876
G1 X157.658 Y132.463 E0.01385
G1 X157.543 Y132.561 E0.00876
G1 X157.375 Y132.73 E0.01384
G1 X157.277 Y132.844 E0.00877
G1 X157.134 Y133.035 E0.01385
G1 X157.056 Y133.164 E0.00876
G1 X156.941 Y133.373 E0.01384
G1 X156.884 Y133.512 E0.00877
G1 X156.821 Y133.679 E0.01036
G1 X157.286 Y133.852 F18000
;TYPE:External perimeter
G1 F3600
G1 X157.275 Y133.88 E0.00174
G1 X157.248 Y133.993 E0.00671
G1 X157.206 Y134.187 E0.01158
G1 X157.197 Y134.303 E0.00671
G1 X157.184 Y134.486 E0.01071
G1 X157.184 Y134.994 E0.02952
G1 X157.184 Y135.983 E0.05746
G1 X157.184 Y136.478 E0.02873
G1 X157.184 Y136.972 E0.02873
G1 X157.184 Y137.467 E0.02873
G1 X157.184 Y137.961 E0.02873
G1 X157.184 Y138.456 E0.02873
G1 X157.184 Y138.95 E0.02873
G1 X157.184 Y139.444 E0.02873
G1 X157.184 Y139.939 E0.02873
G1 X157.184 Y140.433 E0.02873
G1 X157.184 Y140.928 E0.02873
G1 X157.184 Y141.917 E0.05746
G1 X157.184 Y142.411 E0.02873
G1 X157.184 Y143.4 E0.05746
G1 X157.184 Y143.894 E0.02873
G1 X157.184 Y144.389 E0.02873
G1 X157.184 Y144.883 E0.02873
G1 X157.184 Y145.378 E0.02873
G1 X157.184 Y145.872 E0.02873
G1 X157.184 Y146.367 E0.02873
G1 X157.184 Y146.861 E0.02873
G1 X157.184 Y147.356 E0.02873
G1 X157.184 Y147.85 E0.02873
G1 X157.184 Y148.344 E0.02873
G1 X157.184 Y149.333 E0.05746
G1 X157.184 Y149.828 E0.02873
G1 X157.184 Y150.322 E0.02873
G1 X157.184 Y150.817 E0.02873
G1 X157.184 Y151.311 E0.02873
G1 X157.184 Y151.806 E0.02873
G1 X157.184 Y152.3 E0.02873
G1 X157.184 Y152.794 E0.02873
G1 X157.184 Y153.289 E0.02873
G1 X157.184 Y153.783 E0.02873
G1 X157.184 Y154.278 E0.02873
G1 X157.184 Y154.772 E0.02873
G1 X157.184 Y155.267 E0.02873
G1 X157.184 Y155.761 E0.02873
G1 X157.184 Y156.256 E0.02873
G1 X157.184 Y156.764 E0.02952
G1 X157.197 Y156.947 E0.01071
G1 X157.206 Y157.063 E0.00671
G1 X157.248 Y157.257 E0.01158
G1 X157.275 Y157.37 E0.00671
G1 X157.345 Y157.556 E0.01158
G1 X157.389 Y157.663 E0.00671
G1 X157.485 Y157.838 E0.01158
G1 X157.545 Y157.936 E0.00671
G1 X157.664 Y158.096 E0.01158
G1 X157.739 Y158.184 E0.00671
G1 X157.88 Y158.324 E0.01158
G1 X157.968 Y158.399 E0.00671
G1 X158.127 Y158.519 E0.01158
G1 X158.226 Y158.579 E0.00671
G1 X158.401 Y158.675 E0.01158
G1 X158.507 Y158.719 E0.00671
G1 X158.694 Y158.788 E0.01158
G1 X158.806 Y158.815 E0.00671
G1 X159.001 Y158.858 E0.01158
G1 X159.116 Y158.867 E0.00671
G1 X159.314 Y158.881 E0.0115
G1 X159.511 Y158.867 E0.0115
G1 X159.626 Y158.858 E0.00671
G1 X159.821 Y158.815 E0.01158
G1 X159.933 Y158.788 E0.00671
G1 X160.12 Y158.719 E0.01158
G1 X160.227 Y158.675 E0.00671
G1 X160.402 Y158.579 E0.01158
G1 X160.5 Y158.519 E0.0067
G1 X160.66 Y158.399 E0.01158
G1 X160.747 Y158.324 E0.00671
G1 X160.888 Y158.184 E0.01158
G1 X160.963 Y158.096 E0.0067
G1 X161.083 Y157.936 E0.01158
G1 X161.143 Y157.838 E0.00671
G1 X161.238 Y157.663 E0.01158
G1 X161.283 Y157.556 E0.00671
G1 X161.352 Y157.37 E0.01158
G1 X161.379 Y157.257 E0.00671
G1 X161.422 Y157.063 E0.01158
G1 X161.431 Y156.947 E0.00671
G1 X161.444 Y156.764 E0.01071
G1 X161.444 Y156.256 E0.02952
G1 X161.444 Y155.761 E0.02873
G1 X161.444 Y155.267 E0.02873
G1 X161.444 Y154.772 E0.02873
G1 X161.444 Y154.278 E0.02873
G1 X161.444 Y153.783 E0.02873
G1 X161.444 Y153.289 E0.02873
G1 X161.444 Y152.794 E0.02873
G1 X161.444 Y152.3 E0.02873
G1 X161.444 Y151.806 E0.02873
G1 X161.444 Y151.311 E0.02873
G1 X161.444 Y150.817 E0.02873
G1 X161.444 Y150.322 E0.02873
G1 X161.444 Y149.828 E0.02873
G1 X161.444 Y149.333 E0.02873
G1 X161.444 Y148.344 E0.05746
G1 X161.444 Y147.85 E0.02873
G1 X161.444 Y147.356 E0.02873
G1 X161.444 Y146.861 E0.02873
G1 X161.444 Y146.367 E0.02873
G1 X161.444 Y145.872 E0.02873
G1 X161.444 Y145.378 E0.02873
G1 X161.444 Y144.883 E0.02873
G1 X161.444 Y144.389 E0.02873
G1 X161.444 Y143.894 E0.02873
G1 X161.444 Y143.4 E0.02873
G1 X161.444 Y142.906 E0.02873
G1 X161.444 Y142.411 E0.02873
G1 X161.444 Y141.917 E0.02873
G1 X161.444 Y140.928 E0.05746
G1 X161.444 Y140.433 E0.02873
G1 X161.444 Y139.939 E0.02873
G1 X161.444 Y139.444 E0.02873
G1 X161.444 Y138.95 E0.02873
G1 X161.444 Y138.456 E0.02873
G1 X161.444 Y137.961 E0.02873
G1 X161.444 Y137.467 E0.02873
G1 X161.444 Y136.972 E0.02873
G1 X161.444 Y136.478 E0.02873
G1 X161.444 Y135.983 E0.02873
G1 X161.444 Y135.489 E0.02873
G1 X161.444 Y134.994 E0.02873
G1 X161.444 Y134.486 E0.02952
G1 X161.431 Y134.303 E0.01071
G1 X161.422 Y134.187 E0.00671
G1 X161.379 Y133.993 E0.01158
G1 X161.352 Y133.88 E0.00671
G1 X161.283 Y133.694 E0.01158
G1 X161.238 Y133.587 E0.00671
G1 X161.143 Y133.412 E0.01158
G1 X161.083 Y133.314 E0.00671
G1 X160.963 Y133.154 E0.01158
G1 X160.888 Y133.066 E0.00671
G1 X160.747 Y132.926 E0.01158
G1 X160.659 Y132.851 E0.00671
G1 X160.5 Y132.731 E0.01158
G1 X160.402 Y132.671 E0.0067
G1 X160.227 Y132.575 E0.01158
G1 X160.12 Y132.531 E0.00671
G1 X159.933 Y132.462 E0.01158
G1 X159.821 Y132.435 E0.00671
G1 X159.626 Y132.392 E0.01158
G1 X159.511 Y132.383 E0.00671
G1 X159.314 Y132.369 E0.0115
G1 X159.116 Y132.383 E0.0115
G1 X159.001 Y132.392 E0.00671
G1 X158.806 Y132.435 E0.01158
G1 X158.694 Y132.462 E0.00671
G1 X158.507 Y132.531 E0.01158
G1 X158.401 Y132.575 E0.00671
G1 X158.226 Y132.671 E0.01158
G1 X158.127 Y132.731 E0.00671
G1 X157.968 Y132.851 E0.01158
G1 X157.88 Y132.926 E0.00671
G1 X157.739 Y133.066 E0.01158
G1 X157.664 Y133.154 E0.00671
G1 X157.545 Y133.314 E0.01158
G1 X157.485 Y133.412 E0.00671
G1 X157.389 Y133.587 E0.01158
G1 X157.345 Y133.694 E0.00671
G1 X157.307 Y133.796 E0.00636
;WIPE_START
G1 X157.256 Y133.857 F18000
;WIPE_END
G1 X143.312 Y134.469
;TYPE:Internal perimeter
G1 F3600
G1 X143.297 Y134.265 E0.01184
G1 X143.286 Y134.115 E0.00877
G1 X143.235 Y133.882 E0.01385
G1 X143.2 Y133.736 E0.00877
G1 X143.116 Y133.512 E0.01385
G1 X143.059 Y133.373 E0.00877
G1 X142.944 Y133.164 E0.01384
G1 X142.866 Y133.035 E0.00876
G1 X142.723 Y132.844 E0.01385
G1 X142.625 Y132.73 E0.00877
G1 X142.457 Y132.561 E0.01384
G1 X142.342 Y132.463 E0.00876
G1 X142.151 Y132.321 E0.01385
G1 X142.023 Y132.242 E0.00876
G1 X141.813 Y132.128 E0.01384
G1 X141.674 Y132.07 E0.00877
G1 X141.451 Y131.987 E0.01385
G1 X141.304 Y131.951 E0.00877
G1 X141.071 Y131.901 E0.01385
G1 X140.921 Y131.889 E0.00877
G1 X140.686 Y131.872 E0.01366
G1 X140.452 Y131.889 E0.01366
G1 X140.301 Y131.901 E0.00877
G1 X140.068 Y131.951 E0.01385
G1 X139.922 Y131.987 E0.00877
G1 X139.699 Y132.07 E0.01385
G1 X139.559 Y132.128 E0.00877
G1 X139.35 Y132.242 E0.01384
G1 X139.222 Y132.321 E0.00876
G1 X139.031 Y132.463 E0.01384
G1 X138.916 Y132.561 E0.00877
G1 X138.748 Y132.73 E0.01384
G1 X138.65 Y132.844 E0.00876
G1 X138.507 Y133.035 E0.01385
G1 X138.428 Y133.164 E0.00876
G1 X138.314 Y133.373 E0.01384
G1 X138.256 Y133.512 E0.00877
G1 X138.173 Y133.735 E0.01385
G1 X138.138 Y133.882 E0.00877
G1 X138.087 Y134.115 E0.01385
G1 X138.075 Y134.265 E0.00877
G1 X138.061 Y134.469 E0.01185
G1 X138.061 Y134.994 E0.03055
G1 X138.061 Y135.489 E0.02873
G1 X138.061 Y135.983 E0.02873
G1 X138.061 Y136.478 E0.02873
G1 X138.061 Y136.972 E0.02873
G1 X138.061 Y137.467 E0.02873
G1 X138.061 Y137.961 E0.02873
G1 X138.061 Y138.456 E0.02873
G1 X138.061 Y138.95 E0.02873
G1 X138.061 Y139.444 E0.02873
G1 X138.061 Y139.939 E0.02873
G1 X138.061 Y140.433 E0.02873
G1 X138.061 Y140.928 E0.02873
G1 X138.061 Y141.917 E0.05746
G1 X138.061 Y142.411 E0.02873
G1 X138.061 Y142.906 E0.02873
G1 X138.061 Y143.4 E0.02873
G1 X138.061 Y143.894 E0.02873
G1 X138.061 Y144.389 E0.02873
G1 X138.061 Y144.883 E0.02873
G1 X138.061 Y145.378 E0.02873
G1 X138.061 Y145.872 E0.02873
G1 X138.061 Y146.367 E0.02873
G1 X138.061 Y146.861 E0.02873
G1 X138.061 Y147.356 E0.02873
G1 X138.061 Y147.85 E0.02873
G1 X138.061 Y148.344 E0.02873
G1 X138.061 Y149.333 E0.05746
G1 X138.061 Y149.828 E0.02873
G1 X138.061 Y150.322 E0.02873
G1 X138.061 Y150.817 E0.02873
G1 X138.061 Y151.311 E0.02873
G1 X138.061 Y151.806 E0.02873
G1 X138.061 Y152.3 E0.02873
G1 X138.061 Y152.794 E0.02873
G1 X138.061 Y153.289 E0.02873
G1 X138.061 Y153.783 E0.02873
G1 X138.061 Y154.278 E0.02873
G1 X138.061 Y154.772 E0.02873
G1 X138.061 Y155.267 E0.02873
G1 X138.061 Y156.256 E0.05746
G1 X138.061 Y156.781 E0.03055
G1 X138.075 Y156.985 E0.01184
G1 X138.087 Y157.135 E0.00877
G1 X138.138 Y157.368 E0.01385
G1 X138.173 Y157.515 E0.00877
G1 X138.256 Y157.738 E0.01384
G1 X138.314 Y157.877 E0.00876
G1 X138.428 Y158.086 E0.01385
G1 X138.507 Y158.215 E0.00877
G1 X138.65 Y158.406 E0.01385
G1 X138.748 Y158.52 E0.00876
G1 X138.916 Y158.689 E0.01384
G1 X139.031 Y158.787 E0.00877
G1 X139.221 Y158.929 E0.01385
G1 X139.35 Y159.008 E0.00876
G1 X139.559 Y159.122 E0.01384
G1 X139.698 Y159.18 E0.00877
G1 X139.922 Y159.263 E0.01385
G1 X140.068 Y159.299 E0.00877
G1 X140.301 Y159.349 E0.01384
G1 X140.452 Y159.361 E0.00877
G1 X140.686 Y159.378 E0.01367
G1 X140.921 Y159.361 E0.01367
G1 X141.071 Y159.349 E0.00877
G1 X141.304 Y159.299 E0.01384
G1 X141.451 Y159.263 E0.00877
G1 X141.674 Y159.18 E0.01385
G1 X141.813 Y159.122 E0.00876
G1 X142.022 Y159.008 E0.01384
G1 X142.151 Y158.929 E0.00877
G1 X142.342 Y158.787 E0.01384
