; generated by SuperSlicer 2.3.57 on 2022-05-22 at 01:28:55 UTC


;
;

;
;
; TODO: check the size of the extruder and the y-bar clearance. Optimize & test supports.

; external perimeters extrusion width = 0.42mm
; perimeters extrusion width = 0.44mm
; infill extrusion width = 0.44mm
; solid infill extrusion width = 0.44mm
; top infill extrusion width = 0.44mm
; first layer extrusion width = 0.56mm

; object:{"name":"Dock_mount_variable_pt3_v2","id":"Dock_mount_variable_pt3_v2.stl id:0 copy 0","object_center":[150.000000,150.000000,0.000000],"boundingbox_center":[150.000000,150.000000,2.988495],"boundingbox_size":[22.255005,47.724014,5.976990]}
; plater:{"center":[150.000000,150.000000,0.000000],"boundingbox_center":[150.000000,150.000000,2.988495],"boundingbox_size":[22.255005,47.724014,5.976990]}

;TYPE:Custom
print_start EXTRUDER=250 BED=110 CHAMBER=55
M107
G21 ; set units to millimeters
G90 ; use absolute coordinates
M83 ; use relative distances for extrusion
M104 S250 ; set temperature
M109 S250 ; set temperature and wait for it to be reached
M190 S110 ; set bed temperature and wait for it to be reached
M107
;LAYER_CHANGE
;Z:0.3
;HEIGHT:0.3
;BEFORE_LAYER_CHANGE
;0.3


G1 Z0.3 F18000
;AFTER_LAYER_CHANGE
;0.3
G1 E-0.75 F3000
M204 S1500
G1 Z0.7 F18000
G1 X134.952 Y122.763
G1 Z0.3
G1 E0.75 F1800
;TYPE:Skirt
;WIDTH:0.56
G1 F3600
G1 X134.292 Y123.595 E0.06169
G1 X133.757 Y124.49 E0.06058
G1 X133.337 Y125.465 E0.0617
G1 X132.986 Y126.817 E0.08116
G1 X132.875 Y128.086 E0.074
G1 X132.907 Y172.575 E2.58515
G1 X133.111 Y173.786 E0.07135
G1 X133.433 Y174.798 E0.06177
G1 X133.894 Y175.766 E0.06226
G1 X134.561 Y176.774 E0.07023
G1 X135.316 Y177.614 E0.06561
G1 X136.24 Y178.379 E0.06971
G1 X137.165 Y178.948 E0.06312
G1 X138.141 Y179.378 E0.06194
G1 X139.43 Y179.728 E0.07763
G1 X140.77 Y179.859 E0.07824
G1 X159.165 Y179.86 E1.06892
G1 X160.482 Y179.744 E0.07681
G1 X161.492 Y179.502 E0.06034
G1 X162.543 Y179.092 E0.06553
G1 X163.437 Y178.599 E0.05931
G1 X164.237 Y178.015 E0.05759
G1 X164.972 Y177.319 E0.05881
G1 X165.702 Y176.415 E0.06753
G1 X166.231 Y175.537 E0.05956
G1 X166.643 Y174.594 E0.05983
G1 X166.997 Y173.287 E0.07867
G1 X167.125 Y171.915 E0.08003
G1 X167.125 Y128.133 E2.54405
G1 X167.05 Y127.047 E0.0633
G1 X166.75 Y125.723 E0.07888
G1 X166.162 Y124.337 E0.08749
G1 X165.35 Y123.115 E0.08526
G1 X164.334 Y122.069 E0.0847
G1 X163.196 Y121.253 E0.08136
G1 X161.887 Y120.634 E0.08412
G1 X160.467 Y120.254 E0.08545
G1 X159.13 Y120.14 E0.07794
G1 X140.825 Y120.14 E1.06367
G1 X139.251 Y120.31 E0.09197
G1 X138.41 Y120.531 E0.05054
G1 X137.424 Y120.924 E0.06168
G1 X136.556 Y121.407 E0.05775
G1 X135.665 Y122.07 E0.06455
G1 X134.995 Y122.721 E0.05427
; INIT printing object Dock_mount_variable_pt3_v2.stl id:0 copy 0
G1 E-0.75 F3000
G1 Z0.7 F18000
; printing object Dock_mount_variable_pt3_v2.stl id:0 copy 0
G1 X140.747 Y171.434
G1 Z0.3
G1 E0.75 F1800
;TYPE:Internal perimeter
G1 F2880
G1 X140.832 Y171.589 E0.01027
G1 X140.976 Y171.8 E0.01485
G1 X141.374 Y172.362 E0.04002
G1 X140.831 Y172.338 E0.03163
G1 X140.787 Y172.331 E0.00258
G1 X140.742 Y172.321 E0.00266
G1 X140.698 Y172.306 E0.00273
G1 X140.654 Y172.286 E0.00279
G1 X140.612 Y172.261 E0.00283
G1 X140.572 Y172.232 E0.00286
G1 X140.535 Y172.199 E0.00288
G1 X140.502 Y172.163 E0.00288
G1 X140.473 Y172.123 E0.00286
G1 X140.449 Y172.081 E0.00283
G1 X140.429 Y172.037 E0.00278
G1 X140.414 Y171.993 E0.00273
G1 X140.403 Y171.948 E0.00266
G1 X140.397 Y171.904 E0.00258
G1 X140.394 Y171.831 E0.00423
G1 X140.394 Y171.525 E0.01778
G1 X140.689 Y171.449 E0.01771
G1 E-0.75 F3000
G1 Z0.7 F18000
G1 X158.626 Y172.362
G1 Z0.3
G1 E0.75 F1800
G1 F2880
G1 X159.024 Y171.8 E0.04002
G1 X159.168 Y171.589 E0.01485
G1 X159.253 Y171.434 E0.01027
G1 X159.606 Y171.525 E0.0212
G1 X159.606 Y171.831 E0.01778
G1 X159.603 Y171.904 E0.00423
G1 X159.597 Y171.948 E0.00258
G1 X159.586 Y171.993 E0.00266
G1 X159.571 Y172.037 E0.00273
G1 X159.551 Y172.081 E0.00278
G1 X159.527 Y172.123 E0.00283
G1 X159.498 Y172.163 E0.00286
G1 X159.465 Y172.199 E0.00288
G1 X159.428 Y172.232 E0.00288
G1 X159.388 Y172.261 E0.00286
G1 X159.346 Y172.286 E0.00283
G1 X159.302 Y172.306 E0.00279
G1 X159.258 Y172.321 E0.00273
G1 X159.213 Y172.331 E0.00266
G1 X159.169 Y172.338 E0.00258
G1 X158.685 Y172.359 E0.02815
G1 E-0.75 F3000
G1 Z0.7 F18000
G1 X150 Y148.406
G1 Z0.3
G1 E0.75 F1800
G1 F3600
G1 X149.675 Y147.621 E0.04935
G1 X149.529 Y147.346 E0.01809
G1 X149.386 Y147.086 E0.01722
G1 X149.211 Y146.829 E0.01809
G1 X149.04 Y146.587 E0.01722
G1 X148.838 Y146.35 E0.01808
G1 X148.641 Y146.129 E0.01721
G1 X148.415 Y145.915 E0.01809
G1 X148.194 Y145.718 E0.01721
G1 X147.946 Y145.529 E0.01809
G1 X147.705 Y145.358 E0.01722
G1 X147.438 Y145.197 E0.01808
G1 X147.179 Y145.054 E0.01721
G1 X146.896 Y144.923 E0.01809
G1 X146.623 Y144.81 E0.01721
G1 X146.328 Y144.711 E0.01808
G1 X146.043 Y144.629 E0.01721
G1 X145.739 Y144.562 E0.01809
G1 X145.447 Y144.512 E0.01721
G1 X145.138 Y144.479 E0.01808
G1 X144.842 Y144.462 E0.01721
G1 X144.531 Y144.462 E0.01808
G1 X144.235 Y144.479 E0.01721
G1 X143.926 Y144.512 E0.01808
G1 X143.633 Y144.562 E0.01721
G1 X143.329 Y144.629 E0.01809
G1 X143.045 Y144.711 E0.01721
G1 X142.75 Y144.81 E0.01809
G1 X142.476 Y144.924 E0.01721
G1 X142.194 Y145.054 E0.01808
G1 X141.935 Y145.197 E0.01721
G1 X141.385 Y145.528 E0.03727
G1 X141.385 Y140.645 E0.28377
G1 X141.74 Y140.841 E0.02359
G1 X142.026 Y140.959 E0.01796
G1 X142.297 Y141.069 E0.017
G1 X142.593 Y141.154 E0.01792
G1 X142.876 Y141.231 E0.017
G1 X143.18 Y141.283 E0.01792
G1 X143.469 Y141.326 E0.017
G1 X143.777 Y141.344 E0.01791
G1 X144.069 Y141.352 E0.017
G1 X144.377 Y141.335 E0.01792
G1 X144.668 Y141.309 E0.017
G1 X144.972 Y141.257 E0.01791
G1 X145.259 Y141.197 E0.017
G1 X145.555 Y141.112 E0.01792
G1 X145.832 Y141.018 E0.017
G1 X146.117 Y140.9 E0.01791
G1 X146.381 Y140.774 E0.017
G1 X146.651 Y140.625 E0.01792
G1 X146.898 Y140.469 E0.017
G1 X147.149 Y140.291 E0.01791
G1 X147.377 Y140.106 E0.017
G1 X147.607 Y139.901 E0.01792
G1 X147.81 Y139.691 E0.017
G1 X148.016 Y139.461 E0.01791
G1 X148.193 Y139.229 E0.017
G1 X148.372 Y138.977 E0.01791
G1 X148.52 Y138.725 E0.017
G1 X148.67 Y138.455 E0.01792
G1 X148.787 Y138.188 E0.017
G1 X148.905 Y137.903 E0.01791
G1 X148.991 Y137.623 E0.017
G1 X149.076 Y137.327 E0.01792
G1 X149.128 Y137.039 E0.017
G1 X149.18 Y136.735 E0.01792
G1 X149.197 Y136.443 E0.017
G1 X149.214 Y136.138 E0.0177
G1 X149.197 Y135.834 E0.0177
G1 X149.18 Y135.542 E0.017
G1 X149.128 Y135.238 E0.01792
G1 X149.076 Y134.95 E0.017
G1 X148.991 Y134.654 E0.01792
G1 X148.905 Y134.374 E0.017
G1 X148.787 Y134.089 E0.01791
G1 X148.67 Y133.821 E0.017
G1 X148.52 Y133.552 E0.01792
G1 X148.372 Y133.3 E0.017
G1 X148.193 Y133.048 E0.01791
G1 X148.016 Y132.816 E0.017
G1 X147.81 Y132.586 E0.01792
G1 X147.606 Y132.376 E0.017
G1 X147.377 Y132.171 E0.01791
G1 X147.149 Y131.986 E0.017
G1 X146.898 Y131.808 E0.01791
G1 X146.651 Y131.652 E0.017
G1 X146.381 Y131.503 E0.01792
G1 X146.117 Y131.377 E0.017
G1 X145.832 Y131.259 E0.01791
G1 X145.555 Y131.165 E0.017
G1 X145.259 Y131.08 E0.01791
G1 X144.972 Y131.019 E0.017
G1 X144.668 Y130.968 E0.01792
G1 X144.377 Y130.942 E0.017
G1 X144.069 Y130.925 E0.01791
G1 X143.777 Y130.933 E0.017
G1 X143.469 Y130.951 E0.01792
G1 X143.18 Y130.994 E0.017
G1 X142.876 Y131.045 E0.01792
G1 X142.593 Y131.122 E0.017
G1 X142.297 Y131.208 E0.01792
G1 X142.026 Y131.318 E0.017
G1 X141.74 Y131.436 E0.01795
G1 X141.385 Y131.632 E0.02359
G1 X141.385 Y128.65 E0.17327
G1 X158.615 Y128.65 E1.00119
G1 X158.615 Y131.614 E0.17221
G1 X158.117 Y131.377 E0.03207
G1 X157.832 Y131.259 E0.01791
G1 X157.555 Y131.165 E0.017
G1 X157.259 Y131.08 E0.01791
G1 X156.972 Y131.019 E0.017
G1 X156.668 Y130.968 E0.01792
G1 X156.377 Y130.942 E0.017
G1 X156.069 Y130.925 E0.01791
G1 X155.777 Y130.933 E0.017
G1 X155.469 Y130.951 E0.01791
G1 X155.18 Y130.994 E0.017
G1 X154.876 Y131.045 E0.01792
G1 X154.593 Y131.122 E0.017
G1 X154.297 Y131.208 E0.01792
G1 X154.026 Y131.318 E0.017
G1 X153.74 Y131.436 E0.01795
G1 X153.221 Y131.723 E0.03449
G1 X152.97 Y131.901 E0.01788
G1 X152.732 Y132.072 E0.017
G1 X152.502 Y132.277 E0.01792
G1 X152.286 Y132.475 E0.017
G1 X152.081 Y132.704 E0.01792
G1 X151.89 Y132.926 E0.017
G1 X151.711 Y133.178 E0.01791
G1 X151.548 Y133.42 E0.017
G1 X151.399 Y133.69 E0.01792
G1 X151.265 Y133.95 E0.017
G1 X151.147 Y134.235 E0.01791
G1 X151.045 Y134.509 E0.017
G1 X150.96 Y134.806 E0.01792
G1 X150.891 Y135.09 E0.017
G1 X150.84 Y135.394 E0.01791
G1 X150.805 Y135.684 E0.01699
G1 X150.788 Y135.992 E0.01791
G1 X150.788 Y136.285 E0.017
G1 X150.805 Y136.593 E0.01791
G1 X150.84 Y136.883 E0.01699
G1 X150.891 Y137.187 E0.01791
G1 X150.96 Y137.471 E0.017
G1 X151.045 Y137.767 E0.01791
G1 X151.147 Y138.042 E0.017
G1 X151.265 Y138.327 E0.01792
G1 X151.399 Y138.587 E0.017
G1 X151.548 Y138.857 E0.01791
G1 X151.711 Y139.099 E0.017
G1 X151.89 Y139.351 E0.01792
G1 X152.081 Y139.572 E0.017
G1 X152.286 Y139.802 E0.01791
G1 X152.502 Y140 E0.017
G1 X152.732 Y140.205 E0.01792
G1 X152.97 Y140.376 E0.017
G1 X153.221 Y140.554 E0.01788
G1 X153.74 Y140.841 E0.03449
G1 X154.026 Y140.959 E0.01796
G1 X154.297 Y141.069 E0.017
G1 X154.593 Y141.154 E0.01792
G1 X154.876 Y141.231 E0.017
G1 X155.18 Y141.283 E0.01792
G1 X155.469 Y141.326 E0.017
G1 X155.777 Y141.344 E0.01791
G1 X156.069 Y141.352 E0.017
G1 X156.377 Y141.335 E0.01792
G1 X156.668 Y141.309 E0.017
G1 X156.972 Y141.257 E0.01791
G1 X157.259 Y141.197 E0.017
G1 X157.555 Y141.112 E0.01792
G1 X157.832 Y141.018 E0.017
G1 X158.117 Y140.9 E0.01791
G1 X158.615 Y140.663 E0.03207
G1 X158.615 Y145.528 E0.28272
G1 X158.065 Y145.197 E0.03727
G1 X157.806 Y145.054 E0.01721
G1 X157.524 Y144.924 E0.01808
G1 X157.25 Y144.81 E0.01721
G1 X156.955 Y144.711 E0.01809
G1 X156.671 Y144.629 E0.01721
G1 X156.367 Y144.562 E0.01808
G1 X156.075 Y144.512 E0.01722
G1 X155.765 Y144.479 E0.01809
G1 X155.469 Y144.462 E0.01721
G1 X155.158 Y144.462 E0.01808
G1 X154.862 Y144.479 E0.01721
G1 X154.553 Y144.512 E0.01809
G1 X154.261 Y144.562 E0.01721
G1 X153.957 Y144.629 E0.01809
G1 X153.672 Y144.711 E0.01721
G1 X153.377 Y144.81 E0.01808
G1 X153.104 Y144.923 E0.01721
G1 X152.821 Y145.054 E0.01809
G1 X152.562 Y145.197 E0.01721
G1 X152.295 Y145.358 E0.01809
G1 X152.054 Y145.529 E0.01721
G1 X151.806 Y145.718 E0.01808
G1 X151.585 Y145.915 E0.01721
G1 X151.359 Y146.129 E0.01809
G1 X151.162 Y146.35 E0.01721
G1 X150.96 Y146.587 E0.01808
G1 X150.789 Y146.829 E0.01722
G1 X150.614 Y147.086 E0.01809
G1 X150.471 Y147.346 E0.01722
G1 X150.325 Y147.621 E0.01809
G1 X150.023 Y148.35 E0.04587
G1 E-0.75 F3000
G1 Z0.7 F18000
G1 X159.111 Y146.662
G1 Z0.3
G1 E0.75 F1800
G1 F3600
G1 X158.707 Y146.28 E0.03232
G1 X158.506 Y146.1 E0.01565
G1 X158.28 Y145.929 E0.01647
G1 X158.061 Y145.773 E0.01565
G1 X157.818 Y145.627 E0.01647
G1 X157.582 Y145.497 E0.01565
G1 X157.325 Y145.378 E0.01647
G1 X157.076 Y145.274 E0.01565
G1 X156.807 Y145.184 E0.01647
G1 X156.549 Y145.109 E0.01565
G1 X156.272 Y145.048 E0.01646
G1 X156.006 Y145.003 E0.01566
G1 X155.724 Y144.973 E0.01647
G1 X155.455 Y144.958 E0.01565
G1 X155.172 Y144.958 E0.01647
G1 X154.903 Y144.973 E0.01565
G1 X154.621 Y145.003 E0.01647
G1 X154.356 Y145.048 E0.01565
G1 X154.079 Y145.109 E0.01647
G1 X153.82 Y145.184 E0.01565
G1 X153.552 Y145.274 E0.01647
G1 X153.303 Y145.378 E0.01565
G1 X153.046 Y145.497 E0.01647
G1 X152.81 Y145.627 E0.01565
G1 X152.567 Y145.773 E0.01647
G1 X152.347 Y145.929 E0.01565
G1 X152.122 Y146.1 E0.01647
G1 X151.921 Y146.28 E0.01565
G1 X151.715 Y146.475 E0.01647
G1 X151.535 Y146.676 E0.01565
G1 X151.352 Y146.892 E0.01647
G1 X151.196 Y147.111 E0.01566
G1 X151.037 Y147.346 E0.01647
G1 X150.907 Y147.582 E0.01565
G1 X150.774 Y147.832 E0.01647
G1 X150.671 Y148.081 E0.01565
G1 X150.566 Y148.344 E0.01647
G1 X150.491 Y148.603 E0.01566
G1 X150.415 Y148.876 E0.01647
G1 X150.37 Y149.142 E0.01566
G1 X150.325 Y149.422 E0.01647
G1 X150.309 Y149.691 E0.01565
G1 X150.297 Y149.921 E0.01342
G1 X150.297 Y150.466 E0.03162
G1 X150.297 Y150.959 E0.02868
G1 X150.297 Y151.453 E0.02868
G1 X150.297 Y152.44 E0.05736
G1 X150.297 Y152.934 E0.02868
G1 X150.297 Y153.427 E0.02868
G1 X150.297 Y153.921 E0.02868
G1 X150.297 Y154.908 E0.05736
G1 X150.297 Y155.402 E0.02868
G1 X150.297 Y156.389 E0.05736
G1 X150.297 Y156.882 E0.02868
G1 X150.297 Y157.376 E0.02868
G1 X150.297 Y157.869 E0.02868
G1 X150.297 Y158.857 E0.05736
G1 X150.297 Y159.35 E0.02868
G1 X150.297 Y159.844 E0.02868
G1 X150.297 Y160.337 E0.02868
G1 X150.297 Y161.325 E0.05736
G1 X150.297 Y161.818 E0.02868
G1 X150.297 Y162.805 E0.05736
G1 X150.297 Y163.299 E0.02868
G1 X150.297 Y163.793 E0.02868
G1 X150.297 Y164.286 E0.02868
G1 X150.297 Y165.273 E0.05736
G1 X150.297 Y165.767 E0.02868
G1 X150.297 Y166.26 E0.02868
G1 X150.297 Y166.754 E0.02868
G1 X150.297 Y167.741 E0.05736
G1 X150.297 Y168.235 E0.02868
G1 X150.297 Y168.728 E0.02868
G1 X150.297 Y169.273 E0.03162
G1 X150.309 Y169.503 E0.01343
G1 X150.324 Y169.772 E0.01565
G1 X150.37 Y170.052 E0.01647
G1 X150.415 Y170.318 E0.01566
G1 X150.491 Y170.591 E0.01647
G1 X150.566 Y170.85 E0.01565
G1 X150.671 Y171.113 E0.01647
G1 X150.774 Y171.362 E0.01566
G1 X151.03 Y171.845 E0.03178
G1 X148.97 Y171.845 E0.11971
G1 X149.226 Y171.362 E0.03179
G1 X149.329 Y171.113 E0.01566
G1 X149.434 Y170.85 E0.01647
G1 X149.509 Y170.591 E0.01565
G1 X149.585 Y170.318 E0.01647
G1 X149.63 Y170.052 E0.01566
G1 X149.676 Y169.772 E0.01647
G1 X149.691 Y169.503 E0.01565
G1 X149.703 Y169.273 E0.01342
G1 X149.703 Y168.728 E0.03162
G1 X149.703 Y168.235 E0.02868
G1 X149.703 Y167.741 E0.02868
G1 X149.703 Y166.754 E0.05736
G1 X149.703 Y166.26 E0.02868
G1 X149.703 Y165.767 E0.02868
G1 X149.703 Y165.273 E0.02868
G1 X149.703 Y164.78 E0.02868
G1 X149.703 Y164.286 E0.02868
G1 X149.703 Y163.793 E0.02868
G1 X149.703 Y163.299 E0.02868
G1 X149.703 Y162.805 E0.02868
G1 X149.703 Y161.818 E0.05736
G1 X149.703 Y161.325 E0.02868
G1 X149.703 Y160.337 E0.05736
G1 X149.703 Y159.844 E0.02868
G1 X149.703 Y159.35 E0.02868
G1 X149.703 Y158.857 E0.02868
G1 X149.703 Y158.363 E0.02868
G1 X149.703 Y157.869 E0.02868
G1 X149.703 Y157.376 E0.02868
G1 X149.703 Y156.882 E0.02868
G1 X149.703 Y156.389 E0.02868
G1 X149.703 Y155.402 E0.05736
G1 X149.703 Y154.908 E0.02868
G1 X149.703 Y153.921 E0.05736
G1 X149.703 Y153.427 E0.02868
G1 X149.703 Y152.934 E0.02868
G1 X149.703 Y152.44 E0.02868
G1 X149.703 Y151.946 E0.02868
G1 X149.703 Y151.453 E0.02868
G1 X149.703 Y150.959 E0.02868
G1 X149.703 Y150.466 E0.02868
G1 X149.703 Y149.921 E0.03162
G1 X149.691 Y149.691 E0.01342
G1 X149.675 Y149.422 E0.01565
G1 X149.63 Y149.142 E0.01647
G1 X149.585 Y148.876 E0.01566
G1 X149.509 Y148.603 E0.01647
G1 X149.434 Y148.344 E0.01565
G1 X149.329 Y148.081 E0.01647
G1 X149.226 Y147.832 E0.01565
G1 X149.093 Y147.582 E0.01647
G1 X148.963 Y147.346 E0.01565
G1 X148.804 Y147.111 E0.01647
G1 X148.648 Y146.892 E0.01566
G1 X148.465 Y146.676 E0.01647
G1 X148.285 Y146.475 E0.01565
G1 X148.079 Y146.28 E0.01647
G1 X147.878 Y146.1 E0.01565
G1 X147.653 Y145.929 E0.01647
G1 X147.433 Y145.773 E0.01566
G1 X147.19 Y145.627 E0.01647
G1 X146.954 Y145.497 E0.01565
G1 X146.697 Y145.378 E0.01647
G1 X146.448 Y145.274 E0.01565
G1 X146.18 Y145.184 E0.01647
G1 X145.921 Y145.109 E0.01565
G1 X145.644 Y145.048 E0.01647
G1 X145.379 Y145.003 E0.01565
G1 X145.097 Y144.973 E0.01647
G1 X144.828 Y144.958 E0.01565
G1 X144.545 Y144.958 E0.01647
G1 X144.276 Y144.973 E0.01565
G1 X143.994 Y145.003 E0.01647
G1 X143.728 Y145.048 E0.01565
G1 X143.451 Y145.109 E0.01647
G1 X143.193 Y145.184 E0.01565
G1 X142.924 Y145.274 E0.01647
G1 X142.675 Y145.378 E0.01565
G1 X142.418 Y145.497 E0.01647
G1 X142.182 Y145.627 E0.01565
G1 X141.939 Y145.773 E0.01647
G1 X141.72 Y145.929 E0.01565
G1 X141.494 Y146.1 E0.01647
G1 X141.293 Y146.28 E0.01565
G1 X140.889 Y146.662 E0.03233
G1 X140.889 Y139.711 E0.40393
G1 X141.485 Y140.134 E0.04242
G1 X141.956 Y140.393 E0.03125
G1 X142.214 Y140.5 E0.01624
G1 X142.459 Y140.6 E0.01538
G1 X142.727 Y140.677 E0.01621
G1 X142.983 Y140.747 E0.01539
G1 X143.258 Y140.794 E0.01621
G1 X143.52 Y140.833 E0.01538
G1 X143.798 Y140.848 E0.0162
G1 X144.063 Y140.856 E0.01538
G1 X144.341 Y140.841 E0.01621
G1 X144.605 Y140.817 E0.01538
