; generated by SuperSlicer 2.4 on 2022-06-09 at 18:27:06 UTC


;
;

;
;
; 

; external perimeters extrusion width = 0.40mm
; perimeters extrusion width = 0.48mm
; infill extrusion width = 0.60mm
; solid infill extrusion width = 0.56mm
; top infill extrusion width = 0.40mm
; first layer extrusion width = 0.48mm

; object:{"name":"e_bearing_screw","id":"e_bearing_screw.stl id:0 copy 0","object_center":[150.000000,150.000000,0.000000],"boundingbox_center":[150.000000,150.000000,4.400000],"boundingbox_size":[13.712791,13.714149,8.800000]}
; plater:{"center":[150.000000,150.000000,0.000000],"boundingbox_center":[150.000000,150.000000,4.400000],"boundingbox_size":[13.712791,13.714149,8.800000]}

;TYPE:Custom
print_start EXTRUDER=255 BED=110 CHAMBER=50
M107
G21 ; set units to millimeters
G90 ; use absolute coordinates
M83 ; use relative distances for extrusion
; Filament gcode
SET_PRESSURE_ADVANCE ADVANCE=0.055
M104 S255 ; set temperature
M109 S255 ; set temperature and wait for it to be reached
M190 S110 ; set bed temperature and wait for it to be reached
M107
;LAYER_CHANGE
;Z:0.25
;HEIGHT:0.25
;BEFORE_LAYER_CHANGE
;0.25
TIMELAPSE_TAKE_FRAME


G1 Z0.25 F36000
;AFTER_LAYER_CHANGE
;0.25
G92 E0
; INIT printing object e_bearing_screw.stl id:0 copy 0
G1 E-0.75 F3000
G1 Z0.65 F36000
; printing object e_bearing_screw.stl id:0 copy 0
M204 S1000
G1 X146.386 Y146.1
G1 Z0.25
G1 E0.75 F1800
;TYPE:External perimeter
;WIDTH:0.48
G1 F900
G1 X146.703 Y145.828 E0.01705
G1 X147.037 Y145.584 E0.01687
G1 X147.623 Y145.244 E0.02767
G1 X148.068 Y145.046 E0.01985
G1 X148.721 Y144.839 E0.02797
G1 X149.119 Y144.756 E0.01658
G1 X149.455 Y144.715 E0.01385
G1 X149.588 Y144.699 E0.00546
G1 X150.193 Y144.688 E0.02468
G1 X150.217 Y144.688 E0.00097
G1 X150.683 Y144.726 E0.01912
G1 X151.076 Y144.792 E0.01626
G1 X151.59 Y144.934 E0.02174
G1 X151.754 Y144.98 E0.00693
G1 X152.077 Y145.108 E0.01423
G1 X152.174 Y145.147 E0.00425
G1 X152.796 Y145.476 E0.02869
G1 X153.127 Y145.697 E0.01625
G1 X153.481 Y145.979 E0.01848
G1 X153.612 Y146.1 E0.00728
G1 X153.738 Y146.216 E0.00699
G1 X153.966 Y146.457 E0.01353
G1 X153.979 Y146.47 E0.00075
G1 X154.261 Y146.818 E0.0183
G1 X154.463 Y147.106 E0.01434
G1 X154.645 Y147.408 E0.01439
G1 X154.825 Y147.762 E0.01624
G1 X154.991 Y148.165 E0.01779
G1 X155.184 Y148.813 E0.02757
G1 X155.265 Y149.24 E0.01774
G1 X155.306 Y149.633 E0.01613
G1 X155.319 Y149.988 E0.0145
G1 X155.307 Y150.343 E0.01451
G1 X155.262 Y150.776 E0.01775
G1 X155.19 Y151.163 E0.01607
G1 X155.101 Y151.508 E0.01456
G1 X154.988 Y151.847 E0.01457
G1 X154.822 Y152.245 E0.01761
G1 X154.661 Y152.563 E0.01456
G1 X154.586 Y152.688 E0.00596
G1 X154.477 Y152.87 E0.00865
G1 X154.232 Y153.222 E0.0175
G1 X153.983 Y153.525 E0.01599
G1 X153.737 Y153.785 E0.01464
G1 X153.472 Y154.028 E0.01465
G1 X153.14 Y154.293 E0.01736
G1 X152.816 Y154.512 E0.01593
G1 X152.477 Y154.707 E0.01598
G1 X152.152 Y154.864 E0.0147
G1 X151.95 Y154.946 E0.00892
G1 X151.836 Y154.992 E0.00502
G1 X151.29 Y155.158 E0.02329
G1 X150.725 Y155.268 E0.02347
G1 X150.672 Y155.274 E0.00221
G1 X150.355 Y155.306 E0.013
G1 X149.785 Y155.312 E0.02326
G1 X149.212 Y155.259 E0.02346
G1 X149.029 Y155.225 E0.00761
G1 X148.845 Y155.191 E0.00761
G1 X148.297 Y155.037 E0.02325
G1 X147.943 Y154.895 E0.01556
G1 X147.766 Y154.825 E0.00778
G1 X147.262 Y154.558 E0.02325
G1 X146.949 Y154.355 E0.01523
G1 X146.498 Y154 E0.02346
G1 X146.091 Y153.605 E0.02312
G1 X145.728 Y153.163 E0.02334
G1 X145.413 Y152.688 E0.02326
G1 X145.282 Y152.447 E0.01121
G1 X145.235 Y152.36 E0.004
G1 X145.01 Y151.831 E0.02347
G1 X144.841 Y151.287 E0.02327
G1 X144.763 Y150.923 E0.01519
G1 X144.697 Y150.351 E0.02348
G1 X144.687 Y149.785 E0.02312
G1 X144.744 Y149.216 E0.02334
G1 X144.855 Y148.657 E0.02328
G1 X144.962 Y148.299 E0.01524
G1 X145.145 Y147.836 E0.02031
G1 X145.366 Y147.408 E0.01967
G1 X145.438 Y147.268 E0.00642
G1 X145.671 Y146.912 E0.01734
G1 X145.929 Y146.581 E0.01714
G1 X146.344 Y146.143 E0.02462
;WIPE_START
M204 S1500
G1 X146.767 Y146.22 F36000
;WIPE_END
G1 E-0.75 F3000
G1 Z0.65 F36000
M204 S1000
G1 X151.129 Y145.659
G1 Z0.25
G1 E0.75 F1800
G1 F900
G1 X148.873 Y145.659 E0.09206
G1 X148.873 Y154.341 E0.35431
G1 X151.129 Y154.341 E0.09206
G1 X151.129 Y145.719 E0.35186
;WIPE_START
M204 S1500
G1 X151.129 Y145.259 F36000
;WIPE_END
G1 X146.68 Y146.409
;TYPE:Internal perimeter
G1 F900
G1 X146.967 Y146.162 E0.01548
G1 X147.27 Y145.942 E0.01528
G1 X147.818 Y145.624 E0.02583
G1 X148.447 Y145.344 E0.02811
G1 X148.447 Y154.637 E0.37929
G1 X147.945 Y154.437 E0.02204
G1 X147.479 Y154.19 E0.02154
G1 X147.198 Y154.008 E0.01367
G1 X146.779 Y153.678 E0.02176
G1 X146.405 Y153.315 E0.02125
G1 X146.071 Y152.909 E0.02148
G1 X145.778 Y152.469 E0.02157
G1 X145.62 Y152.175 E0.01361
G1 X145.411 Y151.684 E0.02179
G1 X145.254 Y151.179 E0.02159
G1 X145.185 Y150.854 E0.01358
G1 X145.123 Y150.323 E0.0218
G1 X145.114 Y149.802 E0.02125
G1 X145.166 Y149.279 E0.02148
G1 X145.269 Y148.759 E0.02161
G1 X145.365 Y148.438 E0.01368
G1 X145.533 Y148.012 E0.01869
G1 X145.807 Y147.483 E0.02432
G1 X146.018 Y147.16 E0.01574
G1 X146.252 Y146.859 E0.01557
G1 X146.638 Y146.453 E0.02287
G1 X146.974 Y146.719 F36000
G1 F900
G1 X147.232 Y146.497 E0.0139
G1 X147.503 Y146.3 E0.01369
G1 X148.02 Y145.999 E0.0244
G1 X148.02 Y153.995 E0.32631
G1 X147.695 Y153.822 E0.01503
G1 X147.446 Y153.661 E0.01211
G1 X147.06 Y153.357 E0.02005
G1 X146.72 Y153.026 E0.01938
G1 X146.414 Y152.655 E0.01962
G1 X146.144 Y152.249 E0.01988
G1 X146.005 Y151.99 E0.01202
G1 X145.812 Y151.537 E0.0201
G1 X145.667 Y151.071 E0.01991
G1 X145.606 Y150.784 E0.01196
G1 X145.549 Y150.295 E0.02013
G1 X145.541 Y149.82 E0.01938
G1 X145.588 Y149.342 E0.01962
G1 X145.684 Y148.862 E0.01995
G1 X145.769 Y148.578 E0.01212
G1 X145.922 Y148.189 E0.01706
G1 X146.176 Y147.698 E0.02255
G1 X146.365 Y147.408 E0.01415
G1 X146.576 Y147.137 E0.01399
G1 X146.932 Y146.762 E0.02112
G1 X147.268 Y147.028 F36000
G1 F900
G1 X147.594 Y146.748 E0.01754
G1 X147.594 Y153.282 E0.26665
G1 X147.034 Y152.737 E0.03191
G1 X146.757 Y152.401 E0.01776
G1 X146.51 Y152.03 E0.01819
G1 X146.389 Y151.805 E0.01042
G1 X146.212 Y151.39 E0.01841
G1 X146.08 Y150.963 E0.01823
G1 X146.027 Y150.715 E0.01035
G1 X145.975 Y150.266 E0.01845
G1 X145.967 Y149.838 E0.0175
G1 X146.01 Y149.404 E0.01776
G1 X146.098 Y148.965 E0.01828
G1 X146.172 Y148.717 E0.01055
G1 X146.311 Y148.365 E0.01543
G1 X146.544 Y147.913 E0.02077
G1 X146.713 Y147.656 E0.01255
G1 X146.899 Y147.416 E0.01242
G1 X147.227 Y147.072 E0.01938
G1 E-0.75 F3000
G1 Z0.65 F36000
G1 X151.555 Y147.072
G1 Z0.25
G1 E0.75 F1800
G1 F900
G1 X151.555 Y145.359 E0.06989
G1 X151.995 Y145.534 E0.01933
G1 X152.577 Y145.842 E0.02685
G1 X152.875 Y146.042 E0.01464
G1 X153.198 Y146.299 E0.01683
G1 X153.663 Y146.757 E0.02665
G1 X153.916 Y147.069 E0.01641
G1 X154.275 Y147.621 E0.02688
G1 X154.438 Y147.94 E0.01462
G1 X154.589 Y148.307 E0.0162
G1 X154.769 Y148.913 E0.0258
G1 X154.842 Y149.302 E0.01615
G1 X154.88 Y149.656 E0.01451
G1 X154.881 Y150.321 E0.02716
G1 X154.84 Y150.714 E0.01614
G1 X154.775 Y151.063 E0.01447
G1 X154.585 Y151.704 E0.02728
G1 X154.437 Y152.06 E0.01573
G1 X154.115 Y152.645 E0.02728
G1 X153.892 Y152.965 E0.0159
G1 X153.668 Y153.237 E0.01439
G1 X153.189 Y153.709 E0.02744
G1 X152.887 Y153.95 E0.01577
G1 X152.591 Y154.15 E0.01461
G1 X152.277 Y154.33 E0.01473
G1 X151.98 Y154.474 E0.01351
G1 X151.555 Y154.645 E0.01868
G1 X151.555 Y147.132 E0.30664
G1 X151.981 Y147.132 F36000
G1 F900
G1 X151.981 Y146.009 E0.04581
G1 X152.358 Y146.209 E0.01738
G1 X152.623 Y146.386 E0.01303
G1 X152.914 Y146.618 E0.01519
G1 X153.346 Y147.044 E0.02477
G1 X153.571 Y147.32 E0.01453
G1 X153.905 Y147.835 E0.02505
G1 X154.05 Y148.119 E0.013
G1 X154.186 Y148.45 E0.0146
G1 X154.354 Y149.014 E0.02403
G1 X154.42 Y149.364 E0.01456
G1 X154.454 Y149.678 E0.01289
G1 X154.455 Y150.299 E0.02533
G1 X154.418 Y150.653 E0.01453
G1 X154.36 Y150.963 E0.01287
G1 X154.183 Y151.561 E0.02544
G1 X154.053 Y151.874 E0.01385
G1 X153.752 Y152.419 E0.02541
G1 X153.552 Y152.707 E0.0143
G1 X153.353 Y152.949 E0.01278
G1 X152.906 Y153.389 E0.02561
G1 X152.634 Y153.606 E0.01417
G1 X152.365 Y153.788 E0.01328
G1 X151.981 Y154.008 E0.01804
G1 X151.981 Y147.192 E0.27819
G1 X152.408 Y147.192 F36000
G1 F900
G1 X152.408 Y146.717 E0.01936
G1 X153.03 Y147.331 E0.03568
G1 X153.226 Y147.572 E0.01264
G1 X153.536 Y148.049 E0.02321
G1 X153.662 Y148.297 E0.01138
G1 X153.784 Y148.592 E0.01301
G1 X153.939 Y149.115 E0.02226
G1 X153.998 Y149.427 E0.01297
G1 X154.028 Y149.701 E0.01128
G1 X154.028 Y150.277 E0.0235
G1 X153.996 Y150.592 E0.01292
G1 X153.945 Y150.863 E0.01126
G1 X153.781 Y151.418 E0.02361
G1 X153.668 Y151.689 E0.01197
G1 X153.39 Y152.194 E0.02354
G1 X153.212 Y152.449 E0.0127
G1 X153.038 Y152.661 E0.01118
G1 X152.408 Y153.281 E0.03609
G1 X152.408 Y147.252 E0.24609
G1 X152.604 Y147.186 F36000
;TYPE:Gap fill
;WIDTH:0.11125
G1 F900
G1 X152.627 Y147.241 E0.00033
;WIDTH:0.19986
G1 X152.696 Y147.406 E0.00251
;WIDTH:0.332774
G1 X152.765 Y147.572 E0.0048
;WIDTH:0.443191
G1 X152.831 Y147.758 E0.00737
;WIDTH:0.522103
G1 X152.852 Y147.812 E0.0026
;WIDTH:0.584073
G1 X152.909 Y147.973 E0.00864
G1 X152.583 Y148.093 F36000
;TYPE:Solid infill
;WIDTH:0.494305
G1 F1200
G1 X153.695 Y149.205 E0.06609
G1 X153.719 Y149.832 E0.02637
G1 X152.655 Y148.768 E0.06325
G1 X152.655 Y149.371 E0.02534
G1 X153.743 Y150.459 E0.06467
G1 X153.747 Y150.552 E0.0039
G1 X153.606 Y150.924 E0.01675
G1 X152.655 Y149.974 E0.0565
G1 X152.655 Y150.577 E0.02534
G1 X153.44 Y151.362 E0.04666
G1 X153.275 Y151.799 E0.01966
G1 X152.472 Y150.996 E0.04772
G1 X152.621 Y151.72 F36000
;TYPE:Gap fill
;WIDTH:0.386434
G1 F900
G1 X152.772 Y151.821 E0.00579
;WIDTH:0.334556
G1 X152.887 Y151.888 E0.0036
;WIDTH:0.252377
G1 X153.003 Y151.956 E0.00254
;WIDTH:0.164771
G1 X153.16 Y152.047 E0.00193
G1 X153.295 Y148.425 F36000
;WIDTH:0.14965
G1 F900
G1 X153.227 Y148.332 E0.00106
;WIDTH:0.197543
G1 X153.16 Y148.239 E0.00158
;WIDTH:0.245436
G1 X153.092 Y148.146 E0.00211
;WIDTH:0.306051
G1 X153.025 Y148.054 E0.00277
G1 X152.954 Y147.951 E0.00302
G1 X152.897 Y152.007 F36000
;WIDTH:0.625458
G1 F900
G1 X152.846 Y152.183 E0.01004
;WIDTH:0.51187
G1 X152.833 Y152.227 E0.00201
;WIDTH:0.467967
G1 X152.783 Y152.374 E0.00617
;WIDTH:0.38016
G1 X152.767 Y152.424 E0.00162
;WIDTH:0.335342
G1 X152.697 Y152.591 E0.00489
;WIDTH:0.200887
G1 X152.627 Y152.758 E0.00255
;WIDTH:0.11125
G1 X152.604 Y152.814 E0.00033
G1 X151.242 Y154.967 F36000
;WIDTH:0.236813
G1 F900
G1 X151.205 Y154.818 E0.00271
;WIDTH:0.431875
G1 X151.135 Y154.76 E0.00326
;WIDTH:0.501374
G1 X150.896 Y154.784 E0.0103
;WIDTH:0.594346
G1 X150.657 Y154.807 E0.01244
G1 X150.492 Y154.815 E0.00853
;WIDTH:0.63348
G1 X150.327 Y154.824 E0.00915
G1 X150.066 Y154.825 E0.01451
G1 X149.805 Y154.826 E0.01451
G1 X149.54 Y154.814 E0.01469
;WIDTH:0.584274
G1 X149.276 Y154.802 E0.01344
G1 X149.11 Y154.786 E0.00849
;WIDTH:0.501732
G1 X148.943 Y154.771 E0.00717
G1 X148.867 Y154.76 E0.00332
G1 X148.643 Y154.73 E0.0097
G1 X147.398 Y152.818 F36000
;WIDTH:0.150454
G1 F900
G1 X147.335 Y152.668 E0.00151
;WIDTH:0.268065
G1 X147.271 Y152.518 E0.00334
;WIDTH:0.327097
G1 X147.238 Y152.426 E0.00256
;WIDTH:0.446073
G1 X147.172 Y152.242 E0.00735
;WIDTH:0.523708
G1 X147.145 Y152.166 E0.00363
;WIDTH:0.59015
G1 X147.099 Y152.027 E0.0075
G1 X147.53 Y148.981 F36000
;TYPE:Solid infill
;WIDTH:0.457665
G1 F1200
G1 X146.724 Y148.175 E0.04436
G1 X146.585 Y148.638 E0.01884
G1 X147.347 Y149.4 E0.04192
G1 X147.347 Y150.003 E0.02346
G1 X146.446 Y149.102 E0.04958
G1 X146.307 Y149.566 E0.01884
G1 X147.347 Y150.606 E0.05723
G1 X147.347 Y151.209 E0.02346
G1 X146.287 Y150.149 E0.05832
G1 X146.452 Y150.917 E0.03054
G1 X147.3 Y151.765 E0.04669
G1 X147.027 Y151.834 E0.01097
G1 X146.852 Y151.92 E0.00757
G1 X146.377 Y151.446 E0.02614
G1 X147.381 Y148.274 F36000
;TYPE:Gap fill
;WIDTH:0.397109
G1 F900
G1 X147.226 Y148.173 E0.00608
;WIDTH:0.341401
G1 X147.109 Y148.105 E0.00373
;WIDTH:0.256179
G1 X146.991 Y148.038 E0.00262
;WIDTH:0.165378
G1 X146.832 Y147.947 E0.00196
G1 X147.109 Y147.987 F36000
;WIDTH:0.618151
G1 F900
G1 X147.158 Y147.811 E0.00987
;WIDTH:0.487664
G1 X147.202 Y147.666 E0.00632
;WIDTH:0.397672
G1 X147.276 Y147.482 E0.00652
;WIDTH:0.254461
G1 X147.349 Y147.298 E0.00381
;WIDTH:0.135119
G1 X147.398 Y147.176 E0.00103
G1 X148.655 Y145.065 F36000
;WIDTH:0.397125
G1 F900
G1 X148.814 Y145.195 E0.00675
;WIDTH:0.450742
G1 X148.868 Y145.238 E0.00263
;WIDTH:0.504358
G1 X149.03 Y145.221 E0.00704
;WIDTH:0.571496
G1 X149.192 Y145.205 E0.00808
G1 X149.407 Y145.192 E0.01065
;WIDTH:0.63337
G1 X149.621 Y145.179 E0.01192
G1 X149.911 Y145.176 E0.01609
G1 X150.201 Y145.174 E0.01609
G1 X150.413 Y145.182 E0.01178
;WIDTH:0.598886
G1 X150.625 Y145.191 E0.01108
G1 X150.803 Y145.206 E0.00932
;WIDTH:0.539304
G1 X150.981 Y145.221 E0.0083
;WIDTH:0.496746
G1 X151.138 Y145.242 E0.0067
G1 X151.359 Y145.272 E0.00948
; INIT stop printing object e_bearing_screw.stl id:0 copy 0
M106 S150.45
;LAYER_CHANGE
;Z:0.45
;HEIGHT:0.2
;BEFORE_LAYER_CHANGE
;0.45
TIMELAPSE_TAKE_FRAME


; stop printing object e_bearing_screw.stl id:0 copy 0
G1 Z0.45 F36000
;AFTER_LAYER_CHANGE
;0.45
G92 E0
M104 S250 ; set temperature
; INIT printing object e_bearing_screw.stl id:0 copy 0
; printing object e_bearing_screw.stl id:0 copy 0
G1 X147.703 Y146.28
;TYPE:Internal perimeter
;WIDTH:0.48
G1 F2555
G1 X147.703 Y153.573 E0.24409
G1 X147.274 Y153.261 E0.01774
G1 X147.059 Y153.069 E0.00965
G1 X146.826 Y152.825 E0.01129
G1 X146.474 Y152.372 E0.01921
G1 X146.311 Y152.11 E0.01032
G1 X146.057 Y151.583 E0.01959
G1 X145.951 Y151.291 E0.01038
G1 X145.809 Y150.705 E0.0202
G1 X145.769 Y150.395 E0.01046
G1 X145.756 Y149.805 E0.01975
G1 X145.822 Y149.228 E0.01943
G1 X145.893 Y148.912 E0.01083
G1 X146.084 Y148.35 E0.01988
G1 X146.223 Y148.052 E0.01101
G1 X146.489 Y147.605 E0.0174
G1 X146.978 Y146.948 E0.02742
G1 X147.213 Y146.676 E0.01203
G1 X147.656 Y146.318 E0.01907
M106 S150.45
G1 X147.43 Y145.973 F36000
G1 F2555
G1 X147.567 Y145.883 E0.00548
G1 X148.14 Y145.578 E0.02172
G1 X148.14 Y154.293 E0.29172
G1 X147.816 Y154.147 E0.01189
G1 X147.484 Y153.954 E0.01285
G1 X147 Y153.601 E0.02007
G1 X146.755 Y153.383 E0.01095
G1 X146.495 Y153.111 E0.01263
G1 X146.115 Y152.622 E0.02073
G1 X145.928 Y152.321 E0.01185
G1 X145.654 Y151.753 E0.02112
G1 X145.532 Y151.417 E0.01193
G1 X145.379 Y150.784 E0.0218
G1 X145.333 Y150.428 E0.01203
G1 X145.318 Y149.785 E0.02153
G1 X145.39 Y149.155 E0.02121
G1 X145.471 Y148.794 E0.0124
G1 X145.678 Y148.187 E0.02147
G1 X145.837 Y147.847 E0.01254
G1 X146.125 Y147.363 E0.01888
G1 X146.637 Y146.674 E0.0287
G1 X146.908 Y146.361 E0.01388
G1 X147.211 Y146.116 E0.01305
G1 X147.38 Y146.005 E0.00675
M106 S150.45
G1 E-0.75 F3000
G1 Z0.85 F36000
G1 X152.299 Y146.31
G1 Z0.45
G1 E0.75 F1800
G1 F2555
G1 X152.613 Y146.529 E0.01282
G1 X153 Y146.857 E0.01699
G1 X153.229 Y147.092 E0.01098
G1 X153.513 Y147.445 E0.01516
G1 X153.789 Y147.873 E0.01705
G1 X153.941 Y148.167 E0.01108
G1 X154.067 Y148.468 E0.01092
G1 X154.219 Y148.967 E0.01745
G1 X154.303 Y149.394 E0.01458
G1 X154.337 Y149.72 E0.01098
G1 X154.345 Y150.042 E0.01079
G1 X154.306 Y150.579 E0.01801
G1 X154.254 Y150.889 E0.01054
G1 X154.149 Y151.29 E0.01385
G1 X153.958 Y151.793 E0.018
G1 X153.817 Y152.078 E0.01067
G1 X153.651 Y152.357 E0.01085
G1 X153.415 Y152.684 E0.01349
G1 X153.052 Y153.093 E0.01831
G1 X152.822 Y153.305 E0.01048
G1 X152.299 Y153.719 E0.02232
G1 X152.299 Y146.37 E0.24598
M106 S150.45
G1 X151.862 Y145.76 F36000
G1 F2555
G1 X151.862 Y145.593 E0.0056
G1 X152.236 Y145.772 E0.01388
G1 X152.571 Y145.966 E0.01296
G1 X152.88 Y146.182 E0.01262
G1 X153.299 Y146.537 E0.01838
G1 X153.556 Y146.802 E0.01236
G1 X153.868 Y147.189 E0.01662
G1 X154.168 Y147.654 E0.01853
G1 X154.337 Y147.982 E0.01237
G1 X154.478 Y148.319 E0.01223
G1 X154.643 Y148.86 E0.01892
G1 X154.736 Y149.329 E0.016
G1 X154.774 Y149.692 E0.01223
G1 X154.782 Y150.053 E0.01207
G1 X154.741 Y150.632 E0.01942
G1 X154.681 Y150.982 E0.01189
G1 X154.566 Y151.423 E0.01527
G1 X154.359 Y151.967 E0.01949
G1 X154.201 Y152.287 E0.01194
G1 X154.017 Y152.597 E0.01206
G1 X153.757 Y152.958 E0.01488
G1 X153.364 Y153.399 E0.01978
