; generated by SuperSlicer 2.4 on 2022-06-13 at 04:24:04 UTC


;
;

;
;
; 

; external perimeters extrusion width = 0.40mm
; perimeters extrusion width = 0.48mm
; infill extrusion width = 0.60mm
; solid infill extrusion width = 0.56mm
; top infill extrusion width = 0.40mm
; first layer extrusion width = 0.48mm

; external perimeters extrusion width = 0.40mm
; perimeters extrusion width = 0.48mm
; infill extrusion width = 0.60mm
; solid infill extrusion width = 0.56mm
; top infill extrusion width = 0.40mm
; first layer extrusion width = 0.48mm

; object:{"name":"e_groove_mount","id":"e_groove_mount.stl id:0 copy 0","object_center":[159.000001,150.000000,0.000000],"boundingbox_center":[159.000001,150.000000,4.500000],"boundingbox_size":[15.784645,15.893448,9.000000]}
; object:{"name":"x_end_idler_tensioner","id":"x_end_idler_tensioner.stl id:1 copy 0","object_center":[141.107679,150.000001,0.000000],"boundingbox_center":[141.107679,150.000001,13.799999],"boundingbox_size":[16.000000,27.500000,27.599998]}
; plater:{"center":[150.000001,150.000001,0.000000],"boundingbox_center":[150.000001,150.000001,13.799999],"boundingbox_size":[33.784645,27.500000,27.599998]}

;TYPE:Custom
print_start EXTRUDER=255 BED=110 CHAMBER=50
M107
G21 ; set units to millimeters
G90 ; use absolute coordinates
M83 ; use relative distances for extrusion
; Filament gcode
SET_PRESSURE_ADVANCE ADVANCE=0.055
M104 S255 ; set temperature
M109 S255 ; set temperature and wait for it to be reached
M190 S110 ; set bed temperature and wait for it to be reached
M107
;LAYER_CHANGE
;Z:0.25
;HEIGHT:0.25
;BEFORE_LAYER_CHANGE
;0.25
TIMELAPSE_TAKE_FRAME


G1 Z0.25 F36000
;AFTER_LAYER_CHANGE
;0.25
G92 E0
; INIT printing object e_groove_mount.stl id:0 copy 0
G1 E-0.75 F3000
G1 Z0.65 F36000
; printing object e_groove_mount.stl id:0 copy 0
M204 S1000
G1 X153.412 Y145.118
G1 Z0.25
G1 E0.75 F1800
;TYPE:External perimeter
;WIDTH:0.48
G1 F900
G1 X153.92 Y144.584 E0.0301
G1 X154.185 Y144.355 E0.01428
G1 X154.42 Y144.152 E0.01267
G1 X155.019 Y143.722 E0.0301
G1 X155.59 Y143.39 E0.02695
G1 X156.259 Y143.079 E0.0301
G1 X156.881 Y142.86 E0.02695
G1 X157.596 Y142.679 E0.0301
G1 X158.252 Y142.579 E0.02708
G1 X158.714 Y142.543 E0.01893
G1 X158.975 Y142.539 E0.01063
G1 X159.177 Y142.536 E0.00826
G1 X159.501 Y142.557 E0.01324
G1 X159.547 Y142.56 E0.00189
G1 X159.58 Y142.563 E0.00136
G1 X159.915 Y142.585 E0.0137
G1 X160.188 Y142.628 E0.01129
G1 X160.567 Y142.689 E0.01566
G1 X161.281 Y142.874 E0.0301
G1 X161.902 Y143.098 E0.02695
G1 X162.089 Y143.186 E0.0084
G1 X162.569 Y143.413 E0.02169
G1 X163.141 Y143.75 E0.02709
G1 X163.518 Y144.013 E0.01877
G1 X163.709 Y144.172 E0.01013
G1 X164.088 Y144.486 E0.02007
G1 X164.557 Y144.95 E0.02695
G1 X165.026 Y145.519 E0.0301
G1 X165.401 Y146.063 E0.02695
G1 X165.524 Y146.287 E0.01045
G1 X165.756 Y146.709 E0.01965
G1 X166.025 Y147.316 E0.0271
G1 X166.178 Y147.753 E0.0189
G1 X166.304 Y148.202 E0.01902
G1 X166.4 Y148.646 E0.01855
G1 X166.405 Y148.715 E0.00282
G1 X166.372 Y148.867 E0.00636
G1 X166.317 Y148.958 E0.00434
G1 X166.274 Y149.001 E0.00247
G1 X166.221 Y149.035 E0.00257
G1 X166.119 Y149.072 E0.00445
G1 X166.012 Y149.076 E0.00434
G1 X165.875 Y149.047 E0.00573
G1 X165.762 Y148.988 E0.00521
G1 X165.707 Y148.941 E0.00296
G1 X165.649 Y148.864 E0.00391
G1 X165.578 Y148.499 E0.0152
G1 X165.458 Y148.051 E0.01891
G1 X165.308 Y147.613 E0.01891
G1 X165.126 Y147.182 E0.01909
G1 X164.78 Y146.539 E0.0298
G1 X164.612 Y146.287 E0.01235
G1 X164.419 Y145.997 E0.01424
G1 X164.337 Y145.895 E0.00535
G1 X164.127 Y145.633 E0.0137
G1 X164.022 Y145.519 E0.00632
G1 X163.809 Y145.289 E0.01276
G1 X163.432 Y144.95 E0.02072
G1 X163.266 Y144.801 E0.0091
G1 X162.741 Y144.415 E0.0266
G1 X162.343 Y144.172 E0.01904
G1 X162.166 Y144.08 E0.00815
G1 X161.928 Y143.957 E0.01091
G1 X161.252 Y143.681 E0.02983
G1 X160.732 Y143.527 E0.02211
G1 X160.623 Y143.495 E0.00465
G1 X159.901 Y143.364 E0.02995
G1 X159.502 Y143.333 E0.01633
G1 X159.247 Y143.312 E0.01043
G1 X159.22 Y143.313 E0.00109
G1 X158.514 Y143.333 E0.02886
G1 X157.863 Y143.417 E0.02676
G1 X157.15 Y143.588 E0.02995
G1 X156.531 Y143.806 E0.02676
G1 X155.87 Y144.118 E0.02984
G1 X155.468 Y144.355 E0.01905
G1 X155.083 Y144.618 E0.01902
G1 X154.613 Y145.004 E0.02483
G1 X154.579 Y145.032 E0.00178
G1 X154.063 Y145.549 E0.02983
G1 X153.764 Y145.908 E0.01907
G1 X153.492 Y146.287 E0.01903
G1 X153.159 Y146.847 E0.0266
G1 X152.848 Y147.509 E0.02982
G1 X152.69 Y147.948 E0.01907
G1 X152.562 Y148.397 E0.01905
G1 X152.44 Y149.037 E0.02659
G1 X152.371 Y149.764 E0.02981
G1 X152.371 Y150.232 E0.01908
G1 X152.403 Y150.694 E0.01891
G1 X152.467 Y151.153 E0.01891
G1 X152.564 Y151.61 E0.01908
G1 X152.781 Y152.308 E0.02981
G1 X153.033 Y152.909 E0.02659
G1 X153.25 Y153.321 E0.01904
G1 X153.496 Y153.719 E0.01907
G1 X153.784 Y154.1 E0.01948
G1 X153.935 Y154.3 E0.01026
G1 X154.247 Y154.647 E0.01902
G1 X154.58 Y154.969 E0.01891
G1 X154.934 Y155.267 E0.0189
G1 X155.309 Y155.54 E0.01891
G1 X155.701 Y155.786 E0.0189
G1 X156.11 Y156.005 E0.01891
G1 X156.532 Y156.194 E0.01891
G1 X156.756 Y156.277 E0.00972
G1 X156.967 Y156.354 E0.00918
G1 X157.412 Y156.484 E0.01891
G1 X157.864 Y156.582 E0.01891
G1 X157.914 Y156.59 E0.00205
G1 X158.323 Y156.649 E0.01686
G1 X158.513 Y156.664 E0.00779
G1 X158.785 Y156.684 E0.01112
G1 X158.811 Y156.685 E0.00107
G1 X159.248 Y156.687 E0.01784
G1 X159.369 Y156.68 E0.00495
G1 X159.71 Y156.658 E0.01396
G1 X159.987 Y156.621 E0.01138
G1 X160.17 Y156.597 E0.00753
G1 X160.624 Y156.504 E0.01891
G1 X160.66 Y156.494 E0.00155
G1 X161.07 Y156.381 E0.01736
G1 X161.507 Y156.226 E0.01891
G1 X161.932 Y156.042 E0.01891
G1 X162.343 Y155.828 E0.01891
G1 X162.426 Y155.778 E0.00396
G1 X162.739 Y155.587 E0.01495
G1 X163.117 Y155.319 E0.01891
G1 X163.274 Y155.19 E0.00833
G1 X163.477 Y155.023 E0.01071
G1 X163.811 Y154.697 E0.01905
G1 X163.943 Y154.567 E0.00754
G1 X164.414 Y154.009 E0.02981
G1 X164.681 Y153.625 E0.01908
G1 X164.919 Y153.228 E0.01891
G1 X165.08 Y152.909 E0.01459
G1 X165.13 Y152.81 E0.00449
G1 X165.397 Y152.131 E0.0298
G1 X165.547 Y151.61 E0.02211
G1 X165.577 Y151.505 E0.00448
G1 X165.649 Y151.136 E0.01534
G1 X165.707 Y151.059 E0.00391
G1 X165.767 Y151.008 E0.00325
G1 X165.79 Y150.995 E0.00105
G1 X165.837 Y150.968 E0.00222
G1 X165.866 Y150.958 E0.00127
G1 X165.96 Y150.929 E0.004
G1 X166.078 Y150.924 E0.00484
G1 X166.187 Y150.95 E0.00456
G1 X166.271 Y150.999 E0.00396
G1 X166.339 Y151.075 E0.00416
G1 X166.389 Y151.175 E0.00454
G1 X166.406 Y151.281 E0.00438
G1 X166.403 Y151.317 E0.0015
G1 X166.4 Y151.354 E0.0015
G1 X166.304 Y151.798 E0.01855
G1 X166.179 Y152.244 E0.0189
G1 X165.998 Y152.733 E0.02128
G1 X165.948 Y152.866 E0.00582
G1 X165.634 Y153.534 E0.0301
G1 X165.294 Y154.1 E0.02695
G1 X164.861 Y154.697 E0.03009
G1 X164.422 Y155.19 E0.02695
G1 X163.885 Y155.695 E0.0301
G1 X163.362 Y156.098 E0.02695
G1 X162.74 Y156.494 E0.0301
G1 X162.151 Y156.793 E0.02695
G1 X161.466 Y157.066 E0.0301
G1 X160.832 Y157.251 E0.02695
G1 X160.106 Y157.391 E0.03019
G1 X160.027 Y157.4 E0.00325
G1 X159.648 Y157.442 E0.01554
G1 X159.279 Y157.454 E0.01507
G1 X158.985 Y157.464 E0.012
G1 X158.249 Y157.421 E0.0301
G1 X158.208 Y157.415 E0.00169
G1 X157.596 Y157.321 E0.02526
G1 X156.881 Y157.14 E0.0301
G1 X156.259 Y156.921 E0.02695
G1 X155.59 Y156.61 E0.0301
G1 X155.016 Y156.277 E0.02709
G1 X154.634 Y156.014 E0.01892
G1 X154.27 Y155.728 E0.01888
G1 X153.728 Y155.225 E0.0302
G1 X153.283 Y154.732 E0.02709
G1 X153.001 Y154.364 E0.01891
G1 X152.822 Y154.1 E0.01303
G1 X152.742 Y153.981 E0.00585
G1 X152.577 Y153.686 E0.01378
G1 X152.381 Y153.335 E0.01643
G1 X152.11 Y152.733 E0.02694
G1 X151.877 Y152.033 E0.0301
G1 X151.723 Y151.391 E0.02694
G1 X151.689 Y151.136 E0.01052
G1 X151.625 Y150.66 E0.01958
G1 X151.592 Y150 E0.02698
G1 X151.625 Y149.34 E0.02698
G1 X151.723 Y148.606 E0.03022
G1 X151.824 Y148.155 E0.01886
G1 X151.952 Y147.71 E0.0189
G1 X152.186 Y147.088 E0.0271
G1 X152.506 Y146.421 E0.03021
G1 X152.584 Y146.287 E0.00633
G1 X152.74 Y146.022 E0.01255
G1 X152.999 Y145.638 E0.01891
G1 X153.375 Y145.165 E0.02464
;WIPE_START
M204 S1500
G1 X153.804 Y145.2 F36000
;WIPE_END
G1 E-0.75 F3000
G1 Z0.65 F36000
G1 X166.178 Y148.801
G1 Z0.25
G1 E0.75 F1800
;TYPE:Gap fill
;WIDTH:0.36004
G1 F900
G1 X166.057 Y148.715 E0.00435
;WIDTH:0.439881
G1 X165.982 Y148.544 E0.00689
G1 X165.956 Y148.418 E0.00476
G1 X165.926 Y148.296 E0.00466
G1 X165.83 Y147.945 E0.01346
G1 X165.807 Y147.87 E0.00288
G1 X165.74 Y147.675 E0.00762
G1 X165.672 Y147.481 E0.00762
G1 X165.664 Y147.459 E0.00085
G1 X165.57 Y147.242 E0.00876
G1 X165.476 Y147.024 E0.00876
G1 X165.407 Y146.882 E0.00585
G1 X165.261 Y146.615 E0.01125
G1 X165.116 Y146.347 E0.01125
G1 X165.068 Y146.268 E0.00343
G1 X164.902 Y146.022 E0.01099
G1 X164.735 Y145.776 E0.01099
G1 X164.718 Y145.752 E0.00108
G1 X164.569 Y145.57 E0.00869
G1 X164.421 Y145.388 E0.00869
G1 X164.341 Y145.295 E0.00452
G1 X164.269 Y145.213 E0.00404
G1 X164.177 Y145.118 E0.0049
G1 X164.085 Y145.023 E0.0049
G1 X163.948 Y144.893 E0.00695
G1 X163.824 Y144.776 E0.0063
G1 X163.67 Y144.643 E0.00755
G1 X163.515 Y144.51 E0.00755
G1 X163.391 Y144.412 E0.00585
G1 X163.28 Y144.325 E0.00518
G1 X163.122 Y144.212 E0.0072
G1 X162.964 Y144.098 E0.0072
G1 X162.931 Y144.076 E0.00145
G1 X162.734 Y143.958 E0.00849
G1 X162.537 Y143.84 E0.00849
G1 X162.387 Y143.757 E0.00636
G1 X162.242 Y143.685 E0.00599
G1 X162.097 Y143.613 E0.00599
G1 X161.916 Y143.533 E0.00729
G1 X161.752 Y143.461 E0.00665
G1 X161.57 Y143.391 E0.00721
G1 X161.388 Y143.321 E0.00721
G1 X161.268 Y143.282 E0.00466
G1 X161.166 Y143.248 E0.00397
G1 X160.943 Y143.186 E0.00852
G1 X160.721 Y143.125 E0.00852
G1 X160.594 Y143.096 E0.00481
G1 X160.487 Y143.073 E0.00406
G1 X160.224 Y143.028 E0.00988
G1 X159.96 Y142.983 E0.00988
G1 X159.872 Y142.972 E0.00329
G1 X159.267 Y142.928 E0.02241
G1 X159.167 Y142.925 E0.00369
G1 X158.733 Y142.934 E0.01608
G1 X158.493 Y142.947 E0.00887
G1 X158.297 Y142.967 E0.00729
G1 X158.05 Y143.002 E0.00921
G1 X157.803 Y143.037 E0.00921
G1 X157.674 Y143.062 E0.00488
G1 X157.362 Y143.139 E0.01187
G1 X157.05 Y143.215 E0.01187
G1 X156.993 Y143.232 E0.00218
G1 X156.699 Y143.335 E0.01153
G1 X156.405 Y143.439 E0.01153
G1 X156.375 Y143.452 E0.00121
G1 X156.072 Y143.594 E0.01236
G1 X155.77 Y143.735 E0.01236
G1 X155.683 Y143.782 E0.00365
G1 X155.474 Y143.903 E0.00892
G1 X155.266 Y144.025 E0.00892
G1 X155.23 Y144.048 E0.00158
G1 X154.86 Y144.307 E0.01671
G1 X154.754 Y144.388 E0.00491
G1 X154.662 Y144.459 E0.00432
G1 X154.495 Y144.6 E0.00808
G1 X154.328 Y144.74 E0.00808
G1 X154.191 Y144.867 E0.0069
G1 X153.988 Y145.076 E0.01076
G1 X153.785 Y145.284 E0.01076
G1 X153.705 Y145.373 E0.00441
G1 X153.585 Y145.521 E0.00704
G1 X153.465 Y145.669 E0.00704
G1 X153.385 Y145.774 E0.00487
G1 X153.314 Y145.868 E0.00439
G1 X153.244 Y145.969 E0.00452
G1 X153.174 Y146.069 E0.00452
G1 X153.071 Y146.23 E0.00709
G1 X152.961 Y146.417 E0.00802
G1 X152.85 Y146.604 E0.00802
G1 X152.813 Y146.674 E0.00294
G1 X152.679 Y146.958 E0.0116
G1 X152.544 Y147.241 E0.0116
G1 X152.49 Y147.37 E0.00515
G1 X152.407 Y147.596 E0.00893
G1 X152.319 Y147.836 E0.00942
G1 X152.259 Y148.043 E0.00798
G1 X152.2 Y148.251 E0.00798
G1 X152.184 Y148.316 E0.00249
G1 X152.147 Y148.495 E0.00677
G1 X152.11 Y148.675 E0.00677
G1 X152.061 Y148.974 E0.01122
G1 X152.059 Y148.992 E0.00065
G1 X152.037 Y149.184 E0.00714
G1 X152.015 Y149.376 E0.00714
G1 X152.002 Y149.556 E0.0067
G1 X151.989 Y149.737 E0.0067
G1 X151.985 Y149.877 E0.00519
G1 X151.982 Y150 E0.00453
G1 X151.985 Y150.119 E0.00441
G1 X151.988 Y150.251 E0.00489
G1 X151.999 Y150.438 E0.00691
G1 X152.011 Y150.625 E0.00691
G1 X152.023 Y150.74 E0.00429
G1 X152.055 Y150.976 E0.00882
G1 X152.087 Y151.213 E0.00882
G1 X152.105 Y151.32 E0.00401
G1 X152.148 Y151.509 E0.00717
G1 X152.191 Y151.698 E0.00717
G1 X152.224 Y151.82 E0.00468
G1 X152.253 Y151.925 E0.00403
G1 X152.416 Y152.431 E0.01964
G1 X152.475 Y152.59 E0.00628
G1 X152.578 Y152.828 E0.00957
G1 X152.681 Y153.065 E0.00957
G1 X152.727 Y153.16 E0.00391
G1 X152.915 Y153.506 E0.01452
G1 X152.998 Y153.647 E0.00605
G1 X153.074 Y153.777 E0.00557
G1 X153.173 Y153.929 E0.00672
G1 X153.251 Y154.039 E0.00499
G1 X153.319 Y154.135 E0.00434
G1 X153.451 Y154.308 E0.00806
G1 X153.583 Y154.482 E0.00806
G1 X153.642 Y154.553 E0.00341
G1 X153.803 Y154.732 E0.0089
G1 X153.964 Y154.91 E0.0089
G1 X154.004 Y154.952 E0.00214
G1 X154.161 Y155.101 E0.00799
G1 X154.318 Y155.249 E0.00799
G1 X154.426 Y155.345 E0.00531
G1 X154.524 Y155.431 E0.00483
G1 X154.607 Y155.499 E0.00398
G1 X154.691 Y155.567 E0.00398
G1 X154.783 Y155.637 E0.00429
G1 X154.865 Y155.699 E0.0038
G1 X154.976 Y155.778 E0.00501
G1 X155.087 Y155.856 E0.00501
G1 X155.224 Y155.947 E0.00611
G1 X155.503 Y156.115 E0.01201
G1 X155.642 Y156.193 E0.0059
G1 X155.77 Y156.264 E0.00542
G1 X155.946 Y156.352 E0.00728
G1 X156.163 Y156.451 E0.00882
G1 X156.38 Y156.55 E0.00882
G1 X156.405 Y156.561 E0.00102
G1 X156.623 Y156.639 E0.00855
G1 X156.84 Y156.718 E0.00855
G1 X156.994 Y156.767 E0.00596
G1 X157.152 Y156.811 E0.00608
G1 X157.311 Y156.854 E0.00608
G1 X157.499 Y156.898 E0.00712
G1 X157.674 Y156.939 E0.00665
G1 X157.802 Y156.963 E0.00483
G1 X158.038 Y156.998 E0.00882
G1 X158.29 Y157.035 E0.00942
G1 X158.526 Y157.051 E0.00876
G1 X158.762 Y157.067 E0.00876
G1 X158.883 Y157.071 E0.00445
G1 X158.99 Y157.075 E0.00397
G1 X159.121 Y157.073 E0.00485
G1 X159.252 Y157.071 E0.00485
G1 X159.443 Y157.062 E0.00705
G1 X159.62 Y157.054 E0.00657
G1 X159.741 Y157.043 E0.0045
G1 X159.901 Y157.024 E0.00594
G1 X160.047 Y157.006 E0.00545
G1 X160.24 Y156.975 E0.00721
G1 X160.474 Y156.928 E0.00882
G1 X160.707 Y156.881 E0.00882
G1 X160.741 Y156.874 E0.00127
G1 X160.96 Y156.811 E0.00842
G1 X161.179 Y156.749 E0.00842
G1 X161.34 Y156.698 E0.00622
G1 X161.49 Y156.641 E0.00595
G1 X161.641 Y156.585 E0.00595
G1 X161.822 Y156.509 E0.00725
G1 X161.991 Y156.439 E0.00677
G1 X162.103 Y156.386 E0.00457
G1 X162.315 Y156.277 E0.00882
G1 X162.527 Y156.169 E0.00882
G1 X162.548 Y156.157 E0.00086
G1 X162.746 Y156.034 E0.00863
G1 X162.944 Y155.91 E0.00863
G1 X163.047 Y155.841 E0.00457
G1 X163.139 Y155.78 E0.0041
G1 X163.241 Y155.704 E0.00471
G1 X163.344 Y155.628 E0.00471
G1 X163.493 Y155.509 E0.00707
G1 X163.633 Y155.399 E0.00657
G1 X163.74 Y155.304 E0.0053
G1 X164.142 Y154.918 E0.02062
G1 X164.232 Y154.823 E0.0048
G1 X164.555 Y154.45 E0.01825
G1 X164.713 Y154.249 E0.00944
G1 X164.723 Y154.235 E0.00065
G1 X164.847 Y154.061 E0.00792
G1 X164.971 Y153.886 E0.00792
G1 X165.008 Y153.829 E0.00253
G1 X165.131 Y153.624 E0.00882
G1 X165.253 Y153.419 E0.00882
G1 X165.291 Y153.351 E0.0029
G1 X165.475 Y152.975 E0.01547
G1 X165.535 Y152.837 E0.00556
G1 X165.587 Y152.715 E0.00491
G1 X165.673 Y152.489 E0.00894
G1 X165.76 Y152.264 E0.00894
G1 X165.806 Y152.123 E0.00549
G1 X165.866 Y151.913 E0.00804
G1 X165.926 Y151.704 E0.00804
G1 X165.951 Y151.603 E0.00385
G1 X165.981 Y151.456 E0.00557
G1 X166.008 Y151.325 E0.00495
;WIDTH:0.353746
G1 X165.931 Y151.143 E0.00566
; INIT stop printing object e_groove_mount.stl id:0 copy 0
; INIT printing object x_end_idler_tensioner.stl id:1 copy 0
G1 E-0.75 F3000
G1 Z0.65 F36000
; stop printing object e_groove_mount.stl id:0 copy 0
; printing object x_end_idler_tensioner.stl id:1 copy 0
G1 X143.63 Y162.186
G1 Z0.25
G1 E0.75 F1800
;TYPE:Internal perimeter
;WIDTH:0.48
G1 F900
G1 X138.585 Y162.186 E0.2059
G1 X138.585 Y160.906 E0.05224
G1 X143.63 Y160.906 E0.2059
G1 X143.63 Y162.126 E0.04979
G1 X144.057 Y162.613 F36000
G1 F900
G1 X138.159 Y162.613 E0.2407
G1 X138.159 Y160.48 E0.08704
G1 X144.057 Y160.48 E0.2407
G1 X144.057 Y162.553 E0.08459
G1 X144.483 Y163.039 F36000
G1 F900
G1 X137.732 Y163.039 E0.27551
G1 X137.732 Y160.053 E0.12184
G1 X144.483 Y160.053 E0.27551
G1 X144.483 Y162.979 E0.11939
G1 E-0.75 F3000
G1 Z0.65 F36000
G1 X143.63 Y153.451
G1 Z0.25
G1 E0.75 F1800
G1 F900
G1 X138.585 Y153.451 E0.2059
G1 X138.585 Y137.828 E0.63762
G1 X139.168 Y137.814 E0.02381
G1 X143.63 Y137.814 E0.1821
G1 X143.63 Y153.391 E0.63576
G1 X144.057 Y153.878 F36000
G1 F900
G1 X138.159 Y153.878 E0.2407
G1 X138.159 Y137.523 E0.66747
G1 X138.277 Y137.463 E0.00542
G1 X138.511 Y137.404 E0.00984
