; generated by SuperSlicer 2.4 on 2022-06-10 at 21:34:57 UTC


;
;

;
;
; 

; external perimeters extrusion width = 0.40mm
; perimeters extrusion width = 0.48mm
; infill extrusion width = 0.60mm
; solid infill extrusion width = 0.56mm
; top infill extrusion width = 0.40mm
; first layer extrusion width = 0.48mm

; external perimeters extrusion width = 0.40mm
; perimeters extrusion width = 0.48mm
; infill extrusion width = 0.60mm
; solid infill extrusion width = 0.56mm
; top infill extrusion width = 0.40mm
; first layer extrusion width = 0.48mm

; object:{"name":"e_nozzle_fan_duct","id":"e_nozzle_fan_duct.stl id:0 copy 0","object_center":[144.805051,150.000000,0.000000],"boundingbox_center":[144.805051,150.000000,16.200001],"boundingbox_size":[46.202522,35.285001,32.400002]}
; object:{"name":"e_pinda_mount","id":"e_pinda_mount.stl id:1 copy 0","object_center":[174.101284,150.000000,0.000000],"boundingbox_center":[174.101284,150.000000,6.250000],"boundingbox_size":[8.389898,20.000002,12.500000]}
; plater:{"center":[150.000012,150.000000,0.000000],"boundingbox_center":[150.000012,150.000000,16.200001],"boundingbox_size":[56.592443,35.285001,32.400002]}

;TYPE:Custom
print_start EXTRUDER=255 BED=110 CHAMBER=50
M107
G21 ; set units to millimeters
G90 ; use absolute coordinates
M83 ; use relative distances for extrusion
; Filament gcode
SET_PRESSURE_ADVANCE ADVANCE=0.055
M104 S255 ; set temperature
M109 S255 ; set temperature and wait for it to be reached
M190 S110 ; set bed temperature and wait for it to be reached
M107
;LAYER_CHANGE
;Z:0.25
;HEIGHT:0.25
;BEFORE_LAYER_CHANGE
;0.25
TIMELAPSE_TAKE_FRAME


G1 Z0.25 F36000
;AFTER_LAYER_CHANGE
;0.25
G92 E0
; INIT printing object e_nozzle_fan_duct.stl id:0 copy 0
G1 E-0.75 F3000
G1 Z0.65 F36000
; printing object e_nozzle_fan_duct.stl id:0 copy 0
M204 S1000
G1 X141.838 Y143.165
G1 Z0.25
G1 E0.75 F1800
;TYPE:External perimeter
;WIDTH:0.48
G1 F900
G1 X147.772 Y143.165 E0.24222
G1 X147.807 Y141.733 E0.05847
G1 X147.915 Y140.881 E0.03505
G1 X148.078 Y140.152 E0.03048
G1 X148.331 Y139.353 E0.03422
G1 X148.645 Y138.596 E0.03343
G1 X149.009 Y137.883 E0.03268
G1 X149.42 Y137.206 E0.03233
G1 X149.44 Y137.178 E0.0014
G1 X149.938 Y136.474 E0.03521
G1 X150.628 Y135.573 E0.0463
G1 X157.998 Y135.573 E0.30078
G1 X163.818 Y142.684 E0.37502
G1 X164.396 Y143.843 E0.05286
G1 X164.987 Y145.221 E0.06121
G1 X165.39 Y146.3 E0.04701
G1 X165.79 Y147.564 E0.0541
G1 X166.124 Y148.846 E0.05405
G1 X166.417 Y150.317 E0.06122
G1 X166.589 Y151.455 E0.04701
G1 X166.719 Y152.774 E0.0541
G1 X166.781 Y154.098 E0.05409
G1 X166.774 Y155.421 E0.05399
G1 X166.707 Y156.347 E0.03789
G1 X166.565 Y157.262 E0.03779
G1 X166.351 Y158.163 E0.03779
G1 X166.064 Y159.043 E0.03779
G1 X165.706 Y159.897 E0.03779
G1 X165.281 Y160.72 E0.03779
G1 X164.791 Y161.505 E0.03779
G1 X164.239 Y162.248 E0.03779
G1 X163.628 Y162.944 E0.03779
G1 X162.963 Y163.588 E0.03779
G1 X162.248 Y164.177 E0.03779
G1 X161.488 Y164.705 E0.03779
G1 X161.023 Y164.976 E0.02196
G1 X160.688 Y165.171 E0.01583
G1 X159.852 Y165.57 E0.0378
G1 X158.979 Y165.906 E0.0382
G1 X158.094 Y166.22 E0.03832
G1 X157.655 Y166.352 E0.01871
G1 X157.207 Y166.444 E0.01863
G1 X156.28 Y166.557 E0.03812
G1 X156.215 Y166.559 E0.00267
G1 X155.83 Y166.575 E0.01573
G1 X155.667 Y166.559 E0.00669
G1 X155.672 Y166.471 E0.00362
G1 X155.665 Y166.348 E0.00504
G1 X155.72 Y166.335 E0.0023
G1 X156.028 Y166.326 E0.01257
G1 X156.048 Y166.325 E0.00081
G1 X156.712 Y166.264 E0.02723
G1 X157.582 Y166.131 E0.0359
G1 X157.675 Y165.468 E0.0273
G1 X157.704 Y164.976 E0.02014
G1 X157.71 Y160.229 E0.19372
G1 X156.64 Y160.546 E0.04554
G1 X156.371 Y160.593 E0.01114
G1 X156.007 Y160.657 E0.01509
G1 X155.569 Y160.683 E0.01791
G1 X155.506 Y160.687 E0.00256
G1 X155.551 Y160.64 E0.00265
G1 X155.795 Y160.383 E0.01448
G1 X155.866 Y160.309 E0.00415
G1 X156.32 Y159.784 E0.02834
G1 X156.93 Y159.003 E0.04044
G1 X151.335 Y153.408 E0.32295
G1 X150.907 Y154.276 E0.03949
G1 X150.652 Y154.694 E0.01999
G1 X150.357 Y155.086 E0.02001
G1 X150.251 Y155.202 E0.00643
G1 X150.181 Y155.279 E0.00425
G1 X150.14 Y155.324 E0.00247
G1 X150.14 Y153.128 E0.08964
G1 X139.47 Y153.128 E0.43547
G1 X139.47 Y155.324 E0.08964
G1 X139.253 Y155.086 E0.01316
G1 X138.959 Y154.694 E0.02001
G1 X138.703 Y154.276 E0.01999
G1 X138.496 Y153.856 E0.01911
G1 X138.275 Y153.408 E0.02038
G1 X132.68 Y159.003 E0.32295
G1 X133.29 Y159.784 E0.04044
G1 X133.745 Y160.309 E0.02836
G1 X134.104 Y160.687 E0.02126
G1 X134.041 Y160.683 E0.00256
G1 X133.603 Y160.657 E0.0179
G1 X133.239 Y160.593 E0.01509
G1 X132.97 Y160.546 E0.01114
G1 X131.901 Y160.229 E0.04554
G1 X131.906 Y164.975 E0.19371
G1 X131.935 Y165.468 E0.02014
G1 X132.028 Y166.13 E0.0273
G1 X132.222 Y166.16 E0.00801
G1 X132.898 Y166.264 E0.02789
G1 X133.567 Y166.326 E0.02744
G1 X133.871 Y166.335 E0.01243
G1 X133.892 Y166.336 E0.00085
G1 X133.945 Y166.347 E0.0022
G1 X133.939 Y166.471 E0.00505
G1 X133.941 Y166.515 E0.00181
G1 X133.943 Y166.559 E0.00181
G1 X133.78 Y166.575 E0.00669
G1 X133.4 Y166.56 E0.01553
G1 X133.33 Y166.557 E0.00287
G1 X132.403 Y166.444 E0.03812
G1 X131.956 Y166.352 E0.01863
G1 X131.516 Y166.22 E0.01871
G1 X131.263 Y166.131 E0.01096
G1 X130.632 Y165.906 E0.02736
G1 X129.758 Y165.57 E0.0382
G1 X129.108 Y165.259 E0.02944
G1 X128.923 Y165.171 E0.00837
G1 X128.122 Y164.705 E0.03779
G1 X127.362 Y164.177 E0.03779
G1 X126.647 Y163.588 E0.03779
G1 X125.982 Y162.944 E0.03779
G1 X125.371 Y162.248 E0.03779
G1 X124.819 Y161.505 E0.03779
G1 X124.329 Y160.72 E0.03779
G1 X123.904 Y159.897 E0.03779
G1 X123.775 Y159.59 E0.0136
G1 X123.546 Y159.043 E0.02419
G1 X123.259 Y158.163 E0.03779
G1 X123.045 Y157.262 E0.03779
G1 X122.903 Y156.347 E0.03779
G1 X122.837 Y155.421 E0.03789
G1 X122.829 Y154.098 E0.05399
G1 X122.891 Y152.774 E0.05409
G1 X123.021 Y151.455 E0.0541
G1 X123.194 Y150.317 E0.04701
G1 X123.22 Y150.145 E0.00709
G1 X123.486 Y148.847 E0.0541
G1 X123.776 Y147.732 E0.047
G1 X124.22 Y146.299 E0.06122
G1 X124.685 Y145.059 E0.05405
G1 X125.214 Y143.844 E0.0541
G1 X125.792 Y142.684 E0.0529
G1 X131.612 Y135.573 E0.37502
G1 X138.982 Y135.573 E0.30078
G1 X139.672 Y136.474 E0.04632
G1 X140.173 Y137.178 E0.03525
G1 X140.548 Y137.797 E0.02955
G1 X140.618 Y137.913 E0.00553
G1 X140.981 Y138.629 E0.03276
G1 X141.301 Y139.415 E0.03464
G1 X141.474 Y139.966 E0.02356
G1 X141.532 Y140.152 E0.00794
G1 X141.695 Y140.881 E0.03049
G1 X141.803 Y141.733 E0.03505
G1 X141.836 Y143.105 E0.05602
;WIPE_START
M204 S1500
G1 X141.841 Y143.565 F36000
;WIPE_END
G1 X141.841 Y143.591
;TYPE:Internal perimeter
G1 F900
G1 X148.189 Y143.591 E0.25907
G1 X148.233 Y141.765 E0.07457
G1 X148.335 Y140.954 E0.03334
G1 X148.49 Y140.263 E0.0289
G1 X148.732 Y139.499 E0.03271
G1 X149.032 Y138.775 E0.03199
G1 X149.381 Y138.091 E0.03135
G1 X149.776 Y137.44 E0.03107
G1 X150.282 Y136.727 E0.03567
G1 X150.839 Y136 E0.03739
G1 X157.796 Y136 E0.28394
G1 X163.458 Y142.917 E0.36482
G1 X164.009 Y144.022 E0.0504
G1 X164.591 Y145.38 E0.0603
G1 X164.987 Y146.439 E0.04615
G1 X165.381 Y147.682 E0.0532
G1 X165.708 Y148.941 E0.0531
G1 X165.997 Y150.39 E0.06031
G1 X166.166 Y151.508 E0.04615
G1 X166.294 Y152.805 E0.05319
G1 X166.354 Y154.107 E0.05319
G1 X166.347 Y155.405 E0.05296
G1 X166.283 Y156.299 E0.0366
G1 X166.147 Y157.18 E0.03638
G1 X165.94 Y158.047 E0.03638
G1 X165.664 Y158.895 E0.03638
G1 X165.32 Y159.717 E0.03638
G1 X164.91 Y160.509 E0.03638
G1 X164.438 Y161.265 E0.03638
G1 X163.907 Y161.98 E0.03638
G1 X163.319 Y162.65 E0.03638
G1 X162.679 Y163.27 E0.03638
G1 X161.991 Y163.836 E0.03638
G1 X161.259 Y164.345 E0.03638
G1 X160.488 Y164.793 E0.03638
G1 X159.683 Y165.178 E0.03642
G1 X158.83 Y165.506 E0.03729
G1 X158.084 Y165.771 E0.03232
G1 X158.13 Y164.988 E0.03202
G1 X158.137 Y159.658 E0.21754
G1 X156.996 Y159.995 E0.04853
G1 X156.856 Y159.79 E0.01016
G1 X157.498 Y158.969 E0.04254
G1 X151.215 Y152.685 E0.36266
G1 X150.83 Y153.468 E0.03559
G1 X150.566 Y153.406 E0.01105
G1 X150.566 Y152.701 E0.02878
G1 X139.044 Y152.701 E0.47028
G1 X139.044 Y153.406 E0.02878
G1 X138.78 Y153.468 E0.01105
G1 X138.395 Y152.685 E0.03559
G1 X132.112 Y158.969 E0.36266
G1 X132.754 Y159.79 E0.04254
G1 X132.614 Y159.995 E0.01016
G1 X131.474 Y159.658 E0.04853
G1 X131.48 Y164.988 E0.21754
G1 X131.526 Y165.771 E0.03202
G1 X130.78 Y165.506 E0.03232
G1 X129.927 Y165.178 E0.03729
G1 X129.122 Y164.793 E0.03642
G1 X128.351 Y164.345 E0.03638
G1 X127.62 Y163.836 E0.03638
G1 X126.931 Y163.27 E0.03638
G1 X126.291 Y162.65 E0.03638
G1 X125.703 Y161.98 E0.03638
G1 X125.172 Y161.265 E0.03638
G1 X124.7 Y160.509 E0.03638
G1 X124.29 Y159.717 E0.03638
G1 X123.946 Y158.895 E0.03638
G1 X123.67 Y158.047 E0.03638
G1 X123.463 Y157.18 E0.03638
G1 X123.327 Y156.299 E0.03638
G1 X123.263 Y155.405 E0.0366
G1 X123.256 Y154.107 E0.05296
G1 X123.316 Y152.805 E0.05319
G1 X123.444 Y151.508 E0.05319
G1 X123.639 Y150.22 E0.05319
G1 X123.902 Y148.943 E0.05319
G1 X124.186 Y147.849 E0.04615
G1 X124.624 Y146.437 E0.06031
G1 X125.08 Y145.219 E0.0531
G1 X125.6 Y144.024 E0.05319
G1 X126.152 Y142.917 E0.0505
G1 X131.814 Y136 E0.36482
G1 X138.771 Y136 E0.28394
G1 X139.329 Y136.728 E0.03742
G1 X139.816 Y137.412 E0.0343
G1 X140.245 Y138.12 E0.03379
G1 X140.593 Y138.806 E0.03138
G1 X140.899 Y139.56 E0.0332
G1 X141.12 Y140.262 E0.03006
G1 X141.275 Y140.954 E0.02894
G1 X141.377 Y141.765 E0.03334
G1 X141.421 Y143.591 E0.07457
G1 X141.781 Y143.591 E0.01467
G1 X141.781 Y144.018 F36000
G1 F900
G1 X148.605 Y144.018 E0.27851
G1 X148.658 Y141.797 E0.09067
G1 X148.756 Y141.028 E0.03164
G1 X148.902 Y140.374 E0.02733
G1 X149.133 Y139.645 E0.0312
G1 X149.42 Y138.954 E0.03055
G1 X149.754 Y138.299 E0.03003
G1 X150.133 Y137.674 E0.02981
G1 X150.625 Y136.98 E0.03473
G1 X151.049 Y136.426 E0.02847
G1 X157.594 Y136.426 E0.26711
G1 X163.098 Y143.15 E0.35462
G1 X163.622 Y144.201 E0.04795
G1 X164.195 Y145.539 E0.0594
G1 X164.584 Y146.578 E0.04529
G1 X164.971 Y147.8 E0.0523
G1 X165.292 Y149.036 E0.05214
G1 X165.577 Y150.464 E0.0594
G1 X165.743 Y151.561 E0.0453
G1 X165.869 Y152.836 E0.05229
G1 X165.928 Y154.116 E0.05229
G1 X165.921 Y155.388 E0.05193
G1 X165.859 Y156.251 E0.03532
G1 X165.728 Y157.098 E0.03497
G1 X165.529 Y157.931 E0.03497
G1 X165.264 Y158.746 E0.03497
G1 X164.933 Y159.536 E0.03497
G1 X164.54 Y160.297 E0.03497
G1 X164.086 Y161.024 E0.03497
G1 X163.575 Y161.712 E0.03497
G1 X163.01 Y162.356 E0.03497
G1 X162.395 Y162.952 E0.03497
G1 X161.733 Y163.496 E0.03497
G1 X161.03 Y163.985 E0.03497
G1 X160.289 Y164.416 E0.03497
G1 X159.517 Y164.785 E0.03493
G1 X158.556 Y165.141 E0.04181
G1 X158.564 Y159.087 E0.2471
G1 X158.153 Y159.209 E0.01748
G1 X158.013 Y159.003 E0.01016
G1 X158.067 Y158.934 E0.00357
G1 X151.096 Y151.963 E0.40236
G1 X150.942 Y152.275 E0.01419
G1 X138.668 Y152.275 E0.50094
G1 X138.514 Y151.963 E0.01419
G1 X131.543 Y158.934 E0.40236
G1 X131.597 Y159.003 E0.00357
G1 X131.457 Y159.209 E0.01016
G1 X131.046 Y159.087 E0.01748
G1 X131.054 Y165.141 E0.2471
G1 X130.094 Y164.785 E0.04181
G1 X129.321 Y164.416 E0.03493
G1 X128.58 Y163.985 E0.03497
G1 X127.877 Y163.496 E0.03497
G1 X127.216 Y162.952 E0.03497
G1 X126.6 Y162.356 E0.03496
G1 X126.035 Y161.712 E0.03497
G1 X125.524 Y161.024 E0.03496
G1 X125.07 Y160.297 E0.03497
G1 X124.677 Y159.536 E0.03497
G1 X124.346 Y158.746 E0.03497
G1 X124.081 Y157.931 E0.03497
G1 X123.882 Y157.098 E0.03497
G1 X123.751 Y156.251 E0.03497
G1 X123.689 Y155.388 E0.03532
G1 X123.682 Y154.116 E0.05193
G1 X123.741 Y152.836 E0.05229
G1 X123.867 Y151.561 E0.05228
G1 X124.059 Y150.295 E0.05229
G1 X124.317 Y149.04 E0.05229
G1 X124.596 Y147.965 E0.04529
G1 X125.027 Y146.575 E0.0594
G1 X125.475 Y145.379 E0.05214
G1 X125.987 Y144.204 E0.05228
G1 X126.512 Y143.15 E0.04809
G1 X132.016 Y136.426 E0.35462
G1 X138.561 Y136.426 E0.26711
G1 X138.986 Y136.981 E0.02853
G1 X139.46 Y137.647 E0.03335
G1 X139.872 Y138.328 E0.03248
G1 X140.205 Y138.983 E0.03
G1 X140.498 Y139.704 E0.03177
G1 X140.708 Y140.373 E0.02861
G1 X140.854 Y141.028 E0.02739
G1 X140.952 Y141.797 E0.03164
G1 X141.005 Y144.018 E0.09067
G1 X141.721 Y144.018 E0.0292
G1 X141.721 Y144.444 F36000
G1 F900
G1 X149.021 Y144.444 E0.29794
G1 X149.084 Y141.829 E0.10677
G1 X149.176 Y141.101 E0.02993
G1 X149.314 Y140.485 E0.02576
G1 X149.533 Y139.792 E0.02969
G1 X149.807 Y139.133 E0.02912
G1 X150.126 Y138.506 E0.0287
G1 X150.49 Y137.909 E0.02855
G1 X150.968 Y137.233 E0.03379
G1 X151.26 Y136.852 E0.01956
G1 X157.392 Y136.852 E0.25028
G1 X162.738 Y143.383 E0.34443
G1 X163.235 Y144.38 E0.04549
G1 X163.799 Y145.698 E0.05849
G1 X164.181 Y146.717 E0.04444
G1 X164.561 Y147.918 E0.0514
G1 X164.877 Y149.132 E0.05118
G1 X165.157 Y150.537 E0.0585
G1 X165.32 Y151.614 E0.04444
G1 X165.443 Y152.867 E0.05138
G1 X165.502 Y154.125 E0.05138
G1 X165.495 Y155.372 E0.0509
G1 X165.435 Y156.203 E0.03404
G1 X165.309 Y157.016 E0.03356
G1 X165.119 Y157.816 E0.03356
G1 X164.864 Y158.597 E0.03356
G1 X164.546 Y159.356 E0.03355
G1 X164.169 Y160.086 E0.03356
G1 X163.733 Y160.784 E0.03356
G1 X163.243 Y161.444 E0.03355
G1 X162.701 Y162.062 E0.03356
G1 X162.11 Y162.634 E0.03356
G1 X161.475 Y163.156 E0.03355
G1 X160.8 Y163.625 E0.03356
G1 X160.09 Y164.039 E0.03356
G1 X159.35 Y164.392 E0.03344
G1 X158.983 Y164.528 E0.01597
G1 X158.991 Y158.516 E0.24537
G1 X158.421 Y158.685 E0.02427
G1 X150.976 Y151.24 E0.42968
G1 X150.677 Y151.848 E0.02767
G1 X138.933 Y151.848 E0.47928
G1 X138.634 Y151.24 E0.02767
G1 X131.19 Y158.685 E0.42968
G1 X130.619 Y158.516 E0.02427
G1 X130.627 Y164.528 E0.24537
G1 X130.26 Y164.392 E0.01597
G1 X129.52 Y164.039 E0.03344
G1 X128.81 Y163.625 E0.03356
G1 X128.135 Y163.156 E0.03356
G1 X127.5 Y162.634 E0.03356
G1 X126.909 Y162.062 E0.03355
G1 X126.367 Y161.444 E0.03356
G1 X125.877 Y160.784 E0.03355
G1 X125.441 Y160.086 E0.03356
G1 X125.064 Y159.356 E0.03356
G1 X124.746 Y158.597 E0.03356
G1 X124.492 Y157.816 E0.03356
G1 X124.301 Y157.016 E0.03356
G1 X124.175 Y156.203 E0.03356
G1 X124.115 Y155.372 E0.03404
G1 X124.108 Y154.125 E0.0509
G1 X124.167 Y152.867 E0.05138
G1 X124.291 Y151.614 E0.05138
G1 X124.479 Y150.369 E0.05138
G1 X124.732 Y149.136 E0.05139
G1 X125.006 Y148.082 E0.04444
G1 X125.431 Y146.713 E0.05849
G1 X125.871 Y145.539 E0.05119
G1 X126.373 Y144.385 E0.05138
G1 X126.872 Y143.383 E0.04569
G1 X132.218 Y136.852 E0.34443
G1 X138.35 Y136.852 E0.25028
G1 X138.643 Y137.234 E0.01963
G1 X139.103 Y137.881 E0.0324
G1 X139.499 Y138.535 E0.03118
G1 X139.816 Y139.16 E0.02862
G1 X140.096 Y139.849 E0.03033
G1 X140.296 Y140.483 E0.02716
G1 X140.434 Y141.101 E0.02584
G1 X140.526 Y141.829 E0.02993
G1 X140.589 Y144.444 E0.10677
G1 X141.661 Y144.444 E0.04374
G1 X138.956 Y153.628 F36000
;TYPE:Gap fill
;WIDTH:0.661629
G1 F900
G1 X139 Y153.817 E0.01131
;WIDTH:0.57196
G1 X139.015 Y153.88 E0.00321
G1 X139.038 Y153.979 E0.00505
;WIDTH:0.47961
G1 X139.061 Y154.078 E0.00415
G1 X139.098 Y154.209 E0.00554
;WIDTH:0.372077
G1 X139.135 Y154.34 E0.00414
;WIDTH:0.286051
G1 X139.172 Y154.471 E0.00302
;WIDTH:0.197425
G1 X139.228 Y154.65 E0.00258
;WIDTH:0.132927
G1 X139.243 Y154.693 E0.00035
G1 E-0.75 F3000
G1 Z0.65 F36000
G1 X133.616 Y160.46
G1 Z0.25
G1 E0.75 F1800
;WIDTH:0.11125
G1 F900
G1 X133.555 Y160.426 E0.00039
;WIDTH:0.180282
G1 X133.432 Y160.356 E0.00171
;WIDTH:0.272324
G1 X133.31 Y160.286 E0.00295
;WIDTH:0.364367
G1 X133.187 Y160.217 E0.0042
;WIDTH:0.456409
G1 X133.064 Y160.147 E0.00544
;WIDTH:0.509815
G1 X132.971 Y160.088 E0.00483
;WIDTH:0.592014
G1 X132.844 Y160.006 E0.0078
G1 X132.387 Y159.691 F36000
;WIDTH:0.133368
G1 F900
G1 X132.349 Y159.665 E0.00035
;WIDTH:0.189725
G1 X132.19 Y159.557 E0.0025
;WIDTH:0.321466
G1 X132.031 Y159.449 E0.00493
;WIDTH:0.453208
G1 X131.872 Y159.341 E0.00735
;WIDTH:0.497122
G1 X131.836 Y159.316 E0.00188
;WIDTH:0.599658
G1 X131.689 Y159.216 E0.00927
G1 E-0.75 F3000
G1 Z0.65 F36000
G1 X150.367 Y154.693
G1 Z0.25
G1 E0.75 F1800
;WIDTH:0.132927
G1 F900
G1 X150.382 Y154.65 E0.00035
;WIDTH:0.197423
G1 X150.438 Y154.471 E0.00258
;WIDTH:0.286048
G1 X150.475 Y154.34 E0.00302
;WIDTH:0.372074
G1 X150.512 Y154.209 E0.00414
;WIDTH:0.479606
G1 X150.549 Y154.079 E0.00554
G1 X150.572 Y153.979 E0.00415
;WIDTH:0.571959
G1 X150.595 Y153.88 E0.00505
G1 X150.61 Y153.817 E0.00321
;WIDTH:0.661636
