; generated by SuperSlicer 2.4 on 2022-05-24 at 05:39:16 UTC


;
;

;
;
; 

; external perimeters extrusion width = 0.40mm
; perimeters extrusion width = 0.45mm
; infill extrusion width = 0.72mm
; solid infill extrusion width = 0.56mm
; top infill extrusion width = 0.40mm
; first layer extrusion width = 0.48mm

; external perimeters extrusion width = 0.40mm
; perimeters extrusion width = 0.45mm
; infill extrusion width = 0.72mm
; solid infill extrusion width = 0.56mm
; top infill extrusion width = 0.40mm
; first layer extrusion width = 0.48mm

; object:{"name":"einsy-doors","id":"einsy-doors.stl id:0 copy 0","object_center":[156.900953,150.000000,0.000000],"boundingbox_center":[156.900953,150.000000,8.000000],"boundingbox_size":[105.500000,91.975304,16.000000]}
; object:{"name":"einsy-hinges","id":"einsy-hinges.stl id:1 copy 0","object_center":[94.249047,149.999999,0.000000],"boundingbox_center":[94.249047,149.999999,14.000000],"boundingbox_size":[7.800000,27.400001,28.000000]}
; plater:{"center":[150.000000,150.000000,0.000000],"boundingbox_center":[150.000000,150.000000,14.000000],"boundingbox_size":[119.301906,91.975304,28.000000]}

;TYPE:Custom
print_start EXTRUDER=250 BED=110 CHAMBER=50
M107
G21 ; set units to millimeters
G90 ; use absolute coordinates
M83 ; use relative distances for extrusion
; Filament gcode
SET_PRESSURE_ADVANCE ADVANCE=0.03465
M104 S250 ; set temperature
M109 S250 ; set temperature and wait for it to be reached
M190 S110 ; set bed temperature and wait for it to be reached
M107
;LAYER_CHANGE
;Z:0.25
;HEIGHT:0.25
;BEFORE_LAYER_CHANGE
;0.25


G1 Z0.25 F27000
;AFTER_LAYER_CHANGE
;0.25
G92 E0
; INIT printing object einsy-doors.stl id:0 copy 0
G1 E-0.75 F3000
M204 S1500
G1 Z0.65 F27000
; printing object einsy-doors.stl id:0 copy 0
G1 X118.141 Y122.893
G1 Z0.25
G1 E0.75 F1800
;TYPE:Internal perimeter
;WIDTH:0.48
G1 F900
G1 X106.532 Y122.893 E0.47534
G1 X106.532 Y185.131 E2.5484
G1 X203.42 Y185.131 E3.96718
G1 X203.42 Y112.893 E2.95786
G1 X118.532 Y112.893 E3.47583
G1 X118.532 Y122.893 E0.40946
G1 X118.201 Y122.893 E0.01355
G1 X118.141 Y123.32 F27000
G1 F900
G1 X106.958 Y123.32 E0.45789
G1 X106.958 Y184.705 E2.51349
G1 X202.994 Y184.705 E3.93227
G1 X202.994 Y113.32 E2.92295
G1 X118.958 Y113.32 E3.44092
G1 X118.958 Y123.32 E0.40946
G1 X118.201 Y123.32 E0.03101
G1 E-0.75 F3000
G1 Z0.65 F27000
G1 X155.385 Y114.172
G1 Z0.25
G1 E0.75 F1800
G1 F900
G1 X155.385 Y184.279 E2.87058
G1 X160.567 Y184.279 E0.21221
G1 X160.567 Y113.746 E2.88803
G1 X155.385 Y113.746 E0.21221
G1 X155.385 Y114.112 E0.015
M204 S1000
G1 X155.811 Y114.172 F27000
;TYPE:External perimeter
G1 F900
G1 X155.811 Y183.852 E2.85312
G1 X160.141 Y183.852 E0.1773
G1 X160.141 Y114.172 E2.85312
G1 X155.871 Y114.172 E0.17484
;WIPE_START
M204 S1500
G1 X155.411 Y114.172 F27000
;WIPE_END
G1 X154.567 Y114.172
;TYPE:Internal perimeter
G1 F900
G1 X154.567 Y113.746 E0.01746
G1 X149.385 Y113.746 E0.21221
G1 X149.385 Y184.279 E2.88803
G1 X154.567 Y184.279 E0.21221
G1 X154.567 Y114.232 E2.86812
M204 S1000
G1 X154.141 Y114.172 F27000
;TYPE:External perimeter
G1 F900
G1 X149.811 Y114.172 E0.1773
G1 X149.811 Y183.852 E2.85312
G1 X154.141 Y183.852 E0.1773
G1 X154.141 Y114.232 E2.85066
;WIPE_START
M204 S1500
G1 X154.141 Y113.772 F27000
;WIPE_END
G1 X148.567 Y114.172
;TYPE:Internal perimeter
G1 F900
G1 X148.567 Y113.746 E0.01746
G1 X143.385 Y113.746 E0.21221
G1 X143.385 Y184.279 E2.88803
G1 X148.567 Y184.279 E0.21221
G1 X148.567 Y114.232 E2.86812
M204 S1000
G1 X148.141 Y114.172 F27000
;TYPE:External perimeter
G1 F900
G1 X143.811 Y114.172 E0.1773
G1 X143.811 Y183.852 E2.85312
G1 X148.141 Y183.852 E0.1773
G1 X148.141 Y114.232 E2.85066
;WIPE_START
M204 S1500
G1 X148.141 Y113.772 F27000
;WIPE_END
G1 X142.567 Y114.172
;TYPE:Internal perimeter
G1 F900
G1 X142.567 Y113.746 E0.01746
G1 X137.385 Y113.746 E0.21221
G1 X137.385 Y184.279 E2.88803
G1 X142.567 Y184.279 E0.21221
G1 X142.567 Y114.232 E2.86812
M204 S1000
G1 X142.141 Y114.172 F27000
;TYPE:External perimeter
G1 F900
G1 X137.811 Y114.172 E0.1773
G1 X137.811 Y183.852 E2.85312
G1 X142.141 Y183.852 E0.1773
G1 X142.141 Y114.232 E2.85066
;WIPE_START
M204 S1500
G1 X142.141 Y113.772 F27000
;WIPE_END
G1 X136.567 Y114.172
;TYPE:Internal perimeter
G1 F900
G1 X136.567 Y113.746 E0.01746
G1 X131.385 Y113.746 E0.21221
G1 X131.385 Y184.279 E2.88803
G1 X136.567 Y184.279 E0.21221
G1 X136.567 Y114.232 E2.86812
M204 S1000
G1 X136.141 Y114.172 F27000
;TYPE:External perimeter
G1 F900
G1 X131.811 Y114.172 E0.1773
G1 X131.811 Y183.852 E2.85312
G1 X136.141 Y183.852 E0.1773
G1 X136.141 Y114.232 E2.85066
;WIPE_START
M204 S1500
G1 X136.141 Y113.772 F27000
;WIPE_END
G1 X130.567 Y114.172
;TYPE:Internal perimeter
G1 F900
G1 X130.567 Y113.746 E0.01746
G1 X125.385 Y113.746 E0.21221
G1 X125.385 Y184.279 E2.88803
G1 X130.567 Y184.279 E0.21221
G1 X130.567 Y114.232 E2.86812
M204 S1000
G1 X130.141 Y114.172 F27000
;TYPE:External perimeter
G1 F900
G1 X125.811 Y114.172 E0.1773
G1 X125.811 Y183.852 E2.85312
G1 X130.141 Y183.852 E0.1773
G1 X130.141 Y114.232 E2.85066
;WIPE_START
M204 S1500
G1 X130.141 Y113.772 F27000
;WIPE_END
G1 X124.567 Y114.172
;TYPE:Internal perimeter
G1 F900
G1 X124.567 Y113.746 E0.01746
G1 X119.385 Y113.746 E0.21221
G1 X119.385 Y184.279 E2.88803
G1 X124.567 Y184.279 E0.21221
G1 X124.567 Y114.232 E2.86812
M204 S1000
G1 X124.141 Y114.172 F27000
;TYPE:External perimeter
G1 F900
G1 X119.811 Y114.172 E0.1773
G1 X119.811 Y183.852 E2.85312
G1 X124.141 Y183.852 E0.1773
G1 X124.141 Y114.232 E2.85066
;WIPE_START
M204 S1500
G1 X124.141 Y113.772 F27000
;WIPE_END
G1 E-0.75 F3000
G1 Z0.65 F27000
G1 X118.567 Y124.172
G1 Z0.25
G1 E0.75 F1800
;TYPE:Internal perimeter
G1 F900
G1 X118.567 Y123.746 E0.01746
G1 X113.385 Y123.746 E0.21221
G1 X113.385 Y184.279 E2.47857
G1 X118.567 Y184.279 E0.21221
G1 X118.567 Y124.232 E2.45866
M204 S1000
G1 X118.141 Y124.172 F27000
;TYPE:External perimeter
G1 F900
G1 X113.811 Y124.172 E0.1773
G1 X113.811 Y183.852 E2.44366
G1 X118.141 Y183.852 E0.1773
G1 X118.141 Y124.232 E2.4412
;WIPE_START
M204 S1500
G1 X118.141 Y123.772 F27000
;WIPE_END
G1 X112.567 Y124.172
;TYPE:Internal perimeter
G1 F900
G1 X112.567 Y123.746 E0.01746
G1 X107.385 Y123.746 E0.21221
G1 X107.385 Y184.279 E2.47857
G1 X112.567 Y184.279 E0.21221
G1 X112.567 Y124.232 E2.45866
M204 S1000
G1 X112.141 Y124.172 F27000
;TYPE:External perimeter
G1 F900
G1 X107.811 Y124.172 E0.1773
G1 X107.811 Y183.852 E2.44366
G1 X112.141 Y183.852 E0.1773
G1 X112.141 Y124.232 E2.4412
;WIPE_START
M204 S1500
G1 X112.141 Y123.772 F27000
;WIPE_END
G1 E-0.75 F3000
G1 Z0.65 F27000
G1 X166.567 Y114.172
G1 Z0.25
G1 E0.75 F1800
;TYPE:Internal perimeter
G1 F900
G1 X166.567 Y113.746 E0.01746
G1 X161.385 Y113.746 E0.21221
G1 X161.385 Y184.279 E2.88803
G1 X166.567 Y184.279 E0.21221
G1 X166.567 Y114.232 E2.86812
M204 S1000
G1 X166.141 Y114.172 F27000
;TYPE:External perimeter
G1 F900
G1 X161.811 Y114.172 E0.1773
G1 X161.811 Y183.852 E2.85312
G1 X166.141 Y183.852 E0.1773
G1 X166.141 Y114.232 E2.85066
;WIPE_START
M204 S1500
G1 X166.141 Y113.772 F27000
;WIPE_END
G1 X167.385 Y114.172
;TYPE:Internal perimeter
G1 F900
G1 X167.385 Y184.279 E2.87058
G1 X172.567 Y184.279 E0.21221
G1 X172.567 Y113.746 E2.88803
G1 X167.385 Y113.746 E0.21221
G1 X167.385 Y114.112 E0.015
M204 S1000
G1 X167.811 Y114.172 F27000
;TYPE:External perimeter
G1 F900
G1 X167.811 Y183.852 E2.85312
G1 X172.141 Y183.852 E0.1773
G1 X172.141 Y114.172 E2.85312
G1 X167.871 Y114.172 E0.17484
;WIPE_START
M204 S1500
G1 X167.411 Y114.172 F27000
;WIPE_END
G1 X173.385 Y114.172
;TYPE:Internal perimeter
G1 F900
G1 X173.385 Y184.279 E2.87058
G1 X178.567 Y184.279 E0.21221
G1 X178.567 Y113.746 E2.88803
G1 X173.385 Y113.746 E0.21221
G1 X173.385 Y114.112 E0.015
M204 S1000
G1 X173.811 Y114.172 F27000
;TYPE:External perimeter
G1 F900
G1 X173.811 Y183.852 E2.85312
G1 X178.141 Y183.852 E0.1773
G1 X178.141 Y114.172 E2.85312
G1 X173.871 Y114.172 E0.17484
;WIPE_START
M204 S1500
G1 X173.411 Y114.172 F27000
;WIPE_END
G1 X179.385 Y114.172
;TYPE:Internal perimeter
G1 F900
G1 X179.385 Y184.279 E2.87058
G1 X184.567 Y184.279 E0.21221
G1 X184.567 Y113.746 E2.88803
G1 X179.385 Y113.746 E0.21221
G1 X179.385 Y114.112 E0.015
M204 S1000
G1 X179.811 Y114.172 F27000
;TYPE:External perimeter
G1 F900
G1 X179.811 Y183.852 E2.85312
G1 X184.141 Y183.852 E0.1773
G1 X184.141 Y114.172 E2.85312
G1 X179.871 Y114.172 E0.17484
;WIPE_START
M204 S1500
G1 X179.411 Y114.172 F27000
;WIPE_END
G1 X185.385 Y114.172
;TYPE:Internal perimeter
G1 F900
G1 X185.385 Y184.279 E2.87058
G1 X190.567 Y184.279 E0.21221
G1 X190.567 Y113.746 E2.88803
G1 X185.385 Y113.746 E0.21221
G1 X185.385 Y114.112 E0.015
M204 S1000
G1 X185.811 Y114.172 F27000
;TYPE:External perimeter
G1 F900
G1 X185.811 Y183.852 E2.85312
G1 X190.141 Y183.852 E0.1773
G1 X190.141 Y114.172 E2.85312
G1 X185.871 Y114.172 E0.17484
;WIPE_START
M204 S1500
G1 X185.411 Y114.172 F27000
;WIPE_END
G1 X191.385 Y114.172
;TYPE:Internal perimeter
G1 F900
G1 X191.385 Y184.279 E2.87058
G1 X196.567 Y184.279 E0.21221
G1 X196.567 Y113.746 E2.88803
G1 X191.385 Y113.746 E0.21221
G1 X191.385 Y114.112 E0.015
M204 S1000
G1 X191.811 Y114.172 F27000
;TYPE:External perimeter
G1 F900
G1 X191.811 Y183.852 E2.85312
G1 X196.141 Y183.852 E0.1773
G1 X196.141 Y114.172 E2.85312
G1 X191.871 Y114.172 E0.17484
;WIPE_START
M204 S1500
G1 X191.411 Y114.172 F27000
;WIPE_END
G1 X197.385 Y114.172
;TYPE:Internal perimeter
G1 F900
G1 X197.385 Y184.279 E2.87058
G1 X202.567 Y184.279 E0.21221
G1 X202.567 Y113.746 E2.88803
G1 X197.385 Y113.746 E0.21221
G1 X197.385 Y114.112 E0.015
M204 S1000
G1 X197.811 Y114.172 F27000
;TYPE:External perimeter
G1 F900
G1 X197.811 Y183.852 E2.85312
G1 X202.141 Y183.852 E0.1773
G1 X202.141 Y114.172 E2.85312
G1 X197.871 Y114.172 E0.17484
;WIPE_START
M204 S1500
G1 X197.411 Y114.172 F27000
;WIPE_END
G1 X208.032 Y105.631
;TYPE:Internal perimeter
G1 F900
G1 X208.032 Y190.911 E3.49186
G1 X127.27 Y190.911 E3.30688
G1 X127.27 Y189.893 E0.04167
G1 X105.77 Y189.893 E0.88034
G1 X105.77 Y120.264 E2.85106
G1 X120.402 Y105.631 E0.8473
G1 X207.972 Y105.631 E3.58563
G1 X208.458 Y105.205 F27000
G1 F900
G1 X208.458 Y191.337 E3.52677
G1 X126.844 Y191.337 E3.34179
G1 X126.844 Y190.32 E0.04167
G1 X105.344 Y190.32 E0.88034
G1 X105.344 Y120.087 E2.87575
G1 X120.226 Y105.205 E0.86176
G1 X208.398 Y105.205 E3.61032
G1 X208.885 Y104.779 F27000
G1 F900
G1 X208.885 Y191.764 E3.56169
G1 X126.417 Y191.764 E3.37671
G1 X126.417 Y190.746 E0.04167
G1 X104.917 Y190.746 E0.88034
G1 X104.917 Y119.91 E2.90044
G1 X120.049 Y104.779 E0.87622
G1 X208.825 Y104.779 E3.63501
M204 S1000
G1 X209.311 Y104.352 F27000
;TYPE:External perimeter
G1 F900
G1 X209.311 Y192.19 E3.5966
G1 X125.991 Y192.19 E3.41162
G1 X125.991 Y191.172 E0.04167
G1 X104.491 Y191.172 E0.88034
G1 X104.491 Y119.734 E2.92512
G1 X119.872 Y104.352 E0.89069
G1 X209.251 Y104.352 E3.6597
;WIPE_START
M204 S1500
G1 X209.111 Y104.699 F27000
;WIPE_END
G1 X207.968 Y106.557
;TYPE:Solid infill
;WIDTH:0.467974
G1 F1200
G1 X207.289 Y105.879 E0.03831
G1 X206.686 Y105.879 E0.02407
G1 X207.785 Y106.977 E0.062
G1 X207.785 Y107.58 E0.02407
G1 X206.084 Y105.879 E0.09604
G1 X205.481 Y105.879 E0.02407
G1 X207.785 Y108.183 E0.13008
G1 X207.785 Y108.786 E0.02407
G1 X204.878 Y105.879 E0.16412
G1 X204.275 Y105.879 E0.02407
G1 X207.785 Y109.389 E0.19816
G1 X207.785 Y109.992 E0.02407
G1 X203.672 Y105.879 E0.2322
G1 X203.069 Y105.879 E0.02407
G1 X207.785 Y110.594 E0.26624
G1 X207.785 Y111.197 E0.02407
G1 X202.466 Y105.879 E0.30028
G1 X201.863 Y105.879 E0.02407
G1 X207.785 Y111.8 E0.33432
G1 X207.785 Y112.403 E0.02407
G1 X201.26 Y105.879 E0.36836
G1 X200.657 Y105.879 E0.02407
G1 X207.785 Y113.006 E0.4024
G1 X207.785 Y113.609 E0.02407
G1 X200.054 Y105.879 E0.43643
G1 X199.451 Y105.879 E0.02407
G1 X207.785 Y114.212 E0.47047
G1 X207.785 Y114.815 E0.02407
G1 X198.848 Y105.879 E0.50451
G1 X198.245 Y105.879 E0.02407
G1 X207.785 Y115.418 E0.53855
G1 X207.785 Y116.021 E0.02407
G1 X197.642 Y105.879 E0.57259
G1 X197.039 Y105.879 E0.02407
G1 X207.785 Y116.624 E0.60663
G1 X207.785 Y117.227 E0.02407
G1 X203.667 Y113.11 E0.23245
G1 X203.667 Y112.646 E0.0185
G1 X203.204 Y112.646 E0.0185
G1 X196.436 Y105.879 E0.38206
G1 X195.833 Y105.879 E0.02407
G1 X202.601 Y112.646 E0.38206
G1 X201.998 Y112.646 E0.02407
G1 X195.23 Y105.879 E0.38206
G1 X194.628 Y105.879 E0.02407
G1 X201.395 Y112.646 E0.38206
G1 X200.792 Y112.646 E0.02407
G1 X194.025 Y105.879 E0.38206
G1 X193.422 Y105.879 E0.02407
G1 X200.189 Y112.646 E0.38206
G1 X199.586 Y112.646 E0.02407
G1 X192.819 Y105.879 E0.38206
G1 X192.216 Y105.879 E0.02407
G1 X198.983 Y112.646 E0.38206
G1 X198.38 Y112.646 E0.02407
G1 X191.613 Y105.879 E0.38206
G1 X191.01 Y105.879 E0.02407
G1 X197.777 Y112.646 E0.38206
G1 X197.174 Y112.646 E0.02407
G1 X190.407 Y105.879 E0.38206
G1 X189.804 Y105.879 E0.02407
G1 X196.571 Y112.646 E0.38206
G1 X195.968 Y112.646 E0.02407
G1 X189.201 Y105.879 E0.38206
G1 X188.598 Y105.879 E0.02407
G1 X195.365 Y112.646 E0.38206
G1 X194.762 Y112.646 E0.02407
G1 X187.995 Y105.879 E0.38206
G1 X187.392 Y105.879 E0.02407
G1 X194.16 Y112.646 E0.38206
G1 X193.557 Y112.646 E0.02407
G1 X186.789 Y105.879 E0.38206
G1 X186.186 Y105.879 E0.02407
G1 X192.954 Y112.646 E0.38206
G1 X192.351 Y112.646 E0.02407
G1 X185.583 Y105.879 E0.38206
G1 X184.98 Y105.879 E0.02407
G1 X191.748 Y112.646 E0.38206
G1 X191.145 Y112.646 E0.02407
G1 X184.377 Y105.879 E0.38206
G1 X183.774 Y105.879 E0.02407
G1 X190.542 Y112.646 E0.38206
G1 X189.939 Y112.646 E0.02407
G1 X183.172 Y105.879 E0.38206
G1 X182.569 Y105.879 E0.02407
G1 X189.336 Y112.646 E0.38206
G1 X188.733 Y112.646 E0.02407
G1 X181.966 Y105.879 E0.38206
G1 X181.363 Y105.879 E0.02407
G1 X188.13 Y112.646 E0.38206
G1 X187.527 Y112.646 E0.02407
G1 X180.76 Y105.879 E0.38206
G1 X180.157 Y105.879 E0.02407
G1 X186.924 Y112.646 E0.38206
G1 X186.321 Y112.646 E0.02407
G1 X179.554 Y105.879 E0.38206
G1 X178.951 Y105.879 E0.02407
G1 X185.718 Y112.646 E0.38206
G1 X185.115 Y112.646 E0.02407
G1 X178.348 Y105.879 E0.38206
G1 X177.745 Y105.879 E0.02407
G1 X184.512 Y112.646 E0.38206
G1 X183.909 Y112.646 E0.02407
G1 X177.142 Y105.879 E0.38206
G1 X176.539 Y105.879 E0.02407
G1 X183.306 Y112.646 E0.38206
G1 X182.704 Y112.646 E0.02407
G1 X175.936 Y105.879 E0.38206
G1 X175.333 Y105.879 E0.02407
G1 X182.101 Y112.646 E0.38206
G1 X181.498 Y112.646 E0.02407
G1 X174.73 Y105.879 E0.38206
G1 X174.127 Y105.879 E0.02407
G1 X180.895 Y112.646 E0.38206
G1 X180.292 Y112.646 E0.02407
G1 X173.524 Y105.879 E0.38206
G1 X172.921 Y105.879 E0.02407
G1 X179.689 Y112.646 E0.38206
G1 X179.086 Y112.646 E0.02407
G1 X172.318 Y105.879 E0.38206
G1 X171.715 Y105.879 E0.02407
G1 X178.483 Y112.646 E0.38206
G1 X177.88 Y112.646 E0.02407
G1 X171.113 Y105.879 E0.38206
G1 X170.51 Y105.879 E0.02407
G1 X177.277 Y112.646 E0.38206
G1 X176.674 Y112.646 E0.02407
G1 X169.907 Y105.879 E0.38206
G1 X169.304 Y105.879 E0.02407
G1 X176.071 Y112.646 E0.38206
G1 X175.468 Y112.646 E0.02407
G1 X168.701 Y105.879 E0.38206
G1 X168.098 Y105.879 E0.02407
G1 X174.865 Y112.646 E0.38206
G1 X174.262 Y112.646 E0.02407
G1 X167.495 Y105.879 E0.38206
G1 X166.892 Y105.879 E0.02407
G1 X173.659 Y112.646 E0.38206
G1 X173.056 Y112.646 E0.02407
G1 X166.289 Y105.879 E0.38206
G1 X165.686 Y105.879 E0.02407
G1 X172.453 Y112.646 E0.38206
G1 X171.85 Y112.646 E0.02407
G1 X165.083 Y105.879 E0.38206
G1 X164.48 Y105.879 E0.02407
G1 X171.247 Y112.646 E0.38206
G1 X170.645 Y112.646 E0.02407
G1 X163.877 Y105.879 E0.38206
G1 X163.274 Y105.879 E0.02407
G1 X170.042 Y112.646 E0.38206
G1 X169.439 Y112.646 E0.02407
G1 X162.671 Y105.879 E0.38206
G1 X162.068 Y105.879 E0.02407
G1 X168.836 Y112.646 E0.38206
G1 X168.233 Y112.646 E0.02407
G1 X161.465 Y105.879 E0.38206
G1 X160.862 Y105.879 E0.02407
G1 X167.63 Y112.646 E0.38206
G1 X167.027 Y112.646 E0.02407
G1 X160.259 Y105.879 E0.38206
G1 X159.657 Y105.879 E0.02407
G1 X166.424 Y112.646 E0.38206
G1 X165.821 Y112.646 E0.02407
G1 X159.054 Y105.879 E0.38206
G1 X158.451 Y105.879 E0.02407
G1 X165.218 Y112.646 E0.38206
G1 X164.615 Y112.646 E0.02407
G1 X157.848 Y105.879 E0.38206
G1 X157.245 Y105.879 E0.02407
G1 X164.012 Y112.646 E0.38206
G1 X163.409 Y112.646 E0.02407
