; generated by SuperSlicer 2.4 on 2022-05-31 at 23:45:44 UTC


;
;

;
;
; 

; external perimeters extrusion width = 0.40mm
; perimeters extrusion width = 0.40mm
; infill extrusion width = 0.72mm
; solid infill extrusion width = 0.56mm
; top infill extrusion width = 0.40mm
; first layer extrusion width = 0.48mm

; object:{"name":"EM_Cube-Unlabeled","id":"EM_Cube-Unlabeled.stl id:0 copy 0","object_center":[150.000000,150.000000,0.000000],"boundingbox_center":[150.000000,150.000000,1.500000],"boundingbox_size":[30.000000,30.000000,3.000000]}
; plater:{"center":[150.000000,150.000000,0.000000],"boundingbox_center":[150.000000,150.000000,1.500000],"boundingbox_size":[30.000000,30.000000,3.000000]}

;TYPE:Custom
print_start EXTRUDER=250 BED=110 CHAMBER=50
M107
G21 ; set units to millimeters
G90 ; use absolute coordinates
M83 ; use relative distances for extrusion
; Filament gcode
SET_PRESSURE_ADVANCE ADVANCE=0.055
M104 S250 ; set temperature
M109 S250 ; set temperature and wait for it to be reached
M190 S110 ; set bed temperature and wait for it to be reached
M107
;LAYER_CHANGE
;Z:0.25
;HEIGHT:0.25
;BEFORE_LAYER_CHANGE
;0.25
TIMELAPSE_TAKE_FRAME


G1 Z0.25 F36000
;AFTER_LAYER_CHANGE
;0.25
G92 E0
; INIT printing object EM_Cube-Unlabeled.stl id:0 copy 0
G1 E-0.75 F3000
M204 S1500
G1 Z0.65 F36000
; printing object EM_Cube-Unlabeled.stl id:0 copy 0
G1 X136.619 Y136.619
G1 Z0.25
G1 E0.75 F1800
;TYPE:Internal perimeter
;WIDTH:0.48
G1 F900
G1 X163.381 Y136.619 E1.10291
G1 X163.381 Y163.381 E1.10291
G1 X136.619 Y163.381 E1.10291
G1 X136.619 Y136.679 E1.10044
G1 X136.193 Y136.193 F36000
G1 F900
G1 X163.807 Y136.193 E1.13805
G1 X163.807 Y163.807 E1.13805
G1 X136.193 Y163.807 E1.13805
G1 X136.193 Y136.253 E1.13558
G1 X135.766 Y135.766 F36000
G1 F900
G1 X164.234 Y135.766 E1.17319
G1 X164.234 Y164.234 E1.17319
G1 X135.766 Y164.234 E1.17319
G1 X135.766 Y135.826 E1.17072
M204 S1000
G1 X135.34 Y135.34 F36000
;TYPE:External perimeter
G1 F900
G1 X164.66 Y135.34 E1.20833
G1 X164.66 Y164.66 E1.20833
G1 X135.34 Y164.66 E1.20833
G1 X135.34 Y135.4 E1.20586
;WIPE_START
M204 S1500
G1 X135.686 Y135.54 F36000
;WIPE_END
G1 X162.455 Y136.683
;TYPE:Solid infill
;WIDTH:0.474989
G1 F1200
G1 X163.134 Y137.362 E0.03913
G1 X163.134 Y137.964 E0.02459
G1 X162.036 Y136.866 E0.06333
G1 X161.433 Y136.866 E0.02459
G1 X163.134 Y138.567 E0.09811
G1 X163.134 Y139.17 E0.02459
G1 X160.83 Y136.866 E0.13288
G1 X160.227 Y136.866 E0.02459
G1 X163.134 Y139.773 E0.16766
G1 X163.134 Y140.376 E0.02459
G1 X159.624 Y136.866 E0.20243
G1 X159.021 Y136.866 E0.02459
G1 X163.134 Y140.979 E0.23721
G1 X163.134 Y141.582 E0.02459
G1 X158.418 Y136.866 E0.27198
G1 X157.815 Y136.866 E0.02459
G1 X163.134 Y142.185 E0.30676
G1 X163.134 Y142.788 E0.02459
G1 X157.212 Y136.866 E0.34153
G1 X156.609 Y136.866 E0.02459
G1 X163.134 Y143.391 E0.3763
G1 X163.134 Y143.994 E0.02459
G1 X156.006 Y136.866 E0.41108
G1 X155.403 Y136.866 E0.02459
G1 X163.134 Y144.597 E0.44585
G1 X163.134 Y145.2 E0.02459
G1 X154.8 Y136.866 E0.48063
G1 X154.197 Y136.866 E0.02459
G1 X163.134 Y145.803 E0.5154
G1 X163.134 Y146.406 E0.02459
G1 X153.594 Y136.866 E0.55018
G1 X152.991 Y136.866 E0.02459
G1 X163.134 Y147.009 E0.58495
G1 X163.134 Y147.612 E0.02459
G1 X152.388 Y136.866 E0.61973
G1 X151.785 Y136.866 E0.02459
G1 X163.134 Y148.215 E0.6545
G1 X163.134 Y148.818 E0.02459
G1 X151.182 Y136.866 E0.68927
G1 X150.58 Y136.866 E0.02459
G1 X163.134 Y149.42 E0.72405
G1 X163.134 Y150.023 E0.02459
G1 X149.977 Y136.866 E0.75882
G1 X149.374 Y136.866 E0.02459
G1 X163.134 Y150.626 E0.7936
G1 X163.134 Y151.229 E0.02459
G1 X148.771 Y136.866 E0.82837
G1 X148.168 Y136.866 E0.02459
G1 X163.134 Y151.832 E0.86315
G1 X163.134 Y152.435 E0.02459
G1 X147.565 Y136.866 E0.89792
G1 X146.962 Y136.866 E0.02459
G1 X163.134 Y153.038 E0.9327
G1 X163.134 Y153.641 E0.02459
G1 X146.359 Y136.866 E0.96747
G1 X145.756 Y136.866 E0.02459
G1 X163.134 Y154.244 E1.00224
G1 X163.134 Y154.847 E0.02459
G1 X145.153 Y136.866 E1.03702
G1 X144.55 Y136.866 E0.02459
G1 X163.134 Y155.45 E1.07179
G1 X163.134 Y156.053 E0.02459
G1 X143.947 Y136.866 E1.10657
G1 X143.344 Y136.866 E0.02459
G1 X163.134 Y156.656 E1.14134
G1 X163.134 Y157.259 E0.02459
G1 X142.741 Y136.866 E1.17612
G1 X142.138 Y136.866 E0.02459
G1 X163.134 Y157.862 E1.21089
G1 X163.134 Y158.465 E0.02459
G1 X141.535 Y136.866 E1.24567
G1 X140.932 Y136.866 E0.02459
G1 X163.134 Y159.068 E1.28044
G1 X163.134 Y159.671 E0.02459
G1 X140.329 Y136.866 E1.31521
G1 X139.726 Y136.866 E0.02459
G1 X163.134 Y160.274 E1.34999
G1 X163.134 Y160.876 E0.02459
G1 X139.124 Y136.866 E1.38476
G1 X138.521 Y136.866 E0.02459
G1 X163.134 Y161.479 E1.41954
G1 X163.134 Y162.082 E0.02459
G1 X137.918 Y136.866 E1.45431
G1 X137.315 Y136.866 E0.02459
G1 X163.134 Y162.685 E1.48909
G1 X163.134 Y163.134 E0.01828
G1 X162.979 Y163.134 E0.0063
G1 X136.866 Y137.021 E1.50603
G1 X136.866 Y137.624 E0.02459
G1 X162.376 Y163.134 E1.47125
G1 X161.773 Y163.134 E0.02459
G1 X136.866 Y138.227 E1.43648
G1 X136.866 Y138.83 E0.02459
G1 X161.17 Y163.134 E1.4017
G1 X160.567 Y163.134 E0.02459
G1 X136.866 Y139.433 E1.36693
G1 X136.866 Y140.036 E0.02459
G1 X159.964 Y163.134 E1.33216
G1 X159.361 Y163.134 E0.02459
G1 X136.866 Y140.639 E1.29738
G1 X136.866 Y141.242 E0.02459
G1 X158.758 Y163.134 E1.26261
G1 X158.156 Y163.134 E0.02459
G1 X136.866 Y141.844 E1.22783
G1 X136.866 Y142.447 E0.02459
G1 X157.553 Y163.134 E1.19306
G1 X156.95 Y163.134 E0.02459
G1 X136.866 Y143.05 E1.15828
G1 X136.866 Y143.653 E0.02459
G1 X156.347 Y163.134 E1.12351
G1 X155.744 Y163.134 E0.02459
G1 X136.866 Y144.256 E1.08874
G1 X136.866 Y144.859 E0.02459
G1 X155.141 Y163.134 E1.05396
G1 X154.538 Y163.134 E0.02459
G1 X136.866 Y145.462 E1.01919
G1 X136.866 Y146.065 E0.02459
G1 X153.935 Y163.134 E0.98441
G1 X153.332 Y163.134 E0.02459
G1 X136.866 Y146.668 E0.94964
G1 X136.866 Y147.271 E0.02459
G1 X152.729 Y163.134 E0.91486
G1 X152.126 Y163.134 E0.02459
G1 X136.866 Y147.874 E0.88009
G1 X136.866 Y148.477 E0.02459
G1 X151.523 Y163.134 E0.84531
G1 X150.92 Y163.134 E0.02459
G1 X136.866 Y149.08 E0.81054
G1 X136.866 Y149.683 E0.02459
G1 X150.317 Y163.134 E0.77577
G1 X149.714 Y163.134 E0.02459
G1 X136.866 Y150.286 E0.74099
G1 X136.866 Y150.889 E0.02459
G1 X149.111 Y163.134 E0.70622
G1 X148.508 Y163.134 E0.02459
G1 X136.866 Y151.492 E0.67144
G1 X136.866 Y152.095 E0.02459
G1 X147.905 Y163.134 E0.63667
G1 X147.302 Y163.134 E0.02459
G1 X136.866 Y152.698 E0.60189
G1 X136.866 Y153.301 E0.02459
G1 X146.699 Y163.134 E0.56712
G1 X146.097 Y163.134 E0.02459
G1 X136.866 Y153.903 E0.53234
G1 X136.866 Y154.506 E0.02459
G1 X145.494 Y163.134 E0.49757
G1 X144.891 Y163.134 E0.02459
G1 X136.866 Y155.109 E0.4628
G1 X136.866 Y155.712 E0.02459
G1 X144.288 Y163.134 E0.42802
G1 X143.685 Y163.134 E0.02459
G1 X136.866 Y156.315 E0.39325
G1 X136.866 Y156.918 E0.02459
G1 X143.082 Y163.134 E0.35847
G1 X142.479 Y163.134 E0.02459
G1 X136.866 Y157.521 E0.3237
G1 X136.866 Y158.124 E0.02459
G1 X141.876 Y163.134 E0.28892
G1 X141.273 Y163.134 E0.02459
G1 X136.866 Y158.727 E0.25415
G1 X136.866 Y159.33 E0.02459
G1 X140.67 Y163.134 E0.21937
G1 X140.067 Y163.134 E0.02459
G1 X136.866 Y159.933 E0.1846
G1 X136.866 Y160.536 E0.02459
G1 X139.464 Y163.134 E0.14983
G1 X138.861 Y163.134 E0.02459
G1 X136.866 Y161.139 E0.11505
G1 X136.866 Y161.742 E0.02459
G1 X138.258 Y163.134 E0.08028
G1 X137.655 Y163.134 E0.02459
G1 X136.866 Y162.345 E0.0455
G1 X136.866 Y162.948 E0.02459
G1 X137.236 Y163.317 E0.0213
; INIT stop printing object EM_Cube-Unlabeled.stl id:0 copy 0
;LAYER_CHANGE
;Z:0.45
;HEIGHT:0.2
;BEFORE_LAYER_CHANGE
;0.45
TIMELAPSE_TAKE_FRAME


; stop printing object EM_Cube-Unlabeled.stl id:0 copy 0
G1 Z0.45 F36000
;AFTER_LAYER_CHANGE
;0.45
G92 E0
M104 S245 ; set temperature
; INIT printing object EM_Cube-Unlabeled.stl id:0 copy 0
; printing object EM_Cube-Unlabeled.stl id:0 copy 0
G1 X136.338 Y163.662
;TYPE:Internal perimeter
;WIDTH:0.4
G1 F9000
G1 X136.338 Y136.338 E0.7545
G1 X163.662 Y136.338 E0.7545
G1 X163.662 Y163.662 E0.7545
G1 X136.398 Y163.662 E0.75284
M107
G1 X135.981 Y164.019 F36000
G1 F9000
G1 X135.981 Y135.981 E0.77422
G1 X164.019 Y135.981 E0.77422
G1 X164.019 Y164.019 E0.77422
G1 X136.041 Y164.019 E0.77256
M107
G1 X135.624 Y164.376 F36000
G1 F9000
G1 X135.624 Y135.624 E0.79394
G1 X164.376 Y135.624 E0.79394
G1 X164.376 Y164.376 E0.79394
G1 X135.684 Y164.376 E0.79228
M107
M204 S1000
G1 X135.267 Y164.733 F36000
;TYPE:External perimeter
G1 F4800
M106 S191.25
G1 X135.267 Y135.267 E0.81366
G1 X164.733 Y135.267 E0.81366
G1 X164.733 Y164.733 E0.81366
G1 X135.327 Y164.733 E0.812
M107
;WIPE_START
M204 S1500
G1 X135.467 Y164.387 F36000
;WIPE_END
G1 X162.587 Y163.633
;TYPE:Solid infill
;WIDTH:0.553909
G1 F8798.4253
G1 X163.41 Y162.81 E0.04603
G1 X163.41 Y162.078 E0.02892
G1 X162.078 Y163.41 E0.07449
G1 X161.347 Y163.41 E0.02892
G1 X163.41 Y161.347 E0.11539
G1 X163.41 Y160.616 E0.02892
G1 X160.616 Y163.41 E0.1563
G1 X159.885 Y163.41 E0.02892
G1 X163.41 Y159.885 E0.1972
G1 X163.41 Y159.153 E0.02892
G1 X159.153 Y163.41 E0.2381
G1 X158.422 Y163.41 E0.02892
G1 X163.41 Y158.422 E0.279
G1 X163.41 Y157.691 E0.02892
G1 X157.691 Y163.41 E0.3199
G1 X156.96 Y163.41 E0.02892
G1 X163.41 Y156.96 E0.36081
G1 X163.41 Y156.228 E0.02892
G1 X156.228 Y163.41 E0.40171
G1 X155.497 Y163.41 E0.02892
G1 X163.41 Y155.497 E0.44261
G1 X163.41 Y154.766 E0.02892
G1 X154.766 Y163.41 E0.48351
G1 X154.035 Y163.41 E0.02892
G1 X163.41 Y154.035 E0.52441
G1 X163.41 Y153.303 E0.02892
G1 X153.303 Y163.41 E0.56531
G1 X152.572 Y163.41 E0.02892
G1 X163.41 Y152.572 E0.60622
G1 X163.41 Y151.841 E0.02892
G1 X151.841 Y163.41 E0.64712
G1 X151.109 Y163.41 E0.02892
G1 X163.41 Y151.109 E0.68802
G1 X163.41 Y150.378 E0.02892
G1 X150.378 Y163.41 E0.72892
G1 X149.647 Y163.41 E0.02892
G1 X163.41 Y149.647 E0.76982
G1 X163.41 Y148.916 E0.02892
G1 X148.916 Y163.41 E0.81072
G1 X148.184 Y163.41 E0.02892
G1 X163.41 Y148.184 E0.85163
G1 X163.41 Y147.453 E0.02892
G1 X147.453 Y163.41 E0.89253
G1 X146.722 Y163.41 E0.02892
G1 X163.41 Y146.722 E0.93343
G1 X163.41 Y145.991 E0.02892
G1 X145.991 Y163.41 E0.97433
G1 X145.259 Y163.41 E0.02892
G1 X163.41 Y145.259 E1.01523
G1 X163.41 Y144.528 E0.02892
G1 X144.528 Y163.41 E1.05613
G1 X143.797 Y163.41 E0.02892
G1 X163.41 Y143.797 E1.09704
G1 X163.41 Y143.066 E0.02892
G1 X143.066 Y163.41 E1.13794
G1 X142.334 Y163.41 E0.02892
G1 X163.41 Y142.334 E1.17884
G1 X163.41 Y141.603 E0.02892
G1 X141.603 Y163.41 E1.21974
G1 X140.872 Y163.41 E0.02892
G1 X163.41 Y140.872 E1.26064
G1 X163.41 Y140.141 E0.02892
G1 X140.141 Y163.41 E1.30154
G1 X139.409 Y163.41 E0.02892
G1 X163.41 Y139.409 E1.34245
G1 X163.41 Y138.678 E0.02892
G1 X138.678 Y163.41 E1.38335
G1 X137.947 Y163.41 E0.02892
G1 X163.41 Y137.947 E1.42425
G1 X163.41 Y137.216 E0.02892
G1 X137.216 Y163.41 E1.46515
G1 X136.59 Y163.41 E0.02475
G1 X136.59 Y163.305 E0.00417
G1 X163.305 Y136.59 E1.49425
G1 X162.573 Y136.59 E0.02892
G1 X136.59 Y162.573 E1.45335
G1 X136.59 Y161.842 E0.02892
G1 X161.842 Y136.59 E1.41244
G1 X161.111 Y136.59 E0.02892
G1 X136.59 Y161.111 E1.37154
G1 X136.59 Y160.38 E0.02892
G1 X160.38 Y136.59 E1.33064
G1 X159.648 Y136.59 E0.02892
G1 X136.59 Y159.648 E1.28974
G1 X136.59 Y158.917 E0.02892
G1 X158.917 Y136.59 E1.24884
G1 X158.186 Y136.59 E0.02892
G1 X136.59 Y158.186 E1.20794
G1 X136.59 Y157.455 E0.02892
G1 X157.455 Y136.59 E1.16703
G1 X156.723 Y136.59 E0.02892
G1 X136.59 Y156.723 E1.12613
G1 X136.59 Y155.992 E0.02892
G1 X155.992 Y136.59 E1.08523
G1 X155.261 Y136.59 E0.02892
G1 X136.59 Y155.261 E1.04433
G1 X136.59 Y154.53 E0.02892
G1 X154.53 Y136.59 E1.00343
G1 X153.798 Y136.59 E0.02892
G1 X136.59 Y153.798 E0.96253
G1 X136.59 Y153.067 E0.02892
G1 X153.067 Y136.59 E0.92162
G1 X152.336 Y136.59 E0.02892
G1 X136.59 Y152.336 E0.88072
G1 X136.59 Y151.605 E0.02892
G1 X151.605 Y136.59 E0.83982
G1 X150.873 Y136.59 E0.02892
G1 X136.59 Y150.873 E0.79892
G1 X136.59 Y150.142 E0.02892
G1 X150.142 Y136.59 E0.75802
G1 X149.411 Y136.59 E0.02892
G1 X136.59 Y149.411 E0.71712
G1 X136.59 Y148.679 E0.02892
G1 X148.679 Y136.59 E0.67621
G1 X147.948 Y136.59 E0.02892
G1 X136.59 Y147.948 E0.63531
G1 X136.59 Y147.217 E0.02892
G1 X147.217 Y136.59 E0.59441
G1 X146.486 Y136.59 E0.02892
G1 X136.59 Y146.486 E0.55351
G1 X136.59 Y145.754 E0.02892
G1 X145.754 Y136.59 E0.51261
G1 X145.023 Y136.59 E0.02892
G1 X136.59 Y145.023 E0.47171
G1 X136.59 Y144.292 E0.02892
G1 X144.292 Y136.59 E0.4308
G1 X143.561 Y136.59 E0.02892
G1 X136.59 Y143.561 E0.3899
G1 X136.59 Y142.829 E0.02892
G1 X142.829 Y136.59 E0.349
G1 X142.098 Y136.59 E0.02892
G1 X136.59 Y142.098 E0.3081
G1 X136.59 Y141.367 E0.02892
G1 X141.367 Y136.59 E0.2672
G1 X140.636 Y136.59 E0.02892
G1 X136.59 Y140.636 E0.22629
G1 X136.59 Y139.904 E0.02892
G1 X139.904 Y136.59 E0.18539
G1 X139.173 Y136.59 E0.02892
G1 X136.59 Y139.173 E0.14449
G1 X136.59 Y138.442 E0.02892
G1 X138.442 Y136.59 E0.10359
G1 X137.711 Y136.59 E0.02892
G1 X136.59 Y137.711 E0.06269
G1 X136.59 Y136.979 E0.02892
G1 X137.202 Y136.367 E0.03422
M107
; INIT stop printing object EM_Cube-Unlabeled.stl id:0 copy 0
M106 S150.45
;LAYER_CHANGE
;Z:0.65
;HEIGHT:0.2
;BEFORE_LAYER_CHANGE
;0.65
TIMELAPSE_TAKE_FRAME


; stop printing object EM_Cube-Unlabeled.stl id:0 copy 0
G1 Z0.65 F36000
;AFTER_LAYER_CHANGE
;0.65
G92 E0
; INIT printing object EM_Cube-Unlabeled.stl id:0 copy 0
; printing object EM_Cube-Unlabeled.stl id:0 copy 0
G1 X136.305 Y136.305
;TYPE:Internal perimeter
;WIDTH:0.4
G1 F8525
G1 X163.695 Y136.305 E0.75634
G1 X163.695 Y163.695 E0.75634
G1 X136.305 Y163.695 E0.75634
G1 X136.305 Y136.365 E0.75468
M106 S150.45
G1 X135.947 Y135.947 F36000
G1 F8525
G1 X164.053 Y135.947 E0.77606
G1 X164.053 Y164.053 E0.77606
G1 X135.947 Y164.053 E0.77606
G1 X135.947 Y136.007 E0.7744
M106 S150.45
G1 X135.59 Y135.59 F36000
G1 F8525
G1 X164.41 Y135.59 E0.79578
G1 X164.41 Y164.41 E0.79578
G1 X135.59 Y164.41 E0.79578
G1 X135.59 Y135.65 E0.79412
M106 S150.45
M204 S1000
G1 X135.233 Y135.233 F36000
;TYPE:External perimeter
G1 F4800
M106 S191.25
G1 X164.767 Y135.233 E0.8155
G1 X164.767 Y164.767 E0.8155
G1 X135.233 Y164.767 E0.8155
G1 X135.233 Y135.293 E0.81384
M106 S150.45
;WIPE_START
M204 S1500
G1 X135.58 Y135.433 F36000
;WIPE_END
G1 X136.44 Y136.44
;TYPE:Internal infill
;WIDTH:0.72
G1 F6646.1894
G1 X163.56 Y163.56 E2.00813
M106 S150.45
G1 X163.56 Y159.238 F36000
G1 F6646.1894
G1 X159.238 Y163.56 E0.32
M106 S150.45
G1 X159 Y163.56 F36000
G1 F6646.1894
G1 X136.44 Y141 E1.67051
M106 S150.45
G1 X136.44 Y140.762 F36000
G1 F6646.1894
G1 X140.762 Y136.44 E0.32
M106 S150.45
G1 X141 Y136.44 F36000
G1 F6646.1894
G1 X163.56 Y159 E1.67051
M106 S150.45
G1 X163.56 Y154.679 F36000
G1 F6646.1894
G1 X154.679 Y163.56 E0.65762
M106 S150.45
G1 X154.441 Y163.56 F36000
G1 F6646.1894
G1 X136.44 Y145.559 E1.33288
M106 S150.45
G1 X136.44 Y145.321 F36000
G1 F6646.1894
G1 X145.321 Y136.44 E0.65762
M106 S150.45
G1 X145.559 Y136.44 F36000
G1 F6646.1894
G1 X163.56 Y154.441 E1.33288
M106 S150.45
G1 X163.56 Y150.119 F36000
G1 F6646.1894
G1 X150.119 Y163.56 E0.99525
M106 S150.45
G1 X149.881 Y163.56 F36000
G1 F6646.1894
G1 X136.44 Y150.119 E0.99525
M106 S150.45
G1 X136.44 Y149.881 F36000
G1 F6646.1894
G1 X149.881 Y136.44 E0.99525
M106 S150.45
G1 X150.119 Y136.44 F36000
G1 F6646.1894
G1 X163.56 Y149.881 E0.99525
M106 S150.45
G1 X163.56 Y145.559 F36000
G1 F6646.1894
G1 X145.559 Y163.56 E1.33288
M106 S150.45
G1 X145.321 Y163.56 F36000
G1 F6646.1894
G1 X136.44 Y154.679 E0.65762
M106 S150.45
G1 X136.44 Y154.441 F36000
G1 F6646.1894
G1 X154.441 Y136.44 E1.33288
M106 S150.45
G1 X154.679 Y136.44 F36000
G1 F6646.1894
G1 X163.56 Y145.321 E0.65762
M106 S150.45
G1 X163.56 Y141 F36000
G1 F6646.1894
G1 X141 Y163.56 E1.67051
M106 S150.45
G1 X140.762 Y163.56 F36000
G1 F6646.1894
G1 X136.44 Y159.238 E0.32
M106 S150.45
G1 X136.44 Y159 F36000
G1 F6646.1894
G1 X159 Y136.44 E1.67051
M106 S150.45
G1 X159.238 Y136.44 F36000
G1 F6646.1894
G1 X163.56 Y140.762 E0.32
M106 S150.45
G1 X163.56 Y136.44 F36000
G1 F6646.1894
G1 X136.44 Y163.56 E2.00813
M106 S150.45
; INIT stop printing object EM_Cube-Unlabeled.stl id:0 copy 0
;LAYER_CHANGE
;Z:0.85
;HEIGHT:0.2
;BEFORE_LAYER_CHANGE
;0.85
TIMELAPSE_TAKE_FRAME


