; generated by SuperSlicer 2.4 on 2022-06-17 at 22:13:59 UTC


;
;

;
;
; 

; external perimeters extrusion width = 0.40mm
; perimeters extrusion width = 0.48mm
; infill extrusion width = 0.60mm
; solid infill extrusion width = 0.56mm
; top infill extrusion width = 0.40mm
; first layer extrusion width = 0.48mm

; object:{"name":"EndstopHousingUwU","id":"EndstopHousingUwU.stl id:0 copy 0","object_center":[150.000000,150.000000,0.000000],"boundingbox_center":[150.000000,150.000000,13.975000],"boundingbox_size":[21.200003,29.000001,27.950000]}
; plater:{"center":[150.000000,150.000000,0.000000],"boundingbox_center":[150.000000,150.000000,13.975000],"boundingbox_size":[21.200003,29.000001,27.950000]}

;TYPE:Custom
print_start EXTRUDER=255 BED=110 CHAMBER=50
M107
G21 ; set units to millimeters
G90 ; use absolute coordinates
M83 ; use relative distances for extrusion
; Filament gcode
SET_PRESSURE_ADVANCE ADVANCE=0.045
SET_PRESSURE_ADVANCE EXTRUDER=extruder SMOOTH_TIME=0.04
M104 S255 ; set temperature
M109 S255 ; set temperature and wait for it to be reached
M190 S110 ; set bed temperature and wait for it to be reached
M107
;LAYER_CHANGE
;Z:0.25
;HEIGHT:0.25
;BEFORE_LAYER_CHANGE
;0.25
TIMELAPSE_TAKE_FRAME


G1 Z0.25 F36000
;AFTER_LAYER_CHANGE
;0.25
G92 E0
; INIT printing object EndstopHousingUwU.stl id:0 copy 0
G1 E-0.75 F3000
M204 S1500
G1 Z0.65 F36000
; printing object EndstopHousingUwU.stl id:0 copy 0
G1 X143.719 Y160.367
G1 Z0.25
G1 E0.75 F1800
;TYPE:Internal perimeter
;WIDTH:0.48
G1 F900
G1 X143.083 Y159.876 E0.03262
G1 X142.409 Y159.618 E0.02925
G1 X141.746 Y159.569 E0.02696
G1 X141.27 Y159.639 E0.0195
G1 X140.976 Y159.752 E0.01274
G1 X140.976 Y154.731 E0.20355
G1 X143.719 Y154.731 E0.11121
G1 X143.719 Y160.307 E0.22608
G1 X143.852 Y161.555 F36000
G1 F900
G1 X143.699 Y161.107 E0.01922
G1 X143.352 Y160.622 E0.02416
G1 X142.872 Y160.251 E0.0246
G1 X142.315 Y160.038 E0.02416
G1 X141.761 Y159.998 E0.02252
G1 X141.378 Y160.054 E0.01569
G1 X140.86 Y160.253 E0.02252
G1 X140.55 Y160.492 E0.01586
G1 X140.55 Y154.305 E0.25085
G1 X144.146 Y154.305 E0.14579
G1 X144.146 Y161.534 E0.2931
G1 X143.893 Y161.576 E0.01039
G1 X143.86 Y162.536 F36000
G1 F900
G1 X144.146 Y162.584 E0.01172
G1 X144.146 Y163.363 E0.03158
G1 X143.453 Y163.361 E0.0281
G1 X143.739 Y162.891 E0.02232
G1 X143.841 Y162.593 E0.01277
G1 E-0.75 F3000
G1 Z0.65 F36000
G1 X142.04 Y140.006
G1 Z0.25
G1 E0.75 F1800
G1 F900
G1 X142.233 Y140.006 E0.00782
G1 X142.928 Y139.792 E0.0295
G1 X143.478 Y139.417 E0.027
G1 X143.808 Y139.062 E0.01966
G1 X144.141 Y138.485 E0.027
G1 X144.289 Y137.836 E0.027
G1 X144.289 Y137.351 E0.01966
G1 X144.225 Y137.068 E0.01176
G1 X154.359 Y137.063 E0.41094
G1 X154.33 Y137.866 E0.03256
G1 X154.513 Y138.567 E0.0294
G1 X154.86 Y139.135 E0.02696
G1 X155.194 Y139.481 E0.0195
G1 X155.698 Y139.815 E0.02452
G1 X156.091 Y139.965 E0.01708
G1 X156.503 Y140.057 E0.01708
G1 X157.168 Y140.057 E0.02696
G1 X157.862 Y139.848 E0.0294
G1 X158.22 Y139.611 E0.01743
G1 X158.22 Y160.051 E0.82882
G1 X157.524 Y159.716 E0.03132
G1 X156.866 Y159.617 E0.027
G1 X156.382 Y159.653 E0.01966
G1 X155.746 Y159.849 E0.027
G1 X155.233 Y160.199 E0.02518
G1 X155.233 Y154.731 E0.2217
G1 X156.639 Y154.731 E0.05699
G1 X156.639 Y145.269 E0.3837
G1 X151.242 Y145.269 E0.21883
G1 X150.893 Y145.042 E0.01684
G1 X150.496 Y144.848 E0.01795
G1 X149.84 Y144.602 E0.02837
G1 X149.151 Y144.442 E0.0287
G1 X148.734 Y144.388 E0.01705
G1 X148.026 Y144.364 E0.02873
G1 X147.295 Y144.436 E0.0298
G1 X146.598 Y144.598 E0.02901
G1 X145.874 Y144.87 E0.03135
G1 X145.25 Y145.201 E0.02864
G1 X145.155 Y145.269 E0.00472
G1 X140.976 Y145.269 E0.16943
G1 X140.976 Y139.843 E0.21997
G1 X141.505 Y140.006 E0.02244
G1 X141.98 Y140.006 E0.01925
G1 X142.04 Y139.58 F36000
G1 F900
G1 X142.169 Y139.58 E0.00521
G1 X142.741 Y139.404 E0.02429
G1 X143.198 Y139.092 E0.02245
G1 X143.463 Y138.807 E0.01577
G1 X143.74 Y138.327 E0.02245
G1 X143.863 Y137.788 E0.02245
G1 X143.863 Y137.399 E0.01577
G1 X143.75 Y136.903 E0.02061
G1 X143.624 Y136.642 E0.01176
G1 X154.98 Y136.636 E0.46047
G1 X154.78 Y137.223 E0.02513
G1 X154.758 Y137.818 E0.02416
G1 X154.91 Y138.398 E0.02431
G1 X155.199 Y138.872 E0.02251
G1 X155.468 Y139.151 E0.01569
G1 X155.894 Y139.433 E0.02072
G1 X156.215 Y139.556 E0.01391
G1 X156.55 Y139.63 E0.01391
G1 X157.105 Y139.63 E0.02251
G1 X157.679 Y139.457 E0.02431
G1 X158.142 Y139.151 E0.02251
G1 X158.647 Y138.628 E0.02948
G1 X158.647 Y160.804 E0.89921
G1 X158.418 Y160.884 E0.00981
G1 X158.2 Y160.611 E0.01419
G1 X157.896 Y160.368 E0.01577
G1 X157.397 Y160.128 E0.02245
G1 X156.85 Y160.046 E0.02245
G1 X156.462 Y160.075 E0.01577
G1 X155.933 Y160.238 E0.02245
G1 X155.476 Y160.55 E0.02245
G1 X155.211 Y160.835 E0.01577
G1 X155.059 Y161.098 E0.01231
G1 X154.807 Y161.03 E0.01061
G1 X154.807 Y154.305 E0.27267
G1 X156.212 Y154.305 E0.05699
G1 X156.212 Y145.695 E0.34912
G1 X151.115 Y145.695 E0.20667
G1 X150.683 Y145.414 E0.02092
G1 X150.327 Y145.24 E0.01606
G1 X149.717 Y145.011 E0.0264
G1 X149.075 Y144.862 E0.02673
G1 X148.699 Y144.813 E0.01535
G1 X148.04 Y144.791 E0.02675
G1 X147.364 Y144.858 E0.02754
G1 X146.721 Y145.007 E0.02675
G1 X146.381 Y145.122 E0.01456
G1 X146.049 Y145.259 E0.01454
G1 X145.474 Y145.565 E0.0264
G1 X145.291 Y145.695 E0.00912
G1 X140.55 Y145.695 E0.19223
G1 X140.55 Y139.134 E0.26603
G1 X141.041 Y139.417 E0.02296
G1 X141.57 Y139.58 E0.02245
G1 X141.98 Y139.58 E0.01664
G1 X142.04 Y139.154 F36000
G1 F900
G1 X142.104 Y139.154 E0.00261
G1 X142.554 Y139.015 E0.01907
G1 X142.918 Y138.767 E0.01789
G1 X143.118 Y138.552 E0.01187
G1 X143.338 Y138.17 E0.01789
G1 X143.436 Y137.74 E0.01789
G1 X143.436 Y137.447 E0.01187
G1 X143.345 Y137.045 E0.01671
G1 X143.218 Y136.781 E0.01187
G1 X142.767 Y136.216 E0.02931
G1 X155.814 Y136.21 E0.52904
G1 X155.359 Y136.846 E0.03172
G1 X155.204 Y137.301 E0.01951
G1 X155.187 Y137.771 E0.01907
G1 X155.307 Y138.23 E0.01922
G1 X155.539 Y138.61 E0.01807
G1 X155.742 Y138.821 E0.01189
G1 X156.09 Y139.052 E0.01691
G1 X156.338 Y139.146 E0.01074
G1 X156.596 Y139.204 E0.01075
G1 X157.042 Y139.204 E0.01807
G1 X157.496 Y139.067 E0.01922
G1 X157.868 Y138.821 E0.01807
G1 X158.071 Y138.61 E0.01189
G1 X158.289 Y138.254 E0.01691
G1 X158.383 Y137.977 E0.01189
G1 X158.432 Y137.534 E0.01807
G1 X158.351 Y137.096 E0.01807
G1 X158.236 Y136.826 E0.01189
G1 X157.795 Y136.209 E0.03076
G1 X158.785 Y136.208 E0.04016
G1 X158.889 Y136.222 E0.00423
G1 X159.002 Y136.28 E0.00514
G1 X159.059 Y136.392 E0.00514
G1 X159.073 Y136.496 E0.00424
G1 X159.073 Y163.504 E1.0951
G1 X159.059 Y163.614 E0.0045
G1 X159.038 Y163.664 E0.00219
G1 X158.951 Y163.76 E0.00527
G1 X158.865 Y163.783 E0.0036
G1 X157.406 Y163.786 E0.05917
G1 X157.345 Y163.52 E0.01104
G1 X157.694 Y163.352 E0.01572
G1 X158.039 Y163.032 E0.01908
G1 X158.274 Y162.625 E0.01908
G1 X158.372 Y162.195 E0.01789
G1 X158.372 Y161.902 E0.01187
G1 X158.281 Y161.5 E0.01671
G1 X158.154 Y161.236 E0.01187
G1 X157.897 Y160.914 E0.01671
G1 X157.668 Y160.732 E0.01187
G1 X157.27 Y160.54 E0.01789
G1 X156.834 Y160.474 E0.01789
G1 X156.688 Y160.485 E0.00593
G1 X156.542 Y160.496 E0.00593
G1 X156.12 Y160.626 E0.01789
G1 X155.756 Y160.875 E0.01789
G1 X155.557 Y161.09 E0.01187
G1 X155.35 Y161.446 E0.01671
G1 X155.264 Y161.726 E0.01187
G1 X155.231 Y162.166 E0.01789
G1 X155.336 Y162.625 E0.01908
G1 X155.557 Y163.007 E0.01789
G1 X155.756 Y163.222 E0.01187
G1 X156.096 Y163.454 E0.01671
G1 X156.24 Y163.51 E0.00627
G1 X156.188 Y163.788 E0.01145
G1 X154.38 Y163.791 E0.07329
G1 X154.38 Y153.879 E0.4019
G1 X155.786 Y153.879 E0.05699
G1 X155.786 Y146.121 E0.31455
G1 X150.989 Y146.121 E0.19451
G1 X150.472 Y145.785 E0.02499
G1 X150.158 Y145.632 E0.01417
G1 X149.594 Y145.42 E0.02444
G1 X148.999 Y145.282 E0.02476
G1 X148.665 Y145.238 E0.01366
G1 X148.054 Y145.219 E0.02478
G1 X147.433 Y145.279 E0.02529
G1 X146.838 Y145.418 E0.02478
G1 X146.531 Y145.522 E0.01315
G1 X146.231 Y145.645 E0.01314
G1 X145.699 Y145.928 E0.02444
G1 X145.427 Y146.121 E0.01352
G1 X141.001 Y146.121 E0.17948
G1 X141.001 Y153.879 E0.31455
G1 X144.572 Y153.879 E0.14481
G1 X144.572 Y163.79 E0.40188
G1 X142.6 Y163.785 E0.07996
G1 X142.527 Y163.543 E0.01027
G1 X142.93 Y163.276 E0.01958
G1 X143.134 Y163.065 E0.01189
G1 X143.351 Y162.709 E0.01691
G1 X143.437 Y162.458 E0.01075
G1 X143.485 Y162.198 E0.01075
G1 X143.468 Y161.752 E0.01807
G1 X143.315 Y161.304 E0.01922
G1 X143.042 Y160.921 E0.01907
G1 X142.661 Y160.627 E0.01951
G1 X142.221 Y160.459 E0.01907
G1 X141.777 Y160.427 E0.01807
G1 X141.487 Y160.469 E0.01189
G1 X141.071 Y160.628 E0.01807
G1 X140.695 Y160.918 E0.01922
G1 X140.361 Y161.386 E0.02333
G1 X140.124 Y161.31 E0.01009
G1 X140.124 Y138.197 E0.93717
G1 X140.377 Y138.129 E0.01061
G1 X140.635 Y138.577 E0.02097
G1 X140.959 Y138.877 E0.01789
G1 X141.212 Y139.024 E0.01187
G1 X141.634 Y139.154 E0.01789
G1 X141.98 Y139.154 E0.01404
G1 E-0.75 F3000
G1 Z0.65 F36000
; acceleration to travel
G1 X150.576 Y152.27
; decel to extrusion
M204 S1000
G1 X156.307 Y161.015
; end travel
G1 Z0.25
G1 E0.75 F1800
;TYPE:External perimeter
G1 F900
G1 X156.035 Y161.2 E0.01334
G1 X155.902 Y161.344 E0.00797
G1 X155.744 Y161.618 E0.01281
G1 X155.726 Y161.674 E0.00238
G1 X155.686 Y161.806 E0.00559
G1 X155.661 Y162.134 E0.01334
G1 X155.699 Y162.301 E0.00693
G1 X155.737 Y162.467 E0.00693
G1 X155.902 Y162.752 E0.01334
G1 X156.035 Y162.896 E0.00797
G1 X156.07 Y162.92 E0.00171
G1 X156.297 Y163.074 E0.01111
G1 X156.443 Y163.132 E0.0064
G1 X156.468 Y163.142 E0.00106
G1 X156.647 Y163.183 E0.00745
G1 X156.963 Y163.183 E0.01281
G1 X157.155 Y163.139 E0.00797
G1 X157.451 Y162.996 E0.01334
G1 X157.702 Y162.763 E0.01386
G1 X157.838 Y162.527 E0.01106
G1 X157.873 Y162.467 E0.0028
G1 X157.899 Y162.35 E0.00487
G1 X157.946 Y162.147 E0.00847
G1 X157.946 Y161.95 E0.00797
G1 X157.876 Y161.642 E0.01281
G1 X157.79 Y161.465 E0.00797
G1 X157.593 Y161.218 E0.01281
G1 X157.439 Y161.095 E0.00797
G1 X157.143 Y160.952 E0.01334
G1 X156.818 Y160.903 E0.01334
G1 X156.72 Y160.91 E0.00399
G1 X156.622 Y160.918 E0.00399
G1 X156.535 Y160.945 E0.00369
G1 X156.365 Y160.997 E0.00721
;WIPE_START
M204 S1500
G1 X156.027 Y160.843 F36000
;WIPE_END
G1 E-0.75 F3000
G1 Z0.65 F36000
M204 S1000
G1 X143.045 Y161.831
G1 Z0.25
G1 E0.75 F1800
G1 F900
G1 X142.932 Y161.501 E0.01413
G1 X142.731 Y161.22 E0.01398
G1 X142.45 Y161.003 E0.01442
G1 X142.128 Y160.88 E0.01398
G1 X141.793 Y160.855 E0.01362
G1 X141.595 Y160.884 E0.00809
G1 X141.282 Y161.004 E0.01362
G1 X141.006 Y161.217 E0.01413
G1 X140.81 Y161.491 E0.01362
G1 X140.732 Y161.674 E0.00809
G1 X140.673 Y161.992 E0.01311
G1 X140.679 Y162.134 E0.00576
G1 X140.681 Y162.191 E0.00233
G1 X140.763 Y162.504 E0.01311
G1 X140.805 Y162.588 E0.0038
G1 X140.854 Y162.681 E0.00428
G1 X141.069 Y162.94 E0.01362
G1 X141.349 Y163.125 E0.01362
G1 X141.523 Y163.192 E0.00758
G1 X141.633 Y163.216 E0.00453
G1 X141.706 Y163.233 E0.00304
G1 X142.042 Y163.233 E0.01362
G1 X142.376 Y163.132 E0.01413
G1 X142.543 Y163.021 E0.00815
G1 X142.656 Y162.947 E0.00547
G1 X142.724 Y162.876 E0.00397
G1 X142.794 Y162.803 E0.00411
G1 X142.963 Y162.527 E0.01311
G1 X142.982 Y162.47 E0.00247
G1 X143.023 Y162.35 E0.00511
G1 X143.052 Y162.191 E0.00655
G1 X143.057 Y162.166 E0.00102
G1 X143.049 Y161.95 E0.00879
G1 X143.047 Y161.891 E0.0024
;WIPE_START
M204 S1500
G1 X143.299 Y161.592 F36000
;WIPE_END
G1 E-0.75 F3000
G1 Z0.65 F36000
; acceleration to travel
G1 X142.543 Y147.873
; decel to extrusion
M204 S1000
G1 X142.04 Y138.727
; end travel
G1 Z0.25
G1 E0.75 F1800
G1 F900
G1 X142.367 Y138.627 E0.01386
G1 X142.505 Y138.532 E0.0068
G1 X142.639 Y138.441 E0.00654
G1 X142.772 Y138.297 E0.00797
G1 X142.937 Y138.012 E0.01334
G1 X142.966 Y137.883 E0.00536
G1 X143.01 Y137.692 E0.00798
G1 X143.01 Y137.495 E0.00797
G1 X142.94 Y137.187 E0.01281
G1 X142.854 Y137.01 E0.00797
G1 X142.649 Y136.752 E0.01334
G1 X142.377 Y136.567 E0.01334
G1 X142.317 Y136.543 E0.00264
G1 X142.206 Y136.5 E0.00482
G1 X142.147 Y136.486 E0.00248
G1 X142.027 Y136.459 E0.00497
G1 X141.698 Y136.459 E0.01334
G1 X141.371 Y136.56 E0.01386
G1 X141.1 Y136.745 E0.01334
G1 X140.966 Y136.889 E0.00797
G1 X140.808 Y137.163 E0.01281
G1 X140.754 Y137.339 E0.00745
G1 X140.726 Y137.52 E0.00745
G1 X140.75 Y137.836 E0.01281
G1 X140.808 Y138.023 E0.00797
G1 X140.972 Y138.308 E0.01334
G1 X141.213 Y138.532 E0.01334
G1 X141.384 Y138.63 E0.00797
G1 X141.444 Y138.649 E0.00254
G1 X141.698 Y138.727 E0.01079
G1 X141.98 Y138.727 E0.01143
;WIPE_START
M204 S1500
G1 X142.266 Y138.984 F36000
;WIPE_END
M204 S1000
G1 X155.615 Y137.724
G1 F900
G1 X155.703 Y138.061 E0.01413
G1 X155.878 Y138.348 E0.01362
G1 X156.017 Y138.492 E0.00809
G1 X156.286 Y138.67 E0.01311
G1 X156.461 Y138.737 E0.00758
G1 X156.643 Y138.778 E0.00758
G1 X156.979 Y138.778 E0.01362
G1 X157.313 Y138.677 E0.01413
G1 X157.593 Y138.492 E0.01362
G1 X157.732 Y138.348 E0.00809
G1 X157.9 Y138.072 E0.01311
G1 X157.965 Y137.883 E0.00809
G1 X158.001 Y137.549 E0.01362
G1 X157.94 Y137.219 E0.01362
G1 X157.884 Y137.087 E0.00583
G1 X157.862 Y137.036 E0.00226
G1 X157.758 Y136.889 E0.0073
G1 X157.674 Y136.773 E0.00581
G1 X157.526 Y136.64 E0.00809
G1 X157.244 Y136.481 E0.01311
G1 X157.053 Y136.424 E0.00809
G1 X156.718 Y136.399 E0.01362
G1 X156.377 Y136.475 E0.01413
G1 X156.149 Y136.603 E0.01063
G1 X156.084 Y136.64 E0.003
G1 X155.936 Y136.773 E0.00809
G1 X155.875 Y136.858 E0.00426
G1 X155.743 Y137.043 E0.00921
G1 X155.628 Y137.379 E0.01442
G1 X155.617 Y137.664 E0.01155
;WIPE_START
M204 S1500
G1 X155.344 Y137.944 F36000
;WIPE_END
M204 S1000
G1 X141.427 Y146.548
G1 F900
G1 X141.427 Y153.452 E0.27997
G1 X144.998 Y153.452 E0.14481
G1 X144.998 Y164.217 E0.43649
G1 X141.682 Y164.21 E0.13448
G1 X141.616 Y164.202 E0.00269
G1 X141.517 Y164.189 E0.00403
G1 X141.163 Y164.1 E0.01481
G1 X141.116 Y164.079 E0.00211
G1 X140.829 Y163.953 E0.0127
G1 X140.681 Y163.865 E0.00699
G1 X140.541 Y163.765 E0.00699
G1 X140.288 Y163.532 E0.01392
G1 X140.272 Y163.517 E0.00089
G1 X140.047 Y163.229 E0.01481
G1 X139.963 Y163.087 E0.0067
G1 X139.84 Y162.806 E0.01245
G1 X139.813 Y162.746 E0.00265
G1 X139.766 Y162.588 E0.0067
G1 X139.705 Y162.22 E0.01509
G1 X139.697 Y162.037 E0.00745
G1 X139.697 Y137.966 E0.97602
G1 X139.704 Y137.883 E0.00335
G1 X139.728 Y137.595 E0.01174
G1 X139.818 Y137.241 E0.01481
G1 X139.86 Y137.134 E0.00466
G1 X139.878 Y137.087 E0.00204
G1 X140.052 Y136.766 E0.01481
G1 X140.276 Y136.477 E0.01481
G1 X140.393 Y136.36 E0.0067
G1 X140.518 Y136.264 E0.0064
G1 X140.687 Y136.132 E0.0087
G1 X140.829 Y136.047 E0.0067
G1 X141.17 Y135.898 E0.0151
G1 X141.328 Y135.85 E0.0067
G1 X141.688 Y135.79 E0.01481
G1 X158.813 Y135.782 E0.69436
G1 X159.018 Y135.809 E0.00836
G1 X159.079 Y135.829 E0.00261
G1 X159.241 Y135.923 E0.00759
G1 X159.358 Y136.04 E0.00674
G1 X159.452 Y136.203 E0.00759
G1 X159.472 Y136.264 E0.00261
G1 X159.499 Y136.468 E0.00837
G1 X159.499 Y163.532 E1.09736
G1 X159.474 Y163.725 E0.00791
G1 X159.404 Y163.895 E0.00745
G1 X159.368 Y163.949 E0.00261
G1 X159.238 Y164.079 E0.00745
G1 X159.088 Y164.165 E0.007
G1 X158.921 Y164.21 E0.00701
G1 X153.954 Y164.218 E0.20141
G1 X153.954 Y153.452 E0.4365
G1 X155.36 Y153.452 E0.05699
G1 X155.36 Y146.548 E0.27997
G1 X150.862 Y146.548 E0.18234
G1 X150.795 Y146.497 E0.00342
G1 X150.728 Y146.446 E0.00342
G1 X150.261 Y146.157 E0.02226
G1 X149.989 Y146.024 E0.01228
G1 X149.47 Y145.829 E0.02248
G1 X148.922 Y145.702 E0.0228
G1 X148.63 Y145.664 E0.01197
G1 X148.068 Y145.646 E0.0228
G1 X147.503 Y145.701 E0.02303
G1 X147.1 Y145.794 E0.01675
G1 X146.955 Y145.828 E0.00605
G1 X146.815 Y145.876 E0.006
G1 X146.681 Y145.921 E0.00574
G1 X146.507 Y145.993 E0.00762
G1 X146.413 Y146.031 E0.00412
G1 X145.923 Y146.292 E0.02248
G1 X145.563 Y146.548 E0.01791
G1 X141.487 Y146.548 E0.16528
;WIPE_START
M204 S1500
G1 X141.027 Y146.548 F36000
;WIPE_END
G1 X140.562 Y145.891
;TYPE:Gap fill
;WIDTH:0.538805
G1 F900
G1 X140.562 Y146.012 E0.0056
G1 X140.562 Y146.133 E0.0056
G1 X140.562 Y150 E0.17841
G1 X140.562 Y153.867 E0.17841
G1 X140.562 Y153.988 E0.0056
G1 X140.562 Y154.109 E0.0056
G1 X142.794 Y154.795 F36000
;TYPE:Solid infill
;WIDTH:0.451966
G1 F1200
G1 X143.472 Y155.474 E0.03664
G1 X143.472 Y156.077 E0.02302
G1 X142.374 Y154.979 E0.05929
