; generated by SuperSlicer 2.4 on 2022-05-29 at 02:55:39 UTC


;
;

;
;
; 

; external perimeters extrusion width = 0.40mm
; perimeters extrusion width = 0.45mm
; infill extrusion width = 0.72mm
; solid infill extrusion width = 0.56mm
; top infill extrusion width = 0.40mm
; first layer extrusion width = 0.48mm

; external perimeters extrusion width = 0.40mm
; perimeters extrusion width = 0.45mm
; infill extrusion width = 0.72mm
; solid infill extrusion width = 0.56mm
; top infill extrusion width = 0.40mm
; first layer extrusion width = 0.48mm

; external perimeters extrusion width = 0.40mm
; perimeters extrusion width = 0.45mm
; infill extrusion width = 0.72mm
; solid infill extrusion width = 0.56mm
; top infill extrusion width = 0.40mm
; first layer extrusion width = 0.48mm

; object:{"name":"Extrusion Bracket Rev4","id":"Extrusion Bracket Rev4.stl id:0 copy 0","object_center":[150.000001,174.540913,0.000000],"boundingbox_center":[150.000001,174.540913,7.000000],"boundingbox_size":[40.000000,19.992952,14.000000]}
; object:{"name":"Spacer Arm Rev2","id":"Spacer Arm Rev2.stl id:1 copy 0","object_center":[150.000001,121.962612,0.000000],"boundingbox_center":[150.000001,121.962612,7.500000],"boundingbox_size":[51.983315,13.000000,15.000000]}
; object:{"name":"Camera Bracket Rev5","id":"Camera Bracket Rev5.stl id:2 copy 0","object_center":[150.000101,146.503826,0.000000],"boundingbox_center":[150.000101,146.503826,8.243094],"boundingbox_size":[82.060278,24.080908,16.486187]}
; plater:{"center":[150.000101,150.000000,0.000000],"boundingbox_center":[150.000101,150.000000,8.243094],"boundingbox_size":[82.060278,69.074777,16.486187]}

;TYPE:Custom
print_start EXTRUDER=250 BED=110 CHAMBER=50
M107
G21 ; set units to millimeters
G90 ; use absolute coordinates
M83 ; use relative distances for extrusion
; Filament gcode
SET_PRESSURE_ADVANCE ADVANCE=0.03465
M104 S250 ; set temperature
M109 S250 ; set temperature and wait for it to be reached
M190 S110 ; set bed temperature and wait for it to be reached
M107
;LAYER_CHANGE
;Z:0.25
;HEIGHT:0.25
;BEFORE_LAYER_CHANGE
;0.25


G1 Z0.25 F27000
;AFTER_LAYER_CHANGE
;0.25
G92 E0
; INIT printing object Extrusion Bracket Rev4.stl id:0 copy 0
G1 E-0.75 F3000
M204 S1500
G1 Z0.65 F27000
; printing object Extrusion Bracket Rev4.stl id:0 copy 0
G1 X131.619 Y167.163
G1 Z0.25
G1 E0.75 F1800
;TYPE:Internal perimeter
;WIDTH:0.48
G1 F900
G1 X168.381 Y167.163 E1.50525
G1 X168.381 Y177.23 E0.41219
G1 X159.369 Y177.23 E0.369
G1 X159.369 Y168.925 E0.34004
G1 X140.631 Y168.925 E0.76725
G1 X140.631 Y177.23 E0.34004
G1 X131.619 Y177.23 E0.369
G1 X131.619 Y167.223 E0.40973
G1 X131.193 Y166.737 F27000
G1 F900
G1 X168.807 Y166.737 E1.54017
G1 X168.807 Y177.656 E0.4471
G1 X158.943 Y177.656 E0.40392
G1 X158.943 Y169.352 E0.34004
G1 X141.057 Y169.352 E0.73234
G1 X141.057 Y177.656 E0.34004
G1 X131.193 Y177.656 E0.40392
G1 X131.193 Y166.797 E0.44465
G1 X130.766 Y166.311 F27000
G1 F900
G1 X169.234 Y166.311 E1.57508
G1 X169.234 Y178.083 E0.48202
G1 X158.516 Y178.083 E0.43883
G1 X158.516 Y169.778 E0.34004
G1 X141.484 Y169.778 E0.69742
G1 X141.484 Y178.083 E0.34004
G1 X130.766 Y178.083 E0.43883
G1 X130.766 Y166.371 E0.47956
M204 S1000
G1 X130.34 Y165.884 F27000
;TYPE:External perimeter
G1 F900
G1 X169.66 Y165.884 E1.61
G1 X169.66 Y178.509 E0.51693
G1 X158.09 Y178.509 E0.47375
G1 X158.09 Y170.204 E0.34004
G1 X141.91 Y170.204 E0.66251
G1 X141.91 Y178.509 E0.34004
G1 X130.34 Y178.509 E0.47375
G1 X130.34 Y165.944 E0.51447
;WIPE_START
M204 S1500
G1 X130.686 Y166.084 F27000
;WIPE_END
G1 X167.455 Y167.227
;TYPE:Solid infill
;WIDTH:0.462454
G1 F1200
G1 X168.134 Y167.906 E0.03785
G1 X168.134 Y168.509 E0.02379
G1 X167.036 Y167.411 E0.06127
G1 X166.433 Y167.411 E0.02379
G1 X168.134 Y169.112 E0.0949
G1 X168.134 Y169.715 E0.02379
G1 X165.83 Y167.411 E0.12854
G1 X165.227 Y167.411 E0.02379
G1 X168.134 Y170.318 E0.16218
G1 X168.134 Y170.921 E0.02379
G1 X164.624 Y167.411 E0.19582
G1 X164.021 Y167.411 E0.02379
G1 X168.134 Y171.524 E0.22946
G1 X168.134 Y172.127 E0.02379
G1 X163.418 Y167.411 E0.2631
G1 X162.815 Y167.411 E0.02379
G1 X168.134 Y172.73 E0.29673
G1 X168.134 Y173.332 E0.02379
G1 X162.212 Y167.411 E0.33037
G1 X161.609 Y167.411 E0.02379
G1 X168.134 Y173.935 E0.36401
G1 X168.134 Y174.538 E0.02379
G1 X161.006 Y167.411 E0.39765
G1 X160.403 Y167.411 E0.02379
G1 X168.134 Y175.141 E0.43129
G1 X168.134 Y175.744 E0.02379
G1 X159.8 Y167.411 E0.46493
G1 X159.197 Y167.411 E0.02379
G1 X168.134 Y176.347 E0.49856
G1 X168.134 Y176.95 E0.02379
G1 X158.594 Y167.411 E0.5322
G1 X157.991 Y167.411 E0.02379
G1 X167.563 Y176.983 E0.53402
G1 X166.96 Y176.983 E0.02379
G1 X159.616 Y169.639 E0.40973
G1 X159.616 Y170.242 E0.02379
G1 X166.358 Y176.983 E0.37609
G1 X165.755 Y176.983 E0.02379
G1 X159.616 Y170.845 E0.34245
G1 X159.616 Y171.448 E0.02379
G1 X165.152 Y176.983 E0.30881
G1 X164.549 Y176.983 E0.02379
G1 X159.616 Y172.05 E0.27517
G1 X159.616 Y172.653 E0.02379
G1 X163.946 Y176.983 E0.24154
G1 X163.343 Y176.983 E0.02379
G1 X159.616 Y173.256 E0.2079
G1 X159.616 Y173.859 E0.02379
G1 X162.74 Y176.983 E0.17426
G1 X162.137 Y176.983 E0.02379
G1 X159.616 Y174.462 E0.14062
G1 X159.616 Y175.065 E0.02379
G1 X161.534 Y176.983 E0.10698
G1 X160.931 Y176.983 E0.02379
G1 X159.616 Y175.668 E0.07334
G1 X159.616 Y176.271 E0.02379
G1 X160.328 Y176.983 E0.03971
G1 X159.725 Y176.983 E0.02379
G1 X159.433 Y176.691 E0.0163
G1 X158.839 Y168.861 F27000
G1 F1200
G1 X157.388 Y167.411 E0.08094
G1 X156.785 Y167.411 E0.02379
G1 X158.053 Y168.678 E0.07071
G1 X157.45 Y168.678 E0.02379
G1 X156.182 Y167.411 E0.07071
G1 X155.58 Y167.411 E0.02379
G1 X156.847 Y168.678 E0.07071
G1 X156.244 Y168.678 E0.02379
G1 X154.977 Y167.411 E0.07071
G1 X154.374 Y167.411 E0.02379
G1 X155.641 Y168.678 E0.07071
G1 X155.038 Y168.678 E0.02379
G1 X153.771 Y167.411 E0.07071
G1 X153.168 Y167.411 E0.02379
G1 X154.435 Y168.678 E0.07071
G1 X153.832 Y168.678 E0.02379
G1 X152.565 Y167.411 E0.07071
G1 X151.962 Y167.411 E0.02379
G1 X153.229 Y168.678 E0.07071
G1 X152.626 Y168.678 E0.02379
G1 X151.359 Y167.411 E0.07071
G1 X150.756 Y167.411 E0.02379
G1 X152.023 Y168.678 E0.07071
G1 X151.42 Y168.678 E0.02379
G1 X150.153 Y167.411 E0.07071
G1 X149.55 Y167.411 E0.02379
G1 X150.817 Y168.678 E0.07071
G1 X150.214 Y168.678 E0.02379
G1 X148.947 Y167.411 E0.07071
G1 X148.344 Y167.411 E0.02379
G1 X149.612 Y168.678 E0.07071
G1 X149.009 Y168.678 E0.02379
G1 X147.741 Y167.411 E0.07071
G1 X147.138 Y167.411 E0.02379
G1 X148.406 Y168.678 E0.07071
G1 X147.803 Y168.678 E0.02379
G1 X146.535 Y167.411 E0.07071
G1 X145.932 Y167.411 E0.02379
G1 X147.2 Y168.678 E0.07071
G1 X146.597 Y168.678 E0.02379
G1 X145.329 Y167.411 E0.07071
G1 X144.726 Y167.411 E0.02379
G1 X145.994 Y168.678 E0.07071
G1 X145.391 Y168.678 E0.02379
G1 X144.124 Y167.411 E0.07071
G1 X143.521 Y167.411 E0.02379
G1 X144.788 Y168.678 E0.07071
G1 X144.185 Y168.678 E0.02379
G1 X142.918 Y167.411 E0.07071
G1 X142.315 Y167.411 E0.02379
G1 X143.582 Y168.678 E0.07071
G1 X142.979 Y168.678 E0.02379
G1 X141.712 Y167.411 E0.07071
G1 X141.109 Y167.411 E0.02379
G1 X142.376 Y168.678 E0.07071
G1 X141.773 Y168.678 E0.02379
G1 X140.506 Y167.411 E0.07071
G1 X139.903 Y167.411 E0.02379
G1 X141.17 Y168.678 E0.07071
G1 X140.567 Y168.678 E0.02379
G1 X139.3 Y167.411 E0.07071
G1 X138.697 Y167.411 E0.02379
G1 X140.384 Y169.097 E0.0941
G1 X140.384 Y169.7 E0.02379
G1 X138.094 Y167.411 E0.12774
G1 X137.491 Y167.411 E0.02379
G1 X140.384 Y170.303 E0.16138
G1 X140.384 Y170.906 E0.02379
G1 X136.888 Y167.411 E0.19502
G1 X136.285 Y167.411 E0.02379
G1 X140.384 Y171.509 E0.22866
G1 X140.384 Y172.112 E0.02379
G1 X135.682 Y167.411 E0.26229
G1 X135.079 Y167.411 E0.02379
G1 X140.384 Y172.715 E0.29593
G1 X140.384 Y173.318 E0.02379
G1 X134.476 Y167.411 E0.32957
G1 X133.873 Y167.411 E0.02379
G1 X140.384 Y173.921 E0.36321
G1 X140.384 Y174.524 E0.02379
G1 X133.27 Y167.411 E0.39685
G1 X132.667 Y167.411 E0.02379
G1 X140.384 Y175.127 E0.43049
G1 X140.384 Y175.73 E0.02379
G1 X132.065 Y167.411 E0.46412
G1 X131.866 Y167.411 E0.00782
G1 X131.866 Y167.815 E0.01597
G1 X140.384 Y176.333 E0.47518
G1 X140.384 Y176.936 E0.02379
G1 X131.866 Y168.418 E0.47518
G1 X131.866 Y169.021 E0.02379
G1 X139.828 Y176.983 E0.44417
G1 X139.225 Y176.983 E0.02379
G1 X131.866 Y169.624 E0.41053
G1 X131.866 Y170.227 E0.02379
G1 X138.622 Y176.983 E0.37689
G1 X138.019 Y176.983 E0.02379
G1 X131.866 Y170.83 E0.34325
G1 X131.866 Y171.433 E0.02379
G1 X137.416 Y176.983 E0.30961
G1 X136.813 Y176.983 E0.02379
G1 X131.866 Y172.036 E0.27598
G1 X131.866 Y172.639 E0.02379
G1 X136.21 Y176.983 E0.24234
G1 X135.607 Y176.983 E0.02379
G1 X131.866 Y173.242 E0.2087
G1 X131.866 Y173.845 E0.02379
G1 X135.004 Y176.983 E0.17506
G1 X134.401 Y176.983 E0.02379
G1 X131.866 Y174.448 E0.14142
G1 X131.866 Y175.051 E0.02379
G1 X133.798 Y176.983 E0.10778
G1 X133.195 Y176.983 E0.02379
G1 X131.866 Y175.654 E0.07415
G1 X131.866 Y176.257 E0.02379
G1 X132.592 Y176.983 E0.04051
G1 X131.989 Y176.983 E0.02379
G1 X131.683 Y176.676 E0.0171
; INIT stop printing object Extrusion Bracket Rev4.stl id:0 copy 0
; INIT printing object Camera Bracket Rev5.stl id:2 copy 0
G1 E-0.75 F3000
G1 Z0.65 F27000
; stop printing object Extrusion Bracket Rev4.stl id:0 copy 0
; printing object Camera Bracket Rev5.stl id:2 copy 0
G1 X179.66 Y147.291
G1 Z0.25
G1 E0.75 F1800
;TYPE:Internal perimeter
;WIDTH:0.48
G1 F900
G1 X179.745 Y147.434 E0.00684
G1 X180.25 Y147.931 E0.02898
G1 X180.662 Y148.156 E0.01924
G1 X180.624 Y148.394 E0.00989
G1 X180.071 Y148.494 E0.02301
G1 X179.174 Y148.685 E0.03754
G1 X178.334 Y148.902 E0.03553
G1 X177.505 Y149.164 E0.0356
G1 X176.686 Y149.481 E0.03595
G1 X175.882 Y149.863 E0.03647
G1 X175.119 Y150.302 E0.03604
G1 X174.418 Y150.777 E0.03465
G1 X173.748 Y151.302 E0.03487
G1 X173.183 Y151.802 E0.03092
G1 X172.133 Y152.855 E0.06085
G1 X170.306 Y154.818 E0.10982
G1 X169.881 Y155.227 E0.02415
G1 X169.439 Y155.611 E0.02398
G1 X169.024 Y155.926 E0.02134
G1 X168.561 Y156.224 E0.02255
G1 X168.075 Y156.476 E0.02241
G1 X167.552 Y156.681 E0.023
G1 X166.977 Y156.835 E0.02435
G1 X166.363 Y156.925 E0.02543
G1 X133.587 Y156.866 E1.34206
G1 X133.078 Y156.794 E0.02104
G1 X132.556 Y156.666 E0.02198
G1 X132.097 Y156.503 E0.01996
G1 X131.562 Y156.25 E0.02422
G1 X131.084 Y155.96 E0.0229
G1 X130.641 Y155.636 E0.02248
G1 X130.207 Y155.271 E0.02321
G1 X129.786 Y154.874 E0.02369
G1 X128.885 Y153.927 E0.05353
G1 X127.899 Y152.845 E0.05995
G1 X126.878 Y151.804 E0.05968
G1 X126.28 Y151.264 E0.03299
G1 X125.66 Y150.764 E0.03261
G1 X125.01 Y150.307 E0.03253
G1 X124.293 Y149.875 E0.03427
G1 X123.573 Y149.51 E0.03305
G1 X122.817 Y149.19 E0.03364
G1 X122.021 Y148.912 E0.03451
G1 X121.21 Y148.679 E0.03456
G1 X120.397 Y148.485 E0.03422
G1 X119.535 Y148.312 E0.03598
G1 X119.082 Y148.237 E0.01879
G1 X119.567 Y147.865 E0.02503
G1 X119.973 Y147.337 E0.02727
G1 X120.228 Y146.722 E0.02727
G1 X120.315 Y146.061 E0.02727
G1 X120.228 Y145.401 E0.02727
G1 X119.973 Y144.786 E0.02727
G1 X119.567 Y144.258 E0.02727
G1 X119.039 Y143.852 E0.02727
G1 X118.424 Y143.597 E0.02727
G1 X117.764 Y143.51 E0.02727
G1 X117.103 Y143.597 E0.02727
G1 X116.488 Y143.852 E0.02727
G1 X115.96 Y144.258 E0.02727
G1 X115.439 Y144.936 E0.03504
G1 X115.369 Y144.403 E0.02203
G1 X115.114 Y143.788 E0.02727
G1 X114.708 Y143.259 E0.02727
G1 X114.18 Y142.854 E0.02727
G1 X113.742 Y142.672 E0.01943
G1 X113.757 Y142.429 E0.01
G1 X114.196 Y142.31 E0.01861
G1 X115.207 Y142.107 E0.04221
G1 X116.252 Y141.968 E0.04317
G1 X119.357 Y141.718 E0.12755
G1 X120.462 Y141.599 E0.0455
G1 X121.603 Y141.416 E0.04732
G1 X122.737 Y141.151 E0.04769
G1 X123.871 Y140.787 E0.04879
G1 X124.957 Y140.338 E0.0481
G1 X125.925 Y139.853 E0.04432
G1 X126.796 Y139.357 E0.04105
G1 X129.911 Y137.361 E0.15151
G1 X130.68 Y136.913 E0.03645
G1 X131.408 Y136.547 E0.03333
G1 X131.911 Y136.346 E0.02218
G1 X166.83 Y136.083 E1.42984
G1 X167.18 Y136.133 E0.01448
G1 X167.621 Y136.237 E0.01854
G1 X168.068 Y136.383 E0.01927
G1 X168.512 Y136.564 E0.01961
G1 X169.436 Y137.032 E0.04243
G1 X170.375 Y137.596 E0.04486
G1 X172.4 Y138.922 E0.0991
G1 X173.537 Y139.623 E0.05468
G1 X174.712 Y140.257 E0.05467
G1 X175.333 Y140.545 E0.02804
G1 X176.423 Y140.974 E0.04796
G1 X177.018 Y141.168 E0.02563
G1 X178.067 Y141.443 E0.04438
G1 X179.134 Y141.645 E0.04448
G1 X180.171 Y141.781 E0.04284
G1 X183.893 Y142.105 E0.15298
G1 X184.881 Y142.244 E0.04083
G1 X185.843 Y142.443 E0.04025
G1 X185.867 Y142.694 E0.01032
G1 X185.635 Y142.79 E0.01027
G1 X185.107 Y143.195 E0.02727
G1 X184.701 Y143.724 E0.02727
G1 X184.447 Y144.339 E0.02727
G1 X184.376 Y144.873 E0.02204
G1 X184.138 Y144.921 E0.00995
G1 X183.781 Y144.318 E0.0287
G1 X183.277 Y143.821 E0.02898
G1 X182.68 Y143.496 E0.02784
G1 X182.045 Y143.343 E0.02675
G1 X181.423 Y143.349 E0.02546
G1 X180.741 Y143.538 E0.02898
G1 X180.16 Y143.892 E0.02784
G1 X179.702 Y144.375 E0.02726
G1 X179.389 Y144.949 E0.02675
G1 X179.234 Y145.551 E0.02546
G1 X179.24 Y146.259 E0.02898
G1 X179.429 Y146.899 E0.02734
G1 X179.63 Y147.239 E0.01617
G1 X180.027 Y147.074 F27000
G1 F900
G1 X180.084 Y147.17 E0.00456
G1 X180.506 Y147.585 E0.02425
G1 X180.993 Y147.85 E0.02272
G1 X181.491 Y147.978 E0.02102
G1 X182.083 Y147.974 E0.02425
G1 X182.615 Y147.816 E0.02272
G1 X183.057 Y147.555 E0.02102
G1 X183.472 Y147.133 E0.02425
G1 X183.738 Y146.646 E0.02272
G1 X183.865 Y146.149 E0.02102
G1 X183.861 Y145.557 E0.02425
G1 X183.704 Y145.024 E0.02272
G1 X183.443 Y144.583 E0.02101
G1 X183.021 Y144.167 E0.02425
G1 X182.525 Y143.897 E0.02309
G1 X181.996 Y143.77 E0.02229
G1 X181.483 Y143.775 E0.02102
G1 X180.912 Y143.933 E0.02425
G1 X180.431 Y144.227 E0.02309
G1 X180.049 Y144.628 E0.02266
G1 X179.789 Y145.106 E0.02229
G1 X179.661 Y145.603 E0.02102
G1 X179.666 Y146.195 E0.02425
G1 X179.823 Y146.728 E0.02272
G1 X179.997 Y147.022 E0.014
G1 X180.394 Y146.857 F27000
G1 F900
G1 X180.423 Y146.905 E0.00228
G1 X180.763 Y147.239 E0.01952
G1 X181.151 Y147.451 E0.0181
G1 X181.543 Y147.551 E0.01657
G1 X182.02 Y147.548 E0.01952
G1 X182.444 Y147.423 E0.0181
G1 X182.792 Y147.217 E0.01657
G1 X183.127 Y146.877 E0.01952
G1 X183.338 Y146.489 E0.0181
G1 X183.439 Y146.097 E0.01657
G1 X183.435 Y145.62 E0.01952
G1 X183.31 Y145.196 E0.0181
G1 X183.104 Y144.847 E0.01657
G1 X182.764 Y144.513 E0.01952
G1 X182.371 Y144.299 E0.01834
G1 X181.947 Y144.197 E0.01783
G1 X181.543 Y144.201 E0.01657
G1 X181.083 Y144.328 E0.01952
G1 X180.701 Y144.561 E0.01834
G1 X180.397 Y144.881 E0.01807
G1 X180.189 Y145.264 E0.01783
G1 X180.088 Y145.656 E0.01657
G1 X180.092 Y146.132 E0.01952
G1 X180.217 Y146.556 E0.0181
G1 X180.364 Y146.805 E0.01184
M204 S1000
G1 X180.762 Y146.64 F27000
;TYPE:External perimeter
G1 F900
G1 X181.019 Y146.893 E0.01479
G1 X181.308 Y147.051 E0.01349
G1 X181.595 Y147.125 E0.01213
G1 X181.956 Y147.122 E0.01479
G1 X182.2 Y147.05 E0.01041
G1 X182.272 Y147.029 E0.00307
G1 X182.527 Y146.878 E0.01213
G1 X182.781 Y146.62 E0.01479
G1 X182.938 Y146.331 E0.01349
G1 X183.012 Y146.044 E0.01213
G1 X183.009 Y145.683 E0.01479
G1 X182.916 Y145.367 E0.01349
G1 X182.765 Y145.112 E0.01213
G1 X182.508 Y144.859 E0.01479
G1 X182.216 Y144.7 E0.01359
G1 X181.899 Y144.624 E0.01336
G1 X181.603 Y144.626 E0.01213
G1 X181.255 Y144.723 E0.01479
G1 X181.032 Y144.859 E0.01068
G1 X180.971 Y144.896 E0.00292
G1 X180.745 Y145.134 E0.01347
G1 X180.661 Y145.288 E0.00718
G1 X180.589 Y145.421 E0.00618
G1 X180.515 Y145.708 E0.01213
G1 X180.518 Y146.069 E0.01479
G1 X180.611 Y146.385 E0.01349
G1 X180.731 Y146.588 E0.00967
;WIPE_START
M204 S1500
G1 X180.641 Y146.98 F27000
;WIPE_END
G1 E-0.75 F3000
G1 Z0.65 F27000
G1 X184.566 Y145.948
G1 Z0.25
G1 E0.75 F1800
;TYPE:Internal perimeter
G1 F900
G1 X184.701 Y146.275 E0.01447
G1 X185.107 Y146.803 E0.02727
G1 X185.922 Y147.429 E0.04207
G1 X185.092 Y147.63 E0.03496
G1 X184.264 Y147.796 E0.03458
G1 X183.65 Y147.896 E0.02546
G1 X183.537 Y147.676 E0.01013
G1 X183.818 Y147.39 E0.01644
G1 X184.137 Y146.803 E0.02734
G1 X184.292 Y146.201 E0.02546
G1 X184.291 Y146.004 E0.00807
G1 X184.507 Y145.96 E0.00905
G1 E-0.75 F3000
G1 Z0.65 F27000
G1 X115.205 Y146.22
G1 Z0.25
G1 E0.75 F1800
G1 F900
G1 X115.229 Y146.188 E0.00165
G1 X115.3 Y146.722 E0.02203
