; generated by SuperSlicer 2.4 on 2022-05-26 at 03:02:22 UTC


;
;

;
;
; 

; external perimeters extrusion width = 0.40mm
; perimeters extrusion width = 0.45mm
; infill extrusion width = 0.72mm
; solid infill extrusion width = 0.56mm
; top infill extrusion width = 0.40mm
; first layer extrusion width = 0.48mm

; object:{"name":"fan-shroud","id":"fan-shroud.stl id:0 copy 0","object_center":[150.000000,150.000000,0.000000],"boundingbox_center":[150.000000,150.000000,9.950000],"boundingbox_size":[43.300001,27.631611,19.900001]}
; plater:{"center":[150.000000,150.000000,0.000000],"boundingbox_center":[150.000000,150.000000,9.950000],"boundingbox_size":[43.300001,27.631611,19.900001]}

;TYPE:Custom
print_start EXTRUDER=250 BED=110 CHAMBER=50
M107
G21 ; set units to millimeters
G90 ; use absolute coordinates
M83 ; use relative distances for extrusion
; Filament gcode
SET_PRESSURE_ADVANCE ADVANCE=0.03465
M104 S250 ; set temperature
M109 S250 ; set temperature and wait for it to be reached
M190 S110 ; set bed temperature and wait for it to be reached
M107
;LAYER_CHANGE
;Z:0.25
;HEIGHT:0.25
;BEFORE_LAYER_CHANGE
;0.25


G1 Z0.25 F27000
;AFTER_LAYER_CHANGE
;0.25
G92 E0
; INIT printing object fan-shroud.stl id:0 copy 0
G1 E-0.75 F3000
M204 S1500
G1 Z0.65 F27000
; printing object fan-shroud.stl id:0 copy 0
G1 X136.581 Y148.155
G1 Z0.25
G1 E0.75 F1800
;TYPE:Internal perimeter
;WIDTH:0.48
G1 F900
G1 X136.58 Y149.435 E0.0524
G1 X140.181 Y149.435 E0.14744
G1 X140.181 Y157.435 E0.32757
G1 X162.419 Y157.435 E0.91056
G1 X162.419 Y149.435 E0.32757
G1 X165.82 Y149.435 E0.13925
G1 X165.817 Y143.621 E0.23806
G1 X166.112 Y143.58 E0.0122
G1 X166.226 Y143.993 E0.01751
G1 X166.463 Y145.088 E0.04591
G1 X166.619 Y146.191 E0.04558
G1 X166.691 Y147.164 E0.03995
G1 X166.705 Y147.843 E0.02782
G1 X166.671 Y148.828 E0.04038
G1 X166.613 Y149.503 E0.02771
G1 X166.451 Y150.611 E0.04586
G1 X166.212 Y151.695 E0.04546
G1 X165.892 Y152.773 E0.04605
G1 X165.71 Y153.283 E0.02218
G1 X165.273 Y154.386 E0.04858
G1 X165.091 Y155.051 E0.0282
G1 X165.027 Y155.768 E0.02948
G1 X165.027 Y158.387 E0.10725
G1 X161.056 Y161.358 E0.20307
G1 X161.056 Y161.822 E0.01898
G1 X140.61 Y161.822 E0.83717
G1 X140.49 Y161.138 E0.02841
G1 X140.214 Y160.112 E0.04353
G1 X139.848 Y159.114 E0.04353
G1 X139.402 Y158.168 E0.0428
G1 X139.135 Y157.688 E0.0225
G1 X138.858 Y157.237 E0.02165
G1 X137.96 Y155.885 E0.06646
G1 X137.422 Y154.927 E0.04499
G1 X136.955 Y153.938 E0.04478
G1 X136.559 Y152.919 E0.04478
G1 X136.231 Y151.86 E0.04537
G1 X136.104 Y151.355 E0.02132
G1 X135.913 Y150.401 E0.03985
G1 X135.812 Y149.724 E0.02805
G1 X135.756 Y149.199 E0.02158
G1 X135.697 Y148.079 E0.04596
G1 X135.697 Y147.558 E0.02132
G1 X135.745 Y146.586 E0.03984
G1 X135.813 Y145.904 E0.02805
G1 X135.887 Y145.38 E0.02169
G1 X136.072 Y144.425 E0.03983
G1 X136.234 Y143.759 E0.02805
G1 X136.29 Y143.567 E0.00822
G1 X136.584 Y143.608 E0.01213
G1 X136.581 Y148.095 E0.18372
G1 X137.007 Y148.155 F27000
G1 F900
G1 X137.007 Y149.009 E0.03493
G1 X140.607 Y149.009 E0.14743
G1 X140.607 Y157.009 E0.32757
G1 X161.993 Y157.009 E0.87565
G1 X161.993 Y149.009 E0.32757
G1 X165.393 Y149.009 E0.13924
G1 X165.389 Y141.204 E0.31957
G1 X165.656 Y141.145 E0.01121
G1 X165.869 Y141.602 E0.02067
G1 X166.28 Y142.678 E0.04714
G1 X166.451 Y143.208 E0.02281
G1 X166.64 Y143.89 E0.02899
G1 X166.883 Y145.013 E0.04704
G1 X167.043 Y146.145 E0.0468
G1 X167.117 Y147.143 E0.04099
G1 X167.132 Y147.846 E0.02877
G1 X167.097 Y148.854 E0.04131
G1 X167.037 Y149.552 E0.02868
G1 X166.87 Y150.688 E0.04701
G1 X166.625 Y151.802 E0.04671
G1 X166.297 Y152.906 E0.04715
G1 X166.109 Y153.434 E0.02295
G1 X165.678 Y154.522 E0.04792
G1 X165.512 Y155.127 E0.02568
G1 X165.453 Y155.787 E0.02714
G1 X165.453 Y158.601 E0.11521
G1 X161.482 Y161.572 E0.20307
G1 X161.482 Y162.248 E0.02769
G1 X140.253 Y162.248 E0.86927
G1 X140.073 Y161.231 E0.04228
G1 X139.807 Y160.241 E0.04198
G1 X139.454 Y159.278 E0.04198
G1 X139.022 Y158.363 E0.04144
G1 X138.767 Y157.903 E0.02154
G1 X138.499 Y157.467 E0.02096
G1 X137.596 Y156.108 E0.06681
G1 X137.043 Y155.123 E0.04626
G1 X136.563 Y154.107 E0.04602
G1 X136.156 Y153.059 E0.04602
G1 X135.821 Y151.976 E0.04645
G1 X135.688 Y151.449 E0.02222
G1 X135.493 Y150.474 E0.04071
G1 X135.389 Y149.778 E0.02885
G1 X135.331 Y149.233 E0.02241
G1 X135.27 Y148.09 E0.04688
G1 X135.27 Y147.547 E0.02222
G1 X135.32 Y146.554 E0.0407
G1 X135.389 Y145.853 E0.02885
G1 X135.466 Y145.31 E0.02249
G1 X135.655 Y144.334 E0.0407
G1 X135.822 Y143.649 E0.02885
G1 X135.975 Y143.122 E0.02249
G1 X136.299 Y142.182 E0.04071
G1 X136.561 Y141.528 E0.02884
G1 X136.742 Y141.127 E0.018
G1 X137.011 Y141.185 E0.01129
G1 X137.007 Y148.095 E0.28294
G1 X137.434 Y148.156 F27000
G1 F900
G1 X137.433 Y148.582 E0.01747
G1 X141.034 Y148.582 E0.14742
G1 X141.034 Y156.582 E0.32757
G1 X161.566 Y156.582 E0.84073
G1 X161.566 Y148.582 E0.32757
G1 X164.967 Y148.582 E0.13923
G1 X164.961 Y139.452 E0.37386
G1 X165.217 Y139.385 E0.01081
G1 X165.767 Y140.374 E0.04633
G1 X166.262 Y141.436 E0.04796
G1 X166.683 Y142.536 E0.04824
G1 X166.859 Y143.086 E0.02363
G1 X167.054 Y143.788 E0.02985
G1 X167.303 Y144.938 E0.04817
G1 X167.468 Y146.099 E0.04802
G1 X167.543 Y147.123 E0.04204
G1 X167.558 Y147.849 E0.02971
G1 X167.523 Y148.88 E0.04224
G1 X167.461 Y149.601 E0.02965
G1 X167.29 Y150.765 E0.04815
G1 X167.038 Y151.909 E0.04796
G1 X166.702 Y153.038 E0.04824
G1 X166.508 Y153.584 E0.02372
G1 X166.083 Y154.657 E0.04726
G1 X165.934 Y155.203 E0.02317
G1 X165.879 Y155.806 E0.0248
G1 X165.879 Y158.814 E0.12317
G1 X161.909 Y161.785 E0.20307
G1 X161.909 Y162.674 E0.03641
G1 X139.859 Y162.674 E0.90285
G1 X139.828 Y162.296 E0.01553
G1 X139.657 Y161.324 E0.04045
G1 X139.4 Y160.37 E0.04043
G1 X139.06 Y159.443 E0.04043
G1 X138.643 Y158.557 E0.04008
G1 X138.399 Y158.118 E0.02057
G1 X138.14 Y157.697 E0.02026
G1 X137.538 Y156.813 E0.04378
G1 X137.232 Y156.331 E0.02338
G1 X136.664 Y155.319 E0.04753
G1 X136.171 Y154.275 E0.04725
G1 X135.753 Y153.2 E0.04725
G1 X135.41 Y152.091 E0.04753
G1 X135.272 Y151.543 E0.02312
G1 X135.073 Y150.548 E0.04158
G1 X134.966 Y149.832 E0.02964
G1 X134.906 Y149.267 E0.02324
G1 X134.844 Y148.101 E0.0478
G1 X134.844 Y147.537 E0.02312
G1 X134.894 Y146.523 E0.04157
G1 X134.966 Y145.802 E0.02965
G1 X135.046 Y145.239 E0.02329
G1 X135.238 Y144.242 E0.04157
G1 X135.41 Y143.539 E0.02964
G1 X135.569 Y142.993 E0.02329
G1 X135.9 Y142.033 E0.04157
G1 X136.169 Y141.361 E0.02964
G1 X136.402 Y140.842 E0.0233
G1 X136.863 Y139.942 E0.04139
G1 X137.188 Y139.395 E0.02605
G1 X137.439 Y139.464 E0.01065
G1 X137.434 Y148.096 E0.35342
M204 S1000
G1 X137.86 Y148.156 F27000
;TYPE:External perimeter
G1 F900
G1 X141.46 Y148.156 E0.14741
G1 X141.46 Y156.156 E0.32757
G1 X161.14 Y156.156 E0.80582
G1 X161.14 Y148.156 E0.32757
G1 X164.54 Y148.156 E0.13922
G1 X164.535 Y139.1 E0.37082
G1 X164.508 Y138.6 E0.02048
G1 X164.445 Y138.122 E0.01976
G1 X164.442 Y137.813 E0.01263
G1 X164.439 Y137.567 E0.01006
G1 X164.122 Y137.183 E0.0204
G1 X164.073 Y137.101 E0.00389
G1 X164.022 Y137.017 E0.00405
G1 X164.079 Y136.946 E0.00371
G1 X164.142 Y137.001 E0.00341
G1 X164.192 Y137.045 E0.00276
G1 X164.799 Y137.813 E0.04007
G1 X165.131 Y138.433 E0.02882
G1 X165.561 Y139.127 E0.0334
G1 X166.147 Y140.18 E0.04935
G1 X166.62 Y141.194 E0.04582
G1 X166.655 Y141.269 E0.0034
G1 X167.085 Y142.395 E0.04933
G1 X167.268 Y142.963 E0.02445
G1 X167.468 Y143.686 E0.03071
G1 X167.723 Y144.863 E0.0493
G1 X167.892 Y146.054 E0.04924
G1 X167.969 Y147.103 E0.04309
G1 X167.985 Y147.851 E0.03065
G1 X167.948 Y148.905 E0.04318
G1 X167.884 Y149.65 E0.03062
G1 X167.71 Y150.842 E0.0493
G1 X167.451 Y152.015 E0.04921
G1 X167.108 Y153.17 E0.04934
G1 X166.907 Y153.734 E0.02449
G1 X166.488 Y154.792 E0.0466
G1 X166.355 Y155.279 E0.02065
G1 X166.306 Y155.825 E0.02247
G1 X166.306 Y159.028 E0.13113
G1 X162.335 Y161.999 E0.20307
G1 X162.335 Y163.101 E0.04513
G1 X139.466 Y163.101 E0.9364
G1 X139.405 Y162.351 E0.03081
G1 X139.24 Y161.416 E0.03886
G1 X138.993 Y160.499 E0.03888
G1 X138.928 Y160.32 E0.00782
G1 X138.666 Y159.608 E0.03106
G1 X138.618 Y159.506 E0.00459
G1 X138.263 Y158.752 E0.03414
G1 X138.031 Y158.333 E0.0196
G1 X137.782 Y157.928 E0.01946
G1 X137.182 Y157.047 E0.04366
G1 X136.866 Y156.549 E0.02413
G1 X136.285 Y155.514 E0.0486
G1 X135.779 Y154.444 E0.04848
G1 X135.35 Y153.34 E0.04848
G1 X134.999 Y152.206 E0.0486
G1 X134.856 Y151.637 E0.02402
G1 X134.697 Y150.842 E0.03323
G1 X134.653 Y150.621 E0.00921
G1 X134.543 Y149.886 E0.03044
G1 X134.481 Y149.301 E0.02407
G1 X134.418 Y148.113 E0.04873
G1 X134.418 Y147.526 E0.02402
G1 X134.469 Y146.491 E0.04243
G1 X134.543 Y145.751 E0.03044
G1 X134.625 Y145.169 E0.02409
G1 X134.822 Y144.151 E0.04243
G1 X134.998 Y143.429 E0.03044
G1 X135.162 Y142.864 E0.0241
G1 X135.5 Y141.884 E0.04244
G1 X135.776 Y141.194 E0.03043
G1 X135.816 Y141.106 E0.00396
G1 X136.018 Y140.658 E0.02013
G1 X136.489 Y139.736 E0.04237
G1 X136.868 Y139.1 E0.03032
G1 X137.362 Y138.267 E0.03965
G1 X137.505 Y137.954 E0.01407
G1 X138.089 Y137.183 E0.03962
G1 X138.15 Y137.101 E0.00418
G1 X138.306 Y136.937 E0.00927
G1 X138.354 Y136.994 E0.00303
G1 X138.376 Y137.02 E0.00139
G1 X138.361 Y137.045 E0.00122
G1 X138.278 Y137.183 E0.00657
G1 X137.961 Y137.567 E0.02042
G1 X137.956 Y138.122 E0.02269
G1 X137.893 Y138.6 E0.01976
G1 X137.865 Y139.1 E0.02049
G1 X137.86 Y148.096 E0.36836
;WIPE_START
M204 S1500
G1 X137.86 Y148.556 F27000
;WIPE_END
G1 X136.194 Y149.665
;TYPE:Gap fill
;WIDTH:0.455274
G1 F900
G1 X136.183 Y149.465 E0.00775
G1 X136.176 Y149.316 E0.00576
;WIDTH:0.487084
G1 X136.168 Y149.167 E0.00621
G1 X136.153 Y148.617 E0.0229
;WIDTH:0.546598
G1 X136.139 Y148.067 E0.02604
G1 X136.139 Y147.818 E0.01179
G1 X136.139 Y147.569 E0.01179
G1 X136.151 Y147.093 E0.02253
;WIDTH:0.499766
G1 X136.163 Y146.617 E0.02039
G1 X136.179 Y146.284 E0.0143
;WIDTH:0.434212
G1 X136.196 Y145.951 E0.0122
G1 X136.214 Y145.694 E0.00939
;WIDTH:0.362148
G1 X136.232 Y145.438 E0.00761
G1 X136.251 Y145.246 E0.0057
;WIDTH:0.316458
G1 X136.269 Y145.055 E0.00486
;WIDTH:0.270767
G1 X136.288 Y144.863 E0.00401
;WIDTH:0.225077
G1 X136.306 Y144.672 E0.00317
;WIDTH:0.15856
G1 X136.324 Y144.48 E0.00194
G1 X136.347 Y144.296 E0.00187
G1 X136.162 Y143.181 F27000
;WIDTH:0.2267
G1 F900
G1 X136.3 Y143.224 E0.0024
;WIDTH:0.364771
G1 X136.353 Y143.192 E0.00186
;WIDTH:0.545739
G1 X136.512 Y143.095 E0.00882
;WIDTH:0.658843
G1 X136.53 Y142.983 E0.00658
;WIDTH:0.615275
G1 X136.549 Y142.871 E0.00611
;WIDTH:0.571706
G1 X136.568 Y142.76 E0.00563
;WIDTH:0.528137
G1 X136.587 Y142.648 E0.00516
;WIDTH:0.484568
G1 X136.605 Y142.536 E0.00469
;WIDTH:0.440999
G1 X136.624 Y142.425 E0.00421
;WIDTH:0.39743
G1 X136.643 Y142.313 E0.00374
G1 X136.661 Y142.224 E0.00301
;WIDTH:0.334575
G1 X136.697 Y142.045 E0.00492
;WIDTH:0.250769
G1 X136.733 Y141.866 E0.00345
;WIDTH:0.14601
G1 X136.769 Y141.688 E0.00162
G1 X136.778 Y141.642 E0.00041
G1 X136.924 Y140.966 F27000
;WIDTH:0.669032
G1 F900
G1 X136.967 Y140.776 E0.01154
;WIDTH:0.574412
G1 X136.982 Y140.712 E0.00326
G1 X137.019 Y140.557 E0.00799
;WIDTH:0.467589
G1 X137.057 Y140.401 E0.00635
;WIDTH:0.38213
G1 X137.094 Y140.246 E0.00504
;WIDTH:0.296671
G1 X137.132 Y140.091 E0.00373
;WIDTH:0.232141
G1 X137.18 Y139.914 E0.00315
;WIDTH:0.141113
G1 X137.209 Y139.81 E0.0009
G1 X137.361 Y139.24 F27000
;WIDTH:0.612236
G1 F900
G1 X137.414 Y139.063 E0.00988
;WIDTH:0.548653
G1 X137.431 Y139.008 E0.00276
;WIDTH:0.516407
G1 X137.475 Y138.863 E0.00671
;WIDTH:0.430034
G1 X137.519 Y138.719 E0.00546
;WIDTH:0.342122
G1 X137.567 Y138.565 E0.00447
;WIDTH:0.282141
G1 X137.624 Y138.398 E0.00386
;WIDTH:0.24731
G1 X137.666 Y138.251 E0.00284
;WIDTH:0.156065
G1 X137.714 Y138.079 E0.00176
G1 X137.729 Y138.035 E0.00045
G1 E-0.75 F3000
G1 Z0.65 F27000
G1 X164.674 Y138.075
G1 Z0.25
G1 E0.75 F1800
;WIDTH:0.143288
G1 F900
G1 X164.717 Y138.208 E0.0012
;WIDTH:0.20894
G1 X164.774 Y138.387 E0.0028
;WIDTH:0.293113
G1 X164.832 Y138.565 E0.00431
;WIDTH:0.345588
G1 X164.885 Y138.736 E0.00502
;WIDTH:0.434103
G1 X164.926 Y138.867 E0.00503
;WIDTH:0.515802
G1 X164.967 Y138.999 E0.00611
;WIDTH:0.547752
G1 X164.987 Y139.062 E0.00317
;WIDTH:0.614915
G1 X165.036 Y139.23 E0.00941
G1 X165.192 Y139.815 F27000
;WIDTH:0.142042
G1 F900
G1 X165.224 Y139.938 E0.00108
;WIDTH:0.214713
G1 X165.265 Y140.095 E0.00252
;WIDTH:0.306582
G1 X165.306 Y140.253 E0.00395
;WIDTH:0.398452
G1 X165.347 Y140.41 E0.00539
;WIDTH:0.490321
G1 X165.388 Y140.568 E0.00682
;WIDTH:0.54804
G1 X165.423 Y140.725 E0.00763
;WIDTH:0.582792
G1 X165.437 Y140.789 E0.00336
;WIDTH:0.66945
G1 X165.48 Y140.983 E0.01174
G1 X165.621 Y141.618 F27000
;WIDTH:0.149598
G1 F900
G1 X165.639 Y141.7 E0.00077
G1 X165.66 Y141.813 E0.00106
;WIDTH:0.208327
G1 X165.681 Y141.926 E0.00171
;WIDTH:0.254571
G1 X165.702 Y142.039 E0.00222
;WIDTH:0.300815
G1 X165.723 Y142.152 E0.00273
;WIDTH:0.347059
G1 X165.743 Y142.265 E0.00324
;WIDTH:0.393304
G1 X165.764 Y142.378 E0.00375
;WIDTH:0.439548
G1 X165.785 Y142.491 E0.00426
;WIDTH:0.485792
G1 X165.806 Y142.604 E0.00477
;WIDTH:0.532036
G1 X165.827 Y142.717 E0.00528
;WIDTH:0.57828
G1 X165.848 Y142.83 E0.00579
G1 X165.869 Y142.967 E0.00702
;WIDTH:0.664416
G1 X165.891 Y143.105 E0.00817
;WIDTH:0.553718
G1 X166.05 Y143.205 E0.00903
;WIDTH:0.310183
G1 X166.183 Y143.288 E0.00386
;WIDTH:0.221624
G1 X166.288 Y143.355 E0.00201
G1 X166.054 Y144.319 F27000
;WIDTH:0.146009
G1 F900
G1 X166.059 Y144.365 E0.00041
G1 X166.076 Y144.521 E0.00139
;WIDTH:0.187572
G1 X166.092 Y144.677 E0.00202
;WIDTH:0.229135
G1 X166.109 Y144.833 E0.00265
;WIDTH:0.270698
G1 X166.126 Y144.99 E0.00327
;WIDTH:0.31226
G1 X166.143 Y145.146 E0.0039
G1 X166.158 Y145.363 E0.00542
;WIDTH:0.350544
G1 X166.173 Y145.581 E0.00622
;WIDTH:0.388827
G1 X166.189 Y145.798 E0.00702
;WIDTH:0.427111
G1 X166.204 Y146.016 E0.00782
;WIDTH:0.465394
G1 X166.22 Y146.234 E0.00863
G1 X166.237 Y146.709 E0.01881
;WIDTH:0.534567
G1 X166.255 Y147.184 E0.02197
G1 X166.258 Y147.512 E0.01515
G1 X166.262 Y147.84 E0.01515
G1 X166.254 Y148.321 E0.02224
G1 X166.246 Y148.803 E0.02224
G1 X166.232 Y149.13 E0.01512
;WIDTH:0.457734
G1 X166.218 Y149.457 E0.0127
G1 X166.209 Y149.665 E0.0081
G1 X166.35 Y150.428 F27000
;TYPE:Solid infill
;WIDTH:0.460089
G1 F1200
G1 X165.604 Y149.682 E0.04143
G1 X165.001 Y149.682 E0.02366
G1 X166.107 Y150.788 E0.06139
G1 X166.023 Y151.308 E0.02066
G1 X164.398 Y149.682 E0.09023
G1 X163.795 Y149.682 E0.02366
G1 X165.915 Y151.802 E0.11769
G1 X165.764 Y152.254 E0.0187
G1 X163.192 Y149.682 E0.14278
G1 X162.666 Y149.682 E0.02063
G1 X162.666 Y149.759 E0.00304
G1 X165.613 Y152.706 E0.16357
G1 X165.462 Y153.158 E0.0187
G1 X162.666 Y150.362 E0.15519
G1 X162.666 Y150.965 E0.02366
G1 X165.311 Y153.61 E0.14681
G1 X165.16 Y154.062 E0.0187
G1 X162.666 Y151.568 E0.13844
G1 X162.666 Y152.171 E0.02366
G1 X165.009 Y154.514 E0.13006
G1 X164.859 Y154.966 E0.0187
G1 X162.666 Y152.774 E0.12168
G1 X162.666 Y153.377 E0.02366
G1 X164.834 Y155.545 E0.12033
G1 X164.823 Y156.137 E0.02322
G1 X162.666 Y153.98 E0.1197
G1 X162.666 Y154.583 E0.02366
G1 X164.811 Y156.728 E0.11906
G1 X164.8 Y157.32 E0.02322
G1 X162.666 Y155.186 E0.11843
G1 X162.666 Y155.789 E0.02366
G1 X164.789 Y157.911 E0.1178
G1 X164.782 Y158.262 E0.01375
G1 X164.641 Y158.367 E0.0069
G1 X162.666 Y156.392 E0.10962
G1 X162.666 Y156.995 E0.02366
G1 X164.296 Y158.625 E0.09047
G1 X163.951 Y158.883 E0.01691
G1 X162.666 Y157.598 E0.07133
G1 X162.666 Y157.682 E0.00331
G1 X162.148 Y157.682 E0.02036
G1 X163.607 Y159.141 E0.08097
G1 X163.262 Y159.399 E0.01691
G1 X161.545 Y157.682 E0.0953
G1 X160.942 Y157.682 E0.02366
G1 X162.917 Y159.657 E0.10962
G1 X162.572 Y159.915 E0.01691
G1 X160.339 Y157.682 E0.12395
G1 X159.736 Y157.682 E0.02366
G1 X162.227 Y160.173 E0.13827
G1 X161.882 Y160.431 E0.01691
G1 X159.133 Y157.682 E0.15259
G1 X158.53 Y157.682 E0.02366
G1 X161.537 Y160.689 E0.16692
G1 X161.192 Y160.947 E0.01691
G1 X157.927 Y157.682 E0.18124
G1 X157.324 Y157.682 E0.02366
G1 X160.847 Y161.205 E0.19556
G1 X160.809 Y161.234 E0.0019
G1 X160.809 Y161.575 E0.01335
G1 X160.614 Y161.575 E0.00766
G1 X156.721 Y157.682 E0.21605
G1 X156.118 Y157.682 E0.02366
G1 X160.011 Y161.575 E0.21605
G1 X159.408 Y161.575 E0.02366
