; generated by SuperSlicer 2.5.59 on 2022-09-09 at 08:13:06 UTC


;
;

;
;
; 

; external perimeters extrusion width = 0.40mm
; perimeters extrusion width = 0.40mm
; infill extrusion width = 0.72mm
; solid infill extrusion width = 0.56mm
; top infill extrusion width = 0.40mm

; object:{"name":"fan_duct","id":"fan_duct.stl id:0 copy 0","object_center":[150.001946,150.000295,0.000000],"boundingbox_center":[150.001946,150.000295,9.501466],"boundingbox_size":[33.941224,33.941306,19.002933]}
; plater:{"center":[150.001946,150.000295,0.000000],"boundingbox_center":[150.001946,150.000295,9.501466],"boundingbox_size":[33.941224,33.941306,19.002933]}

M73 P0 R21
;TYPE:Custom
; custom gcode: start_gcode
PRINT_START EXTRUDER=255 BED=110 AREA_START=126.139,126.204 AREA_END=173.865,173.864
; custom gcode end: start_gcode
M107
G21 ; set units to millimeters
G90 ; use absolute coordinates
M83 ; use relative distances for extrusion
; custom gcode: start_filament_gcode
; Filament gcode
SET_PRESSURE_ADVANCE ADVANCE=0.02
SET_PRESSURE_ADVANCE EXTRUDER=extruder SMOOTH_TIME=0.04
; custom gcode end: start_filament_gcode
;_TOOLCHANGE 0
M104 S255 ; set temperature
M109 S255 ; set temperature and wait for it to be reached
M190 S110 ; set bed temperature and wait for it to be reached
;LAYER_CHANGE
;Z:0.24
;HEIGHT:0.24
G1 Z0.24 F27000
G92 E0
M73 P1 R20
G1 E-0.5 F1800
M204 S2000
G1 X136.552 Y136.134 F27000
G1 E0.5 F1800
;TYPE:Skirt
;WIDTH:0.4
;HEIGHT:0.25
G1 X136.911 Y135.773 E0.01703
G1 X138.76 Y134.064 E0.0843
G1 X145.011 Y127.814 E0.29592
G1 X148.263 Y126.377 E0.11903
G1 X151.763 Y126.377 E0.11718
G1 X154.995 Y127.818 E0.11845
G1 X161.241 Y134.062 E0.2957
G1 X163.005 Y135.689 E0.08032
G1 X164.234 Y136.915 E0.05813
G1 X165.942 Y138.763 E0.08425
G1 X172.215 Y145.058 E0.29755
G1 X173.581 Y148.047 E0.11001
G1 X173.698 Y151.367 E0.11123
G1 X172.197 Y154.981 E0.13099
G1 X165.94 Y161.24 E0.29628
G1 X164.319 Y162.998 E0.08008
G1 X163.093 Y164.227 E0.05812
G1 X161.24 Y165.94 E0.08449
G1 X154.944 Y172.214 E0.29756
G1 X151.955 Y173.58 E0.11001
G1 X148.635 Y173.696 E0.11123
G1 X145.021 Y172.195 E0.13099
G1 X138.763 Y165.939 E0.29628
G1 X137.004 Y164.317 E0.08008
G1 X135.775 Y163.091 E0.05812
G1 X134.062 Y161.238 E0.08449
G1 X127.788 Y154.942 E0.29755
G1 X126.423 Y151.954 E0.11001
G1 X126.306 Y148.633 E0.11123
G1 X127.807 Y145.02 E0.13099
G1 X134.079 Y138.745 E0.29702
G1 X136.052 Y136.635 E0.09671
G1 X136.552 Y136.134 E0.02371
G1 X136.797 Y136.378 F27000
G1 F1800
G1 X137.154 Y136.02 E0.01691
G1 X139 Y134.314 E0.08417
G1 X145.233 Y128.082 E0.29507
M73 P2 R20
G1 X148.369 Y126.709 E0.11461
G1 X151.725 Y126.724 E0.11238
G1 X154.772 Y128.085 E0.11173
G1 X161.001 Y134.312 E0.29487
G1 X162.767 Y135.941 E0.08044
G1 X163.987 Y137.158 E0.05767
G1 X165.692 Y139.003 E0.08411
G1 X171.948 Y145.281 E0.29672
G1 X173.252 Y148.159 E0.10577
G1 X173.35 Y151.341 E0.10659
G1 X171.928 Y154.76 E0.12397
G1 X165.69 Y161 E0.29537
G1 X164.066 Y162.761 E0.0802
G1 X162.85 Y163.98 E0.05767
G1 X161 Y165.69 E0.08435
G1 X154.721 Y171.947 E0.29673
G1 X151.843 Y173.25 E0.10577
G1 X148.661 Y173.349 E0.10659
G1 X145.242 Y171.926 E0.12397
G1 X139.003 Y165.689 E0.29538
G1 X137.242 Y164.065 E0.0802
G1 X136.022 Y162.848 E0.05767
G1 X134.312 Y160.998 E0.08435
G1 X128.056 Y154.72 E0.29673
G1 X126.752 Y151.842 E0.10577
G1 X126.654 Y148.66 E0.10659
G1 X128.076 Y145.241 E0.12397
G1 X134.329 Y138.986 E0.29608
G1 X136.303 Y136.874 E0.09681
G1 X136.797 Y136.378 E0.02343
G1 X137.043 Y136.623 F27000
G1 F1800
G1 X137.397 Y136.268 E0.01679
G1 X139.24 Y134.564 E0.08405
G1 X145.455 Y128.35 E0.29421
G1 X148.405 Y127.055 E0.10785
G1 X151.618 Y127.055 E0.10759
G1 X154.55 Y128.353 E0.10733
G1 X160.761 Y134.562 E0.29403
G1 X162.53 Y136.193 E0.08056
G1 X163.74 Y137.4 E0.05721
G1 X165.442 Y139.243 E0.08398
G1 X171.681 Y145.503 E0.29589
G1 X172.922 Y148.269 E0.1015
G1 X173.003 Y151.314 E0.10196
G1 X171.659 Y154.539 E0.11698
G1 X165.441 Y160.76 E0.29447
G1 X163.814 Y162.523 E0.08032
G1 X162.607 Y163.733 E0.05721
G1 X160.76 Y165.441 E0.08422
G1 X154.499 Y171.679 E0.2959
G1 X151.733 Y172.92 E0.1015
G1 X148.689 Y173.001 E0.10196
G1 X145.463 Y171.657 E0.11698
G1 X139.243 Y165.439 E0.29447
G1 X137.479 Y163.812 E0.08032
G1 X136.269 Y162.606 E0.05721
G1 X134.562 Y160.758 E0.08421
G1 X128.323 Y154.498 E0.2959
G1 X127.082 Y151.731 E0.1015
G1 X127.001 Y148.687 E0.10196
G1 X128.345 Y145.462 E0.11698
G1 X134.578 Y139.227 E0.29514
G1 X136.554 Y137.112 E0.09692
G1 X137.043 Y136.623 E0.02314
G1 X137.288 Y136.867 F27000
G1 F1800
G1 X137.639 Y136.515 E0.01667
G1 X139.48 Y134.813 E0.08392
G1 X145.677 Y128.618 E0.29335
G1 X148.51 Y127.387 E0.1034
G1 X151.581 Y127.401 E0.10283
G1 X154.328 Y128.62 E0.10061
G1 X160.521 Y134.812 E0.2932
G1 X162.293 Y136.446 E0.08068
G1 X163.493 Y137.643 E0.05676
G1 X165.192 Y139.482 E0.08384
G1 X171.413 Y145.725 E0.29504
G1 X172.591 Y148.378 E0.0972
G1 X172.656 Y151.285 E0.09734
G1 X171.39 Y154.318 E0.11003
G1 X165.191 Y160.52 E0.29357
G1 X163.562 Y162.286 E0.08044
G1 X162.365 Y163.486 E0.05675
G1 X160.52 Y165.191 E0.08408
G1 X154.277 Y171.411 E0.29505
G1 X151.624 Y172.589 E0.09719
G1 X148.717 Y172.654 E0.09734
G1 X145.684 Y171.389 E0.11003
G1 X139.483 Y165.189 E0.29357
G1 X137.716 Y163.56 E0.08044
G1 X136.516 Y162.363 E0.05675
G1 X134.812 Y160.518 E0.08408
G1 X128.591 Y154.276 E0.29505
G1 X127.413 Y151.622 E0.0972
M73 P3 R20
G1 X127.348 Y148.715 E0.09734
G1 X128.614 Y145.682 E0.11003
G1 X134.827 Y139.468 E0.2942
G1 X136.806 Y137.351 E0.09701
G1 X137.288 Y136.867 E0.02286
G1 X137.533 Y137.112 F27000
G1 F1800
G1 X137.882 Y136.762 E0.01655
G1 X139.721 Y135.063 E0.0838
G1 X145.898 Y128.886 E0.29249
G1 X148.545 Y127.734 E0.09664
G1 X151.475 Y127.733 E0.09807
G1 X154.106 Y128.888 E0.0962
G1 X160.281 Y135.062 E0.29235
G1 X162.055 Y136.698 E0.0808
G1 X163.246 Y137.886 E0.0563
G1 X164.942 Y139.722 E0.08371
G1 X171.145 Y145.947 E0.29419
G1 X172.26 Y148.486 E0.09285
G1 X172.309 Y151.255 E0.09273
G1 X171.121 Y154.097 E0.10312
G1 X164.941 Y160.28 E0.29267
G1 X163.309 Y162.049 E0.08056
G1 X162.122 Y163.239 E0.05629
G1 X160.28 Y164.941 E0.08395
G1 X154.055 Y171.143 E0.2942
G1 X151.516 Y172.259 E0.09285
G1 X148.747 Y172.307 E0.09272
G1 X145.905 Y171.12 E0.10312
G1 X139.722 Y164.939 E0.29267
G1 X137.954 Y163.308 E0.08056
G1 X136.763 Y162.12 E0.05629
G1 X135.062 Y160.279 E0.08394
G1 X128.859 Y154.054 E0.29419
G1 X127.744 Y151.514 E0.09285
G1 X127.695 Y148.745 E0.09273
G1 X128.883 Y145.903 E0.10312
G1 X135.076 Y139.708 E0.29327
G1 X137.057 Y137.589 E0.09712
G1 X137.533 Y137.112 E0.02258
G1 X137.778 Y137.356 F27000
G1 F1800
G1 X138.125 Y137.009 E0.01643
G1 X139.961 Y135.313 E0.08367
G1 X146.12 Y129.154 E0.29162
G1 X148.65 Y128.066 E0.09219
G1 X151.369 Y128.065 E0.09105
G1 X153.884 Y129.156 E0.09177
G1 X160.041 Y135.311 E0.29149
G1 X161.818 Y136.95 E0.08092
G1 X162.999 Y138.128 E0.05584
G1 X164.692 Y139.962 E0.08357
G1 X170.877 Y146.169 E0.29333
G1 X171.914 Y148.527 E0.08625
G1 X171.962 Y151.226 E0.09037
G1 X170.852 Y153.876 E0.09621
G1 X164.691 Y160.04 E0.29177
G1 X163.057 Y161.811 E0.08068
G1 X161.879 Y162.992 E0.05583
G1 X160.04 Y164.691 E0.08381
G1 X153.834 Y170.875 E0.29334
G1 X151.476 Y171.913 E0.08625
G1 X148.777 Y171.961 E0.09037
G1 X146.126 Y170.851 E0.09621
G1 X139.962 Y164.689 E0.29178
G1 X138.191 Y163.055 E0.08068
G1 X137.01 Y161.877 E0.05583
G1 X135.312 Y160.039 E0.08381
G1 X129.127 Y153.832 E0.29334
G1 X128.089 Y151.474 E0.08625
G1 X128.042 Y148.775 E0.09037
G1 X129.151 Y146.124 E0.09621
G1 X135.325 Y139.949 E0.29233
G1 X137.308 Y137.828 E0.09722
G1 X137.778 Y137.356 E0.0223
G1 X138.023 Y137.601 F27000
G1 F1800
G1 X138.367 Y137.256 E0.01632
G1 X140.201 Y135.563 E0.08355
G1 X146.341 Y129.423 E0.29073
G1 X148.753 Y128.399 E0.0877
G1 X151.332 Y128.411 E0.08637
G1 X153.662 Y129.424 E0.08504
G1 X159.801 Y135.561 E0.29064
G1 X161.581 Y137.203 E0.08104
G1 X162.751 Y138.371 E0.05538
G1 X164.442 Y140.202 E0.08344
G1 X170.609 Y146.39 E0.29247
G1 X171.583 Y148.633 E0.08188
G1 X171.615 Y151.194 E0.08575
G1 X170.584 Y153.655 E0.08934
G1 X164.441 Y159.8 E0.29088
G1 X162.805 Y161.574 E0.0808
G1 X161.636 Y162.745 E0.05537
G1 X159.801 Y164.441 E0.08368
G1 X153.612 Y170.607 E0.29247
G1 X151.369 Y171.581 E0.08187
G1 X148.808 Y171.614 E0.08575
G1 X146.347 Y170.582 E0.08934
G1 X140.202 Y164.439 E0.29088
G1 X138.428 Y162.803 E0.0808
G1 X137.258 Y161.635 E0.05537
G1 X135.562 Y159.799 E0.08368
G1 X129.395 Y153.611 E0.29247
M73 P4 R20
G1 X128.421 Y151.368 E0.08188
G1 X128.389 Y148.806 E0.08575
G1 X129.42 Y146.345 E0.08934
G1 X135.574 Y140.19 E0.29139
G1 X137.559 Y138.066 E0.09732
G1 X138.023 Y137.601 E0.02201
G1 X138.268 Y137.846 F27000
G1 F1800
G1 X138.61 Y137.503 E0.0162
G1 X140.441 Y135.812 E0.08342
G1 X146.563 Y129.691 E0.28984
G1 X148.788 Y128.745 E0.08095
G1 X151.228 Y128.743 E0.08171
G1 X153.44 Y129.692 E0.08059
G1 X159.561 Y135.811 E0.28976
G1 X161.343 Y137.455 E0.08116
G1 X162.504 Y138.614 E0.05492
G1 X164.192 Y140.442 E0.08331
G1 X170.34 Y146.611 E0.29159
G1 X171.251 Y148.738 E0.07745
G1 X171.269 Y151.162 E0.08115
G1 X170.315 Y153.434 E0.08251
G1 X164.191 Y159.56 E0.28998
G1 X162.552 Y161.337 E0.08092
G1 X161.394 Y162.498 E0.05491
G1 X159.561 Y164.191 E0.08354
G1 X153.391 Y170.339 E0.29159
G1 X151.265 Y171.249 E0.07745
G1 X148.841 Y171.267 E0.08115
G1 X146.568 Y170.313 E0.08251
G1 X140.442 Y164.19 E0.28999
G1 X138.666 Y162.551 E0.08092
G1 X137.505 Y161.392 E0.05491
G1 X135.812 Y159.559 E0.08354
G1 X129.664 Y153.389 E0.29159
G1 X128.753 Y151.263 E0.07745
G1 X128.735 Y148.839 E0.08115
G1 X129.689 Y146.566 E0.08251
G1 X135.823 Y140.431 E0.29046
G1 X137.81 Y138.305 E0.09742
G1 X138.268 Y137.846 E0.02173
G1 X138.513 Y138.09 F27000
G1 F1800
G1 X138.853 Y137.75 E0.01608
G1 X140.681 Y136.062 E0.0833
G1 X146.784 Y129.96 E0.28894
G1 X148.889 Y129.078 E0.07643
G1 X151.192 Y129.089 E0.07708
G1 X153.219 Y129.96 E0.07387
G1 X159.321 Y136.061 E0.28889
G1 X161.106 Y137.707 E0.08127
G1 X162.257 Y138.856 E0.05446
G1 X163.942 Y140.682 E0.08317
G1 X170.071 Y146.832 E0.29069
G1 X170.919 Y148.841 E0.07298
G1 X170.922 Y151.128 E0.07657
G1 X170.046 Y153.213 E0.07574
G1 X163.941 Y159.32 E0.28909
G1 X162.3 Y161.099 E0.08104
G1 X161.151 Y162.25 E0.05445
G1 X159.321 Y163.941 E0.08341
G1 X153.17 Y170.07 E0.29069
G1 X151.162 Y170.917 E0.07298
G1 X148.875 Y170.921 E0.07657
G1 X146.789 Y170.045 E0.07573
G1 X140.682 Y163.94 E0.28909
G1 X138.903 Y162.299 E0.08104
G1 X137.752 Y161.149 E0.05445
G1 X136.061 Y159.319 E0.08341
G1 X129.933 Y153.169 E0.29069
G1 X129.085 Y151.16 E0.07298
G1 X129.082 Y148.873 E0.07657
G1 X129.958 Y146.788 E0.07574
G1 X136.072 Y140.671 E0.28953
G1 X138.061 Y138.544 E0.09752
G1 X138.513 Y138.09 E0.02144
G1 X138.759 Y138.335 F27000
G1 F1800
G1 X139.095 Y137.997 E0.01596
G1 X140.921 Y136.312 E0.08318
G1 X147.005 Y130.229 E0.28804
G1 X148.923 Y129.424 E0.06962
G1 X151.155 Y129.435 E0.07474
G1 X152.997 Y130.228 E0.06714
G1 X159.082 Y136.311 E0.28803
G1 X160.869 Y137.959 E0.08139
G1 X162.01 Y139.099 E0.05399
G1 X163.692 Y140.921 E0.08304
G1 X169.802 Y147.052 E0.28977
G1 X170.585 Y148.941 E0.06846
G1 X170.576 Y151.092 E0.072
G1 X169.777 Y152.992 E0.06901
G1 X163.691 Y159.08 E0.28819
G1 X162.048 Y160.862 E0.08116
G1 X160.909 Y162.003 E0.05399
G1 X159.081 Y163.691 E0.08328
G1 X152.95 Y169.8 E0.28978
G1 X151.061 Y170.584 E0.06846
G1 X148.91 Y170.575 E0.072
G1 X147.01 Y169.776 E0.06901
G1 X140.922 Y163.69 E0.2882
G1 X139.14 Y162.046 E0.08116
G1 X137.999 Y160.907 E0.05399
G1 X136.311 Y159.079 E0.08328
G1 X130.202 Y152.948 E0.28978
G1 X129.419 Y151.059 E0.06846
G1 X129.428 Y148.909 E0.072
G1 X130.227 Y147.009 E0.06901
G1 X136.321 Y140.912 E0.2886
M73 P5 R20
G1 X138.312 Y138.782 E0.09762
G1 X138.759 Y138.335 E0.02116
G1 X139.004 Y138.58 F27000
G1 F1800
G1 X139.338 Y138.245 E0.01585
G1 X141.161 Y136.562 E0.08306
G1 X147.226 Y130.497 E0.28715
G1 X148.956 Y129.771 E0.06282
G1 X151.119 Y129.781 E0.0724
G1 X152.776 Y130.497 E0.06042
G1 X158.842 Y136.561 E0.28716
G1 X160.631 Y138.212 E0.08151
G1 X161.763 Y139.342 E0.05353
G1 X163.442 Y141.161 E0.08291
G1 X169.532 Y147.272 E0.28884
G1 X170.252 Y149.04 E0.06389
G1 X170.23 Y151.055 E0.06745
G1 X169.509 Y152.771 E0.06233
G1 X163.442 Y158.84 E0.2873
G1 X161.796 Y160.625 E0.08128
G1 X160.666 Y161.756 E0.05353
G1 X158.841 Y163.441 E0.08315
G1 X152.73 Y169.531 E0.28884
G1 X150.962 Y170.25 E0.06388
G1 X148.948 Y170.229 E0.06745
G1 X147.231 Y169.507 E0.06233
G1 X141.162 Y163.44 E0.2873
G1 X139.378 Y161.794 E0.08128
G1 X138.246 Y160.664 E0.05353
G1 X136.561 Y158.84 E0.08315
G1 X130.472 Y152.728 E0.28884
G1 X129.752 Y150.961 E0.06389
G1 X129.774 Y148.946 E0.06745
G1 X130.495 Y147.23 E0.06233
G1 X136.57 Y141.153 E0.28766
G1 X138.563 Y139.021 E0.09771
G1 X139.004 Y138.58 E0.02087
G1 X139.249 Y138.824 F27000
G1 F1800
G1 X139.581 Y138.492 E0.01573
G1 X141.401 Y136.812 E0.08293
G1 X147.447 Y130.766 E0.28625
G1 X148.989 Y130.117 E0.05601
G1 X151.082 Y130.128 E0.07006
G1 X152.554 Y130.765 E0.0537
G1 X158.602 Y136.811 E0.2863
G1 X160.394 Y138.464 E0.08163
G1 X161.515 Y139.584 E0.05307
G1 X163.192 Y141.401 E0.08278
G1 X169.263 Y147.492 E0.28791
G1 X169.905 Y149.071 E0.05705
G1 X169.884 Y151.017 E0.06517
G1 X169.24 Y152.55 E0.05566
G1 X163.192 Y158.6 E0.28641
G1 X161.543 Y160.387 E0.0814
G1 X160.423 Y161.509 E0.05306
G1 X158.601 Y163.191 E0.08302
G1 X152.51 Y169.261 E0.28791
G1 X150.932 Y169.903 E0.05705
G1 X148.985 Y169.883 E0.06517
G1 X147.452 Y169.238 E0.05566
G1 X141.402 Y163.19 E0.28641
G1 X139.615 Y161.542 E0.08139
G1 X138.494 Y160.422 E0.05306
G1 X136.811 Y158.6 E0.08301
G1 X130.741 Y152.508 E0.28791
G1 X130.099 Y150.93 E0.05705
G1 X130.12 Y148.983 E0.06517
G1 X130.764 Y147.451 E0.05566
G1 X136.819 Y141.394 E0.28673
G1 X138.814 Y139.259 E0.09781
G1 X139.249 Y138.824 E0.02058
G1 X139.494 Y139.069 F27000
G1 F1800
G1 X139.823 Y138.739 E0.01561
G1 X141.641 Y137.061 E0.08281
G1 X147.668 Y131.035 E0.28536
G1 X149.023 Y130.464 E0.04921
G1 X151.045 Y130.474 E0.06771
G1 X152.332 Y131.033 E0.04698
G1 X158.362 Y137.061 E0.28544
G1 X160.156 Y138.716 E0.08175
G1 X161.268 Y139.827 E0.0526
G1 X162.942 Y141.641 E0.08265
G1 X168.993 Y147.713 E0.28697
G1 X169.558 Y149.102 E0.05021
G1 X169.538 Y150.98 E0.06289
G1 X168.971 Y152.329 E0.04899
G1 X162.942 Y158.36 E0.28551
G1 X161.291 Y160.15 E0.08151
G1 X160.181 Y161.261 E0.0526
G1 X158.362 Y162.941 E0.08289
G1 X152.29 Y168.991 E0.28697
G1 X150.901 Y169.557 E0.05021
G1 X149.022 Y169.537 E0.06289
G1 X147.673 Y168.97 E0.04899
G1 X141.642 Y162.94 E0.28552
G1 X139.852 Y161.29 E0.08151
G1 X138.741 Y160.179 E0.0526
G1 X137.061 Y158.36 E0.08288
G1 X131.011 Y152.288 E0.28697
G1 X130.446 Y150.899 E0.05021
G1 X130.466 Y149.021 E0.06289
G1 X131.033 Y147.672 E0.04899
G1 X137.068 Y141.634 E0.2858
G1 X139.065 Y139.498 E0.09791
G1 X139.494 Y139.069 E0.0203
G1 X139.739 Y139.314 F27000
G1 F1800
G1 X140.066 Y138.986 E0.01549
G1 X141.881 Y137.311 E0.08269
G1 X147.889 Y131.303 E0.28447
G1 X149.056 Y130.81 E0.0424
G1 X151.008 Y130.82 E0.06535
G1 X152.11 Y131.301 E0.04026
G1 X158.122 Y137.31 E0.28458
M73 P6 R20
G1 X159.919 Y138.968 E0.08186
G1 X161.021 Y140.069 E0.05214
G1 X162.692 Y141.881 E0.08252
G1 X168.723 Y147.933 E0.28604
G1 X169.211 Y149.132 E0.04337
G1 X169.192 Y150.943 E0.06061
G1 X168.702 Y152.108 E0.04231
G1 X162.692 Y158.12 E0.28462
G1 X161.039 Y159.913 E0.08163
G1 X159.938 Y161.014 E0.05214
G1 X158.122 Y162.691 E0.08276
G1 X152.07 Y168.722 E0.28604
G1 X150.87 Y169.21 E0.04337
G1 X149.06 Y169.191 E0.06061
G1 X147.895 Y168.701 E0.04231
G1 X141.882 Y162.69 E0.28462
G1 X140.09 Y161.037 E0.08163
G1 X138.988 Y159.937 E0.05214
G1 X137.311 Y158.12 E0.08276
G1 X131.281 Y152.068 E0.28604
M73 P6 R19
G1 X130.792 Y150.868 E0.04337
G1 X130.812 Y149.058 E0.06061
G1 X131.301 Y147.893 E0.04231
G1 X137.317 Y141.875 E0.28487
G1 X139.316 Y139.737 E0.09801
G1 X139.739 Y139.314 E0.02001
G1 X139.984 Y139.559 F27000
G1 F1800
G1 X140.308 Y139.234 E0.01538
G1 X142.121 Y137.561 E0.08257
G1 X148.111 Y131.572 E0.28358
G1 X149.09 Y131.157 E0.0356
G1 X150.971 Y131.166 E0.06298
G1 X151.888 Y131.568 E0.03354
G1 X157.882 Y137.56 E0.28374
G1 X159.682 Y139.221 E0.08198
G1 X160.773 Y140.312 E0.05167
