; generated by SuperSlicer 2.4 on 2022-08-09 at 21:01:25 UTC


;
;

;
;
; 

; external perimeters extrusion width = 0.40mm
; perimeters extrusion width = 0.48mm
; infill extrusion width = 0.72mm
; solid infill extrusion width = 0.56mm
; top infill extrusion width = 0.40mm
; first layer extrusion width = 0.48mm

; object:{"name":"First_Layer_Patch-0","id":"First_Layer_Patch-0.25mm.stl id:0 copy 0","object_center":[150.000000,150.000000,0.000000],"boundingbox_center":[150.000000,150.000000,0.125000],"boundingbox_size":[25.000000,25.000000,0.250000]}
; plater:{"center":[150.000000,150.000000,0.000000],"boundingbox_center":[150.000000,150.000000,0.125000],"boundingbox_size":[25.000000,25.000000,0.250000]}

;TYPE:Custom
print_start EXTRUDER=255 BED=110 CHAMBER=50
M107
G21 ; set units to millimeters
G90 ; use absolute coordinates
M83 ; use relative distances for extrusion
; Filament gcode
SET_PRESSURE_ADVANCE ADVANCE=0.045
SET_PRESSURE_ADVANCE EXTRUDER=extruder SMOOTH_TIME=0.04
M109 S255 ; set temperature and wait for it to be reached
M190 S110 ; set bed temperature and wait for it to be reached
M107
;LAYER_CHANGE
;Z:0.25
;HEIGHT:0.25
;BEFORE_LAYER_CHANGE
;0.25
TIMELAPSE_TAKE_FRAME


G1 Z0.25 F27000
;AFTER_LAYER_CHANGE
;0.25
G92 E0
; INIT printing object First_Layer_Patch-0.25mm.stl id:0 copy 0
G1 E-0.75 F3000
G1 Z0.65 F27000
; printing object First_Layer_Patch-0.25mm.stl id:0 copy 0
M204 S1000
G1 X137.79 Y137.79
G1 Z0.25
G1 E0.75 F1800
;TYPE:External perimeter
;WIDTH:0.48
G1 X162.21 Y137.79 E0.99018
G1 X162.21 Y162.21 E0.99018
G1 X137.79 Y162.21 E0.99018
G1 X137.79 Y137.85 E0.98775
;WIPE_START
M204 S1500
G1 X138.136 Y137.99 F27000
;WIPE_END
G1 X161.284 Y137.854
;TYPE:Solid infill
;WIDTH:0.474545
G1 F3600
G1 X161.963 Y138.532 E0.03847
G1 X161.963 Y139.135 E0.02417
G1 X160.865 Y138.037 E0.06225
G1 X160.262 Y138.037 E0.02417
G1 X161.963 Y139.738 E0.09644
G1 X161.963 Y140.341 E0.02417
G1 X159.659 Y138.037 E0.13062
G1 X159.056 Y138.037 E0.02417
G1 X161.963 Y140.944 E0.1648
G1 X161.963 Y141.547 E0.02417
G1 X158.453 Y138.037 E0.19898
G1 X157.85 Y138.037 E0.02417
G1 X161.963 Y142.15 E0.23316
G1 X161.963 Y142.753 E0.02417
G1 X157.247 Y138.037 E0.26734
G1 X156.644 Y138.037 E0.02417
G1 X161.963 Y143.356 E0.30153
G1 X161.963 Y143.959 E0.02417
G1 X156.041 Y138.037 E0.33571
G1 X155.438 Y138.037 E0.02417
G1 X161.963 Y144.562 E0.36989
G1 X161.963 Y145.165 E0.02417
G1 X154.835 Y138.037 E0.40407
G1 X154.232 Y138.037 E0.02417
G1 X161.963 Y145.768 E0.43825
G1 X161.963 Y146.371 E0.02417
G1 X153.629 Y138.037 E0.47243
G1 X153.026 Y138.037 E0.02417
G1 X161.963 Y146.974 E0.50662
G1 X161.963 Y147.576 E0.02417
G1 X152.424 Y138.037 E0.5408
G1 X151.821 Y138.037 E0.02417
G1 X161.963 Y148.179 E0.57498
G1 X161.963 Y148.782 E0.02417
G1 X151.218 Y138.037 E0.60916
G1 X150.615 Y138.037 E0.02417
G1 X161.963 Y149.385 E0.64334
G1 X161.963 Y149.988 E0.02417
G1 X150.012 Y138.037 E0.67752
G1 X149.409 Y138.037 E0.02417
G1 X161.963 Y150.591 E0.71171
G1 X161.963 Y151.194 E0.02417
G1 X148.806 Y138.037 E0.74589
G1 X148.203 Y138.037 E0.02417
G1 X161.963 Y151.797 E0.78007
G1 X161.963 Y152.4 E0.02417
G1 X147.6 Y138.037 E0.81425
G1 X146.997 Y138.037 E0.02417
G1 X161.963 Y153.003 E0.84843
G1 X161.963 Y153.606 E0.02417
G1 X146.394 Y138.037 E0.88261
G1 X145.791 Y138.037 E0.02417
G1 X161.963 Y154.209 E0.9168
G1 X161.963 Y154.812 E0.02417
G1 X145.188 Y138.037 E0.95098
G1 X144.585 Y138.037 E0.02417
G1 X161.963 Y155.415 E0.98516
G1 X161.963 Y156.018 E0.02417
G1 X143.982 Y138.037 E1.01934
G1 X143.379 Y138.037 E0.02417
G1 X161.963 Y156.621 E1.05352
G1 X161.963 Y157.224 E0.02417
G1 X142.776 Y138.037 E1.0877
G1 X142.173 Y138.037 E0.02417
G1 X161.963 Y157.827 E1.12189
G1 X161.963 Y158.43 E0.02417
G1 X141.57 Y138.037 E1.15607
G1 X140.967 Y138.037 E0.02417
G1 X161.963 Y159.033 E1.19025
G1 X161.963 Y159.635 E0.02417
G1 X140.365 Y138.037 E1.22443
G1 X139.762 Y138.037 E0.02417
G1 X161.963 Y160.238 E1.25861
G1 X161.963 Y160.841 E0.02417
G1 X139.159 Y138.037 E1.29279
G1 X138.556 Y138.037 E0.02417
G1 X161.963 Y161.444 E1.32697
G1 X161.963 Y161.963 E0.02079
G1 X161.879 Y161.963 E0.00338
G1 X138.037 Y138.121 E1.3516
G1 X138.037 Y138.724 E0.02417
G1 X161.276 Y161.963 E1.31742
G1 X160.673 Y161.963 E0.02417
G1 X138.037 Y139.327 E1.28323
G1 X138.037 Y139.93 E0.02417
G1 X160.07 Y161.963 E1.24905
G1 X159.467 Y161.963 E0.02417
G1 X138.037 Y140.533 E1.21487
G1 X138.037 Y141.136 E0.02417
G1 X158.864 Y161.963 E1.18069
G1 X158.261 Y161.963 E0.02417
G1 X138.037 Y141.739 E1.14651
G1 X138.037 Y142.342 E0.02417
G1 X157.658 Y161.963 E1.11233
G1 X157.055 Y161.963 E0.02417
G1 X138.037 Y142.945 E1.07814
G1 X138.037 Y143.548 E0.02417
G1 X156.452 Y161.963 E1.04396
G1 X155.849 Y161.963 E0.02417
G1 X138.037 Y144.151 E1.00978
G1 X138.037 Y144.754 E0.02417
G1 X155.246 Y161.963 E0.9756
G1 X154.643 Y161.963 E0.02417
G1 X138.037 Y145.357 E0.94142
G1 X138.037 Y145.96 E0.02417
G1 X154.04 Y161.963 E0.90724
G1 X153.437 Y161.963 E0.02417
G1 X138.037 Y146.563 E0.87305
G1 X138.037 Y147.166 E0.02417
G1 X152.834 Y161.963 E0.83887
G1 X152.231 Y161.963 E0.02417
G1 X138.037 Y147.769 E0.80469
G1 X138.037 Y148.371 E0.02417
G1 X151.629 Y161.963 E0.77051
G1 X151.026 Y161.963 E0.02417
G1 X138.037 Y148.974 E0.73633
G1 X138.037 Y149.577 E0.02417
G1 X150.423 Y161.963 E0.70215
G1 X149.82 Y161.963 E0.02417
G1 X138.037 Y150.18 E0.66796
G1 X138.037 Y150.783 E0.02417
G1 X149.217 Y161.963 E0.63378
G1 X148.614 Y161.963 E0.02417
G1 X138.037 Y151.386 E0.5996
G1 X138.037 Y151.989 E0.02417
G1 X148.011 Y161.963 E0.56542
G1 X147.408 Y161.963 E0.02417
G1 X138.037 Y152.592 E0.53124
G1 X138.037 Y153.195 E0.02417
G1 X146.805 Y161.963 E0.49706
G1 X146.202 Y161.963 E0.02417
G1 X138.037 Y153.798 E0.46287
G1 X138.037 Y154.401 E0.02417
G1 X145.599 Y161.963 E0.42869
G1 X144.996 Y161.963 E0.02417
G1 X138.037 Y155.004 E0.39451
G1 X138.037 Y155.607 E0.02417
G1 X144.393 Y161.963 E0.36033
G1 X143.79 Y161.963 E0.02417
G1 X138.037 Y156.21 E0.32615
G1 X138.037 Y156.813 E0.02417
G1 X143.187 Y161.963 E0.29197
G1 X142.584 Y161.963 E0.02417
G1 X138.037 Y157.416 E0.25778
G1 X138.037 Y158.019 E0.02417
G1 X141.981 Y161.963 E0.2236
G1 X141.378 Y161.963 E0.02417
G1 X138.037 Y158.622 E0.18942
G1 X138.037 Y159.225 E0.02417
G1 X140.775 Y161.963 E0.15524
G1 X140.172 Y161.963 E0.02417
G1 X138.037 Y159.828 E0.12106
G1 X138.037 Y160.43 E0.02417
G1 X139.57 Y161.963 E0.08688
G1 X138.967 Y161.963 E0.02417
G1 X138.037 Y161.033 E0.0527
G1 X138.037 Y161.636 E0.02417
G1 X138.547 Y162.146 E0.02891
; INIT stop printing object First_Layer_Patch-0.25mm.stl id:0 copy 0
G1 E-0.75 F3000
G1 Z0.65 F27000
; stop printing object First_Layer_Patch-0.25mm.stl id:0 copy 0
M107
;TYPE:Custom
; Filament-specific end gcode 
;END gcode for filament
print_end    ;end script from macro
TIMELAPSE_RENDER
; filament used [mm] = 59.69
; filament used [cm3] = 0.14
; filament used [g] = 0.15
; filament cost = 0.00
; total filament used [g] = 0.15
; total filament cost = 0.00
; total layers count = 1
; estimated printing time (normal mode) = 31s

; SuperSlicer_config = begin
; allow_empty_layers = 0
; avoid_crossing_not_first_layer = 1
; avoid_crossing_perimeters = 0
; avoid_crossing_perimeters_max_detour = 0
; bed_custom_model = 
; bed_custom_texture = 
; bed_shape = 0x0,300x0,300x300,0x300
; bed_temperature = 110
; before_layer_gcode = ;BEFORE_LAYER_CHANGE\n;[layer_z]\nTIMELAPSE_TAKE_FRAME\n\n
; between_objects_gcode = 
; bottom_fill_pattern = monotonicgapfill
; bottom_solid_layers = 5
; bottom_solid_min_thickness = 1
; bridge_acceleration = 5000
; bridge_angle = 0
; bridge_fan_speed = 100
; bridge_flow_ratio = 85%
; bridge_internal_acceleration = 5000
; bridge_internal_fan_speed = -1
; bridge_overlap = 50%
; bridge_overlap_min = 50%
; bridge_speed = 140
; bridge_speed_internal = 100%
; bridge_type = nozzle
; bridged_infill_margin = 200%
; brim_acceleration = 5000
; brim_ears = 0
; brim_ears_detection_length = 1
; brim_ears_max_angle = 120
; brim_ears_pattern = concentric
; brim_inside_holes = 0
; brim_separation = 0
; brim_speed = 50%
; brim_width = 0
; brim_width_interior = 0
; chamber_temperature = 50
; clip_multipart_objects = 1
; color_change_gcode = M600
; complete_objects = 0
; complete_objects_one_brim = 0
; complete_objects_one_skirt = 0
; complete_objects_sort = object
; cooling_tube_length = 5
; cooling_tube_retraction = 91.5
; curve_smoothing_angle_concave = 0
; curve_smoothing_angle_convex = 0
; curve_smoothing_cutoff_dist = 2
; curve_smoothing_precision = 0
; default_acceleration = 4000
; default_filament_profile = "Basic PLA @VORON"
; default_print_profile = 0.15mm 0.4nozzle
; default_speed = 100
; deretract_speed = 30
; disable_fan_first_layers = 1
; dont_support_bridges = 1
; draft_shield = disabled
; duplicate_distance = 6
; end_filament_gcode = "; Filament-specific end gcode \n;END gcode for filament\n"
; end_gcode = print_end    ;end script from macro\nTIMELAPSE_RENDER
; enforce_full_fill_volume = 1
; ensure_vertical_shell_thickness = 1
; exact_last_layer_height = 0
; external_infill_margin = 150%
; external_perimeter_acceleration = 1000
; external_perimeter_cut_corners = 0%
; external_perimeter_extrusion_spacing = 
; external_perimeter_extrusion_width = 100%
; external_perimeter_fan_speed = 75
; external_perimeter_overlap = 100%
; external_perimeter_speed = 80
; external_perimeters_first = 0
; external_perimeters_hole = 1
; external_perimeters_nothole = 1
; external_perimeters_vase = 0
; extra_loading_move = -2
; extra_perimeters = 0
; extra_perimeters_odd_layers = 0
; extra_perimeters_overhangs = 1
; extruder_clearance_height = 20
; extruder_clearance_radius = 20
; extruder_colour = #FFE3CA
; extruder_fan_offset = 0%
; extruder_offset = 0x0
; extruder_temperature_offset = 0
; extrusion_axis = E
; extrusion_multiplier = 0.915
; extrusion_spacing = 0
; extrusion_width = 
; fan_always_on = 0
; fan_below_layer_time = 15
; fan_kickstart = 0
; fan_percentage = 0
; fan_speedup_overhangs = 1
; fan_speedup_time = 0
; feature_gcode = 
; filament_colour = #707070
; filament_cooling_final_speed = 3.4
; filament_cooling_initial_speed = 2.2
; filament_cooling_moves = 4
; filament_cooling_zone_pause = 0
; filament_cost = 22
; filament_custom_variables = ""
; filament_density = 1.03
; filament_diameter = 1.75
; filament_dip_extraction_speed = 70
; filament_dip_insertion_speed = 33
; filament_enable_toolchange_part_fan = 0
; filament_enable_toolchange_temp = 0
; filament_load_time = 0
; filament_loading_speed = 28
; filament_loading_speed_start = 3
; filament_max_overlap = 100%
; filament_max_speed = 0
; filament_max_volumetric_speed = 0
; filament_max_wipe_tower_speed = 0
; filament_melt_zone_pause = 0
; filament_minimal_purge_on_wipe_tower = 15
; filament_notes = ""
; filament_ramming_parameters = "120 100 6.6 6.8 7.2 7.6 7.9 8.2 8.7 9.4 9.9 10.0| 0.05 6.6 0.45 6.8 0.95 7.8 1.45 8.3 1.95 9.7 2.45 10 2.95 7.6 3.45 7.6 3.95 7.6 4.45 7.6 4.95 7.6"
; filament_settings_id = "abs 597"
; filament_shrink = 99.6%
; filament_skinnydip_distance = 31
; filament_soluble = 0
; filament_spool_weight = 0
; filament_toolchange_delay = 0
; filament_toolchange_part_fan_speed = 50
; filament_toolchange_temp = 200
; filament_type = ABS
; filament_unload_time = 0
; filament_unloading_speed = 90
; filament_unloading_speed_start = 100
; filament_use_fast_skinnydip = 0
; filament_use_skinnydip = 0
; filament_vendor = (Unknown)
; filament_wipe_advanced_pigment = 0.5
; fill_angle = 45
; fill_angle_increment = 0
; fill_density = 40%
; fill_pattern = grid
; fill_smooth_distribution = 10%
; fill_smooth_width = 50%
; fill_top_flow_ratio = 100%
; first_layer_acceleration = 2000
; first_layer_acceleration_over_raft = 0
; first_layer_bed_temperature = 110
; first_layer_extrusion_spacing = 
; first_layer_extrusion_width = 120%
; first_layer_flow_ratio = 100%
; first_layer_height = 0.25
; first_layer_infill_speed = 60
; first_layer_min_speed = 0
; first_layer_size_compensation = -0.1
; first_layer_size_compensation_layers = 3
; first_layer_speed = 30
; first_layer_speed_over_raft = 30
; first_layer_temperature = 255
; full_fan_speed_layer = 2
; fuzzy_skin = none
; fuzzy_skin_point_dist = 200%
; fuzzy_skin_thickness = 150%
; gap_fill_acceleration = 2000
; gap_fill_enabled = 1
; gap_fill_last = 1
; gap_fill_min_area = 50%
; gap_fill_overlap = 100%
; gap_fill_speed = 30
; gcode_comments = 0
; gcode_filename_illegal_char = 
; gcode_flavor = klipper
; gcode_label_objects = 1
; gcode_precision_e = 5
; gcode_precision_xyz = 3
; gcode_resolution = 0
; gcode_substitutions = 
; high_current_on_filament_swap = 0
; hole_size_compensation = 0
; hole_size_threshold = 100
; hole_to_polyhole = 0
; hole_to_polyhole_threshold = 0.01
; hole_to_polyhole_twisted = 1
; host_type = octoprint
; infill_acceleration = 7000
; infill_anchor = 600%
; infill_anchor_max = 0
; infill_connection = connected
; infill_connection_bottom = connected
; infill_connection_solid = connected
; infill_connection_top = connected
; infill_dense = 0
; infill_dense_algo = autoenlarged
; infill_every_layers = 1
; infill_extruder = 1
; infill_extrusion_spacing = 
; infill_extrusion_width = 180%
; infill_first = 0
; infill_only_where_needed = 0
; infill_overlap = 40%
; infill_speed = 300
; inherits_cummulative = ;;"Voron_v1_300_afterburner 0.4 nozzle"
; init_z_rotate = 0
; interface_shells = 0
; ironing = 0
; ironing_acceleration = 2000
; ironing_angle = -1
; ironing_flowrate = 15%
; ironing_spacing = 0.1
; ironing_speed = 15
; ironing_type = top
; layer_gcode = ;AFTER_LAYER_CHANGE\n;[layer_z]
; layer_height = 0.2
; lift_min = 0
; machine_limits_usage = time_estimate_only
; machine_max_acceleration_e = 10000
; machine_max_acceleration_extruding = 1500
; machine_max_acceleration_retracting = 1500
; machine_max_acceleration_travel = 1500,1250
; machine_max_acceleration_x = 9000
; machine_max_acceleration_y = 9000
; machine_max_acceleration_z = 500
; machine_max_feedrate_e = 120
; machine_max_feedrate_x = 500
; machine_max_feedrate_y = 500
; machine_max_feedrate_z = 12
; machine_max_jerk_e = 2.5
; machine_max_jerk_x = 10
; machine_max_jerk_y = 10
; machine_max_jerk_z = 0.2
; machine_min_extruding_rate = 0
; machine_min_travel_rate = 0
; max_fan_speed = 60
; max_gcode_per_second = 1500
; max_layer_height = 0.3
; max_print_height = 230
; max_print_speed = 300
; max_speed_reduction = 90%
; max_volumetric_speed = 16
; milling_after_z = 200%
; milling_extra_size = 150%
; milling_post_process = 0
; milling_speed = 30
; milling_toolchange_end_gcode = 
; milling_toolchange_start_gcode = 
; min_fan_speed = 60
; min_layer_height = 0.0375
; min_length = 0.035
; min_print_speed = 10
; min_skirt_length = 20
; min_width_top_surface = 200%
; mmu_segmented_region_max_width = 0
; model_precision = 0.0001
; no_perimeter_unsupported_algo = none
; notes = 
; nozzle_diameter = 0.4
; only_one_perimeter_first_layer = 0
; only_one_perimeter_top = 1
; only_one_perimeter_top_other_algo = 0
; only_retract_when_crossing_perimeters = 1
; ooze_prevention = 0
; output_filename_format = [input_filename_base]-[printer_settings_id]-[filament_settings_id].gcode
; over_bridge_flow_ratio = 100%
; overhangs_acceleration = 2000
; overhangs_reverse = 0
; overhangs_reverse_threshold = 250%
; overhangs_speed = 100%
; overhangs_width = 75%
; overhangs_width_speed = 0
; parking_pos_retraction = 92
; pause_print_gcode = M601
; perimeter_acceleration = 2000
; perimeter_bonding = 0%
; perimeter_extruder = 1
; perimeter_extrusion_spacing = 
; perimeter_extrusion_width = 120%
; perimeter_loop = 0
; perimeter_loop_seam = rear
; perimeter_overlap = 100%
; perimeter_round_corners = 0
; perimeter_speed = 150
; perimeters = 4
; physical_printer_settings_id = 597
; post_process = 
; print_custom_variables = 
; print_extrusion_multiplier = 100%
; print_retract_length = -1
; print_retract_lift = -1
; print_settings_id = newtrrident
; print_temperature = 0
; printer_custom_variables = 
; printer_model = Voron_v1_300_afterburner
; printer_notes = Unoffical profile, for now.\nE3DV6
; printer_settings_id = 597
