; generated by SuperSlicer 2.5.59 on 2022-10-10 at 06:58:06 UTC


;
;

;
;
; 

; external perimeters extrusion width = 0.42mm
; perimeters extrusion width = 0.45mm
; infill extrusion width = 0.56mm
; solid infill extrusion width = 0.56mm
; top infill extrusion width = 0.40mm
; first layer extrusion width = 0.80mm

; external perimeters extrusion width = 0.42mm
; perimeters extrusion width = 0.45mm
; infill extrusion width = 0.56mm
; solid infill extrusion width = 0.56mm
; top infill extrusion width = 0.40mm
; first layer extrusion width = 0.80mm

; object:{"name":"Front-Idlers_Housing-Cover (2)","id":"Front-Idlers_Housing-Cover (2).stl id:0 copy 0","object_center":[150.000000,150.000000,0.000000],"boundingbox_center":[150.000000,150.000000,2.000000],"boundingbox_size":[38.303095,38.303095,4.000000]}
; object:{"name":"Front-Idlers_Housing-Cover (2)","id":"Front-Idlers_Housing-Cover (2).stl id:1 copy 0","object_center":[165.000000,165.000000,0.000000],"boundingbox_center":[165.000000,165.000000,2.000000],"boundingbox_size":[38.303095,38.303095,4.000000]}
; plater:{"center":[157.500000,157.500000,0.000000],"boundingbox_center":[157.500000,157.500000,2.000000],"boundingbox_size":[53.303095,53.303095,4.000000]}

M73 P0 R19


; Pre-Processed for Cancel-Object support by preprocess_cancellation v0.2.0
; 2 known objects
EXCLUDE_OBJECT_DEFINE NAME=Front_Idlers_Housing_Cover_2_stl_id_0_copy_0 CENTER=151.397,148.625 POLYGON=[[159.729,131.058],[159.21,131.111],[158.466,131.318],[157.773,131.677],[157.165,132.171],[132.171,157.165],[131.679,157.77],[131.423,158.225],[131.232,158.71],[131.076,159.467],[131.059,159.985],[131.113,160.5],[131.237,161.004],[131.718,162.145],[132.433,163.432],[132.989,164.244],[133.602,165.011],[134.27,165.73],[134.989,166.398],[135.756,167.011],[136.567,167.566],[137.416,168.058],[138.299,168.487],[139.0,168.765],[139.756,168.923],[140.278,168.941],[141.047,168.836],[141.775,168.577],[142.436,168.176],[142.835,167.829],[167.831,142.832],[168.325,142.224],[168.68,141.537],[168.836,141.043],[168.941,140.278],[168.887,139.5],[168.675,138.749],[168.281,137.854],[167.82,136.987],[167.012,135.758],[166.397,134.988],[165.377,133.929],[164.633,133.288],[163.844,132.704],[162.586,131.942],[161.253,131.325],[160.754,131.166],[160.24,131.077],[159.729,131.058]]
EXCLUDE_OBJECT_DEFINE NAME=Front_Idlers_Housing_Cover_2_stl_id_1_copy_0 CENTER=166.397,163.625 POLYGON=[[174.729,146.058],[174.21,146.111],[173.466,146.318],[172.773,146.677],[172.165,147.171],[147.171,172.165],[146.679,172.77],[146.423,173.225],[146.232,173.71],[146.076,174.467],[146.059,174.985],[146.113,175.5],[146.237,176.004],[146.718,177.145],[147.433,178.432],[147.989,179.244],[148.602,180.011],[149.27,180.73],[149.989,181.398],[150.756,182.011],[151.567,182.566],[152.416,183.058],[153.299,183.487],[154.0,183.765],[154.756,183.923],[155.278,183.941],[156.047,183.836],[156.775,183.577],[157.436,183.176],[157.835,182.829],[182.831,157.832],[183.325,157.224],[183.68,156.537],[183.836,156.043],[183.941,155.278],[183.887,154.5],[183.675,153.749],[183.281,152.854],[182.82,151.987],[182.012,150.758],[181.397,149.988],[180.377,148.929],[179.633,148.288],[178.844,147.704],[177.586,146.942],[176.253,146.325],[175.754,146.166],[175.24,146.077],[174.729,146.058]]
;TYPE:Custom
PRINT_START EXTRUDER=255 BED=115 AREA_START=124.135,124.186 AREA_END=190.808,190.85
M107
G21 ; set units to millimeters
G90 ; use absolute coordinates
M83 ; use relative distances for extrusion
SET_PRESSURE_ADVANCE SMOOTH=0.04
SET_PRESSURE_ADVANCE ADVANCE=0.025
;_TOOLCHANGE 0
M104 S255 ; set temperature
M109 S255 ; set temperature and wait for it to be reached
M190 S115 ; set bed temperature and wait for it to be reached
M107
;LAYER_CHANGE
;Z:0.24
;HEIGHT:0.24
G1 Z0.24 F24000
G92 E0
M73 P1 R18
G1 E-0.7 F1800
M204 S10000
G1 X140.118 Y140.001 F24000
G1 E0.7 F1800
;TYPE:Skirt
;WIDTH:0.45
G1 F8783.0335
G1 X127.254 Y152.877 E0.67303
G1 X126.342 Y154.015 E0.05395
G1 X125.73 Y155.037 E0.04406
G1 X125.355 Y155.827 E0.03233
G1 X124.895 Y157.159 E0.05212
G1 X124.566 Y159.075 E0.07187
G1 X124.569 Y160.653 E0.05836
G1 X124.774 Y162.048 E0.05212
G1 X125.168 Y163.401 E0.05212
G1 X125.45 Y164.111 E0.02824
G1 X125.9 Y165.027 E0.03773
G1 X127.687 Y167.872 E0.12426
G1 X128.583 Y169.022 E0.05391
G1 X129.562 Y170.102 E0.05391
G1 X144.727 Y185.273 E0.7932
G1 X145.978 Y186.417 E0.06267
G1 X147.128 Y187.313 E0.05391
G1 X148.341 Y188.122 E0.05391
G1 X150.496 Y189.268 E0.09026
G1 X152.412 Y189.997 E0.07582
G1 X154.314 Y190.393 E0.07186
G1 X155.707 Y190.452 E0.05154
G1 X156.626 Y190.357 E0.03416
G1 X157.794 Y190.122 E0.04406
G1 X158.674 Y189.842 E0.03416
G1 X159.963 Y189.27 E0.05212
G1 X160.985 Y188.658 E0.04406
G1 X162.443 Y187.447 E0.07009
G1 X187.782 Y162.09 E1.32561
G1 X188.897 Y160.619 E0.06827
G1 X189.578 Y159.328 E0.05395
G1 X190.06 Y158.004 E0.05212
G1 X190.385 Y156.357 E0.06207
G1 X190.411 Y154.966 E0.05145
G1 X190.274 Y153.729 E0.04602
G1 X189.954 Y152.288 E0.0546
G1 X189.557 Y151.163 E0.0441
G1 X188.492 Y148.969 E0.0902
G1 X187.728 Y147.726 E0.05394
G1 X186.805 Y146.45 E0.05822
G1 X185.615 Y145.081 E0.06708
G1 X169.919 Y129.385 E0.82083
G1 X168.826 Y128.42 E0.05391
G1 X166.66 Y126.879 E0.0983
G1 X165.39 Y126.162 E0.05394
G1 X164.18 Y125.586 E0.04956
G1 X163.214 Y125.207 E0.03835
G1 X162.111 Y124.885 E0.04249
G1 X160.164 Y124.602 E0.07276
G1 X158.71 Y124.606 E0.05375
G1 X157.68 Y124.768 E0.03856
G1 X156.278 Y125.171 E0.05395
G1 X155.188 Y125.652 E0.04406
G1 X154.381 Y126.103 E0.03416
G1 X153.28 Y126.902 E0.05031
G1 X152.557 Y127.553 E0.03599
G1 X140.118 Y140.001 E0.65075
G1 X140.4 Y140.283 F24000
G1 F8783.0335
G1 X127.554 Y153.138 E0.67203
G1 X126.668 Y154.245 E0.05244
G1 X126.077 Y155.233 E0.04255
G1 X125.726 Y155.973 E0.03031
G1 X125.282 Y157.253 E0.05011
G1 X124.963 Y159.115 E0.06986
G1 X124.965 Y160.612 E0.05534
G1 X125.161 Y161.953 E0.05011
G1 X125.538 Y163.254 E0.05011
G1 X125.82 Y163.964 E0.02824
G1 X126.243 Y164.823 E0.03538
G1 X127.003 Y166.098 E0.05491
G1 X128.016 Y167.647 E0.06845
G1 X128.895 Y168.773 E0.05282
G1 X129.854 Y169.831 E0.05282
G1 X145.009 Y184.991 E0.79266
G1 X146.227 Y186.105 E0.06103
G1 X148.165 Y187.54 E0.08917
G1 X149.392 Y188.271 E0.05282
G1 X150.67 Y188.909 E0.05282
G1 X152.526 Y189.615 E0.07344
G1 X154.374 Y189.999 E0.06982
G1 X155.68 Y190.054 E0.04833
G1 X156.558 Y189.964 E0.03265
G1 X157.687 Y189.738 E0.04255
G1 X158.528 Y189.471 E0.03265
G1 X159.767 Y188.923 E0.0501
G1 X160.755 Y188.332 E0.04255
G1 X162.161 Y187.166 E0.06757
G1 X187.491 Y161.818 E1.3251
G1 X188.557 Y160.412 E0.06525
G1 X189.218 Y159.157 E0.05244
G1 X189.68 Y157.883 E0.0501
G1 X189.99 Y156.307 E0.05943
G1 X190.014 Y155.002 E0.04824
G1 X189.88 Y153.793 E0.04498
G1 X189.574 Y152.409 E0.05241
G1 X189.192 Y151.324 E0.04256
G1 X188.14 Y149.156 E0.08911
G1 X187.391 Y147.938 E0.05285
G1 X186.489 Y146.693 E0.05686
G1 X185.333 Y145.363 E0.06517
M73 P2 R18
G1 X169.637 Y129.667 E0.82083
G1 X168.566 Y128.722 E0.05282
G1 X166.46 Y127.223 E0.09558
G1 X165.216 Y126.52 E0.05285
G1 X164.026 Y125.953 E0.04874
G1 X163.092 Y125.587 E0.03709
G1 X162.027 Y125.275 E0.04105
G1 X160.136 Y124.999 E0.07065
G1 X158.74 Y125.003 E0.05163
G1 X157.774 Y125.156 E0.03616
G1 X156.411 Y125.547 E0.05244
G1 X155.359 Y126.012 E0.04255
G1 X154.588 Y126.443 E0.03265
G1 X153.542 Y127.202 E0.04779
G1 X152.839 Y127.834 E0.03498
G1 X140.4 Y140.283 E0.65074
G1 X140.682 Y140.564 F24000
G1 F8783.0335
G1 X127.855 Y153.4 E0.67103
G1 X126.994 Y154.475 E0.05093
G1 X126.096 Y156.119 E0.06926
G1 X125.669 Y157.347 E0.04809
G1 X125.359 Y159.156 E0.06784
G1 X125.361 Y160.571 E0.05232
G1 X125.548 Y161.858 E0.04809
G1 X125.909 Y163.107 E0.0481
G1 X126.19 Y163.817 E0.02824
G1 X127.345 Y165.894 E0.08787
G1 X128.345 Y167.422 E0.06753
G1 X129.206 Y168.525 E0.05173
G1 X130.146 Y169.56 E0.05173
G1 X145.29 Y184.71 E0.79211
G1 X146.475 Y185.794 E0.0594
G1 X148.39 Y187.211 E0.08807
G1 X149.592 Y187.926 E0.05173
G1 X150.843 Y188.551 E0.05173
G1 X152.64 Y189.234 E0.07105
G1 X154.434 Y189.605 E0.06778
G1 X155.654 Y189.657 E0.04512
G1 X156.491 Y189.571 E0.03114
G1 X157.58 Y189.355 E0.04104
G1 X158.382 Y189.1 E0.03114
G1 X159.572 Y188.575 E0.04809
G1 X160.525 Y188.006 E0.04104
G1 X161.88 Y186.884 E0.06505
G1 X187.2 Y161.546 E1.3246
G1 X188.216 Y160.205 E0.06223
G1 X188.858 Y158.986 E0.05093
G1 X189.3 Y157.763 E0.04809
G1 X189.595 Y156.256 E0.05679
G1 X189.617 Y155.038 E0.04503
G1 X189.487 Y153.857 E0.04394
G1 X189.195 Y152.531 E0.05021
G1 X188.827 Y151.484 E0.04103
G1 X187.788 Y149.343 E0.08801
G1 X187.054 Y148.151 E0.05176
G1 X186.173 Y146.936 E0.05549
G1 X185.051 Y145.645 E0.06326
G1 X169.355 Y129.949 E0.82083
G1 X168.306 Y129.024 E0.05173
G1 X166.26 Y127.568 E0.09285
G1 X165.042 Y126.879 E0.05176
G1 X163.872 Y126.321 E0.04793
G1 X162.971 Y125.966 E0.03583
G1 X161.943 Y125.664 E0.03962
G1 X160.109 Y125.397 E0.06853
G1 X158.77 Y125.401 E0.04951
G1 X157.868 Y125.543 E0.03376
G1 X156.544 Y125.923 E0.05093
G1 X155.53 Y126.372 E0.04104
G1 X154.795 Y126.784 E0.03114
G1 X153.804 Y127.503 E0.04527
G1 X153.12 Y128.116 E0.03397
G1 X140.682 Y140.564 E0.65073
G1 X140.963 Y140.845 F24000
G1 F8783.0335
G1 X128.155 Y153.662 E0.67003
G1 X127.319 Y154.705 E0.04942
G1 X126.467 Y156.265 E0.06574
G1 X125.993 Y157.702 E0.05595
G1 X125.756 Y159.196 E0.05595
G1 X125.758 Y160.529 E0.0493
G1 X125.935 Y161.763 E0.04608
G1 X126.279 Y162.96 E0.04608
G1 X126.561 Y163.67 E0.02824
G1 X127.687 Y165.69 E0.08553
G1 X128.674 Y167.197 E0.0666
G1 X129.517 Y168.276 E0.05063
G1 X130.438 Y169.289 E0.05063
G1 X145.572 Y184.428 E0.79156
G1 X146.724 Y185.483 E0.05776
G1 X148.615 Y186.882 E0.08698
G1 X149.792 Y187.582 E0.05064
G1 X151.017 Y188.192 E0.05063
G1 X152.753 Y188.852 E0.06867
G1 X154.495 Y189.211 E0.06574
G1 X155.627 Y189.259 E0.04191
G1 X156.424 Y189.178 E0.02963
G1 X157.472 Y188.971 E0.03953
G1 X158.236 Y188.729 E0.02963
G1 X159.377 Y188.228 E0.04608
G1 X160.295 Y187.681 E0.03953
G1 X161.598 Y186.602 E0.06254
G1 X186.909 Y161.274 E1.32409
G1 X187.876 Y159.998 E0.05921
G1 X188.498 Y158.815 E0.04942
G1 X188.92 Y157.643 E0.04608
G1 X189.199 Y156.205 E0.05416
G1 X189.22 Y155.074 E0.04183
G1 X189.094 Y153.921 E0.0429
G1 X188.815 Y152.653 E0.04801
G1 X188.462 Y151.645 E0.03949
G1 X187.436 Y149.53 E0.08692
G1 X186.717 Y148.364 E0.05067
G1 X185.857 Y147.179 E0.05413
G1 X184.769 Y145.927 E0.06135
G1 X169.073 Y130.231 E0.82083
G1 X168.046 Y129.326 E0.05063
G1 X166.06 Y127.913 E0.09012
G1 X164.868 Y127.237 E0.05067
G1 X163.718 Y126.688 E0.04711
G1 X161.858 Y126.054 E0.07267
G1 X160.081 Y125.794 E0.06641
G1 X158.8 Y125.798 E0.04739
G1 X157.962 Y125.93 E0.03136
G1 X156.677 Y126.298 E0.04942
G1 X155.002 Y127.124 E0.06908
G1 X154.066 Y127.803 E0.04276
G1 X153.402 Y128.398 E0.03296
G1 X140.963 Y140.845 E0.65073
G1 E-0.7 F1800
; printing object Front-Idlers_Housing-Cover (2).stl id:0 copy 0
EXCLUDE_OBJECT_START NAME=Front_Idlers_Housing_Cover_2_stl_id_0_copy_0
M204 S3000
G1 X139.075 Y164.504 F24000
G1 E0.7 F1800
;TYPE:Internal perimeter
;WIDTH:0.8
G1 F9000
G1 X139.313 Y164.823 E0.02762
G1 X138.997 Y165.23 E0.0358
G1 X138.768 Y165.76 E0.04007
G1 X138.683 Y166.139 E0.02702
G1 X138.668 Y166.681 E0.03767
G1 X138.805 Y167.489 E0.0569
G1 X137.941 Y167.07 E0.06664
G1 X137.164 Y166.619 E0.06244
G1 X136.422 Y166.112 E0.06243
G1 X135.72 Y165.55 E0.06243
G1 X135.061 Y164.939 E0.06244
G1 X134.45 Y164.28 E0.06244
G1 X133.888 Y163.578 E0.06243
G1 X133.382 Y162.837 E0.06235
G1 X132.863 Y161.936 E0.0722
G1 X133.742 Y161.723 E0.06284
G1 X134.11 Y161.548 E0.0283
G1 X134.907 Y160.939 E0.06959
G1 X134.851 Y161.999 E0.07368
G1 X134.943 Y162.576 E0.04062
G1 X135.058 Y162.933 E0.02601
G1 X135.324 Y163.454 E0.04062
G1 X135.713 Y163.934 E0.04291
G1 X136.193 Y164.323 E0.04291
G1 X136.743 Y164.603 E0.04291
G1 X137.34 Y164.763 E0.04291
G1 X137.957 Y164.795 E0.04291
G1 X138.567 Y164.699 E0.04291
G1 X139.075 Y164.504 E0.0378
G1 E-0.7 F1800
G1 X155.006 Y149.328 F24000
G1 E0.7 F1800
G1 F9000
G1 X155.927 Y149.182 E0.06477
G1 X156.798 Y148.848 E0.06477
G1 X157.58 Y148.34 E0.06477
G1 X158.24 Y147.681 E0.06477
G1 X158.747 Y146.899 E0.06477
G1 X159.056 Y146.096 E0.05973
G1 X159.182 Y145.499 E0.04237
G1 X159.227 Y144.64 E0.05974
G1 X159.082 Y143.719 E0.06477
G1 X158.848 Y143.112 E0.04519
G1 X160.099 Y143.4 E0.08915
G1 X161.037 Y143.412 E0.06513
G1 X161.956 Y143.226 E0.06513
G1 X162.785 Y142.863 E0.06284
G1 X163.057 Y143.391 E0.04129
G1 X163.285 Y143.68 E0.02554
G1 X143.576 Y163.405 E1.93675
G1 X143.278 Y163.171 E0.0263
G1 X142.541 Y162.791 E0.05758
G1 X142.161 Y162.68 E0.02748
G1 X142.246 Y162.149 E0.03735
G1 X142.246 Y161.539 E0.04237
G1 X142.111 Y160.69 E0.05974
G1 X141.777 Y159.819 E0.06477
G1 X141.269 Y159.037 E0.06477
G1 X140.61 Y158.377 E0.06477
G1 X139.888 Y157.909 E0.05973
G1 X139.331 Y157.661 E0.04237
G1 X138.5 Y157.438 E0.05974
G1 X137.569 Y157.39 E0.06477
G1 X136.648 Y157.535 E0.06477
G1 X136.378 Y157.639 E0.02007
G1 X135.976 Y157.06 E0.049
G1 X150.478 Y142.557 E1.42458
G1 X150.841 Y142.82 E0.03108
G1 X150.609 Y143.275 E0.03548
G1 X150.367 Y144.176 E0.06477
G1 X150.318 Y145.107 E0.06477
G1 X150.464 Y146.028 E0.06477
G1 X150.799 Y146.899 E0.06477
G1 X151.306 Y147.681 E0.06477
G1 X151.966 Y148.34 E0.06477
G1 X152.687 Y148.808 E0.05974
G1 X153.244 Y149.057 E0.04237
G1 X154.075 Y149.279 E0.05974
G1 X155.006 Y149.328 E0.06477
G1 X154.041 Y148.495 F24000
G1 F9000
G1 X154.193 Y148.536 E0.01093
G1 X154.967 Y148.576 E0.05384
G1 X155.733 Y148.455 E0.05384
G1 X156.456 Y148.177 E0.05384
G1 X157.106 Y147.755 E0.05384
G1 X157.655 Y147.207 E0.05384
G1 X158.077 Y146.557 E0.05384
G1 X158.336 Y145.882 E0.05018
G1 X158.438 Y145.401 E0.03419
G1 X158.476 Y144.679 E0.05018
G1 X158.355 Y143.914 E0.05384
G1 X158.077 Y143.19 E0.05384
G1 X157.655 Y142.54 E0.05384
G1 X157.106 Y141.992 E0.05384
G1 X156.456 Y141.57 E0.05384
G1 X155.782 Y141.311 E0.05018
G1 X155.3 Y141.208 E0.03419
G1 X154.632 Y141.173 E0.04652
G1 X154.142 Y141.225 E0.03419
G1 X153.444 Y141.412 E0.05018
G1 X152.753 Y141.764 E0.05384
G1 X152.151 Y142.252 E0.05384
G1 X151.663 Y142.854 E0.05384
G1 X151.311 Y143.545 E0.05384
G1 X151.111 Y144.293 E0.05384
G1 X151.07 Y145.068 E0.05384
G1 X151.191 Y145.833 E0.05384
G1 X151.469 Y146.557 E0.05384
G1 X151.891 Y147.207 E0.05384
G1 X152.439 Y147.755 E0.05384
G1 X153.045 Y148.149 E0.05018
G1 X153.495 Y148.349 E0.03419
G1 X154.041 Y148.495 E0.03925
G1 X154.235 Y147.772 F24000
G1 F9000
G1 X154.311 Y147.792 E0.00546
G1 X154.928 Y147.825 E0.04291
G1 X155.538 Y147.728 E0.04291
G1 X156.115 Y147.507 E0.04291
G1 X156.633 Y147.17 E0.04291
G1 X157.07 Y146.733 E0.04291
G1 X157.406 Y146.215 E0.04291
G1 X157.616 Y145.669 E0.04062
G1 X157.694 Y145.303 E0.02601
G1 X157.724 Y144.719 E0.04062
G1 X157.628 Y144.109 E0.04291
G1 X157.406 Y143.532 E0.04291
G1 X157.07 Y143.014 E0.04291
G1 X156.633 Y142.577 E0.04291
G1 X156.115 Y142.24 E0.04291
G1 X155.569 Y142.031 E0.04062
G1 X155.202 Y141.953 E0.02601
G1 X154.651 Y141.924 E0.03833
G1 X154.279 Y141.963 E0.02601
G1 X153.714 Y142.114 E0.04062
G1 X153.163 Y142.395 E0.04291
G1 X152.683 Y142.784 E0.04291
G1 X152.294 Y143.264 E0.04291
G1 X152.014 Y143.814 E0.04291
G1 X151.854 Y144.411 E0.04291
G1 X151.822 Y145.028 E0.04291
G1 X151.918 Y145.638 E0.04291
G1 X152.14 Y146.215 E0.04291
G1 X152.476 Y146.733 E0.04291
G1 X152.913 Y147.17 E0.04291
G1 X153.404 Y147.489 E0.04062
G1 X153.746 Y147.641 E0.02601
G1 X154.235 Y147.772 E0.03516
G1 X154.428 Y147.049 F24000
;TYPE:External perimeter
G1 F4500
G1 X154.888 Y147.073 E0.03198
G1 X155.343 Y147.001 E0.03199
G1 X155.773 Y146.836 E0.03199
G1 X156.159 Y146.585 E0.03198
G1 X156.485 Y146.26 E0.03199
G1 X156.736 Y145.874 E0.03199
G1 X156.896 Y145.456 E0.03107
G1 X156.949 Y145.205 E0.01782
G1 X156.973 Y144.758 E0.03107
G1 X156.901 Y144.303 E0.03199
G1 X156.736 Y143.873 E0.03199
G1 X156.485 Y143.487 E0.03199
G1 X156.159 Y143.162 E0.03199
G1 X155.773 Y142.911 E0.03199
G1 X155.355 Y142.751 E0.03107
G1 X155.104 Y142.697 E0.01782
G1 X154.671 Y142.674 E0.03015
G1 X154.416 Y142.701 E0.01783
G1 X153.984 Y142.817 E0.03107
G1 X153.573 Y143.026 E0.03199
G1 X153.215 Y143.316 E0.03198
