; generated by SuperSlicer 2.4 on 2022-08-07 at 06:50:14 UTC


;
;

;
;
; TODO: check the size of the extruder and the y-bar clearance. Optimize & test supports.

; external perimeters extrusion width = 0.42mm
; perimeters extrusion width = 0.46mm
; infill extrusion width = 0.44mm
; solid infill extrusion width = 0.46mm
; top infill extrusion width = 0.44mm
; first layer extrusion width = 0.56mm

; object:{"name":"fs_cover_pc4-m10_mk25s_mk3s","id":"fs_cover_pc4-m10_mk25s_mk3s.stl id:0 copy 0","object_center":[150.000000,150.000000,0.000000],"boundingbox_center":[150.000000,150.000000,5.300000],"boundingbox_size":[28.100000,36.000000,10.600000]}
; plater:{"center":[150.000000,150.000000,0.000000],"boundingbox_center":[150.000000,150.000000,5.300000],"boundingbox_size":[28.100000,36.000000,10.600000]}

;TYPE:Custom
print_start EXTRUDER=255 BED=110 CHAMBER=50
M107
G21 ; set units to millimeters
G90 ; use absolute coordinates
M83 ; use relative distances for extrusion
; Filament gcode
SET_PRESSURE_ADVANCE ADVANCE=0.045
SET_PRESSURE_ADVANCE EXTRUDER=extruder SMOOTH_TIME=0.04
M104 S255 ; set temperature
M109 S255 ; set temperature and wait for it to be reached
M190 S110 ; set bed temperature and wait for it to be reached
M107
;LAYER_CHANGE
;Z:0.2
;HEIGHT:0.2
;BEFORE_LAYER_CHANGE
;0.2
TIMELAPSE_TAKE_FRAME


G1 Z0.2 F18000
;AFTER_LAYER_CHANGE
;0.2
G92 E0
G1 E-0.75 F3000
G1 Z0.6 F18000
M204 S1000
G1 X132.793 Y133.917
G1 Z0.2
G1 E0.75 F1800
;TYPE:Skirt
;WIDTH:0.52
G1 X132.668 Y134.041 E0.00638
G1 X131.97 Y134.924 E0.04083
G1 X131.328 Y136.736 E0.06978
G1 X131.224 Y137.816 E0.03941
G1 X131.324 Y167.99 E1.09522
G1 X131.571 Y169.472 E0.05453
G1 X132.55 Y171.126 E0.06978
G1 X134.112 Y172.246 E0.06978
G1 X135.994 Y172.642 E0.06978
G1 X164.006 Y172.642 E1.01679
G1 X165.506 Y172.395 E0.05516
G1 X167.16 Y171.416 E0.06978
G1 X168.28 Y169.854 E0.06978
G1 X168.676 Y167.972 E0.06978
G1 X168.676 Y132.028 E1.3047
G1 X168.429 Y130.528 E0.05516
G1 X167.45 Y128.874 E0.06978
G1 X165.888 Y127.754 E0.06978
G1 X164.006 Y127.358 E0.06978
G1 X141.331 Y127.358 E0.82307
G1 X139.657 Y127.668 E0.06178
G1 X138.043 Y128.712 E0.06978
G1 X132.835 Y133.875 E0.26618
G1 X133.171 Y134.214 F18000
G1 F1800
G1 X133.004 Y134.38 E0.00856
G1 X131.801 Y136.799 E0.09807
G1 X131.701 Y137.817 E0.03711
G1 X131.801 Y167.988 E1.09515
G1 X131.939 Y169.041 E0.03855
G1 X132.774 Y170.659 E0.06608
G1 X134.217 Y171.77 E0.06608
G1 X135.994 Y172.165 E0.06608
G1 X164.006 Y172.165 E1.01679
G1 X165.075 Y172.027 E0.03911
G1 X166.693 Y171.191 E0.06608
G1 X167.804 Y169.749 E0.06608
G1 X168.199 Y167.972 E0.06608
G1 X168.199 Y132.028 E1.3047
G1 X168.061 Y130.959 E0.03911
G1 X167.226 Y129.341 E0.06608
G1 X165.783 Y128.23 E0.06608
G1 X164.006 Y127.835 E0.06608
G1 X141.331 Y127.835 E0.82307
G1 X139.919 Y128.08 E0.05202
G1 X138.378 Y129.051 E0.06608
G1 X133.214 Y134.172 E0.264
G1 X133.55 Y134.51 F18000
G1 F1800
G1 X133.34 Y134.719 E0.01074
G1 X132.273 Y136.863 E0.08691
G1 X132.178 Y137.817 E0.03481
G1 X132.278 Y167.986 E1.09507
G1 X133.015 Y170.193 E0.08446
G1 X134.327 Y171.293 E0.06216
G1 X135.994 Y171.688 E0.06216
G1 X164.006 Y171.688 E1.01679
G1 X166.227 Y170.951 E0.08494
G1 X167.327 Y169.639 E0.06216
G1 X167.722 Y167.972 E0.06216
G1 X167.722 Y132.028 E1.3047
G1 X166.985 Y129.807 E0.08494
G1 X165.673 Y128.707 E0.06216
G1 X164.006 Y128.312 E0.06216
G1 X141.331 Y128.312 E0.82307
G1 X140.175 Y128.496 E0.04246
G1 X138.714 Y129.389 E0.06216
G1 X133.592 Y134.468 E0.26182
G1 X133.928 Y134.807 F18000
G1 F1800
G1 X133.676 Y135.058 E0.01292
G1 X132.746 Y136.926 E0.07575
G1 X132.655 Y137.817 E0.03251
G1 X132.755 Y167.984 E1.095
G1 X133.274 Y169.731 E0.06615
G1 X134.446 Y170.817 E0.05797
G1 X135.994 Y171.211 E0.05797
G1 X164.006 Y171.211 E1.01679
G1 X165.765 Y170.691 E0.06657
G1 X166.851 Y169.52 E0.05797
G1 X167.245 Y167.972 E0.05797
G1 X167.245 Y132.028 E1.3047
G1 X166.726 Y130.269 E0.06657
G1 X165.554 Y129.183 E0.05797
G1 X164.006 Y128.789 E0.05797
G1 X141.331 Y128.789 E0.82307
G1 X140.427 Y128.918 E0.03314
G1 X139.05 Y129.728 E0.05797
G1 X133.971 Y134.765 E0.25964
; INIT printing object fs_cover_pc4-m10_mk25s_mk3s.stl id:0 copy 0
G1 E-0.75 F3000
M204 S1500
G1 Z0.6 F18000
; printing object fs_cover_pc4-m10_mk25s_mk3s.stl id:0 copy 0
; acceleration to travel
G1 X136.869 Y150.721
; decel to extrusion
M204 S1000
G1 X138.801 Y161.359
; end travel
G1 Z0.2
G1 E0.75 F1800
;TYPE:Internal perimeter
;WIDTH:0.56
G1 X139.264 Y166.658 E0.20926
G1 X137.308 Y166.658 E0.07698
G1 X137.307 Y161.49 E0.20332
G1 X138.741 Y161.364 E0.05662
; acceleration to travel
M204 S1500
G1 X137.807 Y157.085 F18000
; decel to extrusion
M204 S1000
G1 X137.185 Y154.232
; end travel
G1 F1800
G1 X137.77 Y160.93 E0.26454
G1 X139.271 Y160.799 E0.05925
G1 X139.823 Y167.113 E0.24936
G1 X139.116 Y167.175 E0.02794
G1 X136.791 Y167.175 E0.09147
G1 X136.79 Y154.249 E0.50853
G1 X137.125 Y154.234 E0.01322
G1 E-0.75 F3000
M204 S1500
G1 Z0.6 F18000
; acceleration to travel
G1 X148.835 Y151.983
; decel to extrusion
M204 S1000
G1 X156.641 Y150.481
; end travel
G1 Z0.2
G1 E0.75 F1800
G1 X156.541 Y150.625 E0.00687
G1 X156.313 Y151.157 E0.02277
G1 X156.211 Y151.619 E0.01861
G1 X156.178 Y152.008 E0.01536
G1 X156.211 Y152.402 E0.01555
G1 X156.339 Y152.949 E0.02209
G1 X156.548 Y153.401 E0.01961
G1 X156.825 Y153.8 E0.01909
G1 X157.166 Y154.145 E0.01909
G1 X157.553 Y154.421 E0.01872
G1 X157.903 Y154.597 E0.01539
G1 X158.356 Y154.744 E0.01876
G1 X158.837 Y154.812 E0.01909
G1 X159.322 Y154.796 E0.01909
G1 X159.797 Y154.696 E0.01909
G1 X160.247 Y154.517 E0.01909
G1 X160.661 Y154.262 E0.01909
G1 X161.024 Y153.94 E0.01909
G1 X161.326 Y153.56 E0.01909
G1 X161.558 Y153.134 E0.01909
G1 X161.713 Y152.674 E0.01909
G1 X161.785 Y152.204 E0.01874
G1 X161.785 Y151.812 E0.01539
G1 X161.713 Y151.342 E0.01874
G1 X161.558 Y150.882 E0.01909
G1 X161.32 Y150.445 E0.01958
G1 X160.957 Y150.015 E0.02214
G1 X160.659 Y149.753 E0.01559
G1 X160.247 Y149.499 E0.01903
G1 X159.797 Y149.32 E0.01909
G1 X159.322 Y149.22 E0.01909
G1 X158.837 Y149.204 E0.01909
G1 X158.356 Y149.272 E0.01909
G1 X157.903 Y149.419 E0.01876
G1 X157.553 Y149.595 E0.01539
G1 X157.166 Y149.871 E0.01872
G1 X156.825 Y150.216 E0.01909
G1 X156.675 Y150.432 E0.01034
G1 X157.066 Y150.776 F18000
;TYPE:External perimeter
G1 F1800
G1 X156.996 Y150.877 E0.00481
G1 X156.808 Y151.316 E0.01881
G1 X156.723 Y151.697 E0.01535
G1 X156.697 Y152.008 E0.01227
G1 X156.724 Y152.321 E0.01235
G1 X156.831 Y152.78 E0.01854
G1 X156.999 Y153.143 E0.01576
G1 X157.224 Y153.468 E0.01556
G1 X157.502 Y153.75 E0.01556
G1 X157.821 Y153.977 E0.01541
G1 X158.1 Y154.117 E0.01228
G1 X158.473 Y154.238 E0.01543
G1 X158.864 Y154.293 E0.01556
G1 X159.26 Y154.28 E0.01556
G1 X159.647 Y154.2 E0.01556
G1 X160.014 Y154.053 E0.01556
G1 X160.351 Y153.846 E0.01556
G1 X160.647 Y153.583 E0.01556
G1 X160.893 Y153.273 E0.01556
G1 X161.082 Y152.926 E0.01556
G1 X161.209 Y152.551 E0.01556
G1 X161.268 Y152.164 E0.01542
G1 X161.268 Y151.852 E0.01228
G1 X161.209 Y151.465 E0.01542
G1 X161.082 Y151.09 E0.01556
G1 X160.891 Y150.738 E0.01575
G1 X160.586 Y150.378 E0.01856
G1 X160.35 Y150.17 E0.01236
G1 X160.014 Y149.963 E0.01554
G1 X159.647 Y149.817 E0.01556
G1 X159.26 Y149.736 E0.01556
G1 X158.864 Y149.723 E0.01556
G1 X158.473 Y149.778 E0.01556
G1 X158.1 Y149.899 E0.01543
G1 X157.821 Y150.039 E0.01228
G1 X157.502 Y150.266 E0.01541
G1 X157.224 Y150.548 E0.01556
G1 X157.1 Y150.727 E0.00857
;WIPE_START
M204 S1500
G1 X156.944 Y150.766 F18000
;WIPE_END
; acceleration to travel
G1 X159.831 Y148.306
; decel to extrusion
M204 S1000
G1 X161.756 Y146.665
; end travel
;TYPE:Internal perimeter
G1 F1800
G1 X161.756 Y136.236 E0.41029
G1 X148.253 Y136.236 E0.53121
G1 X149.256 Y147.699 E0.4527
G1 X161.756 Y147.699 E0.49176
G1 X161.756 Y146.725 E0.03832
G1 X161.239 Y146.665 F18000
G1 F1800
G1 X161.239 Y136.753 E0.38995
G1 X148.817 Y136.753 E0.48867
G1 X149.73 Y147.182 E0.41186
G1 X161.239 Y147.182 E0.45278
G1 X161.239 Y146.725 E0.01798
G1 X160.722 Y146.665 F18000
;TYPE:External perimeter
G1 F1800
G1 X160.722 Y137.27 E0.3696
G1 X149.381 Y137.27 E0.44613
G1 X150.203 Y146.665 E0.37102
G1 X160.662 Y146.665 E0.41143
;WIPE_START
M204 S1500
G1 X161.122 Y146.665 F18000
;WIPE_END
; acceleration to travel
G1 X158.178 Y148.778
; decel to extrusion
M204 S1000
G1 X156.216 Y150.187
; end travel
;TYPE:Internal perimeter
G1 F1800
G1 X156.086 Y150.373 E0.00893
G1 X155.819 Y150.998 E0.02673
G1 X155.699 Y151.541 E0.02187
G1 X155.659 Y152.008 E0.01845
G1 X155.699 Y152.483 E0.01875
G1 X155.847 Y153.118 E0.02564
G1 X156.098 Y153.659 E0.02346
G1 X156.425 Y154.131 E0.02262
G1 X156.829 Y154.54 E0.02262
G1 X157.286 Y154.865 E0.02202
G1 X157.705 Y155.076 E0.01849
G1 X158.239 Y155.25 E0.02209
G1 X158.809 Y155.33 E0.02262
G1 X159.383 Y155.311 E0.02262
G1 X159.946 Y155.193 E0.02262
G1 X160.481 Y154.981 E0.02263
G1 X160.97 Y154.679 E0.02263
G1 X161.4 Y154.297 E0.02263
G1 X161.758 Y153.847 E0.02262
G1 X162.033 Y153.342 E0.02262
G1 X162.217 Y152.797 E0.02262
G1 X162.31 Y152.193 E0.02405
G1 X162.692 Y152.222 E0.01508
G1 X162.692 Y166.658 E0.56793
G1 X149.36 Y166.658 E0.5245
G1 X149.282 Y165.767 E0.0352
G1 X147.982 Y165.88 E0.05135
G1 X147.519 Y160.596 E0.20867
G1 X149.02 Y160.465 E0.05925
G1 X146.857 Y135.742 E0.97633
G1 X138.759 Y136.458 E0.31981
G1 X141.875 Y133.342 E0.17335
G1 X162.692 Y133.342 E0.81897
G1 X162.692 Y151.794 E0.72592
G1 X162.31 Y151.823 E0.01508
G1 X162.217 Y151.219 E0.02405
G1 X162.033 Y150.674 E0.02262
G1 X161.749 Y150.151 E0.02342
G1 X161.327 Y149.652 E0.02571
G1 X160.968 Y149.336 E0.01882
G1 X160.481 Y149.036 E0.02252
G1 X159.946 Y148.823 E0.02263
G1 X159.383 Y148.705 E0.02262
G1 X158.809 Y148.686 E0.02262
G1 X158.239 Y148.766 E0.02262
G1 X157.705 Y148.94 E0.02209
G1 X157.286 Y149.151 E0.01849
G1 X156.829 Y149.476 E0.02202
G1 X156.425 Y149.885 E0.02262
G1 X156.25 Y150.138 E0.0121
G1 E-0.75 F3000
M204 S1500
G1 Z0.6 F18000
; acceleration to travel
G1 X150.359 Y142.146
; decel to extrusion
M204 S1000
G1 X146.432 Y136.818
; end travel
G1 Z0.2
G1 E0.75 F1800
G1 X146.387 Y136.303 E0.02036
G1 X137.387 Y137.098 E0.35542
G1 X141.661 Y132.825 E0.23774
G1 X163.209 Y132.825 E0.84774
G1 X163.209 Y167.175 E1.35137
G1 X148.886 Y167.175 E0.56349
G1 X148.812 Y166.327 E0.0335
G1 X147.512 Y166.441 E0.05135
G1 X146.959 Y160.126 E0.24936
G1 X148.46 Y159.995 E0.05925
G1 X146.437 Y136.878 E0.91291
G1 X145.917 Y136.863 F18000
;TYPE:External perimeter
G1 F1800
G1 X137.614 Y137.597 E0.3279
G1 X136.923 Y137.695 E0.02746
G1 X136.808 Y137.968 E0.01166
G1 X136.589 Y138.04 E0.00907
G1 X136.621 Y138.412 E0.01469
G1 X136.448 Y138.729 E0.01424
G1 X136.67 Y141.271 E0.10036
G1 X136.831 Y144.233 E0.11671
G1 X138.24 Y160.37 E0.63727
G1 X139.741 Y160.239 E0.05925
G1 X140.383 Y167.583 E0.29004
G1 X139.138 Y167.692 E0.04917
G1 X136.274 Y167.692 E0.1127
G1 X136.272 Y144.262 E0.92176
G1 X136.174 Y141.286 E0.11713
G1 X136.174 Y137.838 E0.13566
G1 X136.22 Y137.494 E0.01367
G1 X136.833 Y136.921 E0.03301
G1 X141.447 Y132.308 E0.25666
G1 X163.726 Y132.308 E0.87651
G1 X163.726 Y167.692 E1.39206
G1 X148.412 Y167.692 E0.60247
G1 X148.342 Y166.887 E0.0318
G1 X147.042 Y167.001 E0.05135
G1 X146.399 Y159.656 E0.29004
G1 X147.899 Y159.525 E0.05925
G1 X145.922 Y136.923 E0.89257
;WIPE_START
M204 S1500
G1 X145.882 Y136.465 F18000
;WIPE_END
G1 E-0.75 F3000
G1 Z0.6 F18000
; acceleration to travel
G1 X140.29 Y141.274
; decel to extrusion
M204 S1000
G1 X136.561 Y144.48
; end travel
G1 Z0.2
G1 E0.75 F1800
;TYPE:Gap fill
;WIDTH:0.15044
G1 X136.564 Y144.534 E0.00044
G1 X136.588 Y145.098 E0.00462
;WIDTH:0.202835
G1 X136.613 Y145.662 E0.00687
;WIDTH:0.255229
G1 X136.638 Y146.225 E0.00912
;WIDTH:0.307624
G1 X136.662 Y146.789 E0.01137
;WIDTH:0.360018
G1 X136.687 Y147.353 E0.01362
;WIDTH:0.412412
G1 X136.711 Y147.917 E0.01587
;WIDTH:0.464807
G1 X136.736 Y148.481 E0.01812
;WIDTH:0.517201
G1 X136.761 Y149.045 E0.02037
;WIDTH:0.569596
G1 X136.785 Y149.609 E0.02262
;WIDTH:0.62199
G1 X136.81 Y150.173 E0.02487
;WIDTH:0.674384
G1 X136.834 Y150.736 E0.02712
;WIDTH:0.726779
G1 X136.859 Y151.3 E0.02937
;WIDTH:0.779173
G1 X136.884 Y151.864 E0.03162
;WIDTH:0.831568
G1 X136.908 Y152.428 E0.03387
;WIDTH:0.883962
G1 X136.933 Y152.992 E0.03612
;WIDTH:0.936356
G1 X136.957 Y153.556 E0.03837
G1 X136.967 Y153.779 E0.01518
;WIDTH:0.976119
G1 X136.977 Y154.002 E0.01586
G1 X137.079 Y156.352 F18000
;WIDTH:0.15044
G1 F1800
G1 X137.082 Y156.405 E0.00044
G1 X137.104 Y156.916 E0.00418
;WIDTH:0.200448
G1 X137.126 Y157.426 E0.00612
;WIDTH:0.250456
G1 X137.149 Y157.936 E0.00806
;WIDTH:0.300464
G1 X137.171 Y158.447 E0.01001
;WIDTH:0.350472
G1 X137.193 Y158.957 E0.01195
;WIDTH:0.40048
G1 X137.215 Y159.467 E0.0139
;WIDTH:0.450488
G1 X137.238 Y159.977 E0.01584
;WIDTH:0.500496
G1 X137.26 Y160.488 E0.01778
;WIDTH:0.575927
G1 X137.282 Y160.998 E0.02071
G1 X137.291 Y161.125 E0.00515
G1 X137.3 Y161.251 E0.00515
G1 X138.736 Y162.701 F18000
;TYPE:Solid infill
;WIDTH:0.580038
G1 F1800
G1 X137.88 Y161.845 E0.04935
G1 X137.711 Y161.859 E0.00694
G1 X137.711 Y162.406 E0.02228
G1 X138.562 Y163.258 E0.04907
G1 X138.632 Y164.059 E0.03278
G1 X137.711 Y163.138 E0.0531
G1 X137.711 Y163.869 E0.0298
G1 X138.702 Y164.86 E0.05714
G1 X138.772 Y165.662 E0.03278
G1 X137.711 Y164.6 E0.06118
G1 X137.711 Y165.332 E0.0298
G1 X138.634 Y166.255 E0.0532
G1 X137.903 Y166.255 E0.0298
G1 X137.489 Y165.841 E0.02387
G1 E-0.75 F3000
M204 S1500
G1 Z0.6 F18000
; acceleration to travel
G1 X152.502 Y147.077
; decel to extrusion
M204 S1000
G1 X162.511 Y134.568
; end travel
G1 Z0.2
G1 E0.75 F1800
;WIDTH:0.579437
G1 X161.688 Y133.745 E0.04737
G1 X160.957 Y133.745 E0.02977
G1 X162.289 Y135.077 E0.07667
G1 X162.289 Y135.808 E0.02977
G1 X160.226 Y133.745 E0.11877
G1 X159.495 Y133.745 E0.02977
G1 X161.582 Y135.833 E0.12019
G1 X160.851 Y135.833 E0.02977
G1 X158.763 Y133.745 E0.12019
G1 X158.032 Y133.745 E0.02977
G1 X160.12 Y135.833 E0.12019
G1 X159.389 Y135.833 E0.02977
G1 X157.301 Y133.745 E0.12019
G1 X156.57 Y133.745 E0.02977
G1 X158.657 Y135.833 E0.12019
G1 X157.926 Y135.833 E0.02977
G1 X155.838 Y133.745 E0.12019
G1 X155.107 Y133.745 E0.02977
G1 X157.195 Y135.833 E0.12019
G1 X156.464 Y135.833 E0.02977
G1 X154.376 Y133.745 E0.12019
G1 X153.645 Y133.745 E0.02977
G1 X155.732 Y135.833 E0.12019
G1 X155.001 Y135.833 E0.02977
G1 X152.913 Y133.745 E0.12019
G1 X152.182 Y133.745 E0.02977
G1 X154.27 Y135.833 E0.12019
G1 X153.539 Y135.833 E0.02977
G1 X151.451 Y133.745 E0.12019
G1 X150.72 Y133.745 E0.02977
G1 X152.807 Y135.833 E0.12019
G1 X152.076 Y135.833 E0.02977
G1 X149.988 Y133.745 E0.12019
G1 X149.257 Y133.745 E0.02977
G1 X151.345 Y135.833 E0.12019
G1 X150.614 Y135.833 E0.02977
G1 X148.526 Y133.745 E0.12019
G1 X147.794 Y133.745 E0.02977
G1 X149.882 Y135.833 E0.12019
G1 X149.151 Y135.833 E0.02977
G1 X147.063 Y133.745 E0.12019
G1 X146.332 Y133.745 E0.02977
G1 X148.42 Y135.833 E0.12019
G1 X147.813 Y135.833 E0.02471
G1 X147.825 Y135.969 E0.00556
G1 X145.601 Y133.745 E0.12803
G1 X144.869 Y133.745 E0.02977
G1 X146.494 Y135.369 E0.09351
G1 X145.822 Y135.429 E0.02746
G1 X144.138 Y133.745 E0.09692
G1 X143.407 Y133.745 E0.02977
G1 X145.15 Y135.488 E0.10034
G1 X144.478 Y135.548 E0.02746
G1 X142.676 Y133.745 E0.10376
G1 X142.042 Y133.745 E0.0258
G1 X141.993 Y133.794 E0.00281
G1 X143.806 Y135.607 E0.10437
G1 X143.134 Y135.666 E0.02746
G1 X141.628 Y134.16 E0.08673
G1 X141.262 Y134.525 E0.02105
G1 X142.462 Y135.726 E0.0691
G1 X141.79 Y135.785 E0.02746
G1 X140.896 Y134.891 E0.05147
G1 X140.531 Y135.256 E0.02105
G1 X141.118 Y135.844 E0.03384
G1 X140.447 Y135.904 E0.02746
G1 X140.008 Y135.465 E0.02526
; acceleration to travel
M204 S1500
G1 X144.236 Y135.744 F18000
; decel to extrusion
M204 S1000
G1 X147.055 Y135.931
; end travel
G1 F1800
G1 X147.895 Y136.77 E0.04835
G1 X147.965 Y137.572 E0.03275
G1 X147.37 Y136.977 E0.03427
G1 X147.44 Y137.778 E0.03275
G1 X148.035 Y138.373 E0.03427
G1 X148.105 Y139.175 E0.03275
G1 X147.51 Y138.579 E0.03427
G1 X147.58 Y139.381 E0.03275
G1 X148.175 Y139.976 E0.03427
G1 X148.245 Y140.777 E0.03275
G1 X147.65 Y140.182 E0.03427
G1 X147.72 Y140.983 E0.03275
G1 X148.315 Y141.579 E0.03427
G1 X148.386 Y142.38 E0.03275
