; generated by SuperSlicer 2.4 on 2022-08-06 at 22:59:56 UTC


;
;

;
;
; 

; external perimeters extrusion width = 0.40mm
; perimeters extrusion width = 0.48mm
; infill extrusion width = 0.60mm
; solid infill extrusion width = 0.56mm
; top infill extrusion width = 0.40mm
; first layer extrusion width = 0.48mm

; object:{"name":"fs_cover_pc4-m10_mk25s_mk3s","id":"fs_cover_pc4-m10_mk25s_mk3s.stl id:0 copy 0","object_center":[150.000000,150.000000,0.000000],"boundingbox_center":[150.000000,150.000000,5.300000],"boundingbox_size":[28.100000,36.000000,10.600000]}
; plater:{"center":[150.000000,150.000000,0.000000],"boundingbox_center":[150.000000,150.000000,5.300000],"boundingbox_size":[28.100000,36.000000,10.600000]}

;TYPE:Custom
print_start EXTRUDER=255 BED=110 CHAMBER=50
M107
G21 ; set units to millimeters
G90 ; use absolute coordinates
M83 ; use relative distances for extrusion
; Filament gcode
SET_PRESSURE_ADVANCE ADVANCE=0.045
SET_PRESSURE_ADVANCE EXTRUDER=extruder SMOOTH_TIME=0.04
M104 S255 ; set temperature
M109 S255 ; set temperature and wait for it to be reached
M190 S110 ; set bed temperature and wait for it to be reached
M107
;LAYER_CHANGE
;Z:0.25
;HEIGHT:0.25
;BEFORE_LAYER_CHANGE
;0.25
TIMELAPSE_TAKE_FRAME


G1 Z0.25 F27000
;AFTER_LAYER_CHANGE
;0.25
G92 E0
; INIT printing object fs_cover_pc4-m10_mk25s_mk3s.stl id:0 copy 0
G1 E-0.75 F3000
M204 S1500
G1 Z0.65 F27000
; printing object fs_cover_pc4-m10_mk25s_mk3s.stl id:0 copy 0
G1 X139.99 Y167.23
G1 Z0.25
G1 E0.75 F1800
;TYPE:Internal perimeter
;WIDTH:0.48
G1 F900
G1 X139.121 Y167.306 E0.03534
G1 X136.66 Y167.306 E0.09981
G1 X136.659 Y150.158 E0.69531
G1 X136.986 Y150.144 E0.01324
G1 X137.912 Y160.762 E0.43217
G1 X139.412 Y160.63 E0.06107
G1 X139.985 Y167.17 E0.26619
G1 E-0.75 F3000
G1 Z0.65 F27000
G1 X158.798 Y154.7
G1 Z0.25
G1 E0.75 F1800
G1 F900
G1 X158.835 Y154.705 E0.00151
G1 X159.304 Y154.691 E0.01903
G1 X159.763 Y154.596 E0.01903
G1 X160.199 Y154.422 E0.01903
G1 X160.599 Y154.176 E0.01903
G1 X160.949 Y153.864 E0.01903
G1 X161.241 Y153.496 E0.01903
G1 X161.464 Y153.084 E0.01903
G1 X161.612 Y152.639 E0.01902
G1 X161.68 Y152.185 E0.01861
G1 X161.68 Y151.831 E0.01433
G1 X161.612 Y151.377 E0.01861
G1 X161.464 Y150.932 E0.01902
G1 X161.234 Y150.507 E0.01959
G1 X160.867 Y150.077 E0.02294
G1 X160.597 Y149.839 E0.01459
G1 X160.199 Y149.594 E0.01895
G1 X159.763 Y149.42 E0.01903
G1 X159.304 Y149.325 E0.01903
G1 X158.835 Y149.311 E0.01903
G1 X158.37 Y149.378 E0.01902
G1 X157.934 Y149.522 E0.01863
G1 X157.618 Y149.681 E0.01433
G1 X157.243 Y149.945 E0.01859
G1 X156.912 Y150.277 E0.01902
G1 X156.644 Y150.662 E0.01902
G1 X156.446 Y151.087 E0.01903
G1 X156.325 Y151.541 E0.01903
G1 X156.284 Y152.007 E0.01899
G1 X156.314 Y152.365 E0.01457
G1 X156.44 Y152.916 E0.0229
G1 X156.644 Y153.354 E0.01961
G1 X156.912 Y153.739 E0.01902
G1 X157.243 Y154.072 E0.01902
G1 X157.618 Y154.335 E0.01859
G1 X157.934 Y154.495 E0.01433
G1 X158.37 Y154.638 E0.01863
G1 X158.738 Y154.691 E0.01508
M204 S1000
G1 X158.859 Y154.278 F27000
;TYPE:External perimeter
G1 F900
G1 X159.253 Y154.266 E0.01601
G1 X159.64 Y154.186 E0.01601
G1 X160.007 Y154.04 E0.01601
G1 X160.343 Y153.833 E0.01601
G1 X160.638 Y153.57 E0.01601
G1 X160.883 Y153.261 E0.01601
G1 X161.071 Y152.914 E0.01601
G1 X161.196 Y152.539 E0.01601
G1 X161.206 Y152.475 E0.00264
G1 X161.254 Y152.153 E0.01318
G1 X161.254 Y151.863 E0.01177
G1 X161.196 Y151.477 E0.01582
G1 X161.071 Y151.102 E0.01601
G1 X160.88 Y150.75 E0.01626
G1 X160.562 Y150.377 E0.01988
G1 X160.342 Y150.183 E0.01189
G1 X160.007 Y149.976 E0.01598
G1 X159.64 Y149.83 E0.01601
G1 X159.253 Y149.75 E0.01601
G1 X158.859 Y149.738 E0.01601
G1 X158.468 Y149.795 E0.01601
G1 X158.097 Y149.917 E0.01583
G1 X157.838 Y150.047 E0.01177
G1 X157.519 Y150.272 E0.01581
G1 X157.415 Y150.377 E0.00601
G1 X157.241 Y150.551 E0.01
G1 X157.015 Y150.875 E0.01601
G1 X156.848 Y151.233 E0.01601
G1 X156.746 Y151.615 E0.01601
G1 X156.712 Y152.008 E0.016
G1 X156.737 Y152.299 E0.01188
G1 X156.845 Y152.777 E0.01986
G1 X157.015 Y153.141 E0.01627
G1 X157.241 Y153.465 E0.01601
G1 X157.346 Y153.57 E0.00605
G1 X157.519 Y153.744 E0.00996
G1 X157.762 Y153.915 E0.01206
G1 X157.838 Y153.969 E0.00375
G1 X158.097 Y154.099 E0.01177
G1 X158.468 Y154.221 E0.01583
G1 X158.799 Y154.269 E0.01357
;WIPE_START
M204 S1500
G1 X158.866 Y154.29 F27000
;WIPE_END
G1 E-0.75 F3000
G1 Z0.65 F27000
G1 X150.217 Y147.077
G1 Z0.25
G1 E0.75 F1800
;TYPE:Internal perimeter
G1 F900
G1 X161.133 Y147.077 E0.4426
G1 X161.133 Y136.859 E0.41429
G1 X148.933 Y136.859 E0.49468
G1 X149.827 Y147.077 E0.41587
G1 X150.157 Y147.077 E0.01341
M204 S1000
G1 X150.217 Y146.65 F27000
;TYPE:External perimeter
G1 F900
G1 X160.706 Y146.65 E0.42531
G1 X160.706 Y137.286 E0.37971
G1 X149.398 Y137.286 E0.45853
G1 X150.212 Y146.59 E0.37873
;WIPE_START
M204 S1500
G1 X150.229 Y147.05 F27000
;WIPE_END
G1 X150 Y167.306
;TYPE:Internal perimeter
G1 F900
G1 X148.766 Y167.306 E0.05002
G1 X148.693 Y166.469 E0.03408
G1 X147.368 Y166.584 E0.05394
G1 X146.79 Y159.985 E0.26862
G1 X148.291 Y159.853 E0.06107
G1 X146.245 Y136.472 E0.95167
G1 X137.603 Y137.231 E0.35178
G1 X137.358 Y137.26 E0.01
G1 X137.252 Y137.041 E0.00983
G1 X141.606 Y132.694 E0.24948
G1 X163.34 Y132.694 E0.88124
G1 X163.34 Y167.306 E1.40342
G1 X150.06 Y167.306 E0.53847
M204 S1000
G1 X150 Y167.732 F27000
;TYPE:External perimeter
G1 F900
G1 X148.376 Y167.732 E0.06586
G1 X148.306 Y166.93 E0.03264
G1 X147.087 Y167.037 E0.0496
G1 X146.98 Y167.046 E0.00434
G1 X146.329 Y159.597 E0.3032
G1 X147.829 Y159.466 E0.06107
G1 X145.858 Y136.934 E0.91709
G1 X137.646 Y137.656 E0.33424
G1 X136.984 Y137.732 E0.02701
G1 X136.87 Y137.943 E0.0097
G1 X136.757 Y137.97 E0.00474
G1 X136.582 Y138.013 E0.00731
G1 X136.626 Y138.495 E0.01962
G1 X136.517 Y138.777 E0.01226
G1 X136.562 Y139.319 E0.02207
G1 X136.684 Y141.784 E0.10004
G1 X138.3 Y160.3 E0.75363
G1 X139.679 Y160.179 E0.05615
G1 X139.8 Y160.168 E0.00491
G1 X140.452 Y167.618 E0.3032
G1 X139.14 Y167.732 E0.05339
G1 X136.234 Y167.732 E0.11785
G1 X136.233 Y142.281 E1.03198
G1 X136.217 Y141.284 E0.04043
G1 X136.134 Y139.302 E0.08044
G1 X136.134 Y138.82 E0.01953
G1 X136.137 Y138.777 E0.00176
G1 X136.209 Y137.833 E0.03839
G1 X136.222 Y137.467 E0.01483
G1 X141.43 Y132.268 E0.29839
G1 X163.766 Y132.268 E0.90568
G1 X163.766 Y167.732 E1.43799
G1 X150.06 Y167.732 E0.55576
;WIPE_START
M204 S1500
G1 X149.8 Y167.386 F27000
;WIPE_END
G1 E-0.75 F3000
G1 Z0.65 F27000
G1 X137.776 Y159.941
G1 Z0.25
G1 E0.75 F1800
;TYPE:Solid infill
;WIDTH:0.477605
G1 F1200
G1 X137.586 Y159.941 E0.00765
G1 X136.907 Y159.97 E0.02744
G1 X136.907 Y160.367 E0.01601
G1 X137.629 Y160.367 E0.02915
G1 X137.667 Y160.793 E0.01727
G1 X136.907 Y160.793 E0.03065
G1 X136.907 Y161.22 E0.0172
G1 X139.216 Y161.22 E0.09315
G1 X139.253 Y161.646 E0.01727
G1 X136.907 Y161.646 E0.09465
G1 X136.907 Y162.072 E0.0172
G1 X139.29 Y162.072 E0.09616
G1 X139.328 Y162.499 E0.01727
G1 X136.907 Y162.499 E0.09766
G1 X136.907 Y162.925 E0.0172
G1 X139.365 Y162.925 E0.09917
G1 X139.402 Y163.351 E0.01727
G1 X136.907 Y163.351 E0.10067
G1 X136.907 Y163.778 E0.0172
G1 X139.44 Y163.778 E0.10218
G1 X139.477 Y164.204 E0.01727
G1 X136.907 Y164.204 E0.10368
G1 X136.907 Y164.63 E0.0172
G1 X139.514 Y164.63 E0.10518
G1 X139.552 Y165.057 E0.01727
G1 X136.907 Y165.057 E0.10669
G1 X136.907 Y165.483 E0.0172
G1 X139.589 Y165.483 E0.10819
G1 X139.626 Y165.91 E0.01727
G1 X136.907 Y165.91 E0.1097
G1 X136.907 Y166.336 E0.0172
G1 X139.663 Y166.336 E0.1112
G1 X139.701 Y166.762 E0.01727
G1 X136.724 Y166.762 E0.1201
G1 X137.241 Y159.751 F27000
;TYPE:Gap fill
;WIDTH:0.824501
G1 F900
G1 X137.233 Y159.567 E0.01353
;WIDTH:0.791682
G1 X137.225 Y159.382 E0.01295
G1 X137.203 Y158.888 E0.03475
;WIDTH:0.745549
G1 X137.182 Y158.393 E0.03258
;WIDTH:0.699415
G1 X137.16 Y157.898 E0.03041
;WIDTH:0.653282
G1 X137.138 Y157.404 E0.02824
;WIDTH:0.607148
G1 X137.117 Y156.909 E0.02606
;WIDTH:0.561014
G1 X137.095 Y156.414 E0.02389
;WIDTH:0.514881
G1 X137.074 Y155.92 E0.02172
;WIDTH:0.468747
G1 X137.052 Y155.425 E0.01955
;WIDTH:0.422613
G1 X137.031 Y154.93 E0.01737
;WIDTH:0.37648
G1 X137.009 Y154.436 E0.0152
;WIDTH:0.330346
G1 X136.988 Y153.941 E0.01303
;WIDTH:0.284212
G1 X136.966 Y153.446 E0.01086
;WIDTH:0.238079
G1 X136.945 Y152.952 E0.00868
;WIDTH:0.191945
G1 X136.923 Y152.457 E0.00651
;WIDTH:0.145811
G1 X136.901 Y151.962 E0.00434
G1 X136.899 Y151.916 E0.0004
G1 X136.814 Y149.955 F27000
;WIDTH:0.824497
G1 F900
G1 X136.806 Y149.771 E0.01353
;WIDTH:0.791678
G1 X136.798 Y149.586 E0.01295
G1 X136.777 Y149.099 E0.03422
;WIDTH:0.746248
G1 X136.756 Y148.612 E0.03212
;WIDTH:0.700817
G1 X136.734 Y148.125 E0.03001
;WIDTH:0.655386
G1 X136.713 Y147.638 E0.0279
;WIDTH:0.609955
G1 X136.692 Y147.151 E0.0258
;WIDTH:0.564524
G1 X136.671 Y146.663 E0.02369
;WIDTH:0.519093
G1 X136.649 Y146.176 E0.02158
;WIDTH:0.473662
G1 X136.628 Y145.689 E0.01948
;WIDTH:0.428232
G1 X136.607 Y145.202 E0.01737
;WIDTH:0.382801
G1 X136.586 Y144.715 E0.01526
;WIDTH:0.33737
G1 X136.565 Y144.228 E0.01316
;WIDTH:0.291939
G1 X136.543 Y143.741 E0.01105
;WIDTH:0.246508
G1 X136.522 Y143.254 E0.00894
;WIDTH:0.201077
G1 X136.501 Y142.766 E0.00684
;WIDTH:0.155646
G1 X136.48 Y142.279 E0.00473
G1 X136.47 Y142.095 E0.00179
G1 X136.394 Y137.845 F27000
;WIDTH:0.213433
G1 F900
G1 X136.473 Y137.761 E0.00176
;WIDTH:0.250274
G1 X136.594 Y137.632 E0.0033
;WIDTH:0.388955
G1 X136.616 Y137.613 E0.00092
G1 X136.72 Y137.473 E0.00551
G1 X136.84 Y137.375 E0.00491
;WIDTH:0.450323
G1 X136.976 Y137.309 E0.0057
;WIDTH:0.583444
G1 X137.129 Y137.236 E0.00851
G1 X163.276 Y132.95 F27000
;TYPE:Solid infill
;WIDTH:0.459857
G1 F1200
G1 X141.7 Y132.95 E0.83814
G1 X141.273 Y133.376 E0.02344
G1 X163.093 Y133.376 E0.84761
G1 X163.093 Y133.803 E0.01656
G1 X140.846 Y133.803 E0.86419
G1 X140.419 Y134.229 E0.02344
G1 X163.093 Y134.229 E0.88078
G1 X163.093 Y134.655 E0.01656
G1 X139.992 Y134.655 E0.89737
G1 X139.565 Y135.082 E0.02344
G1 X163.093 Y135.082 E0.91396
G1 X163.093 Y135.508 E0.01656
G1 X139.138 Y135.508 E0.93054
G1 X138.711 Y135.934 E0.02344
G1 X163.093 Y135.934 E0.94713
G1 X163.093 Y136.361 E0.01656
G1 X138.284 Y136.361 E0.96372
G1 X137.857 Y136.787 E0.02344
G1 X141.968 Y136.787 E0.15968
G1 X146.337 Y136.787 F27000
G1 F1200
G1 X163.093 Y136.787 E0.6509
G1 X163.093 Y137.213 E0.01656
G1 X161.38 Y137.213 E0.06653
G1 X161.38 Y137.64 E0.01656
G1 X163.093 Y137.64 E0.06653
G1 X163.093 Y138.066 E0.01656
G1 X161.38 Y138.066 E0.06653
G1 X161.38 Y138.492 E0.01656
G1 X163.093 Y138.492 E0.06653
G1 X163.093 Y138.919 E0.01656
G1 X161.38 Y138.919 E0.06653
G1 X161.38 Y139.345 E0.01656
G1 X163.093 Y139.345 E0.06653
G1 X163.093 Y139.771 E0.01656
G1 X161.38 Y139.771 E0.06653
G1 X161.38 Y140.198 E0.01656
G1 X163.093 Y140.198 E0.06653
G1 X163.093 Y140.624 E0.01656
G1 X161.38 Y140.624 E0.06653
G1 X161.38 Y141.051 E0.01656
G1 X163.093 Y141.051 E0.06653
G1 X163.093 Y141.477 E0.01656
G1 X161.38 Y141.477 E0.06653
G1 X161.38 Y141.903 E0.01656
G1 X163.093 Y141.903 E0.06653
G1 X163.093 Y142.33 E0.01656
G1 X161.38 Y142.33 E0.06653
G1 X161.38 Y142.756 E0.01656
G1 X163.093 Y142.756 E0.06653
G1 X163.093 Y143.182 E0.01656
G1 X161.38 Y143.182 E0.06653
G1 X161.38 Y143.609 E0.01656
G1 X163.093 Y143.609 E0.06653
G1 X163.093 Y144.035 E0.01656
G1 X161.38 Y144.035 E0.06653
G1 X161.38 Y144.461 E0.01656
G1 X163.093 Y144.461 E0.06653
G1 X163.093 Y144.888 E0.01656
G1 X161.38 Y144.888 E0.06653
G1 X161.38 Y145.314 E0.01656
G1 X163.093 Y145.314 E0.06653
G1 X163.093 Y145.74 E0.01656
G1 X161.38 Y145.74 E0.06653
G1 X161.38 Y146.167 E0.01656
G1 X163.093 Y146.167 E0.06653
G1 X163.093 Y146.593 E0.01656
G1 X161.197 Y146.593 E0.07365
G1 E-0.75 F3000
G1 Z0.65 F27000
G1 X148.899 Y137.213
G1 Z0.25
G1 E0.75 F1800
G1 F1200
G1 X146.558 Y137.213 E0.09095
G1 X146.595 Y137.64 E0.01663
G1 X148.753 Y137.64 E0.0838
G1 X148.79 Y138.066 E0.01663
G1 X146.633 Y138.066 E0.0838
G1 X146.67 Y138.492 E0.01663
G1 X148.827 Y138.492 E0.0838
G1 X148.865 Y138.919 E0.01663
G1 X146.707 Y138.919 E0.0838
G1 X146.745 Y139.345 E0.01663
G1 X148.902 Y139.345 E0.0838
G1 X148.939 Y139.771 E0.01663
G1 X146.782 Y139.771 E0.0838
G1 X146.819 Y140.198 E0.01663
G1 X148.977 Y140.198 E0.0838
G1 X149.014 Y140.624 E0.01663
G1 X146.857 Y140.624 E0.0838
G1 X146.894 Y141.051 E0.01663
G1 X149.051 Y141.051 E0.0838
G1 X149.088 Y141.477 E0.01663
G1 X146.931 Y141.477 E0.0838
G1 X146.968 Y141.903 E0.01663
G1 X149.126 Y141.903 E0.0838
G1 X149.163 Y142.33 E0.01663
G1 X147.006 Y142.33 E0.0838
G1 X147.043 Y142.756 E0.01663
G1 X149.2 Y142.756 E0.0838
G1 X149.238 Y143.182 E0.01663
G1 X147.08 Y143.182 E0.0838
G1 X147.118 Y143.609 E0.01663
G1 X149.275 Y143.609 E0.0838
G1 X149.312 Y144.035 E0.01663
G1 X147.155 Y144.035 E0.0838
G1 X147.192 Y144.461 E0.01663
G1 X149.35 Y144.461 E0.0838
G1 X149.387 Y144.888 E0.01663
G1 X147.23 Y144.888 E0.0838
G1 X147.267 Y145.314 E0.01663
G1 X149.424 Y145.314 E0.0838
G1 X149.461 Y145.74 E0.01663
G1 X147.304 Y145.74 E0.0838
G1 X147.341 Y146.167 E0.01663
G1 X149.499 Y146.167 E0.0838
G1 X149.536 Y146.593 E0.01663
G1 X147.379 Y146.593 E0.0838
G1 X147.416 Y147.019 E0.01663
G1 X149.573 Y147.019 E0.0838
G1 X149.6 Y147.324 E0.01187
G1 X161.38 Y147.324 E0.45761
G1 X161.38 Y147.019 E0.01183
G1 X163.093 Y147.019 E0.06653
G1 X163.093 Y147.446 E0.01656
G1 X147.453 Y147.446 E0.60752
G1 X147.491 Y147.872 E0.01663
G1 X163.093 Y147.872 E0.60608
G1 X163.093 Y148.298 E0.01656
G1 X147.528 Y148.298 E0.60463
G1 X147.565 Y148.725 E0.01663
G1 X163.093 Y148.725 E0.60318
G1 X163.093 Y149.151 E0.01656
G1 X147.603 Y149.151 E0.60173
G1 X147.64 Y149.577 E0.01663
G1 X157.423 Y149.577 E0.38003
G1 X157.086 Y149.747 E0.01463
G1 X156.871 Y150.004 E0.01302
G1 X147.677 Y150.004 E0.35716
G1 X147.714 Y150.43 E0.01663
G1 X156.515 Y150.43 E0.34186
G1 X156.426 Y150.536 E0.00538
G1 X156.31 Y150.857 E0.01323
G1 X147.752 Y150.857 E0.33245
G1 X147.789 Y151.283 E0.01663
G1 X156.155 Y151.283 E0.32499
G1 X156.074 Y151.507 E0.00927
G1 X156.091 Y151.709 E0.00788
G1 X147.826 Y151.709 E0.32103
G1 X147.864 Y152.136 E0.01663
G1 X156.126 Y152.136 E0.32097
G1 X156.162 Y152.562 E0.01662
G1 X147.901 Y152.562 E0.32091
G1 X147.938 Y152.988 E0.01663
G1 X156.198 Y152.988 E0.32084
G1 X156.2 Y153.014 E0.001
G1 X156.533 Y153.415 E0.02023
G1 X147.976 Y153.415 E0.3324
G1 X148.013 Y153.841 E0.01663
G1 X156.886 Y153.841 E0.3447
G1 X157.24 Y154.267 E0.02152
G1 X147.866 Y154.267 E0.36414
G1 E-0.75 F3000
G1 Z0.65 F27000
G1 X160.277 Y149.577
G1 Z0.25
G1 E0.75 F1800
G1 F1200
G1 X163.093 Y149.577 E0.10937
G1 X163.093 Y150.004 E0.01656
G1 X161.037 Y150.004 E0.07985
G1 X161.439 Y150.358 E0.02081
G1 X161.47 Y150.43 E0.00304
G1 X163.093 Y150.43 E0.06304
G1 X163.093 Y150.857 E0.01656
G1 X161.655 Y150.857 E0.05583
G1 X161.841 Y151.283 E0.01806
G1 X163.093 Y151.283 E0.04863
G1 X163.093 Y151.709 E0.01656
G1 X161.86 Y151.709 E0.04791
G1 X161.86 Y152.136 E0.01656
G1 X163.093 Y152.136 E0.04791
G1 X163.093 Y152.562 E0.01656
G1 X161.86 Y152.562 E0.04791
G1 X161.86 Y152.69 E0.00497
G1 X161.73 Y152.988 E0.01263
G1 X163.093 Y152.988 E0.05293
G1 X163.093 Y153.415 E0.01656
G1 X161.546 Y153.415 E0.0601
G1 X161.441 Y153.655 E0.01019
G1 X161.192 Y153.841 E0.01208
G1 X163.093 Y153.841 E0.07385
G1 X163.093 Y154.267 E0.01656
G1 X160.312 Y154.267 E0.10804
G1 X163.276 Y154.694 F27000
G1 F1200
G1 X160.046 Y154.694 E0.12549
G1 X159.858 Y154.834 E0.00911
G1 X158.812 Y154.957 E0.04089
G1 X157.946 Y154.694 E0.03515
G1 X148.087 Y154.694 E0.38298
G1 X148.125 Y155.12 E0.01663
G1 X163.093 Y155.12 E0.58144
G1 X163.093 Y155.546 E0.01656
G1 X148.162 Y155.546 E0.57999
G1 X148.199 Y155.973 E0.01663
G1 X163.093 Y155.973 E0.57855
G1 X163.093 Y156.399 E0.01656
G1 X148.237 Y156.399 E0.5771
G1 X148.274 Y156.825 E0.01663
G1 X163.093 Y156.825 E0.57565
G1 X163.093 Y157.252 E0.01656
G1 X148.311 Y157.252 E0.5742
G1 X148.349 Y157.678 E0.01663
G1 X163.093 Y157.678 E0.57275
G1 X163.093 Y158.104 E0.01656
G1 X148.386 Y158.104 E0.5713
G1 X148.423 Y158.531 E0.01663
G1 X163.093 Y158.531 E0.56985
G1 X163.093 Y158.957 E0.01656
G1 X148.461 Y158.957 E0.5684
G1 X148.498 Y159.384 E0.01663
G1 X163.093 Y159.384 E0.56695
G1 X163.093 Y159.81 E0.01656
G1 X148.535 Y159.81 E0.5655
