; generated by SuperSlicer 2.4 on 2022-06-03 at 02:23:29 UTC


;
;

;
;
; 

; external perimeters extrusion width = 0.40mm
; perimeters extrusion width = 0.48mm
; infill extrusion width = 0.60mm
; solid infill extrusion width = 0.56mm
; top infill extrusion width = 0.40mm
; first layer extrusion width = 0.44mm

; external perimeters extrusion width = 0.40mm
; perimeters extrusion width = 0.48mm
; infill extrusion width = 0.60mm
; solid infill extrusion width = 0.56mm
; top infill extrusion width = 0.40mm
; first layer extrusion width = 0.44mm

; external perimeters extrusion width = 0.40mm
; perimeters extrusion width = 0.48mm
; infill extrusion width = 0.60mm
; solid infill extrusion width = 0.56mm
; top infill extrusion width = 0.40mm
; first layer extrusion width = 0.44mm

; object:{"name":"heatbed-cable-clip","id":"heatbed-cable-clip.stl id:0 copy 0","object_center":[167.000000,138.750000,0.000000],"boundingbox_center":[167.000000,138.750000,6.464399],"boundingbox_size":[26.000000,17.000000,12.928799]}
; object:{"name":"heatbed-cable-cover","id":"heatbed-cable-cover.stl id:1 copy 0","object_center":[134.000000,149.026042,0.000000],"boundingbox_center":[134.000000,149.026042,4.500000],"boundingbox_size":[36.000000,36.000000,9.000000]}
; object:{"name":"heatbed-cable-cover-clip","id":"heatbed-cable-cover-clip.stl id:2 copy 0","object_center":[169.000000,159.500001,0.000000],"boundingbox_center":[169.000000,159.500001,3.000000],"boundingbox_size":[30.000000,20.500000,6.000000]}
; plater:{"center":[150.000000,150.000000,0.000000],"boundingbox_center":[150.000000,150.000000,6.464399],"boundingbox_size":[68.000000,39.500001,12.928799]}

;TYPE:Custom
print_start EXTRUDER=255 BED=110 CHAMBER=50
M107
G21 ; set units to millimeters
G90 ; use absolute coordinates
M83 ; use relative distances for extrusion
; Filament gcode
SET_PRESSURE_ADVANCE ADVANCE=0.055
M104 S255 ; set temperature
M109 S255 ; set temperature and wait for it to be reached
M190 S110 ; set bed temperature and wait for it to be reached
M107
;LAYER_CHANGE
;Z:0.25
;HEIGHT:0.25
;BEFORE_LAYER_CHANGE
;0.25
TIMELAPSE_TAKE_FRAME


G1 Z0.25 F36000
;AFTER_LAYER_CHANGE
;0.25
G92 E0
; INIT printing object heatbed-cable-clip.stl id:0 copy 0
G1 E-0.75 F3000
G1 Z0.65 F36000
; printing object heatbed-cable-clip.stl id:0 copy 0
M204 S1000
G1 X160.874 Y147.064
G1 Z0.25
G1 E0.75 F1800
;TYPE:External perimeter
;WIDTH:0.44
G1 F900
G1 X160.866 Y147.037 E0.00105
G1 X161.074 Y146.895 E0.0093
G1 X161.358 Y146.7 E0.01275
G1 X161.623 Y147.064 E0.01665
G1 X160.934 Y147.064 E0.02547
;WIPE_START
M204 S1500
G1 X160.883 Y147.037 F36000
;WIPE_END
G1 E-0.75 F3000
G1 Z0.65 F36000
G1 X172.873 Y143.093
G1 Z0.25
G1 E0.75 F1800
;TYPE:Internal perimeter
G1 F900
G1 X172.88 Y143.116 E0.0009
G1 X173.004 Y143.379 E0.01075
G1 X173.16 Y143.624 E0.01075
G1 X173.345 Y143.848 E0.01075
G1 X173.557 Y144.047 E0.01075
G1 X173.792 Y144.218 E0.01075
G1 X174.047 Y144.358 E0.01074
G1 X174.317 Y144.465 E0.01074
G1 X174.599 Y144.537 E0.01076
G1 X174.887 Y144.574 E0.01075
G1 X175.177 Y144.574 E0.01074
G1 X175.466 Y144.537 E0.01075
G1 X175.747 Y144.465 E0.01076
G1 X176.017 Y144.358 E0.01074
G1 X176.272 Y144.218 E0.01074
G1 X176.507 Y144.047 E0.01075
G1 X176.719 Y143.848 E0.01075
G1 X176.904 Y143.624 E0.01075
G1 X177.06 Y143.379 E0.01075
G1 X177.184 Y143.116 E0.01075
G1 X177.274 Y142.84 E0.01074
G1 X177.328 Y142.554 E0.01075
G1 X177.346 Y142.264 E0.01075
G1 X177.328 Y141.974 E0.01075
G1 X177.274 Y141.688 E0.01075
G1 X177.184 Y141.412 E0.01074
G1 X177.06 Y141.149 E0.01075
G1 X176.904 Y140.904 E0.01076
G1 X176.719 Y140.68 E0.01075
G1 X176.507 Y140.481 E0.01075
G1 X176.272 Y140.31 E0.01075
G1 X176.017 Y140.17 E0.01074
G1 X175.747 Y140.063 E0.01075
G1 X175.466 Y139.991 E0.01076
G1 X175.177 Y139.954 E0.01075
G1 X174.887 Y139.954 E0.01074
G1 X174.599 Y139.991 E0.01075
G1 X174.317 Y140.063 E0.01076
G1 X174.047 Y140.17 E0.01075
G1 X173.792 Y140.31 E0.01074
G1 X173.557 Y140.481 E0.01075
G1 X173.345 Y140.68 E0.01075
G1 X173.16 Y140.904 E0.01075
G1 X173.004 Y141.149 E0.01075
G1 X172.88 Y141.412 E0.01075
G1 X172.791 Y141.688 E0.01074
G1 X172.736 Y141.974 E0.01075
G1 X172.718 Y142.264 E0.01075
G1 X172.736 Y142.554 E0.01075
G1 X172.791 Y142.84 E0.01075
G1 X172.854 Y143.036 E0.00763
M204 S1000
G1 X173.24 Y142.973 F36000
;TYPE:External perimeter
G1 F900
G1 X173.343 Y143.192 E0.00895
G1 X173.408 Y143.295 E0.00448
G1 X173.473 Y143.397 E0.00448
G1 X173.627 Y143.583 E0.00895
G1 X173.804 Y143.749 E0.00895
G1 X173.963 Y143.865 E0.0073
G1 X174 Y143.891 E0.00165
G1 X174.212 Y144.008 E0.00895
G1 X174.437 Y144.097 E0.00895
G1 X174.671 Y144.157 E0.00895
G1 X174.911 Y144.187 E0.00895
G1 X175.153 Y144.187 E0.00895
G1 X175.393 Y144.157 E0.00895
G1 X175.628 Y144.097 E0.00895
G1 X175.853 Y144.008 E0.00895
G1 X176.065 Y143.891 E0.00895
G1 X176.26 Y143.749 E0.00895
G1 X176.437 Y143.583 E0.00895
G1 X176.591 Y143.397 E0.00895
G1 X176.615 Y143.359 E0.00166
G1 X176.721 Y143.192 E0.0073
G1 X176.824 Y142.973 E0.00895
G1 X176.899 Y142.743 E0.00895
G1 X176.944 Y142.506 E0.00895
G1 X176.949 Y142.423 E0.00305
G1 X176.959 Y142.264 E0.0059
G1 X176.944 Y142.023 E0.00895
G1 X176.899 Y141.785 E0.00895
G1 X176.824 Y141.555 E0.00895
G1 X176.721 Y141.336 E0.00895
G1 X176.668 Y141.252 E0.00365
G1 X176.591 Y141.131 E0.00531
G1 X176.437 Y140.945 E0.00895
G1 X176.26 Y140.779 E0.00895
G1 X176.065 Y140.637 E0.00895
G1 X175.853 Y140.52 E0.00895
G1 X175.628 Y140.431 E0.00895
G1 X175.393 Y140.371 E0.00895
G1 X175.153 Y140.341 E0.00895
G1 X174.911 Y140.341 E0.00895
G1 X174.671 Y140.371 E0.00895
G1 X174.437 Y140.431 E0.00895
G1 X174.212 Y140.52 E0.00895
G1 X174 Y140.637 E0.00895
G1 X173.804 Y140.779 E0.00895
G1 X173.627 Y140.945 E0.00895
G1 X173.473 Y141.131 E0.00895
G1 X173.343 Y141.336 E0.00895
G1 X173.24 Y141.555 E0.00895
G1 X173.166 Y141.785 E0.00895
G1 X173.12 Y142.023 E0.00895
G1 X173.105 Y142.264 E0.00895
G1 X173.115 Y142.423 E0.0059
G1 X173.12 Y142.506 E0.00305
G1 X173.166 Y142.743 E0.00895
G1 X173.222 Y142.916 E0.00673
;WIPE_START
M204 S1500
G1 X173.094 Y143.166 F36000
;WIPE_END
G1 X172.239 Y143.568
;TYPE:Internal perimeter
G1 F900
G1 X172.326 Y143.752 E0.0075
G1 X172.534 Y144.079 E0.01435
G1 X172.781 Y144.378 E0.01435
G1 X173.064 Y144.644 E0.01435
G1 X173.377 Y144.872 E0.01434
G1 X173.717 Y145.058 E0.01434
G1 X174.078 Y145.201 E0.01434
G1 X174.454 Y145.298 E0.01436
G1 X174.838 Y145.346 E0.01435
G1 X175.226 Y145.346 E0.01433
G1 X175.611 Y145.298 E0.01435
G1 X175.987 Y145.201 E0.01436
G1 X176.347 Y145.058 E0.01434
G1 X176.687 Y144.872 E0.01434
G1 X177.001 Y144.644 E0.01435
G1 X177.283 Y144.378 E0.01434
G1 X177.531 Y144.08 E0.01434
G1 X177.739 Y143.752 E0.01436
G1 X177.904 Y143.401 E0.01434
G1 X178.023 Y143.032 E0.01433
G1 X178.096 Y142.651 E0.01435
G1 X178.121 Y142.264 E0.01435
G1 X178.096 Y141.877 E0.01435
G1 X178.023 Y141.496 E0.01435
G1 X177.904 Y141.127 E0.01433
G1 X177.739 Y140.776 E0.01434
G1 X177.531 Y140.449 E0.01436
G1 X177.283 Y140.15 E0.01434
G1 X177.001 Y139.884 E0.01434
G1 X176.687 Y139.656 E0.01435
G1 X176.347 Y139.47 E0.01434
G1 X175.987 Y139.327 E0.01434
G1 X175.468 Y139.194 E0.01981
G1 X177.822 Y137.537 E0.10647
G1 X177.816 Y139.727 E0.08099
G1 X178.56 Y139.727 E0.02751
G1 X178.56 Y144.362 E0.17142
G1 X175.674 Y145.805 E0.11935
G1 X166.394 Y145.81 E0.34319
G1 X166.326 Y145.593 E0.00838
G1 X171.983 Y141.635 E0.25537
G1 X171.944 Y142.264 E0.02332
G1 X171.968 Y142.651 E0.01435
G1 X172.041 Y143.032 E0.01435
G1 X172.161 Y143.401 E0.01433
G1 X172.214 Y143.514 E0.00462
G1 X172.563 Y143.349 F36000
G1 F900
G1 X172.665 Y143.565 E0.00882
G1 X172.847 Y143.852 E0.01255
G1 X173.063 Y144.113 E0.01255
G1 X173.31 Y144.346 E0.01255
G1 X173.585 Y144.545 E0.01254
G1 X173.882 Y144.708 E0.01254
G1 X174.197 Y144.833 E0.01254
G1 X174.526 Y144.918 E0.01256
G1 X174.863 Y144.96 E0.01255
G1 X175.202 Y144.96 E0.01253
G1 X175.538 Y144.918 E0.01255
G1 X175.867 Y144.833 E0.01256
G1 X176.182 Y144.708 E0.01254
G1 X176.479 Y144.545 E0.01254
G1 X176.754 Y144.345 E0.01255
G1 X177.001 Y144.113 E0.01254
G1 X177.217 Y143.852 E0.01254
G1 X177.399 Y143.565 E0.01256
G1 X177.544 Y143.258 E0.01254
G1 X177.648 Y142.936 E0.01254
G1 X177.712 Y142.603 E0.01255
G1 X177.733 Y142.264 E0.01255
G1 X177.712 Y141.925 E0.01255
G1 X177.648 Y141.592 E0.01255
G1 X177.544 Y141.27 E0.01254
G1 X177.399 Y140.963 E0.01254
G1 X177.217 Y140.676 E0.01256
G1 X177.001 Y140.415 E0.01254
G1 X176.754 Y140.183 E0.01254
G1 X176.479 Y139.983 E0.01255
G1 X176.182 Y139.82 E0.01254
G1 X175.867 Y139.695 E0.01254
G1 X175.538 Y139.611 E0.01256
G1 X175.202 Y139.568 E0.01255
G1 X174.863 Y139.568 E0.01253
G1 X174.631 Y139.597 E0.00865
G1 X174.544 Y139.372 E0.00895
G1 X177.941 Y136.994 E0.15336
G1 X178.211 Y136.791 E0.0125
G1 X178.204 Y139.341 E0.09428
G1 X178.946 Y139.341 E0.02747
G1 X178.946 Y144.601 E0.19454
G1 X175.765 Y146.191 E0.13155
G1 X165.167 Y146.196 E0.39194
G1 X165.099 Y145.98 E0.00838
G1 X172.481 Y140.815 E0.3332
G1 X172.662 Y140.968 E0.00878
G1 X172.521 Y141.27 E0.01233
G1 X172.416 Y141.592 E0.01254
G1 X172.352 Y141.925 E0.01255
G1 X172.331 Y142.264 E0.01255
G1 X172.352 Y142.603 E0.01255
G1 X172.416 Y142.936 E0.01255
G1 X172.521 Y143.258 E0.01254
G1 X172.538 Y143.295 E0.0015
G1 X169.043 Y142.74 F36000
G1 F900
G1 X172.77 Y140.13 E0.16827
G1 X177.714 Y136.682 E0.22294
G1 X178.627 Y135.995 E0.04226
G1 X178.598 Y136.459 E0.01719
G1 X178.591 Y138.954 E0.09229
G1 X179.333 Y138.954 E0.02743
G1 X179.333 Y144.84 E0.21766
G1 X175.856 Y146.578 E0.14375
G1 X164.087 Y146.578 E0.43528
G1 X163.949 Y146.583 E0.00509
G1 X163.876 Y146.365 E0.00853
G1 X165.637 Y145.124 E0.07969
G1 X168.927 Y142.821 E0.14854
G1 X168.994 Y142.774 E0.003
M204 S1000
G1 X168.821 Y142.423 F36000
;TYPE:External perimeter
G1 F900
G1 X168.549 Y142.023 E0.01792
G1 X168.434 Y141.854 E0.00754
G1 X168.74 Y141.64 E0.01381
G1 X169.143 Y142.198 E0.02547
G1 X172.111 Y140.12 E0.13402
G1 X171.724 Y139.55 E0.02547
G1 X172.03 Y139.336 E0.01381
G1 X172.432 Y139.894 E0.02545
G1 X177.487 Y136.369 E0.22794
G1 X178.28 Y135.773 E0.03667
G1 X178.638 Y135.441 E0.01807
G1 X179.019 Y135.174 E0.0172
G1 X179.079 Y135.132 E0.00269
G1 X179.079 Y135.578 E0.01647
G1 X179.013 Y136.013 E0.01629
G1 X178.985 Y136.472 E0.01699
G1 X178.979 Y138.568 E0.07753
G1 X179.719 Y138.568 E0.02739
G1 X179.719 Y145.078 E0.24078
G1 X175.947 Y146.964 E0.15595
G1 X174.818 Y146.964 E0.04175
G1 X164.094 Y146.965 E0.39665
G1 X163.136 Y146.999 E0.03543
G1 X163.086 Y147.001 E0.00186
G1 X162.593 Y147.064 E0.01838
G1 X162.089 Y147.064 E0.01864
G1 X162.08 Y147.037 E0.00105
G1 X162.663 Y146.637 E0.02613
G1 X163.059 Y146.434 E0.01646
G1 X163.452 Y146.191 E0.0171
G1 X164.055 Y145.766 E0.02728
G1 X165.531 Y144.726 E0.06677
G1 X165.144 Y144.157 E0.02544
G1 X165.45 Y143.943 E0.01381
G1 X165.652 Y144.223 E0.01273
G1 X165.853 Y144.502 E0.01273
G1 X168.772 Y142.458 E0.1318
;WIPE_START
M204 S1500
G1 X169.151 Y142.197 F36000
;WIPE_END
G1 X172.021 Y142.594
;TYPE:Solid infill
;WIDTH:0.430095
G1 F1200
G1 X171.602 Y142.175 E0.02142
G1 X171.281 Y142.4 E0.01418
G1 X171.897 Y143.015 E0.03148
G1 X171.944 Y143.484 E0.01701
G1 X172.277 Y143.942 E0.02047
G1 X170.96 Y142.625 E0.06734
G1 X170.638 Y142.849 E0.01418
G1 X173.135 Y145.347 E0.12767
G1 X173.142 Y145.582 E0.00852
G1 X172.825 Y145.582 E0.01146
G1 X170.317 Y143.074 E0.12823
G1 X169.995 Y143.299 E0.01418
G1 X172.279 Y145.583 E0.11674
G1 X171.732 Y145.583 E0.01974
G1 X169.674 Y143.524 E0.10525
G1 X169.352 Y143.749 E0.01418
G1 X171.186 Y145.583 E0.09377
G1 X170.64 Y145.583 E0.01974
G1 X169.031 Y143.974 E0.08228
G1 X168.709 Y144.199 E0.01418
G1 X170.094 Y145.584 E0.07079
G1 X169.548 Y145.584 E0.01974
G1 X168.388 Y144.424 E0.05931
G1 X168.066 Y144.649 E0.01418
G1 X169.002 Y145.584 E0.04782
G1 X168.456 Y145.585 E0.01974
G1 X167.745 Y144.874 E0.03633
G1 X167.507 Y145.041 E0.01052
G1 X167.573 Y145.248 E0.00789
G1 X168.076 Y145.751 E0.02569
G1 X172.335 Y144.139 F36000
;TYPE:Gap fill
;WIDTH:0.24616
G1 F900
G1 X172.395 Y144.21 E0.0017
G1 X172.487 Y144.317 E0.00261
;WIDTH:0.208947
G1 X172.579 Y144.425 E0.00211
;WIDTH:0.179298
G1 X172.671 Y144.533 E0.0017
;WIDTH:0.148731
G1 X172.794 Y144.677 E0.00173
G1 X173.321 Y145.347 F36000
;WIDTH:0.53693
G1 F900
G1 X173.427 Y145.378 E0.00508
;WIDTH:0.49153
G1 X173.563 Y145.417 E0.00594
;WIDTH:0.459184
G1 X173.727 Y145.448 E0.00648
;WIDTH:0.380846
G1 X173.891 Y145.479 E0.00523
;WIDTH:0.321664
G1 X173.99 Y145.497 E0.00257
G1 X174.093 Y145.51 E0.00265
;WIDTH:0.282119
G1 X174.195 Y145.523 E0.00226
;WIDTH:0.247448
G1 X174.298 Y145.536 E0.00192
;WIDTH:0.212699
G1 X174.411 Y145.55 E0.00173
G1 X174.616 Y145.563 E0.00313
;WIDTH:0.159234
G1 X174.827 Y145.576 E0.00214
G1 X175.032 Y145.576 E0.00207
G1 X175.237 Y145.576 E0.00207
G1 X175.429 Y145.564 E0.00194
;WIDTH:0.20532
G1 X175.614 Y145.552 E0.00269
G1 X175.661 Y145.538 E0.00071
G1 X175.771 Y145.497 E0.0017
;WIDTH:0.138488
G1 X175.921 Y145.441 E0.0013
G1 X176.057 Y145.347 F36000
;WIDTH:0.179533
G1 F900
G1 X175.879 Y145.395 E0.00221
;WIDTH:0.217416
G1 X175.642 Y145.409 E0.00372
;WIDTH:0.156282
G1 X175.406 Y145.424 E0.00233
G1 X175.354 Y145.427 E0.0005
G1 X176.804 Y144.973 F36000
;WIDTH:0.157922
G1 F900
G1 X176.92 Y144.889 E0.00143
;WIDTH:0.22301
G1 X177.035 Y144.805 E0.00232
G1 X177.214 Y144.607 E0.00433
;WIDTH:0.152513
G1 X177.394 Y144.408 E0.00253
G1 X177.427 Y144.372 E0.00047
G1 X177.053 Y144.874 F36000
;WIDTH:0.149048
G1 F900
G1 X177.09 Y144.851 E0.00039
G1 X177.232 Y144.757 E0.00156
;WIDTH:0.191317
G1 X177.317 Y144.697 E0.00137
;WIDTH:0.231291
G1 X177.402 Y144.638 E0.00176
;WIDTH:0.275853
G1 X177.487 Y144.579 E0.0022
G1 X177.564 Y144.518 E0.00208
;WIDTH:0.341075
G1 X177.695 Y144.414 E0.00461
;WIDTH:0.427585
G1 X177.826 Y144.31 E0.006
;WIDTH:0.491202
G1 X177.969 Y144.183 E0.00799
;WIDTH:0.610949
G1 X178.091 Y144.072 E0.00879
G1 X178.118 Y143.979 E0.00516
;WIDTH:0.554036
G1 X178.157 Y143.81 E0.00833
;WIDTH:0.475492
G1 X178.187 Y143.673 E0.00566
;WIDTH:0.402203
G1 X178.218 Y143.536 E0.00467
;WIDTH:0.376747
G1 X178.238 Y143.413 E0.00385
;WIDTH:0.3328
G1 X178.254 Y143.311 E0.00277
;WIDTH:0.289528
G1 X178.27 Y143.209 E0.00234
;WIDTH:0.243224
G1 X178.288 Y143.094 E0.0021
G1 X178.308 Y142.889 E0.00374
;WIDTH:0.164692
G1 X178.327 Y142.684 E0.00219
G1 X178.334 Y142.472 E0.00226
;WIDTH:0.138938
G1 X178.34 Y142.267 E0.00168
G1 X178.334 Y142.056 E0.00172
;WIDTH:0.165578
G1 X178.327 Y141.844 E0.00227
G1 X178.308 Y141.639 E0.00221
;WIDTH:0.246111
G1 X178.288 Y141.434 E0.0038
G1 X178.27 Y141.32 E0.00213
;WIDTH:0.28953
G1 X178.254 Y141.217 E0.00234
;WIDTH:0.3328
G1 X178.238 Y141.115 E0.00277
;WIDTH:0.37607
G1 X178.222 Y141.012 E0.0032
;WIDTH:0.399345
G1 X178.187 Y140.855 E0.00532
;WIDTH:0.475495
G1 X178.157 Y140.718 E0.00566
;WIDTH:0.548787
G1 X178.126 Y140.582 E0.00664
;WIDTH:0.598941
G1 X178.084 Y140.431 E0.00817
;WIDTH:0.691038
G1 X178.032 Y140.255 E0.01122
G1 X177.916 Y140.191 E0.00809
;WIDTH:0.588781
G1 X177.839 Y140.153 E0.00441
;WIDTH:0.556252
G1 X177.686 Y140.107 E0.00769
G1 X177.606 Y140.028 E0.0054
G1 X177.316 Y137.964 F36000
;TYPE:Solid infill
;WIDTH:0.431389
G1 F1200
G1 X177.596 Y138.244 E0.01436
G1 X177.595 Y138.789 E0.01975
G1 X177.115 Y138.309 E0.02461
G1 X176.794 Y138.535 E0.01422
G1 X177.593 Y139.334 E0.04098
G1 X177.592 Y139.779 E0.01616
G1 X177.542 Y139.829 E0.00255
G1 X176.473 Y138.76 E0.05481
G1 X176.153 Y138.986 E0.01422
G1 X177.216 Y140.049 E0.0545
G1 X174.423 Y139.552 F36000
;TYPE:Gap fill
;WIDTH:0.573093
G1 F900
G1 X174.256 Y139.63 E0.00916
;WIDTH:0.521071
G1 X174.173 Y139.67 E0.00413
G1 X174.034 Y139.745 E0.00705
;WIDTH:0.462867
G1 X173.874 Y139.832 E0.00717
G1 X173.741 Y139.915 E0.00613
;WIDTH:0.424935
G1 X173.588 Y140.011 E0.00639
G1 X173.461 Y140.101 E0.00556
G1 X173.315 Y140.206 E0.0064
G1 X173.193 Y140.305 E0.00558
;WIDTH:0.476676
G1 X173.051 Y140.422 E0.00745
G1 X172.961 Y140.505 E0.00497
;WIDTH:0.545754
G1 X172.822 Y140.636 E0.00897
G1 X172.696 Y140.765 E0.00849
G1 X167.418 Y145.368 F36000
;WIDTH:0.55236
G1 F900
G1 X167.263 Y145.417 E0.00776
;WIDTH:0.460083
G1 X167.224 Y145.429 E0.00158
;WIDTH:0.420029
G1 X167.055 Y145.482 E0.00624
;WIDTH:0.299867
G1 X166.885 Y145.536 E0.00419
