; generated by SuperSlicer 2.4 on 2022-06-14 at 21:00:30 UTC


;
;

;
;
; 

; external perimeters extrusion width = 0.40mm
; perimeters extrusion width = 0.48mm
; infill extrusion width = 0.60mm
; solid infill extrusion width = 0.56mm
; top infill extrusion width = 0.40mm
; support material extrusion width = 0.40mm
; first layer extrusion width = 0.48mm

; object:{"name":"IGUS Z chain end","id":"IGUS Z chain end.stl id:0 copy 0","object_center":[150.000000,150.000000,0.000000],"boundingbox_center":[150.000000,150.000000,9.650002],"boundingbox_size":[36.642921,17.800000,19.300003]}
; plater:{"center":[150.000000,150.000000,0.000000],"boundingbox_center":[150.000000,150.000000,9.650002],"boundingbox_size":[36.642921,17.800000,19.300003]}

;TYPE:Custom
print_start EXTRUDER=255 BED=110 CHAMBER=50
M107
G21 ; set units to millimeters
G90 ; use absolute coordinates
M83 ; use relative distances for extrusion
; Filament gcode
SET_PRESSURE_ADVANCE ADVANCE=0.045
SET_PRESSURE_ADVANCE EXTRUDER=extruder SMOOTH_TIME=0.04
M104 S255 ; set temperature
M109 S255 ; set temperature and wait for it to be reached
M190 S110 ; set bed temperature and wait for it to be reached
M107
;LAYER_CHANGE
;Z:0.25
;HEIGHT:0.25
;BEFORE_LAYER_CHANGE
;0.25
TIMELAPSE_TAKE_FRAME


G1 Z0.25 F36000
;AFTER_LAYER_CHANGE
;0.25
G92 E0
; INIT printing object IGUS Z chain end.stl id:0 copy 0
G1 E-0.75 F3000
M204 S1500
G1 Z0.65 F36000
; printing object IGUS Z chain end.stl id:0 copy 0
G1 X136.606 Y156.749
G1 Z0.25
G1 E0.75 F1800
;TYPE:Support material interface
;WIDTH:0.48
G1 F900
G1 X138.281 Y156.749 E0.06791
G1 X138.281 Y159.082 E0.09459
G1 X138.582 Y159.382 E0.01724
G1 X139.894 Y159.382 E0.05321
G1 X139.894 Y160.037 E0.02653
G1 X136.606 Y160.037 E0.13331
G1 X136.606 Y156.809 E0.13088
G1 X138.175 Y157.106 F36000
G1 F900
G1 X136.896 Y157.106 E0.05183
G1 X136.896 Y157.58 E0.01921
G1 X137.991 Y157.58 E0.0444
G1 X137.991 Y158.053 E0.01921
G1 X136.896 Y158.053 E0.0444
G1 X136.896 Y158.527 E0.01921
G1 X137.991 Y158.527 E0.0444
G1 X137.991 Y159.001 E0.01921
G1 X136.896 Y159.001 E0.0444
G1 X136.896 Y159.474 E0.01921
G1 X138.523 Y159.474 E0.06597
G1 E-0.75 F3000
G1 Z0.65 F36000
G1 X138.281 Y143.251
G1 Z0.25
G1 E0.75 F1800
G1 F900
G1 X136.606 Y143.251 E0.06791
G1 X136.606 Y139.963 E0.13331
G1 X139.894 Y139.963 E0.13331
G1 X139.894 Y140.618 E0.02653
G1 X138.582 Y140.618 E0.05321
G1 X138.281 Y140.918 E0.01724
G1 X138.281 Y143.191 E0.09216
G1 X138.523 Y140.526 F36000
G1 F900
G1 X136.896 Y140.526 E0.06597
G1 X136.896 Y140.999 E0.01921
G1 X137.991 Y140.999 E0.0444
G1 X137.991 Y141.473 E0.01921
G1 X136.896 Y141.473 E0.0444
G1 X136.896 Y141.947 E0.01921
G1 X137.991 Y141.947 E0.0444
G1 X137.991 Y142.42 E0.01921
G1 X136.896 Y142.42 E0.0444
G1 X136.896 Y142.894 E0.01921
G1 X138.175 Y142.894 E0.05183
G1 E-0.75 F3000
G1 Z0.65 F36000
G1 X153.989 Y159.589
G1 Z0.25
G1 E0.75 F1800
;TYPE:Support material
G1 F900
G1 X166.599 Y159.589 E0.51131
G1 X167.04 Y159.148 E0.0253
G1 X167.04 Y156.677 E0.10017
G1 X168.607 Y156.677 E0.06353
G1 X169.048 Y156.236 E0.0253
G1 X169.048 Y154.963 E0.05162
G1 X169.511 Y154.963 E0.01875
G1 X169.511 Y162.796 E0.31762
G1 X153.989 Y162.796 E0.62936
G1 X153.989 Y159.649 E0.12762
G1 X168.949 Y162.69 F36000
G1 F900
G1 X168.949 Y156.745 E0.24103
G1 X168.727 Y156.967 E0.01271
G1 X168.475 Y156.967 E0.01022
G1 X168.475 Y162.507 E0.22461
G1 X168.001 Y162.507 E0.01921
G1 X168.001 Y156.967 E0.22461
G1 X167.528 Y156.967 E0.01921
G1 X167.528 Y162.507 E0.22461
G1 X167.054 Y162.507 E0.01921
G1 X167.054 Y159.544 E0.12012
G1 X166.719 Y159.879 E0.0192
G1 X166.58 Y159.879 E0.00563
G1 X166.58 Y162.507 E0.10655
G1 X166.107 Y162.507 E0.01921
G1 X166.107 Y159.879 E0.10655
G1 X165.633 Y159.879 E0.01921
G1 X165.633 Y162.507 E0.10655
G1 X165.159 Y162.507 E0.01921
G1 X165.159 Y159.879 E0.10655
G1 X164.685 Y159.879 E0.01921
G1 X164.685 Y162.507 E0.10655
G1 X164.212 Y162.507 E0.01921
G1 X164.212 Y159.879 E0.10655
G1 X163.738 Y159.879 E0.01921
G1 X163.738 Y162.507 E0.10655
G1 X163.264 Y162.507 E0.01921
G1 X163.264 Y159.879 E0.10655
G1 X162.79 Y159.879 E0.01921
G1 X162.79 Y162.507 E0.10655
G1 X162.317 Y162.507 E0.01921
G1 X162.317 Y159.879 E0.10655
G1 X161.843 Y159.879 E0.01921
G1 X161.843 Y162.507 E0.10655
G1 X161.369 Y162.507 E0.01921
G1 X161.369 Y159.879 E0.10655
G1 X160.896 Y159.879 E0.01921
G1 X160.896 Y162.507 E0.10655
G1 X160.422 Y162.507 E0.01921
G1 X160.422 Y159.879 E0.10655
G1 X159.948 Y159.879 E0.01921
G1 X159.948 Y162.507 E0.10655
G1 X159.474 Y162.507 E0.01921
G1 X159.474 Y159.879 E0.10655
G1 X159.001 Y159.879 E0.01921
G1 X159.001 Y162.507 E0.10655
G1 X158.527 Y162.507 E0.01921
G1 X158.527 Y159.879 E0.10655
G1 X158.053 Y159.879 E0.01921
G1 X158.053 Y162.507 E0.10655
G1 X157.58 Y162.507 E0.01921
G1 X157.58 Y159.879 E0.10655
G1 X157.106 Y159.879 E0.01921
G1 X157.106 Y162.507 E0.10655
G1 X156.632 Y162.507 E0.01921
G1 X156.632 Y159.879 E0.10655
G1 X156.158 Y159.879 E0.01921
G1 X156.158 Y162.507 E0.10655
G1 X155.685 Y162.507 E0.01921
G1 X155.685 Y159.879 E0.10655
G1 X155.211 Y159.879 E0.01921
G1 X155.211 Y162.507 E0.10655
G1 X154.737 Y162.507 E0.01921
G1 X154.737 Y159.696 E0.11398
G1 E-0.75 F3000
G1 Z0.65 F36000
G1 X146.011 Y159.696
G1 Z0.25
G1 E0.75 F1800
G1 F900
G1 X146.011 Y162.796 E0.12573
G1 X130.489 Y162.796 E0.62936
G1 X130.489 Y153.989 E0.35712
G1 X146.011 Y153.989 E0.62936
G1 X146.011 Y154.451 E0.01872
G1 X145.654 Y154.808 E0.0205
G1 X145.654 Y156.375 E0.06353
G1 X140.561 Y156.375 E0.2065
G1 X140.561 Y156.082 E0.01187
G1 X135.94 Y156.082 E0.18736
G1 X135.94 Y160.703 E0.18736
G1 X140.561 Y160.703 E0.18736
G1 X140.561 Y159.589 E0.04517
G1 X146.011 Y159.589 E0.221
G1 X146.011 Y159.636 E0.00189
G1 X145.263 Y162.69 F36000
G1 F900
G1 X145.263 Y159.879 E0.11398
G1 X144.789 Y159.879 E0.01921
G1 X144.789 Y162.507 E0.10655
G1 X144.315 Y162.507 E0.01921
G1 X144.315 Y159.879 E0.10655
G1 X143.842 Y159.879 E0.01921
G1 X143.842 Y162.507 E0.10655
G1 X143.368 Y162.507 E0.01921
G1 X143.368 Y159.879 E0.10655
G1 X142.894 Y159.879 E0.01921
G1 X142.894 Y162.507 E0.10655
G1 X142.42 Y162.507 E0.01921
G1 X142.42 Y159.879 E0.10655
G1 X141.947 Y159.879 E0.01921
G1 X141.947 Y162.507 E0.10655
G1 X141.473 Y162.507 E0.01921
G1 X141.473 Y159.879 E0.10655
G1 X140.999 Y159.879 E0.01921
G1 X140.999 Y162.507 E0.10655
G1 X140.526 Y162.507 E0.01921
G1 X140.526 Y160.993 E0.06137
G1 X140.052 Y160.993 E0.01921
G1 X140.052 Y162.507 E0.06137
G1 X139.578 Y162.507 E0.01921
G1 X139.578 Y160.993 E0.06137
G1 X139.104 Y160.993 E0.01921
G1 X139.104 Y162.507 E0.06137
G1 X138.631 Y162.507 E0.01921
G1 X138.631 Y160.993 E0.06137
G1 X138.157 Y160.993 E0.01921
G1 X138.157 Y162.507 E0.06137
G1 X137.683 Y162.507 E0.01921
G1 X137.683 Y160.993 E0.06137
G1 X137.21 Y160.993 E0.01921
G1 X137.21 Y162.507 E0.06137
G1 X136.736 Y162.507 E0.01921
G1 X136.736 Y160.993 E0.06137
G1 X136.262 Y160.993 E0.01921
G1 X136.262 Y162.507 E0.06137
G1 X135.788 Y162.507 E0.01921
G1 X135.788 Y154.279 E0.33361
G1 X136.262 Y154.279 E0.01921
G1 X136.262 Y155.792 E0.06137
G1 X136.736 Y155.792 E0.01921
G1 X136.736 Y154.279 E0.06137
G1 X137.21 Y154.279 E0.01921
G1 X137.21 Y155.792 E0.06137
G1 X137.683 Y155.792 E0.01921
G1 X137.683 Y154.279 E0.06137
G1 X138.157 Y154.279 E0.01921
G1 X138.157 Y155.792 E0.06137
G1 X138.631 Y155.792 E0.01921
G1 X138.631 Y154.279 E0.06137
G1 X139.104 Y154.279 E0.01921
G1 X139.104 Y155.792 E0.06137
G1 X139.578 Y155.792 E0.01921
G1 X139.578 Y154.279 E0.06137
G1 X140.052 Y154.279 E0.01921
G1 X140.052 Y155.792 E0.06137
G1 X140.526 Y155.792 E0.01921
G1 X140.526 Y154.279 E0.06137
G1 X140.999 Y154.279 E0.01921
G1 X140.999 Y156.085 E0.07324
G1 X141.473 Y156.085 E0.01921
G1 X141.473 Y154.279 E0.07324
G1 X141.947 Y154.279 E0.01921
G1 X141.947 Y156.085 E0.07324
G1 X142.42 Y156.085 E0.01921
G1 X142.42 Y154.279 E0.07324
G1 X142.894 Y154.279 E0.01921
G1 X142.894 Y156.085 E0.07324
G1 X143.368 Y156.085 E0.01921
G1 X143.368 Y154.279 E0.07324
G1 X143.842 Y154.279 E0.01921
G1 X143.842 Y156.085 E0.07324
G1 X144.315 Y156.085 E0.01921
G1 X144.315 Y154.279 E0.07324
G1 X144.789 Y154.279 E0.01921
G1 X144.789 Y156.085 E0.07324
G1 X145.263 Y156.085 E0.01921
G1 X145.263 Y154.095 E0.08067
G1 E-0.75 F3000
G1 Z0.65 F36000
G1 X135.315 Y162.69
G1 Z0.25
G1 E0.75 F1800
G1 F900
G1 X135.315 Y154.279 E0.34105
G1 X134.841 Y154.279 E0.01921
G1 X134.841 Y162.507 E0.33361
G1 X134.367 Y162.507 E0.01921
G1 X134.367 Y154.279 E0.33361
G1 X133.893 Y154.279 E0.01921
G1 X133.893 Y162.507 E0.33361
G1 X133.42 Y162.507 E0.01921
G1 X133.42 Y154.279 E0.33361
G1 X132.946 Y154.279 E0.01921
G1 X132.946 Y162.507 E0.33361
G1 X132.472 Y162.507 E0.01921
G1 X132.472 Y154.279 E0.33361
G1 X131.999 Y154.279 E0.01921
G1 X131.999 Y162.507 E0.33361
G1 X131.525 Y162.507 E0.01921
G1 X131.525 Y154.279 E0.33361
G1 X131.051 Y154.279 E0.01921
G1 X131.051 Y162.69 E0.34105
G1 E-0.75 F3000
G1 Z0.65 F36000
G1 X131.051 Y146.011
G1 Z0.25
G1 E0.75 F1800
G1 F900
G1 X130.489 Y146.011 E0.02278
G1 X130.489 Y137.203 E0.35712
G1 X146.011 Y137.203 E0.62936
G1 X146.011 Y140.411 E0.13006
G1 X140.561 Y140.411 E0.221
G1 X140.561 Y139.297 E0.04518
G1 X135.94 Y139.297 E0.18736
G1 X135.94 Y143.918 E0.18736
G1 X140.561 Y143.918 E0.18736
G1 X140.561 Y143.625 E0.01186
G1 X145.654 Y143.625 E0.2065
G1 X145.654 Y145.192 E0.06353
G1 X146.011 Y145.549 E0.0205
G1 X146.011 Y146.011 E0.01872
G1 X131.111 Y146.011 E0.60415
G1 X145.263 Y145.905 F36000
G1 F900
G1 X145.263 Y143.915 E0.08067
G1 X144.789 Y143.915 E0.01921
G1 X144.789 Y145.721 E0.07324
G1 X144.315 Y145.721 E0.01921
G1 X144.315 Y143.915 E0.07324
G1 X143.842 Y143.915 E0.01921
G1 X143.842 Y145.721 E0.07324
G1 X143.368 Y145.721 E0.01921
G1 X143.368 Y143.915 E0.07324
G1 X142.894 Y143.915 E0.01921
G1 X142.894 Y145.721 E0.07324
G1 X142.42 Y145.721 E0.01921
G1 X142.42 Y143.915 E0.07324
G1 X141.947 Y143.915 E0.01921
G1 X141.947 Y145.721 E0.07324
G1 X141.473 Y145.721 E0.01921
G1 X141.473 Y143.915 E0.07324
G1 X140.999 Y143.915 E0.01921
G1 X140.999 Y145.721 E0.07324
G1 X140.526 Y145.721 E0.01921
G1 X140.526 Y144.208 E0.06137
G1 X140.052 Y144.208 E0.01921
G1 X140.052 Y145.721 E0.06137
G1 X139.578 Y145.721 E0.01921
G1 X139.578 Y144.208 E0.06137
G1 X139.104 Y144.208 E0.01921
G1 X139.104 Y145.721 E0.06137
G1 X138.631 Y145.721 E0.01921
G1 X138.631 Y144.208 E0.06137
G1 X138.157 Y144.208 E0.01921
G1 X138.157 Y145.721 E0.06137
G1 X137.683 Y145.721 E0.01921
G1 X137.683 Y144.208 E0.06137
G1 X137.21 Y144.208 E0.01921
G1 X137.21 Y145.721 E0.06137
G1 X136.736 Y145.721 E0.01921
G1 X136.736 Y144.208 E0.06137
G1 X136.262 Y144.208 E0.01921
G1 X136.262 Y145.721 E0.06137
G1 X135.788 Y145.721 E0.01921
G1 X135.788 Y137.493 E0.33361
G1 X136.262 Y137.493 E0.01921
G1 X136.262 Y139.007 E0.06137
G1 X136.736 Y139.007 E0.01921
G1 X136.736 Y137.493 E0.06137
G1 X137.21 Y137.493 E0.01921
G1 X137.21 Y139.007 E0.06137
G1 X137.683 Y139.007 E0.01921
G1 X137.683 Y137.493 E0.06137
G1 X138.157 Y137.493 E0.01921
G1 X138.157 Y139.007 E0.06137
G1 X138.631 Y139.007 E0.01921
G1 X138.631 Y137.493 E0.06137
G1 X139.104 Y137.493 E0.01921
G1 X139.104 Y139.007 E0.06137
G1 X139.578 Y139.007 E0.01921
G1 X139.578 Y137.493 E0.06137
G1 X140.052 Y137.493 E0.01921
G1 X140.052 Y139.007 E0.06137
G1 X140.526 Y139.007 E0.01921
G1 X140.526 Y137.493 E0.06137
G1 X140.999 Y137.493 E0.01921
G1 X140.999 Y140.121 E0.10655
G1 X141.473 Y140.121 E0.01921
G1 X141.473 Y137.493 E0.10655
G1 X141.947 Y137.493 E0.01921
G1 X141.947 Y140.121 E0.10655
G1 X142.42 Y140.121 E0.01921
G1 X142.42 Y137.493 E0.10655
G1 X142.894 Y137.493 E0.01921
G1 X142.894 Y140.121 E0.10655
G1 X143.368 Y140.121 E0.01921
G1 X143.368 Y137.493 E0.10655
G1 X143.842 Y137.493 E0.01921
G1 X143.842 Y140.121 E0.10655
G1 X144.315 Y140.121 E0.01921
G1 X144.315 Y137.493 E0.10655
G1 X144.789 Y137.493 E0.01921
G1 X144.789 Y140.121 E0.10655
G1 X145.263 Y140.121 E0.01921
G1 X145.263 Y137.31 E0.11398
G1 E-0.75 F3000
G1 Z0.65 F36000
G1 X135.315 Y145.905
G1 Z0.25
G1 E0.75 F1800
G1 F900
G1 X135.315 Y137.493 E0.34105
G1 X134.841 Y137.493 E0.01921
G1 X134.841 Y145.721 E0.33361
G1 X134.367 Y145.721 E0.01921
G1 X134.367 Y137.493 E0.33361
G1 X133.893 Y137.493 E0.01921
G1 X133.893 Y145.721 E0.33361
G1 X133.42 Y145.721 E0.01921
G1 X133.42 Y137.493 E0.33361
G1 X132.946 Y137.493 E0.01921
G1 X132.946 Y145.721 E0.33361
G1 X132.472 Y145.721 E0.01921
G1 X132.472 Y137.493 E0.33361
G1 X131.999 Y137.493 E0.01921
G1 X131.999 Y145.721 E0.33361
G1 X131.525 Y145.721 E0.01921
G1 X131.525 Y137.493 E0.33361
G1 X131.051 Y137.493 E0.01921
G1 X131.051 Y145.905 E0.34105
G1 E-0.75 F3000
G1 Z0.65 F36000
G1 X153.989 Y140.411
G1 Z0.25
G1 E0.75 F1800
G1 F900
G1 X153.989 Y137.203 E0.13006
G1 X169.511 Y137.203 E0.62936
G1 X169.511 Y145.037 E0.31763
G1 X169.048 Y145.037 E0.01875
G1 X169.048 Y143.764 E0.05162
G1 X168.607 Y143.323 E0.0253
G1 X167.04 Y143.323 E0.06353
G1 X167.04 Y140.852 E0.10017
G1 X166.599 Y140.411 E0.0253
G1 X154.049 Y140.411 E0.50887
G1 E-0.75 F3000
G1 Z0.65 F36000
G1 X168.949 Y143.514
G1 Z0.25
G1 E0.75 F1800
G1 F900
G1 X168.949 Y137.493 E0.24411
G1 X168.475 Y137.493 E0.01921
G1 X168.475 Y143.033 E0.22461
G1 X168.001 Y143.033 E0.01921
G1 X168.001 Y137.493 E0.22461
G1 X167.528 Y137.493 E0.01921
G1 X167.528 Y143.033 E0.22461
G1 X167.33 Y143.033 E0.00801
G1 X167.33 Y140.732 E0.09328
G1 X167.054 Y140.456 E0.01583
G1 X167.054 Y137.493 E0.12013
G1 X166.58 Y137.493 E0.01921
G1 X166.58 Y140.121 E0.10655
G1 X166.107 Y140.121 E0.01921
G1 X166.107 Y137.493 E0.10655
G1 X165.633 Y137.493 E0.01921
G1 X165.633 Y140.121 E0.10655
G1 X165.159 Y140.121 E0.01921
G1 X165.159 Y137.493 E0.10655
G1 X164.685 Y137.493 E0.01921
G1 X164.685 Y140.121 E0.10655
G1 X164.212 Y140.121 E0.01921
G1 X164.212 Y137.493 E0.10655
G1 X163.738 Y137.493 E0.01921
G1 X163.738 Y140.121 E0.10655
G1 X163.264 Y140.121 E0.01921
G1 X163.264 Y137.493 E0.10655
G1 X162.79 Y137.493 E0.01921
G1 X162.79 Y140.121 E0.10655
G1 X162.317 Y140.121 E0.01921
G1 X162.317 Y137.493 E0.10655
G1 X161.843 Y137.493 E0.01921
G1 X161.843 Y140.121 E0.10655
G1 X161.369 Y140.121 E0.01921
G1 X161.369 Y137.493 E0.10655
G1 X160.896 Y137.493 E0.01921
G1 X160.896 Y140.121 E0.10655
G1 X160.422 Y140.121 E0.01921
G1 X160.422 Y137.493 E0.10655
G1 X159.948 Y137.493 E0.01921
G1 X159.948 Y140.121 E0.10655
G1 X159.474 Y140.121 E0.01921
G1 X159.474 Y137.493 E0.10655
G1 X159.001 Y137.493 E0.01921
G1 X159.001 Y140.121 E0.10655
G1 X158.527 Y140.121 E0.01921
G1 X158.527 Y137.493 E0.10655
G1 X158.053 Y137.493 E0.01921
G1 X158.053 Y140.121 E0.10655
G1 X157.58 Y140.121 E0.01921
G1 X157.58 Y137.493 E0.10655
G1 X157.106 Y137.493 E0.01921
G1 X157.106 Y140.121 E0.10655
G1 X156.632 Y140.121 E0.01921
G1 X156.632 Y137.493 E0.10655
G1 X156.158 Y137.493 E0.01921
G1 X156.158 Y140.121 E0.10655
G1 X155.685 Y140.121 E0.01921
G1 X155.685 Y137.493 E0.10655
G1 X155.211 Y137.493 E0.01921
G1 X155.211 Y140.121 E0.10655
G1 X154.737 Y140.121 E0.01921
G1 X154.737 Y137.31 E0.11398
G1 E-0.75 F3000
G1 Z0.65 F36000
G1 X153.515 Y147.208
G1 Z0.25
G1 E0.75 F1800
;TYPE:Internal perimeter
G1 F900
G1 X153.076 Y147.208 E0.01778
G1 X152.567 Y147.303 E0.02098
G1 X152.085 Y147.49 E0.02098
G1 X151.645 Y147.762 E0.02098
G1 X151.262 Y148.111 E0.02098
G1 X150.951 Y148.524 E0.02098
G1 X150.72 Y148.987 E0.02098
G1 X150.578 Y149.485 E0.02098
G1 X150.531 Y150 E0.02098
G1 X150.578 Y150.515 E0.02098
G1 X150.72 Y151.013 E0.02098
G1 X150.951 Y151.476 E0.02098
G1 X151.262 Y151.889 E0.02098
G1 X151.467 Y152.075 E0.0112
G1 X151.645 Y152.238 E0.00978
G1 X152.085 Y152.51 E0.02098
G1 X152.567 Y152.697 E0.02098
G1 X153.076 Y152.792 E0.02098
G1 X153.594 Y152.792 E0.02098
G1 X154.102 Y152.697 E0.02098
G1 X154.585 Y152.51 E0.02098
G1 X155.025 Y152.238 E0.02098
G1 X155.407 Y151.889 E0.02098
G1 X155.719 Y151.476 E0.02098
G1 X155.95 Y151.013 E0.02098
G1 X156.091 Y150.515 E0.02098
G1 X156.139 Y150 E0.02098
G1 X156.091 Y149.485 E0.02098
G1 X155.95 Y148.987 E0.02098
G1 X155.719 Y148.524 E0.02098
G1 X155.407 Y148.111 E0.02098
G1 X155.025 Y147.762 E0.02098
G1 X154.585 Y147.49 E0.02098
G1 X154.102 Y147.303 E0.02098
G1 X153.594 Y147.208 E0.02098
G1 X153.575 Y147.208 E0.00077
G1 X153.515 Y147.634 F36000
G1 F900
G1 X153.116 Y147.634 E0.01618
G1 X152.685 Y147.715 E0.01778
