; generated by SuperSlicer 2.4 on 2022-05-22 at 23:00:52 UTC


;
;

;
;
; 

; external perimeters extrusion width = 0.40mm
; perimeters extrusion width = 0.45mm
; infill extrusion width = 0.72mm
; solid infill extrusion width = 0.56mm
; top infill extrusion width = 0.40mm
; first layer extrusion width = 0.48mm

; object:{"name":"KlickyProbe_AB_mount_v2","id":"KlickyProbe_AB_mount_v2.stl id:0 copy 0","object_center":[150.000003,150.000000,0.000000],"boundingbox_center":[150.000003,150.000000,14.850008],"boundingbox_size":[27.034306,19.224609,29.700016]}
; plater:{"center":[150.000003,150.000000,0.000000],"boundingbox_center":[150.000003,150.000000,14.850008],"boundingbox_size":[27.034306,19.224609,29.700016]}

;TYPE:Custom
print_start EXTRUDER=245 BED=110 CHAMBER=50
M107
G21 ; set units to millimeters
G90 ; use absolute coordinates
M83 ; use relative distances for extrusion
; Filament gcode
M104 S245 ; set temperature
M109 S245 ; set temperature and wait for it to be reached
M190 S110 ; set bed temperature and wait for it to be reached
M107
;LAYER_CHANGE
;Z:0.25
;HEIGHT:0.25
;BEFORE_LAYER_CHANGE
;0.25


G1 Z0.25 F27000
;AFTER_LAYER_CHANGE
;0.25
G92 E0
; INIT printing object KlickyProbe_AB_mount_v2.stl id:0 copy 0
G1 E-0.75 F3000
M204 S1500
G1 Z0.65 F27000
; printing object KlickyProbe_AB_mount_v2.stl id:0 copy 0
G1 X154.349 Y149.596
G1 Z0.25
G1 E0.75 F1800
;TYPE:Internal perimeter
;WIDTH:0.48
G1 F900
G1 X151.587 Y149.596 E0.11307
G1 X151.412 Y149.414 E0.01033
G1 X151.087 Y149.134 E0.01757
G1 X150.659 Y148.836 E0.02135
G1 X150.197 Y148.583 E0.02155
G1 X149.712 Y148.38 E0.02155
G1 X149.17 Y148.219 E0.02315
G1 X149.494 Y148.017 E0.01561
G1 X149.97 Y147.602 E0.02589
G1 X150.297 Y147.917 E0.01859
G1 X150.701 Y148.197 E0.02015
G1 X151.145 Y148.41 E0.02014
G1 X151.617 Y148.55 E0.02015
G1 X152.105 Y148.613 E0.02015
G1 X152.585 Y148.598 E0.01964
G1 X152.984 Y148.527 E0.01663
G1 X153.503 Y148.353 E0.0224
G1 X153.865 Y148.162 E0.01676
G1 X154.079 Y148.009 E0.01078
G1 X154.306 Y148.388 E0.01809
G1 X154.628 Y148.796 E0.02125
G1 X154.986 Y149.164 E0.02104
G1 X155.046 Y149.214 E0.00317
G1 X155.046 Y149.596 E0.01565
G1 X154.409 Y149.596 E0.02608
G1 X145.798 Y148.638 F27000
G1 F900
G1 X145.632 Y148.43 E0.01091
G1 X145.731 Y148.3 E0.00668
G1 X145.877 Y148.051 E0.01184
G1 X146.385 Y148.369 E0.02455
G1 X145.853 Y148.613 E0.02398
G1 X154.349 Y150.022 F27000
G1 F900
G1 X151.406 Y150.022 E0.12051
G1 X151.119 Y149.724 E0.01693
G1 X150.825 Y149.472 E0.01586
G1 X150.434 Y149.199 E0.01954
G1 X150.012 Y148.967 E0.01969
G1 X149.568 Y148.782 E0.01969
G1 X149.108 Y148.645 E0.01969
G1 X148.635 Y148.558 E0.01969
G1 X148.161 Y148.521 E0.01947
G1 X147.772 Y148.53 E0.0159
G1 X147.215 Y148.598 E0.023
G1 X146.835 Y148.687 E0.01597
G1 X146.387 Y148.837 E0.01935
G1 X145.941 Y149.042 E0.0201
G1 X145.458 Y149.34 E0.02323
G1 X145.149 Y149.574 E0.01585
G1 X144.615 Y150.071 E0.02989
G1 X144.615 Y148.902 E0.04787
G1 X144.773 Y148.773 E0.00833
G1 X145.097 Y148.428 E0.01939
G1 X145.376 Y148.062 E0.01883
G1 X145.616 Y147.67 E0.01884
G1 X145.665 Y147.569 E0.0046
G1 X145.952 Y147.569 E0.01176
G1 X146.088 Y147.68 E0.00719
G1 X146.429 Y147.894 E0.01649
G1 X146.82 Y148.059 E0.01735
G1 X147.231 Y148.16 E0.01735
G1 X147.654 Y148.195 E0.01736
G1 X148.076 Y148.161 E0.01736
G1 X148.488 Y148.061 E0.01736
G1 X148.879 Y147.897 E0.01736
G1 X149.239 Y147.673 E0.01736
G1 X149.549 Y147.403 E0.01682
G1 X149.766 Y147.154 E0.01351
G1 X149.944 Y146.885 E0.01323
G1 X150.274 Y147.302 E0.02179
G1 X150.569 Y147.586 E0.01676
G1 X150.917 Y147.828 E0.01736
G1 X151.299 Y148.011 E0.01735
G1 X151.705 Y148.131 E0.01736
G1 X152.126 Y148.186 E0.01736
G1 X152.54 Y148.173 E0.01698
G1 X152.879 Y148.113 E0.01406
G1 X153.335 Y147.959 E0.01971
G1 X153.641 Y147.799 E0.01416
G1 X153.888 Y147.622 E0.01244
G1 X154.344 Y147.622 E0.01868
G1 X154.407 Y147.749 E0.00581
G1 X154.658 Y148.146 E0.01922
G1 X154.949 Y148.514 E0.01922
G1 X155.276 Y148.851 E0.01922
G1 X155.472 Y149.014 E0.01044
G1 X155.472 Y150.022 E0.04128
G1 X154.409 Y150.022 E0.04354
G1 E-0.75 F3000
G1 Z0.65 F27000
G1 X143.11 Y153.06
G1 Z0.25
G1 E0.75 F1800
G1 F900
G1 X143.114 Y153.335 E0.01129
G1 X143.171 Y153.848 E0.02112
G1 X143.288 Y154.376 E0.02214
G1 X143.493 Y154.954 E0.02511
G1 X143.674 Y155.342 E0.01754
G1 X143.941 Y155.791 E0.02141
G1 X144.256 Y156.211 E0.02148
G1 X144.546 Y156.524 E0.01749
G1 X145 Y156.934 E0.02503
G1 X145.445 Y157.243 E0.02219
G1 X145.844 Y157.462 E0.01864
G1 X145.779 Y157.718 E0.01084
G1 X138.377 Y157.718 E0.30307
G1 X138.377 Y153.06 E0.19075
G1 X143.05 Y153.06 E0.19133
G1 E-0.75 F3000
G1 Z0.65 F27000
G1 X160.555 Y153.031
G1 Z0.25
G1 E0.75 F1800
G1 F900
G1 X161.623 Y153.031 E0.04373
G1 X161.623 Y157.718 E0.1919
G1 X150.336 Y157.718 E0.46214
G1 X150.267 Y157.468 E0.01064
G1 X150.804 Y157.148 E0.0256
G1 X151.225 Y156.832 E0.02155
G1 X151.61 Y156.473 E0.02155
G1 X151.687 Y156.384 E0.00481
G1 X155.628 Y156.384 E0.16135
G1 X155.628 Y153.031 E0.13727
G1 X160.495 Y153.031 E0.19929
G1 X161.407 Y151.752 F27000
G1 F900
G1 X161.407 Y148.845 E0.11906
G1 X161.651 Y148.621 E0.01355
G1 X162.049 Y148.145 E0.02539
G1 X162.049 Y158.145 E0.40944
G1 X137.951 Y158.145 E0.98674
G1 X137.951 Y148.149 E0.40927
G1 X138.458 Y148.711 E0.03098
G1 X138.68 Y148.91 E0.01221
G1 X138.68 Y152.633 E0.15247
G1 X143.559 Y152.633 E0.1998
G1 X143.534 Y152.918 E0.01172
G1 X143.54 Y153.308 E0.01596
G1 X143.593 Y153.778 E0.01937
G1 X143.698 Y154.258 E0.02012
G1 X143.888 Y154.792 E0.02321
G1 X144.051 Y155.143 E0.01583
G1 X144.296 Y155.554 E0.01958
G1 X144.583 Y155.938 E0.01964
G1 X144.846 Y156.22 E0.0158
G1 X145.266 Y156.599 E0.02315
G1 X145.67 Y156.88 E0.02016
G1 X146.091 Y157.111 E0.01969
G1 X146.528 Y157.293 E0.01938
G1 X146.892 Y157.406 E0.01561
G1 X147.354 Y157.504 E0.01934
G1 X147.843 Y157.554 E0.0201
G1 X148.41 Y157.541 E0.02324
G1 X148.795 Y157.496 E0.01585
G1 X149.261 Y157.393 E0.01955
G1 X149.717 Y157.24 E0.01969
G1 X150.154 Y157.039 E0.01969
G1 X150.567 Y156.793 E0.01969
G1 X150.951 Y156.504 E0.01969
G1 X151.303 Y156.176 E0.01969
G1 X151.492 Y155.958 E0.01186
G1 X155.201 Y155.958 E0.15186
G1 X155.201 Y152.605 E0.13727
G1 X161.407 Y152.605 E0.25411
G1 X161.407 Y151.812 E0.03246
G1 X160.981 Y151.752 F27000
G1 F900
G1 X160.981 Y148.658 E0.12671
G1 X161.09 Y148.572 E0.0057
G1 X161.342 Y148.326 E0.0144
G1 X161.622 Y147.992 E0.01785
G1 X161.87 Y147.621 E0.01828
G1 X162.103 Y147.153 E0.02139
G1 X162.198 Y146.913 E0.01058
G1 X162.475 Y146.965 E0.01157
G1 X162.475 Y158.262 E0.46256
G1 X162.466 Y158.368 E0.00436
G1 X162.422 Y158.514 E0.00626
G1 X162.274 Y158.561 E0.00637
G1 X162.15 Y158.571 E0.00506
G1 X137.848 Y158.571 E0.99508
G1 X137.731 Y158.562 E0.00483
G1 X137.58 Y158.518 E0.00642
G1 X137.533 Y158.363 E0.00664
G1 X137.524 Y158.247 E0.00476
G1 X137.524 Y146.959 E0.46218
G1 X137.795 Y146.902 E0.01132
G1 X137.998 Y147.362 E0.02059
G1 X138.214 Y147.737 E0.01772
G1 X138.469 Y148.087 E0.01772
G1 X138.759 Y148.408 E0.01772
G1 X139.106 Y148.719 E0.01908
G1 X139.106 Y152.207 E0.14281
G1 X144.048 Y152.207 E0.20235
G1 X144.007 Y152.419 E0.00885
G1 X143.96 Y152.934 E0.02117
G1 X143.966 Y153.281 E0.01421
G1 X144.014 Y153.709 E0.01762
G1 X144.109 Y154.14 E0.0181
G1 X144.283 Y154.631 E0.02131
G1 X144.429 Y154.944 E0.01413
G1 X144.65 Y155.316 E0.01776
G1 X144.911 Y155.664 E0.0178
G1 X145.145 Y155.916 E0.0141
G1 X145.531 Y156.264 E0.02127
G1 X145.895 Y156.517 E0.01813
G1 X146.276 Y156.726 E0.01783
G1 X146.674 Y156.892 E0.01762
G1 X147 Y156.993 E0.01398
G1 X147.42 Y157.082 E0.0176
G1 X147.86 Y157.127 E0.01809
G1 X148.381 Y157.116 E0.02133
G1 X148.724 Y157.075 E0.01414
G1 X149.147 Y156.982 E0.01774
G1 X149.559 Y156.843 E0.01783
G1 X149.955 Y156.661 E0.01783
G1 X150.329 Y156.438 E0.01783
G1 X150.677 Y156.177 E0.01783
G1 X150.995 Y155.88 E0.01783
G1 X151.298 Y155.531 E0.0189
G1 X154.775 Y155.531 E0.14238
G1 X154.775 Y150.449 E0.20812
G1 X151.224 Y150.449 E0.1454
G1 X150.826 Y150.034 E0.02353
G1 X150.564 Y149.809 E0.01414
G1 X150.208 Y149.562 E0.01773
G1 X149.827 Y149.352 E0.01783
G1 X149.425 Y149.184 E0.01783
G1 X149.008 Y149.06 E0.01783
G1 X148.58 Y148.981 E0.01783
G1 X148.149 Y148.948 E0.01768
G1 X147.803 Y148.956 E0.01417
G1 X147.29 Y149.018 E0.02117
G1 X146.952 Y149.098 E0.01422
G1 X146.544 Y149.234 E0.01761
G1 X146.142 Y149.419 E0.01809
G1 X145.699 Y149.692 E0.02132
G1 X145.424 Y149.901 E0.01414
G1 X145.107 Y150.196 E0.01774
G1 X144.822 Y150.525 E0.01783
G1 X144.573 Y150.881 E0.01777
G1 X144.445 Y151.114 E0.0109
G1 X144.189 Y151.048 E0.01082
G1 X144.189 Y148.699 E0.09617
G1 X144.482 Y148.461 E0.01546
G1 X144.771 Y148.152 E0.01733
G1 X145.024 Y147.821 E0.01705
G1 X145.242 Y147.466 E0.01705
G1 X145.397 Y147.143 E0.01469
G1 X146.104 Y147.143 E0.02895
G1 X146.337 Y147.333 E0.01232
G1 X146.627 Y147.515 E0.01401
G1 X146.954 Y147.653 E0.01456
G1 X147.3 Y147.738 E0.01456
G1 X147.654 Y147.767 E0.01457
G1 X148.009 Y147.739 E0.01457
G1 X148.355 Y147.655 E0.01457
G1 X148.683 Y147.517 E0.01457
G1 X148.985 Y147.329 E0.01457
G1 X149.247 Y147.101 E0.01422
G1 X149.425 Y146.896 E0.01115
G1 X149.616 Y146.608 E0.01414
G1 X149.762 Y146.283 E0.01456
G1 X149.821 Y146.064 E0.00931
G1 X150.068 Y146.05 E0.01009
G1 X150.245 Y146.503 E0.01992
G1 X150.421 Y146.801 E0.01418
G1 X150.59 Y147.015 E0.01115
G1 X150.84 Y147.255 E0.01418
G1 X151.132 Y147.458 E0.01456
G1 X151.453 Y147.612 E0.01456
G1 X151.794 Y147.713 E0.01457
G1 X152.147 Y147.758 E0.01457
G1 X152.496 Y147.748 E0.01433
G1 X152.773 Y147.698 E0.0115
G1 X153.167 Y147.566 E0.01702
G1 X153.417 Y147.435 E0.01156
G1 X153.751 Y147.195 E0.01684
G1 X154.609 Y147.195 E0.03512
G1 X154.779 Y147.54 E0.01574
G1 X155.007 Y147.899 E0.01741
G1 X155.27 Y148.233 E0.01741
G1 X155.566 Y148.538 E0.0174
G1 X155.898 Y148.814 E0.0177
G1 X155.898 Y152.179 E0.13776
G1 X160.981 Y152.179 E0.20812
G1 X160.981 Y151.812 E0.015
G1 E-0.75 F3000
G1 Z0.65 F27000
G1 X149.942 Y143.454
G1 Z0.25
G1 E0.75 F1800
G1 F900
G1 X149.615 Y143.139 E0.01859
G1 X149.211 Y142.858 E0.02015
G1 X148.767 Y142.645 E0.02015
G1 X148.526 Y142.574 E0.01028
G1 X148.569 Y142.282 E0.01209
G1 X151.312 Y142.282 E0.11231
G1 X151.367 Y142.555 E0.01143
G1 X150.836 Y142.778 E0.02355
G1 X150.419 Y143.038 E0.02015
G1 X149.987 Y143.414 E0.02343
G1 X154.094 Y143.023 F27000
G1 F900
G1 X153.569 Y142.728 E0.02463
G1 X153.141 Y142.559 E0.01886
G1 X153.194 Y142.282 E0.01156
G1 X154.619 Y142.282 E0.05837
G1 X154.306 Y142.687 E0.02098
G1 X154.126 Y142.972 E0.0138
G1 X145.896 Y143.001 F27000
G1 F900
G1 X145.742 Y142.737 E0.01251
G1 X145.399 Y142.282 E0.02335
G1 X146.749 Y142.282 E0.05529
G1 X146.799 Y142.563 E0.01171
G1 X146.39 Y142.713 E0.01781
G1 X146.047 Y142.893 E0.01588
G1 X145.945 Y142.966 E0.00515
G1 X154.327 Y143.486 F27000
G1 F900
G1 X153.959 Y143.486 E0.01507
G1 X153.742 Y143.314 E0.01132
G1 X153.386 Y143.114 E0.01675
G1 X153.079 Y142.993 E0.01351
G1 X152.681 Y142.895 E0.01677
G1 X152.258 Y142.861 E0.01735
G1 X151.836 Y142.894 E0.01736
G1 X151.424 Y142.994 E0.01736
G1 X151.033 Y143.158 E0.01736
G1 X150.673 Y143.382 E0.01736
G1 X150.363 Y143.652 E0.01682
G1 X150.147 Y143.901 E0.01351
G1 X149.962 Y144.18 E0.0137
G1 X149.649 Y143.763 E0.02135
G1 X149.344 Y143.469 E0.01735
G1 X148.996 Y143.228 E0.01736
G1 X148.613 Y143.044 E0.01736
G1 X148.209 Y142.925 E0.01726
G1 X147.872 Y142.88 E0.01391
G1 X147.382 Y142.879 E0.02009
G1 X146.946 Y142.963 E0.01815
G1 X146.563 Y143.103 E0.0167
G1 X146.271 Y143.257 E0.01351
G1 X146.024 Y143.434 E0.01244
G1 X145.655 Y143.434 E0.01512
G1 X145.586 Y143.295 E0.00633
G1 X145.387 Y142.974 E0.01549
G1 X145.104 Y142.599 E0.0192
G1 X144.771 Y142.243 E0.01998
G1 X144.307 Y141.855 E0.02476
G1 X155.71 Y141.855 E0.46693
G1 X155.288 Y142.212 E0.02265
G1 X154.896 Y142.62 E0.02316
G1 X154.655 Y142.932 E0.01612
G1 X154.4 Y143.336 E0.01958
G1 X154.353 Y143.432 E0.00438
G1 X154.349 Y143.913 F27000
G1 F900
G1 X153.81 Y143.913 E0.02205
G1 X153.504 Y143.67 E0.01601
G1 X153.202 Y143.5 E0.01417
G1 X152.949 Y143.4 E0.01115
G1 X152.612 Y143.317 E0.01419
G1 X152.258 Y143.289 E0.01456
G1 X151.903 Y143.316 E0.01457
G1 X151.557 Y143.4 E0.01457
G1 X151.229 Y143.538 E0.01457
G1 X150.927 Y143.726 E0.01457
G1 X150.665 Y143.954 E0.01422
G1 X150.487 Y144.16 E0.01115
G1 X150.297 Y144.448 E0.01414
G1 X150.15 Y144.772 E0.01456
G1 X150.086 Y145.009 E0.01005
G1 X149.833 Y145.017 E0.01035
G1 X149.708 Y144.646 E0.01603
G1 X149.542 Y144.331 E0.01456
G1 X149.329 Y144.047 E0.01456
G1 X149.073 Y143.8 E0.01456
G1 X148.78 Y143.597 E0.01456
G1 X148.46 Y143.443 E0.01457
G1 X148.12 Y143.343 E0.0145
G1 X147.844 Y143.306 E0.0114
G1 X147.422 Y143.306 E0.01726
G1 X147.061 Y143.376 E0.01508
G1 X146.736 Y143.494 E0.01414
G1 X146.495 Y143.621 E0.01114
G1 X146.161 Y143.86 E0.01684
G1 X145.391 Y143.86 E0.03154
G1 X145.213 Y143.503 E0.01633
G1 X145.035 Y143.215 E0.01387
G1 X144.777 Y142.874 E0.01748
G1 X144.477 Y142.553 E0.01798
G1 X144.08 Y142.221 E0.02123
G1 X143.797 Y142.027 E0.01403
G1 X143.419 Y141.821 E0.01763
G1 X143.138 Y141.703 E0.01249
G1 X143.193 Y141.429 E0.01145
G1 X156.868 Y141.429 E0.55997
G1 X156.923 Y141.704 E0.01148
G1 X156.591 Y141.84 E0.01468
G1 X156.205 Y142.05 E0.01797
G1 X155.848 Y142.297 E0.01778
G1 X155.58 Y142.523 E0.01437
G1 X155.22 Y142.899 E0.02132
G1 X155.005 Y143.176 E0.01436
G1 X154.773 Y143.544 E0.0178
G1 X154.593 Y143.913 E0.01679
G1 X154.409 Y143.913 E0.00754
G1 E-0.75 F3000
G1 Z0.65 F27000
G1 X161.821 Y142.654
G1 Z0.25
G1 E0.75 F1800
G1 F900
G1 X161.725 Y142.535 E0.00626
G1 X161.384 Y142.19 E0.01985
G1 X160.974 Y141.855 E0.02169
G1 X162.049 Y141.855 E0.04403
G1 X162.049 Y142.574 E0.02944
G1 X161.877 Y142.634 E0.00746
G1 X162.197 Y144.157 F27000
G1 F900
G1 X162.104 Y143.916 E0.01057
G1 X161.868 Y143.452 E0.02131
G1 X161.676 Y143.157 E0.01439
G1 X161.406 Y142.818 E0.01776
G1 X161.097 Y142.506 E0.01797
G1 X160.752 Y142.225 E0.01824
G1 X160.308 Y141.947 E0.02145
G1 X159.995 Y141.79 E0.01431
G1 X159.779 Y141.709 E0.00946
G1 X159.831 Y141.429 E0.01165
G1 X162.15 Y141.429 E0.09499
G1 X162.289 Y141.44 E0.00571
G1 X162.428 Y141.477 E0.00587
G1 X162.465 Y141.617 E0.00595
G1 X162.475 Y141.738 E0.00496
G1 X162.475 Y144.105 E0.09692
G1 X162.256 Y144.146 E0.00916
G1 E-0.75 F3000
G1 Z0.65 F27000
G1 X137.951 Y142.879
G1 Z0.25
G1 E0.75 F1800
G1 F900
G1 X137.951 Y141.864 E0.04156
G1 X138.328 Y141.855 E0.01548
G1 X138.954 Y141.855 E0.02561
G1 X138.417 Y142.349 E0.02987
G1 X137.99 Y142.834 E0.02645
G1 X137.797 Y144.121 F27000
G1 F900
G1 X137.524 Y144.065 E0.0114
G1 X137.524 Y141.753 E0.09468
G1 X137.533 Y141.635 E0.00483
G1 X137.577 Y141.485 E0.00642
G1 X137.715 Y141.443 E0.0059
G1 X138.323 Y141.429 E0.02493
G1 X140.1 Y141.429 E0.07275
G1 X140.158 Y141.698 E0.01127
G1 X139.762 Y141.878 E0.01784
G1 X139.388 Y142.097 E0.01772
G1 X139.041 Y142.355 E0.01772
G1 X138.722 Y142.648 E0.01772
G1 X138.436 Y142.973 E0.01772
G1 X138.186 Y143.326 E0.01772
G1 X137.975 Y143.704 E0.01772
G1 X137.82 Y144.066 E0.01612
G1 E-0.75 F3000
G1 Z0.65 F27000
; acceleration to travel
G1 X147.737 Y148.151
; decel to extrusion
M204 S1000
G1 X154.349 Y150.875
; end travel
G1 Z0.25
G1 E0.75 F1800
;TYPE:External perimeter
G1 F900
G1 X151.001 Y150.875 E0.13706
G1 X150.862 Y150.687 E0.00959
G1 X150.533 Y150.344 E0.01944
G1 X150.302 Y150.147 E0.01243
G1 X150.155 Y150.044 E0.00733
G1 X149.983 Y149.924 E0.00859
G1 X149.641 Y149.737 E0.01596
G1 X149.282 Y149.586 E0.01597
G1 X148.908 Y149.475 E0.01597
G1 X148.525 Y149.404 E0.01596
G1 X148.137 Y149.375 E0.0159
G1 X147.834 Y149.381 E0.01244
G1 X147.365 Y149.439 E0.01935
G1 X147.268 Y149.461 E0.00405
G1 X147.068 Y149.508 E0.0084
G1 X146.701 Y149.631 E0.01587
G1 X146.344 Y149.795 E0.01608
G1 X145.941 Y150.044 E0.01941
G1 X145.699 Y150.227 E0.01243
G1 X145.414 Y150.492 E0.01593
G1 X145.158 Y150.787 E0.01597
G1 X144.936 Y151.106 E0.01594
G1 X144.789 Y151.372 E0.01242
G1 X144.726 Y151.516 E0.00646
G1 X144.599 Y151.805 E0.01293
G1 X144.487 Y152.181 E0.01603
G1 X144.429 Y152.479 E0.01244
G1 X144.387 Y152.95 E0.01935
G1 X144.392 Y153.221 E0.01111
G1 X144.392 Y153.254 E0.00134
G1 X144.417 Y153.478 E0.00926
G1 X144.435 Y153.639 E0.00661
G1 X144.512 Y153.99 E0.01471
G1 X144.52 Y154.023 E0.00138
