; generated by SuperSlicer 2.3.57 on 2022-05-21 at 07:43:53 UTC


;
;

;
;
; TODO: check the size of the extruder and the y-bar clearance. Optimize & test supports.

; external perimeters extrusion width = 0.40mm
; perimeters extrusion width = 0.40mm
; infill extrusion width = 0.44mm
; solid infill extrusion width = 0.46mm
; top infill extrusion width = 0.44mm

; object:{"name":"KlickyProbe_AB_mount_v2","id":"KlickyProbe_AB_mount_v2.stl id:0 copy 0","object_center":[150.000000,161.500015,0.000000],"boundingbox_center":[150.000000,161.500015,14.850008],"boundingbox_size":[27.034306,19.224609,29.700016]}
; object:{"name":"Probe_Dock_v2","id":"Probe_Dock_v2.1.stl id:1 copy 0","object_center":[149.999999,137.387696,0.000000],"boundingbox_center":[149.999999,137.387696,8.500013],"boundingbox_size":[36.255010,10.500026,17.000030]}
; plater:{"center":[149.999999,151.625001,0.000000],"boundingbox_center":[149.999999,151.625001,14.850007],"boundingbox_size":[36.255010,38.974637,29.700018]}

;TYPE:Custom
print_start EXTRUDER=240 BED=110 CHAMBER=50
M107
G21 ; set units to millimeters
G90 ; use absolute coordinates
M83 ; use relative distances for extrusion
M104 S240 ; set temperature
M109 S240 ; set temperature and wait for it to be reached
M190 S110 ; set bed temperature and wait for it to be reached
;LAYER_CHANGE
;Z:0.2
;HEIGHT:0.2
;BEFORE_LAYER_CHANGE
;0.2


G1 Z0.2 F18000
;AFTER_LAYER_CHANGE
;0.2
G1 E-0.75 F3000
G1 Z0.6 F18000
M204 S1500
G1 X129.443 Y131.707
G1 Z0.2
G1 E0.75 F1800
;TYPE:Skirt
;WIDTH:0.52
G1 X129.276 Y131.871 E0.00928
G1 X128.789 Y132.471 E0.03066
G1 X128.305 Y133.447 E0.04322
G1 X128.089 Y134.52 E0.04342
G1 X128.124 Y142.238 E0.30615
G1 X132.797 Y170.829 E1.14923
G1 X133.101 Y171.823 E0.04124
G1 X133.568 Y172.683 E0.03883
G1 X134.098 Y173.339 E0.03346
G1 X134.874 Y174.002 E0.04051
G1 X136.203 Y174.653 E0.05869
G1 X136.953 Y174.833 E0.0306
G1 X137.71 Y174.903 E0.03013
G1 X162.326 Y174.901 E0.97653
G1 X163.648 Y174.695 E0.05308
G1 X164.702 Y174.264 E0.04517
G1 X165.731 Y173.503 E0.05076
G1 X166.404 Y172.724 E0.04083
G1 X166.883 Y171.858 E0.03926
G1 X167.205 Y170.809 E0.04357
G1 X171.857 Y142.389 E1.14237
G1 X171.92 Y141.667 E0.02875
G1 X171.919 Y134.713 E0.27589
G1 X171.72 Y133.524 E0.0478
G1 X171.192 Y132.442 E0.0478
G1 X170.745 Y131.893 E0.02806
G1 X168.405 Y129.552 E0.13131
G1 X167.773 Y129.04 E0.03226
G1 X167.055 Y128.659 E0.03226
G1 X166.276 Y128.425 E0.03226
G1 X165.462 Y128.345 E0.03246
G1 X134.069 Y128.371 E1.24533
G1 X132.96 Y128.654 E0.04541
G1 X131.968 Y129.225 E0.04541
G1 X129.486 Y131.665 E0.13806
G1 X129.653 Y131.834 F18000
M204 S1000
G1 X129.82 Y132.004
G1 F1800
G1 X129.622 Y132.199 E0.01101
G1 X129.197 Y132.718 E0.0266
G1 X128.758 Y133.597 E0.03899
G1 X128.565 Y134.565 E0.03918
G1 X128.595 Y142.165 E0.30147
G1 X133.26 Y170.713 E1.1475
G1 X133.536 Y171.627 E0.03786
G1 X133.957 Y172.406 E0.03512
G1 X134.426 Y172.992 E0.0298
G1 X135.123 Y173.595 E0.03655
G1 X136.345 Y174.198 E0.05405
G1 X137.732 Y174.426 E0.05575
G1 X162.288 Y174.425 E0.97414
G1 X163.509 Y174.239 E0.04899
G1 X164.454 Y173.855 E0.04044
G1 X165.396 Y173.163 E0.04638
G1 X165.996 Y172.476 E0.03618
G1 X166.439 Y171.684 E0.03601
G1 X166.737 Y170.718 E0.04008
G1 X171.386 Y142.316 E1.1417
G1 X171.443 Y141.661 E0.02609
G1 X171.443 Y134.757 E0.27387
G1 X171.266 Y133.67 E0.04367
G1 X170.782 Y132.687 E0.04348
G1 X168.08 Y129.901 E0.15396
G1 X167.52 Y129.444 E0.02867
G1 X166.878 Y129.102 E0.02886
G1 X166.186 Y128.893 E0.02867
G1 X165.462 Y128.822 E0.02886
G1 X134.14 Y128.843 E1.24252
G1 X133.141 Y129.095 E0.04086
G1 X132.246 Y129.614 E0.04105
G1 X129.863 Y131.962 E0.13272
M204 S1500
G1 X130.049 Y132.145 F18000
M204 S1000
G1 X130.235 Y132.328
G1 F1800
G1 X129.602 Y132.971 E0.03579
G1 X129.21 Y133.751 E0.03464
G1 X129.04 Y134.612 E0.03481
G1 X129.067 Y142.093 E0.29674
G1 X133.725 Y170.603 E1.14599
G1 X133.973 Y171.435 E0.03443
G1 X134.348 Y172.132 E0.03141
G1 X134.756 Y172.647 E0.02606
G1 X135.377 Y173.19 E0.03273
G1 X136.486 Y173.742 E0.04916
G1 X137.753 Y173.949 E0.05091
G1 X162.257 Y173.949 E0.97205
G1 X163.185 Y173.83 E0.03713
G1 X164.213 Y173.442 E0.0436
G1 X164.872 Y172.991 E0.03167
G1 X165.592 Y172.222 E0.04178
G1 X165.995 Y171.509 E0.03253
G1 X166.267 Y170.633 E0.03636
G1 X170.914 Y142.248 E1.14103
G1 X170.966 Y134.794 E0.29568
G1 X170.813 Y133.818 E0.03918
G1 X170.372 Y132.934 E0.03918
G1 X167.748 Y130.244 E0.14908
G1 X167.257 Y129.842 E0.02518
G1 X166.701 Y129.546 E0.025
G1 X166.094 Y129.361 E0.02518
G1 X165.462 Y129.299 E0.02518
G1 X134.209 Y129.316 E1.23977
G1 X133.315 Y129.539 E0.03656
G1 X132.523 Y130.002 E0.03639
G1 X130.277 Y132.285 E0.12706
; INIT printing object KlickyProbe_AB_mount_v2.stl id:0 copy 0
G1 E-0.75 F3000
M204 S1500
G1 Z0.6 F18000
; printing object KlickyProbe_AB_mount_v2.stl id:0 copy 0
G1 X133.833 Y142.443
M204 S1000
G1 X137.388 Y152.6
G1 Z0.2
G1 E0.75 F1800
;TYPE:External perimeter
;WIDTH:0.4
G1 X137.518 Y152.539 E0.00427
G1 X137.681 Y152.5 E0.00496
G1 X138.342 Y152.488 E0.01962
G1 X162.143 Y152.488 E0.70671
G1 X162.424 Y152.522 E0.0084
G1 X162.558 Y152.571 E0.00424
G1 X162.667 Y152.639 E0.0038
G1 X162.803 Y152.792 E0.00608
G1 X162.862 Y152.912 E0.00398
G1 X162.902 Y153.063 E0.00463
G1 X162.917 Y153.257 E0.00578
G1 X162.917 Y169.739 E0.48935
G1 X162.883 Y170.019 E0.00839
G1 X162.834 Y170.154 E0.00425
G1 X162.765 Y170.262 E0.00381
G1 X162.613 Y170.398 E0.00605
G1 X162.493 Y170.457 E0.00399
G1 X162.341 Y170.497 E0.00465
G1 X162.147 Y170.512 E0.00579
G1 X137.854 Y170.512 E0.72129
G1 X137.669 Y170.498 E0.00551
G1 X137.542 Y170.468 E0.00387
G1 X137.327 Y170.356 E0.0072
G1 X137.236 Y170.265 E0.00383
G1 X137.157 Y170.133 E0.00456
G1 X137.096 Y169.922 E0.00651
G1 X137.083 Y169.741 E0.0054
G1 X137.083 Y153.263 E0.48926
G1 X137.109 Y153.011 E0.00751
G1 X137.16 Y152.86 E0.00472
G1 X137.285 Y152.682 E0.00647
G1 X137.341 Y152.637 E0.00212
;WIPE_START
M204 S1500
G1 X137.512 Y152.673 F18000
;WIPE_END
G1 E-0.75 F3000
G1 Z0.6 F18000
G1 X141.302 Y155.437
M204 S1000
G1 X145.092 Y158.201
G1 Z0.2
G1 E0.75 F1800
G1 X146.305 Y158.201 E0.03601
G1 X146.429 Y158.338 E0.00549
G1 X146.652 Y158.516 E0.00843
G1 X146.897 Y158.654 E0.00836
G1 X147.101 Y158.735 E0.00653
G1 X147.375 Y158.801 E0.00836
G1 X147.658 Y158.824 E0.00842
G1 X147.941 Y158.801 E0.00843
G1 X148.216 Y158.735 E0.0084
G1 X148.477 Y158.625 E0.00842
G1 X148.718 Y158.475 E0.00843
G1 X148.931 Y158.291 E0.00837
G1 X149.076 Y158.125 E0.00653
G1 X149.23 Y157.89 E0.00835
G1 X149.346 Y157.631 E0.00842
G1 X149.42 Y157.357 E0.00843
G1 X149.449 Y157.075 E0.00842
G1 X149.434 Y156.793 E0.00839
G1 X149.388 Y156.576 E0.00658
G1 X149.272 Y156.253 E0.0102
G1 X149.127 Y156.006 E0.0085
G1 X148.948 Y155.789 E0.00834
G1 X148.787 Y155.639 E0.00653
G1 X148.555 Y155.479 E0.00838
G1 X148.299 Y155.356 E0.00843
G1 X148.027 Y155.276 E0.0084
G1 X147.746 Y155.239 E0.00842
G1 X147.463 Y155.248 E0.00843
G1 X147.186 Y155.301 E0.00837
G1 X146.975 Y155.373 E0.0066
G1 X146.673 Y155.533 E0.01015
G1 X146.494 Y155.665 E0.00661
G1 X146.358 Y155.801 E0.00572
G1 X145.086 Y155.801 E0.03778
G1 X145 Y155.567 E0.00739
G1 X144.864 Y155.287 E0.00926
G1 X144.625 Y154.899 E0.01354
G1 X144.434 Y154.653 E0.00925
G1 X144.17 Y154.372 E0.01143
G1 X143.82 Y154.079 E0.01357
G1 X143.564 Y153.903 E0.00924
G1 X143.226 Y153.718 E0.01141
G1 X142.872 Y153.571 E0.01141
G1 X142.574 Y153.482 E0.00922
G1 X142.127 Y153.391 E0.01356
G1 X141.742 Y153.361 E0.01145
G1 X141.432 Y153.367 E0.00921
G1 X141.051 Y153.409 E0.01137
G1 X140.676 Y153.492 E0.01142
G1 X140.311 Y153.613 E0.01142
G1 X139.961 Y153.773 E0.01142
G1 X139.629 Y153.968 E0.01142
G1 X139.32 Y154.197 E0.01142
G1 X139.037 Y154.458 E0.01142
G1 X138.784 Y154.746 E0.01141
G1 X138.561 Y155.06 E0.01142
G1 X138.373 Y155.396 E0.01142
G1 X138.222 Y155.749 E0.01142
G1 X138.109 Y156.117 E0.01142
G1 X138.035 Y156.493 E0.01138
G1 X138.004 Y156.802 E0.00921
G1 X138.002 Y157.185 E0.01139
G1 X138.04 Y157.568 E0.01142
G1 X138.119 Y157.946 E0.01147
G1 X138.266 Y158.378 E0.01356
G1 X138.392 Y158.662 E0.00922
G1 X138.584 Y158.995 E0.01141
G1 X138.81 Y159.306 E0.01142
G1 X139.068 Y159.592 E0.01142
G1 X139.354 Y159.849 E0.01141
G1 X139.547 Y159.99 E0.00711
G1 X139.547 Y163.266 E0.09726
G1 X143.747 Y163.266 E0.1247
G1 X143.747 Y159.989 E0.09728
G1 X143.979 Y159.817 E0.00858
G1 X144.188 Y159.629 E0.00833
G1 X144.44 Y159.36 E0.01094
G1 X144.664 Y159.064 E0.01103
G1 X144.896 Y158.67 E0.01358
G1 X145.016 Y158.415 E0.00836
G1 X145.072 Y158.258 E0.00497
;WIPE_START
M204 S1500
G1 X145.414 Y158.44 F18000
;WIPE_END
G1 E-0.75 F3000
G1 Z0.6 F18000
G1 X150.163 Y158.347
M204 S1000
G1 X154.912 Y158.254
G1 Z0.2
G1 E0.75 F1800
G1 X154.995 Y158.48 E0.00715
G1 X155.163 Y158.82 E0.01125
G1 X155.364 Y159.139 E0.01122
G1 X155.553 Y159.383 E0.00916
G1 X155.861 Y159.708 E0.01329
G1 X156.152 Y159.952 E0.01126
G1 X156.34 Y160.079 E0.00674
G1 X156.34 Y163.237 E0.09377
G1 X160.54 Y163.237 E0.1247
G1 X160.54 Y159.948 E0.09767
G1 X160.793 Y159.744 E0.00965
G1 X161.02 Y159.523 E0.00942
G1 X161.271 Y159.222 E0.01162
G1 X161.522 Y158.834 E0.01373
G1 X161.668 Y158.552 E0.00942
G1 X161.811 Y158.189 E0.01159
G1 X161.915 Y157.813 E0.01159
G1 X161.977 Y157.427 E0.01159
G1 X161.995 Y157.11 E0.00942
G1 X161.977 Y156.648 E0.01373
G1 X161.915 Y156.261 E0.01165
G1 X161.811 Y155.885 E0.01157
G1 X161.697 Y155.589 E0.00943
G1 X161.488 Y155.177 E0.01371
G1 X161.314 Y154.911 E0.00944
G1 X161.071 Y154.607 E0.01156
G1 X160.796 Y154.329 E0.0116
G1 X160.492 Y154.082 E0.01164
G1 X160.1 Y153.836 E0.01373
G1 X159.816 Y153.694 E0.00943
G1 X159.451 Y153.557 E0.01158
G1 X159.073 Y153.459 E0.0116
G1 X158.687 Y153.402 E0.01159
G1 X158.297 Y153.386 E0.01159
G1 X157.98 Y153.407 E0.00942
G1 X157.524 Y153.48 E0.01373
G1 X157.147 Y153.589 E0.01165
G1 X156.786 Y153.737 E0.01158
G1 X156.506 Y153.886 E0.00943
G1 X156.121 Y154.144 E0.01374
G1 X155.825 Y154.399 E0.0116
G1 X155.606 Y154.628 E0.0094
G1 X155.364 Y154.934 E0.0116
G1 X155.123 Y155.329 E0.01374
G1 X154.985 Y155.616 E0.00944
G1 X154.9 Y155.854 E0.00751
G1 X153.607 Y155.854 E0.03839
G1 X153.483 Y155.717 E0.00549
G1 X153.261 Y155.54 E0.00843
G1 X153.016 Y155.401 E0.00836
G1 X152.811 Y155.32 E0.00653
G1 X152.537 Y155.254 E0.00836
G1 X152.254 Y155.231 E0.00842
G1 X151.971 Y155.254 E0.00843
G1 X151.696 Y155.321 E0.0084
G1 X151.435 Y155.43 E0.00842
G1 X151.194 Y155.58 E0.00843
G1 X150.981 Y155.765 E0.00837
G1 X150.836 Y155.931 E0.00653
G1 X150.682 Y156.166 E0.00835
G1 X150.566 Y156.425 E0.00842
G1 X150.492 Y156.699 E0.00843
G1 X150.463 Y156.981 E0.00842
G1 X150.478 Y157.263 E0.0084
G1 X150.538 Y157.541 E0.00843
G1 X150.641 Y157.805 E0.00843
G1 X150.784 Y158.048 E0.00836
G1 X150.921 Y158.221 E0.00653
G1 X151.124 Y158.415 E0.00836
G1 X151.357 Y158.577 E0.00842
G1 X151.613 Y158.699 E0.00843
G1 X151.884 Y158.779 E0.0084
G1 X152.104 Y158.809 E0.00656
G1 X152.447 Y158.808 E0.01019
G1 X152.726 Y158.755 E0.00846
G1 X152.937 Y158.683 E0.0066
G1 X153.239 Y158.523 E0.01015
G1 X153.418 Y158.39 E0.00661
G1 X153.554 Y158.254 E0.00572
G1 X154.852 Y158.254 E0.03855
;WIPE_START
M204 S1500
G1 X154.843 Y158.485 F18000
;WIPE_END
G1 X154.588 Y160.437
M204 S1000
G1 X154.334 Y162.39
G1 F1800
G1 X150.996 Y162.39 E0.09911
G1 X150.847 Y162.193 E0.00734
G1 X150.529 Y161.861 E0.01363
G1 X150.291 Y161.657 E0.00931
G1 X149.974 Y161.436 E0.01148
G1 X149.634 Y161.25 E0.01149
G1 X149.278 Y161.101 E0.01148
G1 X148.907 Y160.99 E0.01149
G1 X148.526 Y160.92 E0.01149
G1 X148.141 Y160.89 E0.01147
G1 X147.827 Y160.897 E0.00932
G1 X147.372 Y160.953 E0.01362
G1 X147.066 Y161.024 E0.00932
G1 X146.701 Y161.148 E0.01146
G1 X146.348 Y161.31 E0.01153
G1 X145.957 Y161.551 E0.01364
G1 X145.707 Y161.74 E0.00931
G1 X145.424 Y162.004 E0.01148
G1 X145.17 Y162.296 E0.01149
G1 X144.949 Y162.613 E0.01148
G1 X144.798 Y162.888 E0.00931
G1 X144.614 Y163.308 E0.01363
G1 X144.503 Y163.68 E0.01151
G1 X144.443 Y163.988 E0.00932
G1 X144.402 Y164.445 E0.01362
G1 X144.408 Y164.759 E0.00932
G1 X144.451 Y165.142 E0.01146
G1 X144.535 Y165.521 E0.01154
G1 X144.688 Y165.955 E0.01364
G1 X144.82 Y166.239 E0.00931
G1 X145.018 Y166.571 E0.01148
G1 X145.25 Y166.88 E0.01147
G1 X145.463 Y167.11 E0.0093
G1 X145.805 Y167.417 E0.01363
G1 X146.124 Y167.639 E0.01154
G1 X146.463 Y167.825 E0.01149
G1 X146.819 Y167.974 E0.01146
G1 X147.118 Y168.067 E0.00929
G1 X147.495 Y168.146 E0.01146
G1 X147.882 Y168.185 E0.01153
G1 X148.341 Y168.176 E0.01364
G1 X148.654 Y168.139 E0.00936
G1 X149.1 Y168.032 E0.01361
G1 X149.397 Y167.932 E0.0093
G1 X149.681 Y167.802 E0.00927
G1 X150.016 Y167.612 E0.01144
G1 X150.389 Y167.342 E0.01369
G1 X150.674 Y167.077 E0.01154
G1 X150.927 Y166.785 E0.01148
G1 X151.065 Y166.59 E0.00708
G1 X154.334 Y166.59 E0.09706
G1 X154.334 Y162.45 E0.12292
;WIPE_START
M204 S1500
G1 X154.334 Y161.99 F18000
;WIPE_END
G1 E-0.75 F3000
G1 Z0.6 F18000
G1 X147.483 Y157.56
M204 S1000
G1 X140.633 Y153.13
G1 Z0.2
G1 E0.75 F1800
;TYPE:Internal perimeter
G1 X140.18 Y153.28 E0.01416
G1 X139.796 Y153.455 E0.01254
G1 X139.432 Y153.67 E0.01254
G1 X139.093 Y153.922 E0.01254
G1 X138.782 Y154.207 E0.01254
G1 X138.503 Y154.524 E0.01253
G1 X138.259 Y154.869 E0.01254
G1 X138.053 Y155.238 E0.01254
G1 X137.886 Y155.626 E0.01254
G1 X137.729 Y156.137 E0.01588
G1 X137.44 Y156.093 E0.00867
G1 X137.44 Y153.281 E0.08349
G1 X137.46 Y153.088 E0.00578
G1 X137.482 Y153.023 E0.00204
G1 X137.557 Y152.915 E0.00388
G1 X137.637 Y152.878 E0.00262
G1 X137.726 Y152.857 E0.00272
G1 X138.345 Y152.845 E0.01838
G1 X140.586 Y152.845 E0.06655
G1 X140.623 Y153.07 E0.00679
M204 S1500
G1 X139.886 Y153.253 F18000
M204 S1000
G1 X139.15 Y153.435
G1 F1800
G1 X138.865 Y153.646 E0.01053
G1 X138.526 Y153.957 E0.01366
G1 X138.223 Y154.303 E0.01365
G1 X138.033 Y154.57 E0.00972
G1 X137.797 Y154.494 E0.00737
G1 X137.797 Y153.212 E0.03807
G1 X138.348 Y153.202 E0.01637
G1 X139.073 Y153.202 E0.0215
G1 X139.131 Y153.378 E0.0055
M204 S1500
G1 X149.201 Y153.259 F18000
M204 S1000
G1 X159.271 Y153.141
G1 F1800
G1 X159.309 Y152.845 E0.00887
G1 X162.122 Y152.845 E0.08353
G1 X162.34 Y152.871 E0.00653
G1 X162.422 Y152.901 E0.0026
G1 X162.504 Y152.993 E0.00364
G1 X162.526 Y153.037 E0.00147
G1 X162.548 Y153.123 E0.00264
G1 X162.56 Y153.272 E0.00442
G1 X162.56 Y156.154 E0.08557
G1 X162.266 Y156.193 E0.00881
G1 X162.151 Y155.774 E0.01291
G1 X162.024 Y155.444 E0.01051
G1 X161.798 Y154.998 E0.01484
G1 X161.604 Y154.701 E0.01052
G1 X161.338 Y154.369 E0.01264
G1 X161.036 Y154.064 E0.01273
G1 X160.7 Y153.791 E0.01285
G1 X160.275 Y153.525 E0.0149
G1 X159.959 Y153.367 E0.01049
G1 X159.559 Y153.216 E0.0127
G1 X159.329 Y153.156 E0.00706
M204 S1500
G1 X159.935 Y153.179 F18000
M204 S1000
G1 X160.541 Y153.202
G1 F1800
G1 X162.203 Y153.202 E0.04936
G1 X162.203 Y154.522 E0.0392
G1 X161.961 Y154.594 E0.00751
G1 X161.894 Y154.492 E0.00364
G1 X161.605 Y154.131 E0.01372
G1 X161.276 Y153.799 E0.01387
G1 X160.587 Y153.24 E0.02635
M204 S1500
G1 X159.007 Y153.188 F18000
M204 S1000
G1 X157.427 Y153.136
G1 F1800
G1 X157.029 Y153.252 E0.01231
G1 X156.634 Y153.414 E0.01267
G1 X156.322 Y153.58 E0.0105
G1 X155.904 Y153.86 E0.01492
G1 X155.579 Y154.139 E0.01274
G1 X155.336 Y154.393 E0.01042
G1 X155.07 Y154.73 E0.01276
G1 X154.808 Y155.159 E0.01491
G1 X154.646 Y155.497 E0.01114
G1 X153.78 Y155.497 E0.02573
G1 X153.461 Y155.243 E0.0121
G1 X153.17 Y155.078 E0.00993
G1 X152.919 Y154.979 E0.008
G1 X152.594 Y154.9 E0.00994
G1 X152.254 Y154.873 E0.01011
G1 X151.915 Y154.9 E0.01011
G1 X151.585 Y154.98 E0.01009
G1 X151.271 Y155.112 E0.01011
G1 X150.981 Y155.292 E0.01011
G1 X150.728 Y155.511 E0.00996
G1 X150.551 Y155.715 E0.008
G1 X150.368 Y155.994 E0.00992
G1 X150.229 Y156.305 E0.01011
G1 X150.14 Y156.633 E0.01011
G1 X150.111 Y156.912 E0.00833
G1 X149.798 Y156.905 E0.0093
G1 X149.789 Y156.746 E0.00473
G1 X149.733 Y156.478 E0.00812
G1 X149.597 Y156.1 E0.01192
G1 X149.421 Y155.8 E0.01033
G1 X149.209 Y155.543 E0.0099
G1 X149.011 Y155.36 E0.008
G1 X148.735 Y155.169 E0.00998
G1 X148.427 Y155.022 E0.01011
G1 X148.102 Y154.925 E0.01009
G1 X147.764 Y154.882 E0.0101
G1 X147.424 Y154.892 E0.01011
G1 X147.094 Y154.955 E0.00996
G1 X146.833 Y155.044 E0.00818
G1 X146.482 Y155.23 E0.01179
