; generated by SuperSlicer 2.4 on 2022-06-05 at 22:40:49 UTC


;
;

;
;
; 

; external perimeters extrusion width = 0.40mm
; perimeters extrusion width = 0.48mm
; infill extrusion width = 0.60mm
; solid infill extrusion width = 0.56mm
; top infill extrusion width = 0.40mm
; first layer extrusion width = 0.44mm

; object:{"name":"KlickyProbe_AB_mount_v2","id":"KlickyProbe_AB_mount_v2.stl id:0 copy 0","object_center":[150.000000,150.000000,0.000000],"boundingbox_center":[150.000000,150.000000,14.850008],"boundingbox_size":[27.034306,19.224609,29.700016]}
; plater:{"center":[150.000000,150.000000,0.000000],"boundingbox_center":[150.000000,150.000000,14.850008],"boundingbox_size":[27.034306,19.224609,29.700016]}

;TYPE:Custom
print_start EXTRUDER=255 BED=110 CHAMBER=50
M107
G21 ; set units to millimeters
G90 ; use absolute coordinates
M83 ; use relative distances for extrusion
; Filament gcode
SET_PRESSURE_ADVANCE ADVANCE=0.055
M104 S255 ; set temperature
M109 S255 ; set temperature and wait for it to be reached
M190 S110 ; set bed temperature and wait for it to be reached
M107
;LAYER_CHANGE
;Z:0.25
;HEIGHT:0.25
;BEFORE_LAYER_CHANGE
;0.25
TIMELAPSE_TAKE_FRAME


G1 Z0.25 F36000
;AFTER_LAYER_CHANGE
;0.25
G92 E0
; INIT printing object KlickyProbe_AB_mount_v2.stl id:0 copy 0
G1 E-0.75 F3000
M204 S1500
G1 Z0.65 F36000
; printing object KlickyProbe_AB_mount_v2.stl id:0 copy 0
G1 X154.345 Y149.741
G1 Z0.25
G1 E0.75 F1800
;TYPE:Internal perimeter
;WIDTH:0.44
G1 F900
G1 X151.525 Y149.741 E0.10428
G1 X151.322 Y149.522 E0.01104
G1 X151.001 Y149.247 E0.01563
G1 X150.584 Y148.956 E0.0188
G1 X150.135 Y148.709 E0.01896
G1 X149.661 Y148.511 E0.01897
G1 X149.17 Y148.365 E0.01896
G1 X148.763 Y148.29 E0.0153
G1 X149.404 Y147.891 E0.02793
G1 X149.747 Y147.592 E0.01681
G1 X149.945 Y147.365 E0.01117
G1 X150.392 Y147.795 E0.02293
G1 X150.778 Y148.063 E0.0174
G1 X151.189 Y148.26 E0.01687
G1 X151.65 Y148.4 E0.01781
G1 X152.121 Y148.461 E0.01754
G1 X152.58 Y148.446 E0.01699
G1 X152.96 Y148.379 E0.01428
G1 X153.459 Y148.211 E0.01948
G1 X153.814 Y148.025 E0.0148
G1 X153.986 Y147.894 E0.00801
G1 X154.189 Y147.894 E0.00751
G1 X154.447 Y148.301 E0.01782
G1 X154.757 Y148.694 E0.01852
G1 X155.106 Y149.053 E0.01851
G1 X155.212 Y149.142 E0.00513
G1 X155.212 Y149.741 E0.02215
G1 X154.405 Y149.741 E0.02987
G1 X145.038 Y149.288 F36000
G1 F900
G1 X144.848 Y149.077 E0.0105
G1 X145.292 Y148.604 E0.024
G1 X145.59 Y148.214 E0.01814
G1 X145.817 Y147.843 E0.01609
G1 X146.285 Y148.136 E0.0204
G1 X146.851 Y148.376 E0.02273
G1 X146.269 Y148.57 E0.0227
G1 X145.791 Y148.789 E0.01943
G1 X145.28 Y149.105 E0.0222
G1 X145.086 Y149.252 E0.00901
G1 X143.226 Y152.925 F36000
G1 F900
G1 X143.233 Y153.339 E0.01531
G1 X143.289 Y153.84 E0.01861
G1 X143.402 Y154.353 E0.01945
G1 X143.603 Y154.918 E0.02218
G1 X143.778 Y155.295 E0.01538
G1 X144.038 Y155.733 E0.01885
G1 X144.345 Y156.142 E0.01891
G1 X144.627 Y156.446 E0.01534
G1 X145.071 Y156.846 E0.02211
G1 X145.504 Y157.147 E0.01949
G1 X145.954 Y157.394 E0.01896
G1 X146.418 Y157.587 E0.01861
G1 X146.566 Y157.633 E0.0057
G1 X146.526 Y157.896 E0.00983
G1 X138.184 Y157.896 E0.30852
G1 X138.184 Y152.925 E0.18382
G1 X143.166 Y152.925 E0.18427
G1 E-0.75 F3000
G1 Z0.65 F36000
G1 X160.576 Y152.897
G1 Z0.25
G1 E0.75 F1800
G1 F900
G1 X161.816 Y152.897 E0.04587
G1 X161.816 Y157.896 E0.18487
G1 X149.548 Y157.896 E0.45371
G1 X149.506 Y157.637 E0.00971
G1 X149.819 Y157.531 E0.01224
G1 X150.285 Y157.317 E0.01896
G1 X150.726 Y157.054 E0.01896
G1 X151.136 Y156.747 E0.01896
G1 X151.511 Y156.397 E0.01896
G1 X151.627 Y156.263 E0.00655
G1 X155.504 Y156.263 E0.14338
G1 X155.504 Y152.897 E0.12448
G1 X160.516 Y152.897 E0.18536
G1 X161.348 Y151.738 F36000
G1 F900
G1 X161.348 Y148.792 E0.10895
G1 X161.62 Y148.544 E0.01363
G1 X162.202 Y147.849 E0.0335
G1 X162.202 Y158.282 E0.38584
G1 X137.797 Y158.282 E0.90259
G1 X137.797 Y148.132 E0.37538
G1 X138.011 Y148.063 E0.0083
G1 X138.171 Y148.283 E0.01008
G1 X138.485 Y148.631 E0.01734
G1 X138.739 Y148.858 E0.0126
G1 X138.739 Y152.539 E0.13612
G1 X143.648 Y152.539 E0.18156
G1 X143.613 Y152.934 E0.01466
G1 X143.619 Y153.315 E0.01408
G1 X143.67 Y153.776 E0.01718
G1 X143.774 Y154.246 E0.0178
G1 X143.961 Y154.772 E0.02062
G1 X144.12 Y155.115 E0.01398
G1 X144.36 Y155.518 E0.01735
G1 X144.642 Y155.894 E0.0174
G1 X144.899 Y156.171 E0.01395
G1 X145.312 Y156.543 E0.02057
G1 X145.708 Y156.818 E0.01783
G1 X146.121 Y157.045 E0.01744
G1 X146.55 Y157.224 E0.01718
G1 X146.906 Y157.334 E0.0138
G1 X147.36 Y157.43 E0.01715
G1 X147.838 Y157.479 E0.01778
G1 X148.397 Y157.467 E0.02065
G1 X148.772 Y157.423 E0.014
G1 X149.23 Y157.322 E0.01733
G1 X149.677 Y157.171 E0.01744
G1 X150.105 Y156.974 E0.01744
G1 X150.51 Y156.733 E0.01744
G1 X150.888 Y156.45 E0.01744
G1 X151.232 Y156.128 E0.01744
G1 X151.451 Y155.877 E0.01232
G1 X155.117 Y155.877 E0.13562
G1 X155.117 Y150.127 E0.21265
G1 X151.357 Y150.127 E0.13907
G1 X151.054 Y149.801 E0.01646
G1 X150.764 Y149.553 E0.01411
G1 X150.38 Y149.285 E0.01732
G1 X149.967 Y149.058 E0.01744
G1 X149.531 Y148.876 E0.01744
G1 X149.079 Y148.741 E0.01744
G1 X148.605 Y148.654 E0.01783
G1 X147.959 Y148.622 E0.02393
G1 X147.231 Y148.694 E0.02704
G1 X146.851 Y148.783 E0.01444
G1 X146.411 Y148.93 E0.01716
G1 X145.974 Y149.131 E0.01779
G1 X145.499 Y149.424 E0.02064
G1 X145.198 Y149.652 E0.01399
G1 X144.854 Y149.972 E0.01733
G1 X144.489 Y150.393 E0.02063
G1 X144.489 Y148.847 E0.05716
G1 X144.68 Y148.692 E0.0091
G1 X144.997 Y148.354 E0.01716
G1 X145.271 Y147.995 E0.01668
G1 X145.507 Y147.611 E0.01669
G1 X145.582 Y147.454 E0.00641
G1 X145.973 Y147.454 E0.01448
G1 X146.134 Y147.585 E0.00766
G1 X146.464 Y147.792 E0.0144
G1 X146.84 Y147.952 E0.01511
G1 X147.237 Y148.049 E0.01512
G1 X147.645 Y148.082 E0.01512
G1 X148.052 Y148.05 E0.01512
G1 X148.45 Y147.954 E0.01512
G1 X148.827 Y147.795 E0.01512
G1 X149.174 Y147.579 E0.01512
G1 X149.473 Y147.319 E0.01468
G1 X149.681 Y147.079 E0.01173
G1 X149.965 Y146.649 E0.01907
G1 X150.156 Y146.972 E0.01387
G1 X150.353 Y147.221 E0.01173
G1 X150.637 Y147.495 E0.01463
G1 X150.973 Y147.728 E0.01512
G1 X151.33 Y147.899 E0.01463
G1 X151.732 Y148.021 E0.01553
G1 X152.139 Y148.073 E0.01521
G1 X152.54 Y148.061 E0.01481
G1 X152.864 Y148.003 E0.01219
G1 X153.307 Y147.854 E0.01728
G1 X153.606 Y147.698 E0.01247
G1 X153.856 Y147.507 E0.01163
G1 X154.427 Y147.507 E0.02112
G1 X154.516 Y147.689 E0.00747
G1 X154.762 Y148.078 E0.01703
G1 X155.048 Y148.439 E0.01703
G1 X155.369 Y148.769 E0.01703
G1 X155.599 Y148.961 E0.01108
G1 X155.599 Y152.511 E0.13129
G1 X161.348 Y152.511 E0.21265
G1 X161.348 Y151.798 E0.02636
G1 X160.962 Y151.738 F36000
G1 F900
G1 X160.962 Y148.622 E0.11525
G1 X161.093 Y148.518 E0.00617
G1 X161.341 Y148.276 E0.01282
G1 X161.618 Y147.946 E0.01594
G1 X161.863 Y147.579 E0.0163
G1 X162.094 Y147.116 E0.01914
G1 X162.22 Y146.796 E0.01272
G1 X162.321 Y146.428 E0.01412
G1 X162.589 Y146.464 E0.00999
G1 X162.589 Y158.298 E0.43767
G1 X162.579 Y158.414 E0.00429
G1 X162.544 Y158.53 E0.00449
G1 X162.497 Y158.607 E0.00333
G1 X162.335 Y158.658 E0.00629
G1 X162.202 Y158.668 E0.00495
G1 X137.797 Y158.668 E0.90259
G1 X137.67 Y158.659 E0.0047
G1 X137.554 Y158.625 E0.00445
G1 X137.471 Y158.576 E0.00357
G1 X137.421 Y158.408 E0.00649
G1 X137.411 Y158.283 E0.00466
G1 X137.411 Y146.472 E0.43682
G1 X137.672 Y146.431 E0.00978
G1 X137.833 Y146.932 E0.01946
G1 X138.006 Y147.323 E0.01582
G1 X138.22 Y147.694 E0.01582
G1 X138.472 Y148.04 E0.01582
G1 X138.758 Y148.357 E0.01582
G1 X139.125 Y148.686 E0.01822
G1 X139.125 Y152.153 E0.12822
G1 X144.101 Y152.153 E0.184
G1 X144.045 Y152.438 E0.01073
G1 X143.999 Y152.948 E0.01896
G1 X144.005 Y153.29 E0.01265
G1 X144.052 Y153.713 E0.01575
G1 X144.146 Y154.14 E0.01615
G1 X144.319 Y154.625 E0.01907
G1 X144.462 Y154.934 E0.01258
G1 X144.681 Y155.302 E0.01586
G1 X144.939 Y155.646 E0.01589
G1 X145.17 Y155.895 E0.01256
G1 X145.553 Y156.24 E0.01904
G1 X145.911 Y156.489 E0.01617
G1 X146.289 Y156.696 E0.01592
G1 X146.682 Y156.86 E0.01575
G1 X147.004 Y156.96 E0.01246
G1 X147.42 Y157.048 E0.01573
G1 X147.854 Y157.092 E0.01614
G1 X148.37 Y157.081 E0.01908
G1 X148.708 Y157.041 E0.01259
G1 X149.126 Y156.949 E0.01584
G1 X149.534 Y156.812 E0.01592
G1 X149.925 Y156.632 E0.01592
G1 X150.295 Y156.412 E0.01592
G1 X150.639 Y156.153 E0.01592
G1 X150.954 Y155.86 E0.01592
G1 X151.274 Y155.49 E0.01808
G1 X154.731 Y155.49 E0.12785
G1 X154.731 Y150.513 E0.18407
G1 X151.189 Y150.513 E0.13101
G1 X151.144 Y150.453 E0.00277
G1 X150.786 Y150.08 E0.01914
G1 X150.527 Y149.858 E0.0126
G1 X150.176 Y149.613 E0.01584
G1 X149.799 Y149.406 E0.01592
G1 X149.402 Y149.24 E0.01592
G1 X148.989 Y149.118 E0.01592
G1 X148.561 Y149.038 E0.01611
G1 X147.968 Y149.01 E0.02193
G1 X147.295 Y149.076 E0.02504
G1 X146.957 Y149.155 E0.01283
G1 X146.553 Y149.29 E0.01574
G1 X146.157 Y149.472 E0.01614
G1 X145.718 Y149.743 E0.01908
G1 X145.446 Y149.949 E0.01259
G1 X145.133 Y150.24 E0.01585
G1 X144.851 Y150.565 E0.01592
G1 X144.605 Y150.918 E0.01587
G1 X144.441 Y151.215 E0.01258
G1 X144.348 Y151.427 E0.00853
G1 X144.102 Y151.375 E0.00928
G1 X144.102 Y148.663 E0.10029
G1 X144.416 Y148.409 E0.01494
G1 X144.702 Y148.104 E0.01546
G1 X144.952 Y147.777 E0.01522
G1 X145.167 Y147.426 E0.01523
G1 X145.339 Y147.068 E0.01467
G1 X146.111 Y147.068 E0.02856
G1 X146.359 Y147.271 E0.01186
G1 X146.643 Y147.449 E0.01237
G1 X146.962 Y147.584 E0.01283
G1 X147.299 Y147.666 E0.01283
G1 X147.645 Y147.695 E0.01284
G1 X147.991 Y147.667 E0.01284
G1 X148.328 Y147.586 E0.01284
G1 X148.648 Y147.451 E0.01284
G1 X148.943 Y147.268 E0.01284
G1 X149.199 Y147.045 E0.01255
G1 X149.373 Y146.845 E0.00979
G1 X149.559 Y146.563 E0.01248
G1 X149.701 Y146.247 E0.01284
G1 X149.792 Y145.912 E0.01284
G1 X149.815 Y145.699 E0.00794
G1 X150.077 Y145.684 E0.00974
G1 X150.176 Y146.138 E0.01718
G1 X150.303 Y146.461 E0.01284
G1 X150.475 Y146.753 E0.01252
G1 X150.639 Y146.96 E0.00979
G1 X150.883 Y147.195 E0.01251
G1 X151.168 Y147.393 E0.01283
G1 X151.47 Y147.538 E0.01239
G1 X151.813 Y147.642 E0.01324
G1 X152.158 Y147.686 E0.01288
G1 X152.5 Y147.676 E0.01264
G1 X152.768 Y147.628 E0.01009
G1 X153.155 Y147.498 E0.01508
G1 X153.397 Y147.371 E0.01014
G1 X153.683 Y147.167 E0.01297
G1 X153.726 Y147.121 E0.00232
G1 X154.667 Y147.121 E0.0348
G1 X154.854 Y147.499 E0.0156
G1 X155.078 Y147.854 E0.01554
G1 X155.339 Y148.184 E0.01554
G1 X155.632 Y148.485 E0.01554
G1 X155.985 Y148.78 E0.01702
G1 X155.985 Y152.124 E0.12369
G1 X160.962 Y152.124 E0.18407
G1 X160.962 Y151.798 E0.01207
G1 E-0.75 F3000
G1 Z0.65 F36000
G1 X154.136 Y143.229
G1 Z0.25
G1 E0.75 F1800
G1 F900
G1 X153.915 Y143.053 E0.01045
G1 X153.52 Y142.832 E0.01672
G1 X153.177 Y142.696 E0.01367
G1 X152.737 Y142.588 E0.01675
G1 X152.268 Y142.55 E0.0174
G1 X151.799 Y142.587 E0.01741
G1 X151.341 Y142.698 E0.01741
G1 X150.907 Y142.88 E0.01741
G1 X150.508 Y143.129 E0.01741
G1 X150.165 Y143.427 E0.01681
G1 X149.967 Y143.655 E0.01117
G1 X149.52 Y143.225 E0.02293
G1 X149.134 Y142.956 E0.01741
G1 X148.709 Y142.753 E0.01741
G1 X148.261 Y142.62 E0.0173
G1 X147.883 Y142.57 E0.01411
G1 X147.344 Y142.569 E0.01991
G1 X146.859 Y142.663 E0.0183
G1 X146.435 Y142.818 E0.01667
G1 X146.098 Y142.995 E0.01408
G1 X145.848 Y143.185 E0.01163
G1 X145.601 Y142.786 E0.01736
G1 X145.3 Y142.388 E0.01843
G1 X145.035 Y142.104 E0.01438
G1 X154.992 Y142.104 E0.36826
G1 X154.702 Y142.407 E0.01549
G1 X154.443 Y142.742 E0.01567
G1 X154.168 Y143.178 E0.01907
G1 X154.345 Y143.565 F36000
G1 F900
G1 X153.938 Y143.565 E0.01504
G1 X153.699 Y143.375 E0.0113
G1 X153.354 Y143.181 E0.01462
G1 X153.059 Y143.065 E0.01173
G1 X152.675 Y142.97 E0.01464
G1 X152.267 Y142.937 E0.01512
G1 X151.86 Y142.969 E0.01512
G1 X151.462 Y143.066 E0.01512
G1 X151.085 Y143.224 E0.01512
G1 X150.738 Y143.44 E0.01512
G1 X150.439 Y143.701 E0.01468
G1 X150.231 Y143.94 E0.01173
G1 X149.942 Y144.377 E0.01937
G1 X149.814 Y144.135 E0.01013
G1 X149.569 Y143.808 E0.01512
G1 X149.274 Y143.525 E0.01512
G1 X148.939 Y143.291 E0.01512
G1 X148.57 Y143.114 E0.01512
G1 X148.18 Y142.999 E0.01504
G1 X147.857 Y142.956 E0.01206
G1 X147.381 Y142.955 E0.01759
G1 X146.962 Y143.036 E0.01578
G1 X146.592 Y143.172 E0.01458
G1 X146.306 Y143.322 E0.01193
G1 X146.056 Y143.512 E0.01163
G1 X145.572 Y143.512 E0.01788
G1 X145.477 Y143.319 E0.00796
G1 X145.282 Y143.005 E0.01369
G1 X145.004 Y142.637 E0.01703
G1 X144.678 Y142.288 E0.01768
G1 X143.995 Y141.718 E0.0329
G1 X155.714 Y141.718 E0.43343
G1 X155.782 Y141.935 E0.00841
G1 X155.675 Y142.009 E0.00481
G1 X155.381 Y142.257 E0.01424
G1 X154.995 Y142.659 E0.0206
G1 X154.76 Y142.964 E0.01423
G1 X154.51 Y143.361 E0.01736
G1 X154.41 Y143.565 E0.00841
G1 X154.405 Y143.565 E0.00018
G1 X154.345 Y143.951 F36000
G1 F900
G1 X153.803 Y143.951 E0.02002
G1 X153.483 Y143.697 E0.01514
G1 X153.188 Y143.531 E0.01251
G1 X152.941 Y143.434 E0.00979
G1 X152.613 Y143.353 E0.01252
G1 X152.267 Y143.325 E0.01283
G1 X151.921 Y143.352 E0.01284
G1 X151.583 Y143.434 E0.01284
G1 X151.263 Y143.568 E0.01284
G1 X150.969 Y143.752 E0.01284
G1 X150.713 Y143.975 E0.01255
G1 X150.539 Y144.174 E0.00979
G1 X150.353 Y144.456 E0.01248
G1 X150.21 Y144.772 E0.01283
G1 X150.12 Y145.107 E0.01284
G1 X150.097 Y145.322 E0.00799
G1 X149.833 Y145.336 E0.00977
G1 X149.755 Y144.964 E0.01406
G1 X149.649 Y144.649 E0.01228
G1 X149.487 Y144.342 E0.01283
G1 X149.279 Y144.065 E0.01283
G1 X149.029 Y143.824 E0.01283
G1 X148.744 Y143.626 E0.01284
G1 X148.431 Y143.476 E0.01284
G1 X148.099 Y143.378 E0.01278
G1 X147.831 Y143.342 E0.01
G1 X147.418 Y143.342 E0.01528
G1 X147.066 Y143.41 E0.01326
G1 X146.749 Y143.526 E0.01248
G1 X146.515 Y143.649 E0.00979
G1 X146.229 Y143.853 E0.01297
G1 X146.186 Y143.898 E0.00232
G1 X145.333 Y143.898 E0.03155
G1 X145.139 Y143.507 E0.01614
G1 X144.962 Y143.223 E0.01236
G1 X144.708 Y142.886 E0.01562
G1 X144.412 Y142.57 E0.01604
G1 X144.018 Y142.24 E0.019
G1 X143.739 Y142.049 E0.0125
G1 X143.365 Y141.845 E0.01575
G1 X142.971 Y141.68 E0.01581
G1 X142.689 Y141.596 E0.0109
G1 X142.727 Y141.332 E0.00988
G1 X157.361 Y141.332 E0.54121
G1 X157.399 Y141.597 E0.00992
G1 X157.046 Y141.7 E0.01358
G1 X156.645 Y141.865 E0.01605
G1 X156.263 Y142.072 E0.01605
G1 X155.91 Y142.316 E0.01589
G1 X155.645 Y142.539 E0.0128
G1 X155.288 Y142.912 E0.01908
G1 X155.077 Y143.185 E0.01279
G1 X154.847 Y143.549 E0.01591
G1 X154.651 Y143.951 E0.01656
G1 X154.405 Y143.951 E0.0091
G1 E-0.75 F3000
G1 Z0.65 F36000
G1 X161.995 Y142.953
G1 Z0.25
G1 E0.75 F1800
G1 F900
G1 X161.694 Y142.574 E0.01788
G1 X161.36 Y142.236 E0.01759
G1 X160.723 Y141.718 E0.03035
G1 X162.202 Y141.718 E0.0547
G1 X162.202 Y142.88 E0.04299
G1 X162.052 Y142.933 E0.00589
G1 X162.321 Y144.61 F36000
G1 F900
G1 X162.219 Y144.24 E0.01421
G1 X162.095 Y143.917 E0.01278
G1 X161.861 Y143.457 E0.01908
G1 X161.672 Y143.167 E0.01281
G1 X161.405 Y142.831 E0.01587
G1 X161.1 Y142.523 E0.01605
G1 X160.758 Y142.245 E0.01627
G1 X160.319 Y141.969 E0.01919
G1 X160.01 Y141.815 E0.01275
G1 X159.606 Y141.663 E0.01598
G1 X159.371 Y141.601 E0.009
G1 X159.405 Y141.332 E0.01006
G1 X162.202 Y141.332 E0.10343
G1 X162.349 Y141.344 E0.00548
G1 X162.426 Y141.364 E0.00292
G1 X162.476 Y141.388 E0.00206
G1 X162.507 Y141.413 E0.00149
G1 X162.532 Y141.445 E0.00149
G1 X162.557 Y141.495 E0.00206
G1 X162.577 Y141.573 E0.00299
G1 X162.589 Y141.702 E0.0048
G1 X162.589 Y144.574 E0.10621
G1 X162.38 Y144.602 E0.00777
G1 E-0.75 F3000
G1 Z0.65 F36000
G1 X138.013 Y142.918
G1 Z0.25
G1 E0.75 F1800
G1 F900
G1 X137.797 Y142.849 E0.00836
G1 X137.797 Y141.729 E0.04142
G1 X138.28 Y141.718 E0.01787
G1 X138.915 Y141.718 E0.02349
G1 X138.986 Y141.93 E0.00827
G1 X138.79 Y142.075 E0.00898
G1 X138.445 Y142.392 E0.01734
G1 X138.136 Y142.744 E0.01734
G1 X138.047 Y142.869 E0.00565
G1 X137.674 Y144.56 F36000
G1 F900
G1 X137.411 Y144.52 E0.00984
G1 X137.411 Y141.717 E0.10367
G1 X137.421 Y141.591 E0.0047
G1 X137.454 Y141.475 E0.00445
G1 X137.503 Y141.392 E0.00357
G1 X137.655 Y141.346 E0.00588
G1 X138.276 Y141.332 E0.02295
G1 X140.5 Y141.332 E0.08226
G1 X140.542 Y141.591 E0.00974
G1 X140.139 Y141.725 E0.0157
G1 X139.75 Y141.901 E0.01582
G1 X139.381 Y142.118 E0.01582
G1 X139.037 Y142.373 E0.01582
G1 X138.722 Y142.662 E0.01582
G1 X138.439 Y142.984 E0.01582
