; generated by SuperSlicer 2.4 on 2022-07-29 at 06:07:41 UTC


;
;

;
;
; 

; external perimeters extrusion width = 0.40mm
; perimeters extrusion width = 0.48mm
; infill extrusion width = 0.60mm
; solid infill extrusion width = 0.56mm
; top infill extrusion width = 0.40mm
; first layer extrusion width = 0.48mm

; object:{"name":"KlickyProbe_AB_mount_v2","id":"KlickyProbe_AB_mount_v2.stl id:0 copy 0","object_center":[150.000000,150.000000,0.000000],"boundingbox_center":[150.000000,150.000000,14.850008],"boundingbox_size":[27.034306,19.224609,29.700016]}
; plater:{"center":[150.000000,150.000000,0.000000],"boundingbox_center":[150.000000,150.000000,14.850008],"boundingbox_size":[27.034306,19.224609,29.700016]}

;TYPE:Custom
print_start EXTRUDER=260 BED=110 CHAMBER=50
M107
G21 ; set units to millimeters
G90 ; use absolute coordinates
M83 ; use relative distances for extrusion
; Filament gcode
SET_PRESSURE_ADVANCE ADVANCE=0.06
M104 S260 ; set temperature
M109 S260 ; set temperature and wait for it to be reached
M190 S110 ; set bed temperature and wait for it to be reached
M107
;LAYER_CHANGE
;Z:0.25
;HEIGHT:0.25
;BEFORE_LAYER_CHANGE
;0.25
TIMELAPSE_TAKE_FRAME


G1 Z0.25 F27000
;AFTER_LAYER_CHANGE
;0.25
G92 E0
G1 E-0.75 F3000
M204 S1500
G1 Z0.65 F27000
G1 X133.854 Y137.646
G1 Z0.25
G1 E0.75 F1800
;TYPE:Skirt
;WIDTH:0.52
G1 F900
G1 X133.01 Y138.697 E0.0614
G1 X132.442 Y139.95 E0.06267
G1 X132.203 Y141.125 E0.05465
G1 X132.172 Y141.694 E0.02595
G1 X132.186 Y158.663 E0.77314
G1 X132.315 Y159.594 E0.04284
G1 X132.586 Y160.47 E0.0418
G1 X133.056 Y161.379 E0.04661
G1 X133.725 Y162.225 E0.04918
G1 X134.777 Y163.069 E0.06142
G1 X136.03 Y163.638 E0.0627
G1 X137.205 Y163.877 E0.05464
G1 X137.773 Y163.907 E0.02594
G1 X162.602 Y163.892 E1.13125
G1 X163.588 Y163.747 E0.04541
G1 X164.446 Y163.471 E0.04106
G1 X165.344 Y162.995 E0.04633
G1 X166.15 Y162.351 E0.047
G1 X167.072 Y161.164 E0.06849
G1 X167.537 Y160.115 E0.05227
G1 X167.81 Y158.724 E0.06459
G1 X167.792 Y141.069 E0.80445
G1 X167.607 Y140.102 E0.04485
G1 X167.209 Y139.083 E0.04983
G1 X166.562 Y138.096 E0.05378
G1 X165.822 Y137.356 E0.04767
G1 X164.835 Y136.71 E0.05375
G1 X163.816 Y136.313 E0.04983
G1 X162.226 Y136.093 E0.07313
G1 X137.417 Y136.107 E1.1304
G1 X136.486 Y136.236 E0.04284
G1 X135.609 Y136.506 E0.0418
G1 X134.701 Y136.976 E0.04658
G1 X133.901 Y137.609 E0.04648
G1 X134.188 Y137.972 F27000
G1 F900
G1 X133.412 Y138.934 E0.05631
G1 X132.89 Y140.079 E0.05733
G1 X132.668 Y141.161 E0.05033
G1 X132.639 Y141.694 E0.02431
G1 X132.651 Y158.627 E0.77151
G1 X132.769 Y159.486 E0.03951
G1 X133.02 Y160.301 E0.03889
G1 X133.453 Y161.134 E0.04277
G1 X134.055 Y161.896 E0.04423
G1 X135.014 Y162.667 E0.05607
G1 X136.159 Y163.19 E0.05736
G1 X137.241 Y163.412 E0.05033
G1 X137.773 Y163.441 E0.0243
G1 X162.564 Y163.427 E1.12953
G1 X163.473 Y163.295 E0.04187
G1 X164.272 Y163.038 E0.03823
G1 X165.095 Y162.6 E0.04249
G1 X165.82 Y162.021 E0.04227
G1 X166.672 Y160.924 E0.06332
G1 X167.166 Y159.732 E0.05877
G1 X167.345 Y158.684 E0.04845
G1 X167.327 Y141.109 E0.80078
G1 X167.156 Y140.221 E0.04122
G1 X166.79 Y139.288 E0.04565
G1 X166.197 Y138.386 E0.04916
G1 X165.532 Y137.721 E0.04287
G1 X164.63 Y137.129 E0.04914
G1 X163.698 Y136.764 E0.04564
G1 X162.226 Y136.559 E0.06768
G1 X137.453 Y136.572 E1.12876
G1 X136.594 Y136.689 E0.03951
G1 X135.778 Y136.941 E0.03889
G1 X134.946 Y137.374 E0.04274
G1 X134.235 Y137.935 E0.04127
G1 X134.522 Y138.299 F27000
G1 F900
G1 X133.814 Y139.171 E0.05121
G1 X133.338 Y140.208 E0.05199
G1 X133.105 Y141.694 E0.06852
G1 X133.116 Y158.591 E0.76987
G1 X133.222 Y159.378 E0.03618
G1 X133.455 Y160.132 E0.03597
G1 X133.85 Y160.89 E0.03893
G1 X134.385 Y161.566 E0.03928
G1 X135.25 Y162.265 E0.05072
G1 X136.288 Y162.741 E0.05201
G1 X137.773 Y162.974 E0.0685
G1 X162.526 Y162.962 E1.12781
G1 X163.359 Y162.843 E0.03834
G1 X164.099 Y162.606 E0.03539
G1 X164.847 Y162.206 E0.03864
G1 X165.49 Y161.692 E0.03754
G1 X166.273 Y160.684 E0.05815
G1 X166.719 Y159.597 E0.05351
G1 X166.881 Y158.644 E0.04407
G1 X166.863 Y141.149 E0.7971
G1 X166.705 Y140.339 E0.03758
G1 X166.371 Y139.493 E0.04146
G1 X165.833 Y138.677 E0.04455
G1 X165.242 Y138.086 E0.03807
G1 X164.426 Y137.548 E0.04453
G1 X163.579 Y137.215 E0.04146
G1 X162.226 Y137.026 E0.06223
G1 X137.489 Y137.037 E1.12713
G1 X136.702 Y137.143 E0.03618
G1 X135.947 Y137.375 E0.03598
G1 X135.19 Y137.771 E0.03891
G1 X134.569 Y138.261 E0.03606
G1 X134.856 Y138.625 F27000
G1 F900
G1 X134.843 Y138.635 E0.00077
G1 X134.216 Y139.408 E0.04536
G1 X133.786 Y140.337 E0.04665
G1 X133.572 Y141.694 E0.06257
G1 X133.581 Y158.555 E0.76823
G1 X133.676 Y159.27 E0.03285
G1 X133.889 Y159.963 E0.03306
G1 X134.247 Y160.645 E0.03509
G1 X134.714 Y161.236 E0.03433
G1 X135.487 Y161.864 E0.04537
G1 X136.417 Y162.293 E0.04667
G1 X137.773 Y162.508 E0.06256
G1 X162.488 Y162.497 E1.12608
G1 X163.245 Y162.391 E0.0348
G1 X163.925 Y162.173 E0.03256
G1 X164.598 Y161.811 E0.0348
G1 X165.161 Y161.362 E0.0328
G1 X165.873 Y160.443 E0.05298
G1 X166.273 Y159.463 E0.04825
G1 X166.416 Y158.603 E0.03969
G1 X166.398 Y141.189 E0.79343
G1 X166.254 Y140.458 E0.03395
G1 X165.952 Y139.698 E0.03728
G1 X165.468 Y138.967 E0.03994
G1 X164.951 Y138.451 E0.03327
G1 X164.221 Y137.967 E0.03992
G1 X163.46 Y137.666 E0.03727
G1 X162.226 Y137.492 E0.05678
G1 X137.525 Y137.502 E1.12549
G1 X136.81 Y137.597 E0.03285
G1 X136.116 Y137.81 E0.03307
G1 X135.435 Y138.168 E0.03507
G1 X134.903 Y138.588 E0.03085
; INIT printing object KlickyProbe_AB_mount_v2.stl id:0 copy 0
G1 E-0.75 F3000
G1 Z0.65 F27000
; printing object KlickyProbe_AB_mount_v2.stl id:0 copy 0
G1 X156.351 Y152.184
G1 Z0.25
G1 E0.75 F1800
;TYPE:Internal perimeter
;WIDTH:0.48
G1 F900
G1 X161.022 Y152.184 E0.19456
G1 X161.022 Y148.651 E0.14719
G1 X161.133 Y148.563 E0.00588
G1 X161.385 Y148.317 E0.0147
G1 X161.666 Y147.982 E0.01822
G1 X161.915 Y147.609 E0.01865
G1 X162.149 Y147.141 E0.02183
G1 X162.251 Y146.881 E0.01161
G1 X162.529 Y146.934 E0.01177
G1 X162.529 Y158.295 E0.47327
G1 X162.519 Y158.402 E0.00447
G1 X162.474 Y158.551 E0.00648
G1 X162.323 Y158.598 E0.00659
G1 X162.199 Y158.608 E0.00519
G1 X137.799 Y158.608 E1.01639
G1 X137.681 Y158.599 E0.00495
G1 X137.528 Y158.555 E0.00664
G1 X137.48 Y158.397 E0.00687
G1 X137.471 Y158.28 E0.00488
G1 X137.471 Y146.93 E0.4728
G1 X137.742 Y146.873 E0.01152
G1 X137.953 Y147.35 E0.02174
G1 X138.17 Y147.726 E0.01809
G1 X138.425 Y148.077 E0.01809
G1 X138.716 Y148.4 E0.01808
G1 X139.065 Y148.713 E0.01954
G1 X139.065 Y152.213 E0.1458
G1 X144.028 Y152.213 E0.20671
G1 X143.986 Y152.429 E0.00919
G1 X143.939 Y152.946 E0.02161
G1 X143.945 Y153.294 E0.0145
G1 X143.993 Y153.723 E0.01799
G1 X144.088 Y154.156 E0.01848
G1 X144.263 Y154.648 E0.02175
G1 X144.409 Y154.962 E0.01442
G1 X144.631 Y155.336 E0.01812
G1 X144.893 Y155.685 E0.01816
G1 X145.128 Y155.938 E0.01439
G1 X145.515 Y156.287 E0.02171
G1 X145.88 Y156.541 E0.0185
G1 X146.263 Y156.75 E0.01819
G1 X146.661 Y156.916 E0.01799
G1 X146.989 Y157.018 E0.01427
G1 X147.411 Y157.107 E0.01796
G1 X147.851 Y157.152 E0.01846
G1 X148.374 Y157.141 E0.02177
G1 X148.718 Y157.101 E0.01443
G1 X149.142 Y157.007 E0.0181
G1 X149.556 Y156.868 E0.0182
G1 X149.953 Y156.685 E0.01819
G1 X150.328 Y156.462 E0.01819
G1 X150.678 Y156.199 E0.01819
G1 X150.997 Y155.902 E0.01819
G1 X151.301 Y155.55 E0.01936
G1 X154.791 Y155.55 E0.14536
G1 X154.791 Y150.453 E0.21231
G1 X151.228 Y150.453 E0.14844
G1 X150.827 Y150.037 E0.02408
G1 X150.564 Y149.811 E0.01443
G1 X150.208 Y149.562 E0.0181
G1 X149.825 Y149.352 E0.01819
G1 X149.422 Y149.184 E0.0182
G1 X149.003 Y149.059 E0.01819
G1 X148.574 Y148.98 E0.01819
G1 X148.141 Y148.947 E0.01805
G1 X147.794 Y148.954 E0.01446
G1 X147.279 Y149.018 E0.02161
G1 X146.94 Y149.097 E0.01451
G1 X146.531 Y149.234 E0.01797
G1 X146.128 Y149.419 E0.01847
G1 X145.684 Y149.693 E0.02176
G1 X145.408 Y149.903 E0.01443
G1 X145.089 Y150.199 E0.01811
G1 X144.803 Y150.529 E0.01819
G1 X144.554 Y150.886 E0.01814
G1 X144.418 Y151.132 E0.01171
G1 X144.162 Y151.066 E0.01101
G1 X144.162 Y148.692 E0.09887
G1 X144.457 Y148.452 E0.01584
G1 X144.748 Y148.143 E0.01769
G1 X145.001 Y147.811 E0.0174
G1 X145.22 Y147.454 E0.01741
G1 X145.376 Y147.128 E0.01508
G1 X146.089 Y147.128 E0.0297
G1 X146.324 Y147.32 E0.01262
G1 X146.615 Y147.502 E0.01429
G1 X146.943 Y147.641 E0.01485
G1 X147.289 Y147.726 E0.01485
G1 X147.645 Y147.755 E0.01486
G1 X148.001 Y147.727 E0.01486
G1 X148.347 Y147.643 E0.01486
G1 X148.676 Y147.505 E0.01486
G1 X148.979 Y147.316 E0.01486
G1 X149.241 Y147.087 E0.01451
G1 X149.421 Y146.881 E0.01137
G1 X149.611 Y146.593 E0.01442
G1 X149.758 Y146.267 E0.01486
G1 X149.824 Y146.025 E0.01048
G1 X150.092 Y146.031 E0.01116
G1 X150.119 Y146.156 E0.00531
G1 X150.249 Y146.488 E0.01486
G1 X150.426 Y146.787 E0.01447
G1 X150.595 Y147.001 E0.01137
G1 X150.845 Y147.242 E0.01446
G1 X151.138 Y147.445 E0.01486
G1 X151.459 Y147.599 E0.01486
G1 X151.802 Y147.701 E0.01486
G1 X152.155 Y147.746 E0.01486
G1 X152.506 Y147.735 E0.01461
G1 X152.783 Y147.686 E0.01173
G1 X153.178 Y147.553 E0.01737
G1 X153.429 Y147.422 E0.01179
G1 X153.765 Y147.181 E0.01723
G1 X154.629 Y147.181 E0.03599
G1 X154.801 Y147.528 E0.01615
G1 X155.029 Y147.889 E0.01776
G1 X155.293 Y148.224 E0.01777
G1 X155.591 Y148.529 E0.01776
G1 X155.925 Y148.808 E0.01813
G1 X155.925 Y152.184 E0.14064
G1 X156.291 Y152.184 E0.01526
G1 E-0.75 F3000
G1 Z0.65 F27000
G1 X154.613 Y143.891
G1 Z0.25
G1 E0.75 F1800
G1 F900
G1 X153.824 Y143.891 E0.03286
G1 X153.516 Y143.647 E0.01639
G1 X153.214 Y143.477 E0.01446
G1 X152.96 Y143.376 E0.01137
G1 X152.622 Y143.294 E0.01447
G1 X152.267 Y143.265 E0.01485
G1 X151.911 Y143.293 E0.01486
G1 X151.565 Y143.377 E0.01486
G1 X151.236 Y143.515 E0.01486
G1 X150.933 Y143.703 E0.01486
G1 X150.67 Y143.932 E0.01451
G1 X150.491 Y144.138 E0.01137
G1 X150.3 Y144.427 E0.01442
G1 X150.154 Y144.752 E0.01485
G1 X150.086 Y145.001 E0.01075
G1 X149.834 Y145.009 E0.01053
G1 X149.704 Y144.625 E0.01686
G1 X149.538 Y144.31 E0.01485
G1 X149.324 Y144.025 E0.01485
G1 X149.067 Y143.778 E0.01485
G1 X148.774 Y143.574 E0.01486
G1 X148.452 Y143.42 E0.01486
G1 X148.112 Y143.319 E0.01479
G1 X147.835 Y143.282 E0.01163
G1 X147.412 Y143.282 E0.01761
G1 X147.05 Y143.352 E0.01538
G1 X146.725 Y143.471 E0.01443
G1 X146.483 Y143.598 E0.01137
G1 X146.146 Y143.838 E0.01723
G1 X145.37 Y143.838 E0.03233
G1 X145.191 Y143.478 E0.01675
G1 X145.012 Y143.189 E0.01416
G1 X144.754 Y142.848 E0.01784
G1 X144.453 Y142.526 E0.01835
G1 X144.054 Y142.192 E0.02167
G1 X143.77 Y141.998 E0.01432
G1 X143.392 Y141.791 E0.01799
G1 X143.092 Y141.666 E0.01351
G1 X143.147 Y141.392 E0.01165
G1 X156.914 Y141.392 E0.57348
G1 X156.969 Y141.667 E0.01167
G1 X156.619 Y141.81 E0.01575
G1 X156.232 Y142.021 E0.01835
G1 X155.874 Y142.268 E0.01815
G1 X155.604 Y142.495 E0.01467
G1 X155.243 Y142.873 E0.02176
G1 X155.028 Y143.151 E0.01466
G1 X154.795 Y143.52 E0.01817
G1 X154.64 Y143.837 E0.01473
G1 E-0.75 F3000
G1 Z0.65 F27000
G1 X162.25 Y144.153
G1 Z0.25
G1 E0.75 F1800
G1 F900
G1 X162.15 Y143.893 E0.01161
G1 X161.913 Y143.427 E0.02176
G1 X161.721 Y143.132 E0.01468
G1 X161.45 Y142.791 E0.01813
G1 X161.14 Y142.478 E0.01834
G1 X160.793 Y142.196 E0.01862
G1 X160.348 Y141.917 E0.02189
G1 X160.034 Y141.76 E0.01461
G1 X159.799 Y141.671 E0.01049
G1 X159.85 Y141.392 E0.01185
G1 X162.199 Y141.392 E0.09786
G1 X162.339 Y141.403 E0.00585
G1 X162.48 Y141.44 E0.00608
G1 X162.518 Y141.583 E0.00616
G1 X162.529 Y141.705 E0.00508
G1 X162.529 Y144.101 E0.09983
G1 X162.309 Y144.142 E0.00931
G1 E-0.75 F3000
G1 Z0.65 F27000
G1 X137.744 Y144.115
G1 Z0.25
G1 E0.75 F1800
G1 F900
G1 X137.471 Y144.059 E0.01159
G1 X137.471 Y141.72 E0.09745
G1 X137.48 Y141.601 E0.00495
G1 X137.524 Y141.448 E0.00664
G1 X137.665 Y141.406 E0.00611
G1 X138.277 Y141.392 E0.02549
G1 X140.077 Y141.392 E0.07501
G1 X140.135 Y141.661 E0.01147
G1 X139.722 Y141.848 E0.01891
G1 X139.348 Y142.068 E0.01809
G1 X138.999 Y142.327 E0.01809
G1 X138.679 Y142.62 E0.01809
G1 X138.392 Y142.946 E0.01808
G1 X138.141 Y143.301 E0.01809
G1 X137.93 Y143.68 E0.01809
G1 X137.767 Y144.06 E0.01721
G1 E-0.75 F3000
G1 Z0.65 F27000
; acceleration to travel
G1 X144.114 Y151.653
; decel to extrusion
M204 S1000
G1 X148.344 Y156.715
; end travel
G1 Z0.25
G1 E0.75 F1800
;TYPE:External perimeter
G1 F900
G1 X148.533 Y156.693 E0.00793
G1 X148.647 Y156.68 E0.00476
G1 X148.985 Y156.605 E0.01443
G1 X149.028 Y156.595 E0.00183
G1 X149.399 Y156.471 E0.0163
G1 X149.754 Y156.307 E0.0163
G1 X150.091 Y156.107 E0.0163
G1 X150.297 Y155.952 E0.01074
G1 X150.404 Y155.872 E0.00556
G1 X150.69 Y155.605 E0.0163
G1 X150.946 Y155.309 E0.01632
G1 X151.074 Y155.124 E0.00936
G1 X154.365 Y155.124 E0.13707
G1 X154.365 Y150.88 E0.1768
G1 X151.005 Y150.88 E0.13997
G1 X150.864 Y150.69 E0.00982
G1 X150.677 Y150.495 E0.01127
G1 X150.534 Y150.347 E0.00858
G1 X150.303 Y150.148 E0.01269
G1 X149.982 Y149.925 E0.01626
G1 X149.899 Y149.879 E0.00396
G1 X149.639 Y149.737 E0.01234
G1 X149.278 Y149.586 E0.0163
G1 X148.903 Y149.474 E0.0163
G1 X148.518 Y149.403 E0.0163
G1 X148.13 Y149.374 E0.01624
G1 X147.825 Y149.38 E0.0127
G1 X147.354 Y149.438 E0.01976
G1 X147.057 Y149.508 E0.01272
G1 X146.688 Y149.631 E0.0162
G1 X146.33 Y149.795 E0.01642
G1 X146.128 Y149.921 E0.00991
G1 X145.925 Y150.046 E0.00991
G1 X145.682 Y150.229 E0.01269
G1 X145.397 Y150.495 E0.01626
G1 X145.14 Y150.791 E0.0163
G1 X144.937 Y151.083 E0.01483
G1 X144.917 Y151.112 E0.00145
G1 X144.769 Y151.378 E0.01268
G1 X144.706 Y151.523 E0.0066
G1 X144.578 Y151.813 E0.0132
G1 X144.467 Y152.19 E0.01636
G1 X144.408 Y152.489 E0.0127
G1 X144.366 Y152.961 E0.01975
G1 X144.37 Y153.234 E0.01135
G1 X144.371 Y153.267 E0.00137
G1 X144.414 Y153.653 E0.01621
G1 X144.499 Y154.038 E0.01642
G1 X144.658 Y154.487 E0.01982
G1 X144.786 Y154.763 E0.01268
G1 X144.959 Y155.052 E0.01403
G1 X144.986 Y155.098 E0.00224
G1 X145.221 Y155.411 E0.01629
G1 X145.428 Y155.634 E0.01267
G1 X145.781 Y155.952 E0.0198
G1 X146.105 Y156.178 E0.01644
G1 X146.282 Y156.275 E0.00844
G1 X146.448 Y156.366 E0.00785
G1 X146.807 Y156.515 E0.01621
G1 X147.096 Y156.605 E0.01262
G1 X147.177 Y156.622 E0.00343
G1 X147.477 Y156.685 E0.01276
G1 X147.755 Y156.714 E0.01165
G1 X147.869 Y156.726 E0.00477
G1 X148.08 Y156.721 E0.00881
G1 X148.284 Y156.717 E0.00851
;WIPE_START
M204 S1500
G1 X148.453 Y156.871 F27000
;WIPE_END
G1 E-0.75 F3000
G1 Z0.65 F27000
M204 S1000
G1 X156.351 Y151.758
G1 Z0.25
G1 E0.75 F1800
G1 F900
G1 X160.596 Y151.758 E0.1768
G1 X160.596 Y148.445 E0.13802
G1 X160.851 Y148.243 E0.01354
G1 X161.072 Y148.027 E0.01289
G1 X161.255 Y147.808 E0.01186
G1 X161.324 Y147.725 E0.00451
G1 X161.546 Y147.395 E0.01657
G1 X161.759 Y146.967 E0.01991
G1 X161.872 Y146.68 E0.01283
G1 X161.976 Y146.3 E0.01643
G1 X162.039 Y145.911 E0.01644
G1 X162.047 Y145.756 E0.00646
G1 X162.06 Y145.517 E0.00994
G1 X162.052 Y145.367 E0.00627
G1 X162.045 Y145.21 E0.00657
G1 X161.976 Y144.736 E0.01993
G1 X161.87 Y144.354 E0.01649
G1 X161.805 Y144.185 E0.00757
G1 X161.76 Y144.066 E0.0053
G1 X161.727 Y144.002 E0.003
G1 X161.544 Y143.641 E0.01687
G1 X161.375 Y143.382 E0.01288
G1 X161.254 Y143.23 E0.00807
G1 X161.13 Y143.075 E0.00826
G1 X160.853 Y142.794 E0.01644
G1 X160.545 Y142.543 E0.01656
G1 X160.139 Y142.289 E0.01994
G1 X159.863 Y142.151 E0.01285
G1 X159.495 Y142.012 E0.0164
G1 X159.113 Y141.913 E0.01644
G1 X158.983 Y141.894 E0.00548
G1 X158.723 Y141.855 E0.01096
G1 X158.329 Y141.84 E0.01642
G1 X158.021 Y141.86 E0.01283
G1 X157.549 Y141.935 E0.01991
G1 X157.167 Y142.046 E0.01657
G1 X157.117 Y142.066 E0.00226
G1 X156.802 Y142.196 E0.01418
G1 X156.456 Y142.384 E0.01644
G1 X156.133 Y142.608 E0.01635
G1 X155.896 Y142.807 E0.01287
G1 X155.789 Y142.919 E0.00647
G1 X155.566 Y143.151 E0.0134
G1 X155.377 Y143.396 E0.01287
G1 X155.168 Y143.728 E0.01636
G1 X155.017 Y144.036 E0.01429
G1 X154.993 Y144.086 E0.00231
G1 X154.915 Y144.318 E0.01019
G1 X153.622 Y144.318 E0.05386
G1 X153.508 Y144.185 E0.00728
G1 X153.278 Y144.002 E0.01225
G1 X153.03 Y143.863 E0.01184
G1 X152.83 Y143.784 E0.00896
G1 X152.554 Y143.716 E0.01185
G1 X152.43 Y143.706 E0.00517
G1 X152.266 Y143.692 E0.00684
G1 X152.096 Y143.706 E0.00713
G1 X151.979 Y143.715 E0.00489
