; generated by SuperSlicer 2.4 on 2022-06-24 at 09:54:33 UTC


;
;

;
;
; 

; external perimeters extrusion width = 0.40mm
; perimeters extrusion width = 0.48mm
; infill extrusion width = 0.60mm
; solid infill extrusion width = 0.56mm
; top infill extrusion width = 0.40mm
; first layer extrusion width = 0.48mm

; object:{"name":"lcd-knob","id":"lcd-knob.stl id:0 copy 0","object_center":[150.000000,150.000000,0.000000],"boundingbox_center":[150.000000,150.000000,4.000000],"boundingbox_size":[31.298100,36.137924,8.000000]}
; plater:{"center":[150.000000,150.000000,0.000000],"boundingbox_center":[150.000000,150.000000,4.000000],"boundingbox_size":[31.298100,36.137924,8.000000]}

;TYPE:Custom
print_start EXTRUDER=255 BED=110 CHAMBER=50
M107
G21 ; set units to millimeters
G90 ; use absolute coordinates
M83 ; use relative distances for extrusion
; Filament gcode
SET_PRESSURE_ADVANCE ADVANCE=0.045
SET_PRESSURE_ADVANCE EXTRUDER=extruder SMOOTH_TIME=0.04
M104 S255 ; set temperature
M109 S255 ; set temperature and wait for it to be reached
M190 S110 ; set bed temperature and wait for it to be reached
M107
;LAYER_CHANGE
;Z:0.25
;HEIGHT:0.25
;BEFORE_LAYER_CHANGE
;0.25
TIMELAPSE_TAKE_FRAME


G1 Z0.25 F36000
;AFTER_LAYER_CHANGE
;0.25
G92 E0
; INIT printing object lcd-knob.stl id:0 copy 0
G1 E-0.75 F3000
M204 S1500
G1 Z0.65 F36000
; printing object lcd-knob.stl id:0 copy 0
G1 X148.157 Y150
G1 Z0.25
G1 E0.75 F1800
;TYPE:Internal perimeter
;WIDTH:0.48
G1 F900
G1 X148.428 Y148.573 E0.05891
G1 X148.496 Y148.313 E0.01089
G1 X148.708 Y147.704 E0.02616
G1 X148.855 Y147.369 E0.01483
G1 X149.103 Y146.904 E0.02136
G1 X149.51 Y146.297 E0.02964
G1 X149.674 Y146.09 E0.01071
G1 X150.036 Y145.694 E0.02175
G1 X150.561 Y145.223 E0.0286
G1 X150.992 Y144.91 E0.02161
G1 X151.303 Y144.715 E0.01488
G1 X151.858 Y144.431 E0.02526
G1 X152.427 Y144.209 E0.02477
G1 X153.015 Y144.044 E0.02477
G1 X153.616 Y143.938 E0.02477
G1 X154.221 Y143.894 E0.02456
G1 X154.926 Y143.918 E0.02861
G1 X155.525 Y144.002 E0.02454
G1 X156.122 Y144.148 E0.02491
G1 X157.474 Y144.621 E0.05808
G1 X158.575 Y145.569 E0.05891
G1 X158.765 Y145.758 E0.01089
G1 X159.179 Y146.235 E0.02559
G1 X159.527 Y146.73 E0.02455
G1 X159.87 Y147.347 E0.02861
G1 X160.114 Y147.923 E0.02538
G1 X160.2 Y148.179 E0.01092
G1 X160.338 Y148.708 E0.02221
G1 X160.446 Y149.377 E0.02745
G1 X160.477 Y150 E0.0253
G1 X160.446 Y150.609 E0.02473
G1 X160.336 Y151.302 E0.02847
G1 X160.2 Y151.821 E0.02175
G1 X160.114 Y152.077 E0.01092
G1 X159.87 Y152.653 E0.02538
G1 X159.527 Y153.27 E0.02861
G1 X159.179 Y153.765 E0.02455
G1 X158.765 Y154.242 E0.02559
G1 X158.575 Y154.431 E0.01089
G1 X157.474 Y155.379 E0.0589
G1 X156.103 Y155.858 E0.05891
G1 X155.843 Y155.929 E0.01089
G1 X155.21 Y156.051 E0.02615
G1 X154.846 Y156.09 E0.01483
G1 X154.32 Y156.108 E0.02135
G1 X153.591 Y156.059 E0.02964
G1 X153.33 Y156.02 E0.01071
G1 X152.809 Y155.905 E0.02161
G1 X152.132 Y155.684 E0.02889
G1 X151.649 Y155.469 E0.02144
G1 X151.324 Y155.297 E0.01489
G1 X150.801 Y154.959 E0.02526
G1 X150.324 Y154.577 E0.02477
G1 X149.887 Y154.151 E0.02477
G1 X149.495 Y153.682 E0.02477
G1 X149.155 Y153.181 E0.02456
G1 X148.822 Y152.558 E0.02861
G1 X148.596 Y151.997 E0.02454
G1 X148.424 Y151.407 E0.02491
G1 X148.169 Y150.059 E0.05565
G1 X147.723 Y150 F36000
G1 F900
G1 X148.012 Y148.478 E0.0628
G1 X148.088 Y148.189 E0.01215
G1 X148.31 Y147.547 E0.02752
G1 X148.472 Y147.182 E0.01618
G1 X148.737 Y146.685 E0.02286
G1 X149.165 Y146.045 E0.03121
G1 X149.35 Y145.813 E0.01202
G1 X149.736 Y145.391 E0.02319
G1 X150.293 Y144.891 E0.03034
G1 X150.754 Y144.556 E0.02311
G1 X151.093 Y144.344 E0.01622
G1 X151.682 Y144.042 E0.02686
G1 X152.291 Y143.804 E0.0265
G1 X152.92 Y143.627 E0.0265
G1 X153.564 Y143.515 E0.0265
G1 X154.212 Y143.467 E0.02635
G1 X154.963 Y143.492 E0.03046
G1 X155.606 Y143.583 E0.02633
G1 X156.243 Y143.739 E0.0266
G1 X157.691 Y144.245 E0.06219
G1 X158.864 Y145.256 E0.06279
G1 X159.077 Y145.467 E0.01215
G1 X159.515 Y145.972 E0.0271
G1 X159.889 Y146.503 E0.02634
G1 X160.254 Y147.16 E0.03046
G1 X160.513 Y147.772 E0.02695
G1 X160.609 Y148.056 E0.01217
G1 X160.756 Y148.621 E0.02364
G1 X160.832 Y149.028 E0.01681
G1 X160.87 Y149.332 E0.01243
G1 X160.904 Y150 E0.02711
G1 X160.871 Y150.654 E0.02653
G1 X160.753 Y151.39 E0.03024
G1 X160.609 Y151.944 E0.0232
G1 X160.513 Y152.228 E0.01217
G1 X160.254 Y152.84 E0.02695
G1 X159.889 Y153.497 E0.03046
G1 X159.515 Y154.028 E0.02634
G1 X159.077 Y154.533 E0.02711
G1 X158.864 Y154.744 E0.01215
G1 X157.691 Y155.755 E0.06279
G1 X156.229 Y156.266 E0.0628
G1 X155.94 Y156.344 E0.01215
G1 X155.273 Y156.473 E0.02752
G1 X154.877 Y156.516 E0.01618
G1 X154.313 Y156.535 E0.02286
G1 X153.545 Y156.484 E0.03121
G1 X153.252 Y156.44 E0.01202
G1 X152.697 Y156.317 E0.02306
G1 X151.978 Y156.083 E0.03063
G1 X151.462 Y155.852 E0.02294
G1 X151.108 Y155.665 E0.01622
G1 X150.552 Y155.305 E0.02686
G1 X150.041 Y154.897 E0.0265
G1 X149.574 Y154.441 E0.0265
G1 X149.154 Y153.939 E0.0265
G1 X148.789 Y153.402 E0.02635
G1 X148.435 Y152.739 E0.03046
G1 X148.192 Y152.137 E0.02633
G1 X148.009 Y151.507 E0.0266
G1 X147.735 Y150.059 E0.05976
G1 X139.723 Y149.637 F36000
G1 F900
G1 X147.358 Y149.637 E0.30961
G1 X147.596 Y148.384 E0.0517
G1 X147.68 Y148.064 E0.01341
G1 X147.913 Y147.391 E0.02889
G1 X148.088 Y146.996 E0.01753
G1 X148.371 Y146.465 E0.02436
G1 X148.821 Y145.793 E0.03279
G1 X149.025 Y145.536 E0.01333
G1 X149.435 Y145.088 E0.02464
G1 X150.024 Y144.559 E0.03209
G1 X150.515 Y144.203 E0.0246
G1 X150.882 Y143.973 E0.01755
G1 X151.507 Y143.653 E0.02846
G1 X152.155 Y143.399 E0.02823
G1 X152.826 Y143.211 E0.02823
G1 X153.512 Y143.091 E0.02823
G1 X154.204 Y143.04 E0.02813
G1 X155 Y143.067 E0.0323
G1 X155.687 Y143.164 E0.02812
G1 X156.364 Y143.33 E0.0283
G1 X157.559 Y143.747 E0.05131
G1 X161.377 Y137.135 E0.30961
G1 X162.006 Y137.498 E0.02945
G1 X158.188 Y144.111 E0.30961
G1 X159.154 Y144.943 E0.0517
G1 X159.389 Y145.176 E0.01341
G1 X159.851 Y145.709 E0.02862
G1 X160.251 Y146.276 E0.02813
G1 X160.637 Y146.973 E0.03231
G1 X160.912 Y147.62 E0.02852
G1 X161.017 Y147.934 E0.01343
G1 X161.173 Y148.528 E0.02486
G1 X161.253 Y148.962 E0.01793
G1 X161.295 Y149.295 E0.01359
G1 X161.331 Y150 E0.02862
G1 X161.296 Y150.698 E0.02833
G1 X161.171 Y151.478 E0.03202
G1 X161.017 Y152.066 E0.02464
G1 X160.912 Y152.38 E0.01343
G1 X160.637 Y153.027 E0.02852
G1 X160.251 Y153.724 E0.0323
G1 X159.851 Y154.291 E0.02813
G1 X159.389 Y154.824 E0.02862
G1 X159.154 Y155.057 E0.01341
G1 X158.188 Y155.889 E0.0517
G1 X162.006 Y162.502 E0.30961
G1 X161.377 Y162.865 E0.02945
G1 X157.559 Y156.253 E0.30961
G1 X156.355 Y156.673 E0.0517
G1 X156.036 Y156.76 E0.01341
G1 X155.337 Y156.895 E0.02889
G1 X154.907 Y156.941 E0.01753
G1 X154.306 Y156.962 E0.02436
G1 X153.499 Y156.908 E0.03279
G1 X153.174 Y156.859 E0.01333
G1 X152.584 Y156.729 E0.02451
G1 X151.825 Y156.481 E0.03237
G1 X151.275 Y156.236 E0.02444
G1 X150.892 Y156.033 E0.01756
G1 X150.302 Y155.652 E0.02846
G1 X149.758 Y155.217 E0.02823
G1 X149.26 Y154.731 E0.02823
G1 X148.814 Y154.197 E0.02823
G1 X148.424 Y153.623 E0.02813
G1 X148.048 Y152.92 E0.03231
G1 X147.789 Y152.277 E0.02812
G1 X147.594 Y151.606 E0.0283
G1 X147.358 Y150.363 E0.05131
G1 X139.723 Y150.363 E0.30961
G1 X139.723 Y149.697 E0.02702
M204 S1000
G1 X139.296 Y149.21 F36000
;TYPE:External perimeter
G1 F900
G1 X147.005 Y149.21 E0.31258
G1 X147.18 Y148.29 E0.03799
G1 X147.272 Y147.94 E0.01467
G1 X147.435 Y147.469 E0.02021
G1 X147.516 Y147.235 E0.01004
G1 X147.704 Y146.809 E0.01888
G1 X148.004 Y146.246 E0.02587
G1 X148.136 Y146.049 E0.0096
G1 X148.476 Y145.542 E0.02476
G1 X148.701 Y145.259 E0.01463
G1 X149.135 Y144.785 E0.02609
G1 X149.477 Y144.462 E0.01906
G1 X149.756 Y144.227 E0.01479
G1 X150.044 Y144.018 E0.01444
G1 X150.277 Y143.849 E0.01166
G1 X150.672 Y143.602 E0.01889
G1 X151.332 Y143.264 E0.03007
G1 X151.848 Y143.062 E0.02247
G1 X152.02 Y142.994 E0.00749
G1 X152.731 Y142.795 E0.02996
G1 X153.022 Y142.744 E0.01199
G1 X153.459 Y142.667 E0.01798
G1 X153.668 Y142.652 E0.00851
G1 X154.195 Y142.614 E0.02141
G1 X155.037 Y142.641 E0.03415
G1 X155.199 Y142.664 E0.00665
G1 X155.767 Y142.745 E0.02327
G1 X156.486 Y142.921 E0.02999
G1 X157.366 Y143.229 E0.03782
G1 X161.221 Y136.552 E0.31258
G1 X161.318 Y136.608 E0.00453
G1 X162.588 Y137.342 E0.05949
G1 X159.367 Y142.921 E0.2612
G1 X158.734 Y144.018 E0.05137
G1 X159.444 Y144.629 E0.03799
G1 X159.701 Y144.884 E0.01467
G1 X160.187 Y145.446 E0.03014
G1 X160.511 Y145.905 E0.02277
G1 X160.612 Y146.049 E0.00715
G1 X161.021 Y146.786 E0.03415
G1 X161.031 Y146.809 E0.00103
G1 X161.31 Y147.469 E0.02906
G1 X161.426 Y147.812 E0.01468
G1 X161.589 Y148.434 E0.02609
G1 X161.675 Y148.897 E0.01906
G1 X161.69 Y149.017 E0.00493
G1 X161.72 Y149.258 E0.00982
G1 X161.758 Y150 E0.03014
G1 X161.72 Y150.742 E0.03014
G1 X161.69 Y150.983 E0.00982
G1 X161.675 Y151.103 E0.00493
G1 X161.603 Y151.488 E0.01589
G1 X161.589 Y151.566 E0.00318
G1 X161.426 Y152.188 E0.02609
G1 X161.31 Y152.531 E0.01468
G1 X161.021 Y153.214 E0.03009
G1 X160.612 Y153.951 E0.03415
G1 X160.511 Y154.095 E0.00715
G1 X160.187 Y154.554 E0.02277
G1 X159.701 Y155.116 E0.03014
G1 X159.444 Y155.371 E0.01467
G1 X158.734 Y155.982 E0.03799
G1 X162.588 Y162.658 E0.31258
G1 X161.221 Y163.448 E0.06403
G1 X157.366 Y156.771 E0.31258
G1 X156.482 Y157.081 E0.03799
G1 X156.133 Y157.176 E0.01467
G1 X155.4 Y157.317 E0.03026
G1 X154.937 Y157.367 E0.01888
G1 X154.447 Y157.383 E0.0199
G1 X154.299 Y157.388 E0.00597
G1 X153.454 Y157.332 E0.03437
G1 X153.097 Y157.279 E0.01464
G1 X152.472 Y157.141 E0.02596
G1 X152.059 Y157.006 E0.01758
G1 X151.672 Y156.879 E0.01654
G1 X151.088 Y156.619 E0.02593
G1 X151.004 Y156.575 E0.00384
G1 X150.676 Y156.401 E0.01506
G1 X150.053 Y155.998 E0.03007
G1 X149.476 Y155.537 E0.02996
G1 X148.947 Y155.021 E0.02996
G1 X148.736 Y154.769 E0.01332
G1 X148.473 Y154.454 E0.01665
G1 X148.058 Y153.843 E0.02992
G1 X147.662 Y153.1 E0.03415
G1 X147.386 Y152.416 E0.02992
G1 X147.179 Y151.706 E0.02999
G1 X147.005 Y150.79 E0.03782
G1 X139.296 Y150.79 E0.31258
G1 X139.296 Y149.27 E0.06159
;WIPE_START
M204 S1500
G1 X139.643 Y149.41 F36000
;WIPE_END
G1 X139.918 Y150
;TYPE:Gap fill
;WIDTH:0.388202
G1 F900
G1 X147.524 Y150 E0.24198
G1 X157.19 Y144.609 F36000
;TYPE:Solid infill
;WIDTH:0.467951
G1 F1200
G1 X158.991 Y146.41 E0.10065
G1 X159.659 Y147.681 E0.05676
G1 X156.62 Y144.642 E0.16987
G1 X155.787 Y144.412 E0.03416
G1 X159.996 Y148.621 E0.2353
G1 X160.064 Y149.292 E0.02666
G1 X154.954 Y144.182 E0.28566
G1 X154.907 Y144.169 E0.00196
G1 X154.397 Y144.228 E0.02026
G1 X160.132 Y149.963 E0.32059
G1 X160.195 Y150.58 E0.02452
G1 X160.182 Y150.616 E0.00151
G1 X153.857 Y144.291 E0.35359
G1 X153.317 Y144.354 E0.02149
G1 X160.028 Y151.064 E0.37512
G1 X159.873 Y151.512 E0.01874
G1 X152.777 Y144.417 E0.39666
G1 X152.51 Y144.448 E0.01063
G1 X152.322 Y144.565 E0.00875
G1 X159.718 Y151.96 E0.41345
G1 X159.563 Y152.408 E0.01874
G1 X151.95 Y144.796 E0.42558
G1 X151.579 Y145.027 E0.01731
G1 X159.408 Y152.857 E0.43771
G1 X159.312 Y153.137 E0.01173
G1 X159.2 Y153.251 E0.00631
G1 X151.207 Y145.258 E0.44686
G1 X150.835 Y145.489 E0.01731
G1 X158.903 Y153.557 E0.45101
G1 X158.605 Y153.862 E0.01685
G1 X150.463 Y145.72 E0.45517
G1 X150.213 Y145.876 E0.01166
G1 X150.134 Y145.994 E0.00561
G1 X158.308 Y154.168 E0.45693
G1 X158.01 Y154.473 E0.01685
G1 X149.894 Y146.357 E0.45372
G1 X149.654 Y146.72 E0.0172
G1 X157.713 Y154.779 E0.45051
G1 X157.416 Y155.084 E0.01685
G1 X149.414 Y147.083 E0.4473
G1 X149.174 Y147.446 E0.0172
G1 X156.992 Y155.264 E0.43705
G1 X156.527 Y155.402 E0.01917
G1 X148.936 Y147.811 E0.42437
G1 X148.82 Y148.297 E0.01977
G1 X156.062 Y155.54 E0.40489
G1 X155.597 Y155.678 E0.01917
G1 X148.703 Y148.784 E0.38541
G1 X148.586 Y149.27 E0.01977
G1 X155.12 Y155.804 E0.36527
G1 X154.521 Y155.807 E0.02371
G1 X148.47 Y149.756 E0.33825
G1 X148.412 Y149.998 E0.0098
G1 X148.519 Y150.408 E0.01678
G1 X153.921 Y155.81 E0.30198
G1 X153.627 Y155.812 E0.01162
G1 X153.185 Y155.678 E0.01825
G1 X148.731 Y151.223 E0.24903
G1 X148.942 Y152.038 E0.03327
G1 X152.319 Y155.414 E0.18876
G1 X151.762 Y155.245 E0.02301
G1 X150.906 Y154.605 E0.04225
G1 X148.978 Y152.676 E0.10782
G1 X157.791 Y155.927 F36000
;TYPE:Gap fill
;WIDTH:0.388191
G1 F900
G1 X157.874 Y156.072 E0.00532
G1 X159.692 Y159.221 E0.11567
G1 X161.51 Y162.369 E0.11567
G1 X161.593 Y162.514 E0.00532
G1 E-0.75 F3000
G1 Z0.65 F36000
G1 X157.791 Y144.073
G1 Z0.25
G1 E0.75 F1800
;WIDTH:0.388196
G1 F900
G1 X157.874 Y143.928 E0.00532
G1 X161.51 Y137.631 E0.23134
G1 X161.593 Y137.486 E0.00532
; INIT stop printing object lcd-knob.stl id:0 copy 0
;LAYER_CHANGE
;Z:0.45
;HEIGHT:0.2
;BEFORE_LAYER_CHANGE
;0.45
TIMELAPSE_TAKE_FRAME


; stop printing object lcd-knob.stl id:0 copy 0
G1 Z0.45 F36000
;AFTER_LAYER_CHANGE
;0.45
G92 E0
M104 S250 ; set temperature
; INIT printing object lcd-knob.stl id:0 copy 0
; printing object lcd-knob.stl id:0 copy 0
G1 X158.333 Y144.815
;TYPE:Internal perimeter
;WIDTH:0.48
G1 F9000
G1 X158.832 Y145.253 E0.02208
G1 X159.04 Y145.458 E0.00971
G1 X159.471 Y145.949 E0.02175
G1 X159.852 Y146.481 E0.02175
G1 X160.001 Y146.724 E0.00948
G1 X160.264 Y147.227 E0.01885
G1 X160.505 Y147.814 E0.02111
G1 X160.71 Y148.512 E0.02422
G1 X160.817 Y149.065 E0.01871
G1 X160.852 Y149.347 E0.00944
G1 X160.883 Y150 E0.02175
G1 X160.852 Y150.653 E0.02175
G1 X160.817 Y150.935 E0.00944
G1 X160.71 Y151.488 E0.01871
G1 X160.505 Y152.186 E0.02422
G1 X160.264 Y152.773 E0.02111
G1 X160.001 Y153.276 E0.01885
G1 X159.852 Y153.519 E0.00948
G1 X159.471 Y154.051 E0.02175
G1 X159.04 Y154.542 E0.02175
G1 X158.832 Y154.747 E0.00971
G1 X157.688 Y155.75 E0.05059
G1 X156.248 Y156.239 E0.05059
G1 X155.963 Y156.318 E0.00983
G1 X155.393 Y156.434 E0.01935
G1 X155.022 Y156.483 E0.01242
G1 X154.37 Y156.515 E0.02171
G1 X153.804 Y156.491 E0.01885
G1 X153.526 Y156.461 E0.0093
G1 X152.792 Y156.321 E0.02484
G1 X152.275 Y156.169 E0.01792
G1 X151.597 Y155.895 E0.0243
G1 X151.113 Y155.644 E0.01813
G1 X150.577 Y155.298 E0.02123
G1 X150.079 Y154.904 E0.02113
G1 X149.622 Y154.462 E0.02113
G1 X149.21 Y153.979 E0.02113
G1 X148.844 Y153.453 E0.02129
G1 X148.573 Y152.977 E0.01823
G1 X148.309 Y152.394 E0.02128
G1 X148.099 Y151.774 E0.02175
G1 X148.025 Y151.492 E0.00971
G1 X147.729 Y150 E0.05059
G1 X148.025 Y148.508 E0.05059
G1 X148.1 Y148.222 E0.00983
G1 X148.284 Y147.67 E0.01935
G1 X148.427 Y147.325 E0.01242
G1 X148.725 Y146.744 E0.02171
G1 X149.029 Y146.266 E0.01885
G1 X149.194 Y146.04 E0.0093
G1 X149.683 Y145.474 E0.02484
G1 X150.072 Y145.102 E0.01792
G1 X150.649 Y144.653 E0.0243
G1 X151.108 Y144.359 E0.01813
G1 X151.676 Y144.067 E0.02123
G1 X152.267 Y143.833 E0.02113
G1 X152.877 Y143.658 E0.02113
G1 X153.502 Y143.543 E0.02113
G1 X154.14 Y143.489 E0.0213
G1 X154.688 Y143.493 E0.01823
G1 X155.325 Y143.556 E0.02128
G1 X155.967 Y143.683 E0.02175
G1 X156.248 Y143.761 E0.00971
G1 X157.688 Y144.25 E0.05058
G1 X158.288 Y144.775 E0.02651
M107
G1 X158.449 Y143.442 F36000
G1 F9000
G1 X158.106 Y144.035 E0.02277
G1 X159.13 Y144.932 E0.04527
G1 X159.358 Y145.157 E0.01066
G1 X159.814 Y145.677 E0.02299
G1 X160.217 Y146.239 E0.02299
G1 X160.381 Y146.509 E0.0105
G1 X160.66 Y147.042 E0.02
G1 X160.918 Y147.668 E0.02253
G1 X161.136 Y148.409 E0.02568
G1 X161.249 Y148.997 E0.0199
G1 X161.287 Y149.309 E0.01047
G1 X161.321 Y150 E0.02299
G1 X161.287 Y150.691 E0.02299
G1 X161.249 Y151.003 E0.01047
G1 X161.136 Y151.591 E0.0199
G1 X160.918 Y152.332 E0.02568
G1 X160.66 Y152.958 E0.02253
G1 X160.381 Y153.491 E0.02
G1 X160.217 Y153.761 E0.0105
G1 X159.814 Y154.323 E0.02299
G1 X159.358 Y154.843 E0.02299
G1 X159.13 Y155.068 E0.01066
G1 X158.106 Y155.965 E0.04527
G1 X161.948 Y162.62 E0.25553
G1 X161.507 Y162.874 E0.01693
G1 X157.665 Y156.22 E0.25553
G1 X156.376 Y156.657 E0.04527
G1 X156.065 Y156.743 E0.01075
G1 X155.465 Y156.865 E0.02036
G1 X155.062 Y156.918 E0.01352
G1 X154.372 Y156.952 E0.02297
G1 X153.771 Y156.927 E0.02
G1 X153.461 Y156.893 E0.01037
G1 X152.689 Y156.746 E0.02612
G1 X152.131 Y156.583 E0.01935
G1 X151.414 Y156.292 E0.02572
G1 X150.894 Y156.022 E0.0195
G1 X150.322 Y155.654 E0.02262
G1 X149.791 Y155.233 E0.02255
G1 X149.303 Y154.762 E0.02255
