; generated by SuperSlicer 2.5.59 on 2022-09-06 at 14:52:16 UTC


;
;

;
;
; 

; external perimeters extrusion width = 0.50mm
; perimeters extrusion width = 0.50mm
; infill extrusion width = 0.50mm
; solid infill extrusion width = 0.56mm
; top infill extrusion width = 0.40mm

; object:{"name":"lcd_cover_lgbt_bear_paw","id":"lcd_cover_lgbt_bear_paw.stl id:0 copy 0","object_center":[150.000000,150.000000,0.000000],"boundingbox_center":[150.000000,150.000000,12.699999],"boundingbox_size":[150.845106,150.845106,25.399998]}
; plater:{"center":[150.000000,150.000000,0.000000],"boundingbox_center":[150.000000,150.000000,12.699999],"boundingbox_size":[150.845106,150.845106,25.399998]}

M73 P0 R90
;TYPE:Custom
; custom gcode: start_gcode
PRINT_START EXTRUDER=250 BED=110 AREA_START=75.9354,79.8615 AREA_END=220.138,224.065
; custom gcode end: start_gcode
M107
G21 ; set units to millimeters
G90 ; use absolute coordinates
M83 ; use relative distances for extrusion
; custom gcode: start_filament_gcode
; Filament gcode
SET_PRESSURE_ADVANCE ADVANCE=0.03
SET_PRESSURE_ADVANCE EXTRUDER=extruder SMOOTH_TIME=0.04
; custom gcode end: start_filament_gcode
;_TOOLCHANGE 0
M104 S250 ; set temperature
M109 S250 ; set temperature and wait for it to be reached
M190 S110 ; set bed temperature and wait for it to be reached
;LAYER_CHANGE
;Z:0.24
;HEIGHT:0.24
G1 Z0.24 F36000
G92 E0
M73 P0 R89
G1 E-0.5 F1800
; printing object lcd_cover_lgbt_bear_paw.stl id:0 copy 0
M204 S2000
G1 X109.682 Y96.611 F36000
G1 E0.5 F1800
;TYPE:Internal perimeter
;WIDTH:0.5
G1 X109.595 Y96.997 E0.01769
G1 X109.332 Y97.018 E0.0118
G1 X109.28 Y96.89 E0.00618
G1 X109.104 Y96.588 E0.01566
G1 X109.682 Y96.611 E0.02587
G1 E-0.5
; acceleration to travel
M204 S10000
G1 X170.12 Y187.624 F36000
; decel to extrusion
M204 S2000
G1 X182.207 Y205.826
; end travel
G1 E0.5 F1800
G1 X182.207 Y203.88 E0.08706
G1 X184.153 Y205.826 E0.12313
G1 X182.207 Y205.826 E0.08706
G1 E-0.5
G1 X182.207 Y212.326 F36000
G1 E0.5 F1800
G1 X182.207 Y209.926 E0.10739
G1 X184.81 Y209.926 E0.11646
G1 X184.81 Y206.483 E0.1541
G1 X186.24 Y207.913 E0.09051
G1 X186.24 Y208.795 E0.03946
G1 X185.108 Y209.926 E0.07162
G1 X182.709 Y212.326 E0.15187
G1 X182.207 Y212.326 E0.02243
G1 E-0.5
G1 X178.107 Y211.872 F36000
G1 E0.5 F1800
G1 X176.161 Y209.926 E0.12313
G1 X178.107 Y209.926 E0.08706
G1 X178.107 Y211.872 E0.08706
G1 E-0.5
G1 X177.279 Y215.422 F36000
G1 E0.5 F1800
G1 X183.991 Y215.422 E0.3004
G1 X189.336 Y210.077 E0.33828
G1 X189.336 Y206.63 E0.15425
G1 X177.388 Y194.683 E0.75615
G1 X176.294 Y195.777 E0.06928
G1 X175.199 Y196.872 E0.06928
G1 X181.55 Y203.224 E0.40197
G1 X180.559 Y203.224 E0.04438
G1 X178.107 Y203.224 E0.10972
G1 X178.107 Y205.826 E0.11646
G1 X175.505 Y205.826 E0.11646
G1 X175.505 Y209.269 E0.1541
G1 X169.153 Y202.918 E0.40197
G1 X166.964 Y205.107 E0.13857
G1 X177.279 Y215.422 E0.65281
G1 X177.333 Y214.843 F36000
G1 F1800
G1 X177.464 Y214.974 E0.00831
G1 X183.805 Y214.974 E0.28377
G1 X188.888 Y209.892 E0.32165
G1 X188.888 Y206.816 E0.13762
G1 X177.388 Y195.317 E0.72777
G1 X176.611 Y196.094 E0.04921
G1 X175.833 Y196.872 E0.04921
G1 X186.688 Y207.727 E0.687
G1 X186.688 Y208.981 E0.05609
G1 X182.894 Y212.775 E0.24011
G1 X178.375 Y212.775 E0.20223
G1 X169.153 Y203.552 E0.58366
G1 X167.598 Y205.107 E0.09843
G1 X177.333 Y214.843 E0.61612
M204 S1000
G1 X177.65 Y214.525 F36000
;TYPE:External perimeter
G1 F1800
G1 X183.62 Y214.525 E0.26714
G1 X188.439 Y209.706 E0.30503
G1 X188.439 Y207.002 E0.121
G1 X177.388 Y195.951 E0.69939
G1 X176.928 Y196.412 E0.02914
G1 X176.467 Y196.872 E0.02914
G1 X187.137 Y207.541 E0.67524
G1 X187.137 Y209.166 E0.07271
G1 X183.08 Y213.223 E0.25674
G1 X178.19 Y213.223 E0.21886
G1 X169.153 Y204.186 E0.5719
G1 X168.232 Y205.107 E0.05828
G1 X177.65 Y214.525 E0.59604
;WIPE_START
M204 S4000
G1 X177.754 Y214.912 F36000
;WIPE_END
G1 E-0.5 F1800
M204 S2000
G1 X178.555 Y212.08 F36000
G1 E0.5 F1800
;TYPE:Internal perimeter
G1 X181.759 Y212.08 E0.14336
G1 X181.759 Y209.478 E0.11646
G1 X184.361 Y209.478 E0.11646
G1 X184.361 Y206.274 E0.14336
G1 X181.759 Y206.274 E0.11646
G1 X181.759 Y203.672 E0.11646
G1 X180.559 Y203.672 E0.05371
G1 X178.555 Y203.672 E0.08965
G1 X178.555 Y206.274 E0.11646
G1 X175.953 Y206.274 E0.11646
G1 X175.953 Y209.478 E0.14336
G1 X178.555 Y209.478 E0.11646
G1 X178.555 Y212.08 E0.11646
M204 S1000
G1 X179.004 Y211.632 F36000
;TYPE:External perimeter
G1 F1800
G1 X181.31 Y211.632 E0.10321
G1 X181.31 Y209.029 E0.11646
G1 X183.913 Y209.029 E0.11646
G1 X183.913 Y206.723 E0.10321
G1 X181.31 Y206.723 E0.11646
G1 X181.31 Y204.121 E0.11646
G1 X180.559 Y204.121 E0.03364
G1 X179.004 Y204.121 E0.06958
G1 X179.004 Y206.723 E0.11646
G1 X176.402 Y206.723 E0.11646
G1 X176.402 Y209.029 E0.10321
G1 X179.004 Y209.029 E0.11646
G1 X179.004 Y211.632 E0.11646
;WIPE_START
M204 S4000
G1 X179.004 Y212.032 F36000
;WIPE_END
G1 E-0.5 F1800
M204 S2000
G1 X185.258 Y209.142 F36000
G1 E0.5 F1800
;TYPE:Internal perimeter
G1 X185.258 Y207.566 E0.07055
G1 X185.791 Y208.099 E0.03374
G1 X185.791 Y208.609 E0.02283
G1 X185.258 Y209.142 E0.03374
G1 X184.025 Y210.375 F36000
G1 F1800
G1 X182.656 Y211.744 E0.08668
G1 X182.656 Y210.375 E0.06129
G1 X184.025 Y210.375 E0.06129
G1 E-0.5
; acceleration to travel
M204 S10000
G1 X189.305 Y204.979 F36000
; decel to extrusion
M204 S2000
G1 X190.361 Y203.899
; end travel
G1 E0.5 F1800
G1 X190.39 Y203.904 E0.00132
G1 X190.863 Y203.951 E0.02129
G1 X191.339 Y203.966 E0.0213
G1 X191.814 Y203.951 E0.02129
G1 X192.288 Y203.904 E0.02129
G1 X192.757 Y203.827 E0.02129
G1 X193.221 Y203.719 E0.02129
G1 X193.676 Y203.58 E0.02129
G1 X194.122 Y203.413 E0.0213
G1 X194.555 Y203.216 E0.02129
G1 X194.975 Y202.992 E0.0213
G1 X195.379 Y202.741 E0.02129
G1 X195.766 Y202.464 E0.02129
G1 X196.133 Y202.162 E0.0213
G1 X196.466 Y201.85 E0.02038
G1 X198.27 Y200.047 E0.11416
G1 X198.581 Y199.714 E0.02038
G1 X198.883 Y199.346 E0.0213
G1 X199.16 Y198.96 E0.02129
G1 X199.411 Y198.556 E0.02129
G1 X199.636 Y198.136 E0.02129
G1 X199.832 Y197.702 E0.0213
G1 X200 Y197.257 E0.02129
G1 X200.138 Y196.802 E0.0213
G1 X200.246 Y196.338 E0.02129
G1 X200.323 Y195.869 E0.02129
G1 X200.37 Y195.395 E0.02129
G1 X200.385 Y194.92 E0.0213
G1 X200.37 Y194.444 E0.02129
G1 X200.323 Y193.97 E0.0213
G1 X200.246 Y193.501 E0.02129
G1 X200.138 Y193.038 E0.0213
G1 X200 Y192.582 E0.0213
G1 X199.832 Y192.137 E0.02129
G1 X199.636 Y191.703 E0.0213
G1 X199.411 Y191.284 E0.02129
G1 X199.16 Y190.88 E0.0213
G1 X198.883 Y190.493 E0.02129
G1 X198.581 Y190.125 E0.0213
G1 X198.256 Y189.778 E0.02129
G1 X197.908 Y189.452 E0.0213
G1 X197.54 Y189.151 E0.02129
G1 X197.154 Y188.873 E0.0213
G1 X196.75 Y188.622 E0.0213
G1 X196.33 Y188.398 E0.02129
G1 X195.896 Y188.201 E0.0213
G1 X195.451 Y188.034 E0.0213
G1 X194.996 Y187.896 E0.02129
G1 X194.532 Y187.788 E0.02129
G1 X194.063 Y187.71 E0.02129
G1 X193.589 Y187.663 E0.0213
G1 X193.114 Y187.648 E0.02129
G1 X192.638 Y187.663 E0.02129
G1 X192.165 Y187.71 E0.02129
G1 X191.695 Y187.788 E0.0213
G1 X191.232 Y187.896 E0.02129
G1 X190.776 Y188.034 E0.0213
G1 X190.331 Y188.201 E0.0213
G1 X189.897 Y188.398 E0.02129
G1 X189.478 Y188.622 E0.0213
G1 X189.074 Y188.873 E0.02129
G1 X188.687 Y189.151 E0.02129
G1 X188.305 Y189.464 E0.02209
G1 X186.185 Y191.565 E0.13361
G1 X185.872 Y191.9 E0.02051
G1 X185.57 Y192.268 E0.0213
G1 X185.293 Y192.655 E0.02129
G1 X185.041 Y193.059 E0.0213
G1 X184.817 Y193.478 E0.02129
G1 X184.621 Y193.912 E0.0213
G1 X184.453 Y194.357 E0.02129
G1 X184.315 Y194.812 E0.0213
G1 X184.207 Y195.276 E0.02129
G1 X184.129 Y195.745 E0.02129
G1 X184.083 Y196.219 E0.02129
G1 X184.067 Y196.695 E0.0213
G1 X184.083 Y197.17 E0.0213
G1 X184.129 Y197.644 E0.02129
G1 X184.207 Y198.113 E0.02129
G1 X184.315 Y198.577 E0.0213
G1 X184.453 Y199.032 E0.0213
G1 X184.621 Y199.477 E0.02129
G1 X184.817 Y199.911 E0.0213
G1 X185.041 Y200.33 E0.02129
G1 X185.293 Y200.734 E0.0213
G1 X185.57 Y201.121 E0.0213
G1 X185.872 Y201.489 E0.02129
G1 X186.197 Y201.836 E0.02129
G1 X186.544 Y202.162 E0.02129
G1 X186.912 Y202.464 E0.02129
G1 X187.299 Y202.741 E0.02129
G1 X187.703 Y202.992 E0.0213
G1 X188.123 Y203.216 E0.02129
G1 X188.556 Y203.413 E0.02129
G1 X189.001 Y203.58 E0.0213
G1 X189.457 Y203.719 E0.02129
G1 X189.92 Y203.827 E0.0213
G1 X190.361 Y203.899 E0.01998
G1 X190.448 Y203.459 F36000
G1 F1800
G1 X190.893 Y203.503 E0.01998
G1 X191.339 Y203.518 E0.01998
G1 X191.785 Y203.503 E0.01998
G1 X192.229 Y203.459 E0.01998
G1 X192.67 Y203.386 E0.01998
G1 X193.105 Y203.285 E0.01998
G1 X193.532 Y203.155 E0.01998
G1 X193.95 Y202.998 E0.01998
G1 X194.357 Y202.814 E0.01998
G1 X194.75 Y202.603 E0.01998
G1 X195.129 Y202.368 E0.01998
G1 X195.492 Y202.108 E0.01998
G1 X195.838 Y201.824 E0.01998
G1 X196.154 Y201.528 E0.01939
G1 X197.947 Y199.735 E0.1135
G1 X198.244 Y199.418 E0.01939
G1 X198.527 Y199.073 E0.01998
G1 X198.787 Y198.71 E0.01998
G1 X199.023 Y198.331 E0.01998
G1 X199.233 Y197.937 E0.01998
G1 X199.417 Y197.531 E0.01998
G1 X199.575 Y197.113 E0.01998
G1 X199.704 Y196.686 E0.01998
G1 X199.806 Y196.251 E0.01998
G1 X199.878 Y195.81 E0.01998
G1 X199.922 Y195.366 E0.01998
G1 X199.937 Y194.92 E0.01998
G1 X199.922 Y194.473 E0.01998
G1 X199.878 Y194.029 E0.01998
G1 X199.806 Y193.589 E0.01998
G1 X199.704 Y193.154 E0.01998
G1 X199.575 Y192.726 E0.01998
G1 X199.417 Y192.309 E0.01998
G1 X199.233 Y191.902 E0.01998
G1 X199.023 Y191.508 E0.01998
G1 X198.787 Y191.129 E0.01998
G1 X198.527 Y190.766 E0.01998
G1 X198.244 Y190.421 E0.01998
G1 X197.938 Y190.095 E0.01998
G1 X197.612 Y189.79 E0.01998
G1 X197.267 Y189.507 E0.01998
G1 X196.904 Y189.247 E0.01998
G1 X196.525 Y189.011 E0.01998
G1 X196.131 Y188.8 E0.01998
G1 X195.725 Y188.616 E0.01998
G1 X195.307 Y188.459 E0.01998
G1 X194.88 Y188.329 E0.01998
G1 X194.445 Y188.228 E0.01998
G1 X194.004 Y188.155 E0.01998
G1 X193.56 Y188.111 E0.01998
G1 X193.114 Y188.097 E0.01998
G1 X192.667 Y188.111 E0.01998
G1 X192.223 Y188.155 E0.01998
G1 X191.783 Y188.228 E0.01998
G1 X191.348 Y188.329 E0.01998
G1 X190.921 Y188.459 E0.01998
G1 X190.503 Y188.616 E0.01998
G1 X190.096 Y188.8 E0.01998
G1 X189.702 Y189.011 E0.01998
G1 X189.323 Y189.247 E0.01998
G1 X188.96 Y189.507 E0.01998
G1 X188.606 Y189.797 E0.02049
G1 X186.507 Y191.878 E0.1323
G1 X186.209 Y192.196 E0.01948
G1 X185.926 Y192.541 E0.01998
G1 X185.666 Y192.904 E0.01998
G1 X185.43 Y193.283 E0.01998
G1 X185.219 Y193.677 E0.01998
G1 X185.035 Y194.083 E0.01998
G1 X184.878 Y194.501 E0.01998
G1 X184.748 Y194.929 E0.01998
G1 X184.647 Y195.363 E0.01998
G1 X184.574 Y195.804 E0.01998
G1 X184.53 Y196.248 E0.01998
G1 X184.516 Y196.695 E0.01998
G1 X184.53 Y197.141 E0.01998
G1 X184.574 Y197.585 E0.01998
G1 X184.647 Y198.026 E0.01998
G1 X184.748 Y198.46 E0.01998
G1 X184.878 Y198.888 E0.01998
G1 X185.035 Y199.306 E0.01998
G1 X185.219 Y199.712 E0.01998
G1 X185.43 Y200.106 E0.01998
G1 X185.666 Y200.485 E0.01998
G1 X185.926 Y200.848 E0.01998
G1 X186.209 Y201.193 E0.01998
G1 X186.514 Y201.519 E0.01998
G1 X186.84 Y201.824 E0.01998
G1 X187.185 Y202.108 E0.01998
G1 X187.548 Y202.368 E0.01998
G1 X187.927 Y202.603 E0.01998
G1 X188.321 Y202.814 E0.01998
G1 X188.728 Y202.998 E0.01998
G1 X189.146 Y203.155 E0.01998
G1 X189.573 Y203.285 E0.01998
G1 X190.008 Y203.386 E0.01998
G1 X190.448 Y203.459 E0.01998
M204 S1000
G1 X190.507 Y203.014 F36000
;TYPE:External perimeter
G1 F1800
G1 X190.922 Y203.055 E0.01867
G1 X191.339 Y203.069 E0.01867
G1 X191.756 Y203.055 E0.01867
G1 X192.171 Y203.014 E0.01867
G1 X192.582 Y202.946 E0.01867
G1 X192.989 Y202.852 E0.01867
G1 X193.388 Y202.731 E0.01867
G1 X193.778 Y202.584 E0.01867
G1 X194.158 Y202.411 E0.01867
G1 X194.526 Y202.215 E0.01867
G1 X194.88 Y201.995 E0.01867
G1 X195.219 Y201.752 E0.01867
G1 X195.542 Y201.487 E0.01867
G1 X195.842 Y201.206 E0.01841
G1 X197.625 Y199.423 E0.11284
G1 X197.906 Y199.123 E0.01841
G1 X198.171 Y198.8 E0.01867
G1 X198.414 Y198.461 E0.01867
G1 X198.634 Y198.107 E0.01867
G1 X198.831 Y197.739 E0.01867
G1 X199.003 Y197.359 E0.01867
G1 X199.15 Y196.969 E0.01867
G1 X199.271 Y196.569 E0.01867
G1 X199.366 Y196.163 E0.01867
G1 X199.433 Y195.752 E0.01867
G1 X199.474 Y195.337 E0.01867
G1 X199.488 Y194.92 E0.01867
G1 X199.474 Y194.503 E0.01867
G1 X199.433 Y194.088 E0.01867
G1 X199.366 Y193.676 E0.01867
G1 X199.271 Y193.27 E0.01867
G1 X199.15 Y192.871 E0.01867
G1 X199.003 Y192.48 E0.01867
G1 X198.831 Y192.1 E0.01867
G1 X198.634 Y191.733 E0.01867
G1 X198.414 Y191.378 E0.01867
G1 X198.171 Y191.039 E0.01867
G1 X197.906 Y190.717 E0.01867
G1 X197.621 Y190.412 E0.01867
G1 X197.317 Y190.127 E0.01867
G1 X196.994 Y189.863 E0.01867
G1 X196.655 Y189.62 E0.01867
G1 X196.301 Y189.399 E0.01867
G1 X195.933 Y189.203 E0.01867
G1 X195.553 Y189.031 E0.01867
G1 X195.163 Y188.884 E0.01867
G1 X194.763 Y188.763 E0.01867
G1 X194.357 Y188.668 E0.01867
G1 X193.946 Y188.6 E0.01867
G1 X193.531 Y188.559 E0.01867
G1 X193.114 Y188.545 E0.01867
G1 X192.697 Y188.559 E0.01867
G1 X192.282 Y188.6 E0.01867
G1 X191.87 Y188.668 E0.01867
G1 X191.464 Y188.763 E0.01867
G1 X191.065 Y188.884 E0.01867
G1 X190.674 Y189.031 E0.01867
G1 X190.294 Y189.203 E0.01867
G1 X189.927 Y189.399 E0.01867
G1 X189.572 Y189.62 E0.01867
G1 X189.233 Y189.863 E0.01867
G1 X188.907 Y190.13 E0.01889
G1 X186.828 Y192.191 E0.13099
G1 X186.546 Y192.492 E0.01845
G1 X186.282 Y192.814 E0.01867
G1 X186.039 Y193.153 E0.01867
G1 X185.819 Y193.507 E0.01867
G1 X185.622 Y193.875 E0.01867
G1 X185.45 Y194.255 E0.01867
G1 X185.303 Y194.646 E0.01867
G1 X185.182 Y195.045 E0.01867
G1 X185.087 Y195.451 E0.01867
G1 X185.019 Y195.863 E0.01867
G1 X184.978 Y196.278 E0.01867
G1 X184.965 Y196.695 E0.01867
G1 X184.978 Y197.111 E0.01867
G1 X185.019 Y197.527 E0.01867
G1 X185.087 Y197.938 E0.01867
G1 X185.182 Y198.344 E0.01867
G1 X185.303 Y198.743 E0.01867
G1 X185.45 Y199.134 E0.01867
G1 X185.622 Y199.514 E0.01867
G1 X185.819 Y199.882 E0.01867
G1 X186.039 Y200.236 E0.01867
G1 X186.282 Y200.575 E0.01867
G1 X186.546 Y200.897 E0.01867
G1 X186.832 Y201.202 E0.01867
G1 X187.136 Y201.487 E0.01867
G1 X187.458 Y201.752 E0.01867
G1 X187.797 Y201.995 E0.01867
G1 X188.152 Y202.215 E0.01867
G1 X188.52 Y202.411 E0.01867
G1 X188.899 Y202.584 E0.01867
G1 X189.29 Y202.731 E0.01867
G1 X189.689 Y202.852 E0.01867
G1 X190.095 Y202.946 E0.01867
G1 X190.507 Y203.014 E0.01867
;WIPE_START
M204 S4000
G1 X190.664 Y203.382 F36000
;WIPE_END
G1 E-0.5 F1800
; acceleration to travel
M204 S10000
G1 X125.419 Y122.982 F36000
; decel to extrusion
M204 S2000
G1 X112.37 Y106.902
; end travel
G1 E0.5 F1800
;TYPE:Internal perimeter
G1 X113.143 Y106.731 E0.03544
G1 X113.744 Y106.518 E0.02852
G1 X114.581 Y106.098 E0.0419
G1 X115.202 Y105.739 E0.03214
G1 X115.394 Y105.989 E0.01408
G1 X94.227 Y127.155 E1.33959
G1 X155.096 Y188.024 E3.85225
G1 X180.468 Y162.653 E1.60571
G1 X122.227 Y104.415 E3.68581
G1 X122.941 Y104.026 E0.03641
G1 X123.291 Y103.782 E0.01905
G1 X123.793 Y103.339 E0.02999
G1 X124.089 Y103.007 E0.01988
G1 X124.483 Y102.436 E0.03106
G1 X124.689 Y102.037 E0.02008
G1 X124.92 Y101.431 E0.02903
G1 X125.072 Y100.685 E0.03408
G1 X125.097 Y100.099 E0.02626
G1 X125.02 Y99.398 E0.03157
G1 X124.881 Y98.923 E0.02214
G1 X124.621 Y98.359 E0.02777
G1 X124.187 Y97.733 E0.03412
G1 X123.733 Y97.27 E0.02899
G1 X123.956 Y96.89 E0.01973
G1 X124.192 Y96.328 E0.02726
G1 X124.396 Y95.531 E0.03683
G1 X124.44 Y94.753 E0.03485
G1 X124.382 Y93.983 E0.03458
G1 X124.347 Y93.814 E0.00772
G1 X124.582 Y93.687 E0.01194
G1 X217.918 Y187.023 E5.90697
G1 X183.132 Y221.808 E2.20149
M73 P1 R89
G1 X177.195 Y215.871 E0.37576
G1 X184.177 Y215.871 E0.31245
G1 X189.785 Y210.263 E0.35491
G1 X189.785 Y206.445 E0.17088
G1 X186.378 Y203.038 E0.21559
G1 X186.592 Y202.786 E0.01479
G1 X187.05 Y203.114 E0.02518
G1 X187.479 Y203.381 E0.02261
G1 X187.924 Y203.619 E0.02261
G1 X188.384 Y203.827 E0.02261
G1 X188.857 Y204.005 E0.02261
G1 X189.341 Y204.152 E0.02261
G1 X189.833 Y204.267 E0.02261
G1 X190.331 Y204.349 E0.02261
G1 X190.834 Y204.398 E0.02261
G1 X191.339 Y204.415 E0.02261
G1 X191.844 Y204.398 E0.02261
G1 X192.347 Y204.349 E0.02261
G1 X192.845 Y204.267 E0.02261
G1 X193.337 Y204.152 E0.02261
G1 X193.82 Y204.005 E0.02261
G1 X194.293 Y203.827 E0.02261
G1 X194.754 Y203.619 E0.02261
G1 X195.199 Y203.381 E0.02261
