; generated by SuperSlicer 2.4 on 2022-06-10 at 01:21:20 UTC


;
;

;
;
; 

; external perimeters extrusion width = 0.40mm
; perimeters extrusion width = 0.48mm
; infill extrusion width = 0.60mm
; solid infill extrusion width = 0.56mm
; top infill extrusion width = 0.40mm
; first layer extrusion width = 0.48mm

; object:{"name":"M2_Nut_Adapter_Rotated_x6","id":"M2_Nut_Adapter_Rotated_x6.stl id:0 copy 0","object_center":[150.000000,150.000000,0.000000],"boundingbox_center":[150.000000,150.000000,1.200000],"boundingbox_size":[5.500000,145.000000,2.400000]}
; plater:{"center":[150.000000,150.000000,0.000000],"boundingbox_center":[150.000000,150.000000,1.200000],"boundingbox_size":[5.500000,145.000000,2.400000]}

;TYPE:Custom
print_start EXTRUDER=255 BED=110 CHAMBER=50
M107
G21 ; set units to millimeters
G90 ; use absolute coordinates
M83 ; use relative distances for extrusion
; Filament gcode
SET_PRESSURE_ADVANCE ADVANCE=0.055
M104 S255 ; set temperature
M109 S255 ; set temperature and wait for it to be reached
M190 S110 ; set bed temperature and wait for it to be reached
M107
;LAYER_CHANGE
;Z:0.25
;HEIGHT:0.25
;BEFORE_LAYER_CHANGE
;0.25
TIMELAPSE_TAKE_FRAME


G1 Z0.25 F36000
;AFTER_LAYER_CHANGE
;0.25
G92 E0
; INIT printing object M2_Nut_Adapter_Rotated_x6.stl id:0 copy 0
G1 E-0.75 F3000
M204 S1500
G1 Z0.65 F36000
; printing object M2_Nut_Adapter_Rotated_x6.stl id:0 copy 0
G1 X150.111 Y169.77
G1 Z0.25
G1 E0.75 F1800
;TYPE:Internal perimeter
;WIDTH:0.48
G1 F900
G1 X150 Y169.76 E0.00457
G1 X149.509 Y169.803 E0.02013
G1 X149.034 Y169.931 E0.02006
G1 X149.034 Y160.19 E0.39754
G1 X149.509 Y160.317 E0.02006
G1 X150 Y160.36 E0.02013
G1 X150.491 Y160.317 E0.02013
G1 X150.966 Y160.19 E0.02006
G1 X150.966 Y169.931 E0.39754
G1 X150.491 Y169.803 E0.02006
G1 X150.171 Y169.775 E0.01312
G1 X150.074 Y170.195 F36000
G1 F900
G1 X150 Y170.188 E0.00304
G1 X149.583 Y170.225 E0.01709
G1 X149.178 Y170.333 E0.01709
G1 X148.607 Y170.599 E0.02572
G1 X148.607 Y159.521 E0.45214
G1 X149.178 Y159.787 E0.02572
G1 X149.583 Y159.896 E0.01709
G1 X150 Y159.932 E0.01709
G1 X150.417 Y159.896 E0.01709
G1 X150.822 Y159.787 E0.01709
G1 X151.393 Y159.521 E0.02572
G1 X151.393 Y170.599 E0.45214
G1 X150.822 Y170.333 E0.02572
G1 X150.417 Y170.225 E0.01709
G1 X150.134 Y170.2 E0.0116
G1 X150.037 Y170.62 F36000
G1 F900
G1 X150 Y170.616 E0.00152
G1 X149.657 Y170.646 E0.01404
G1 X149.325 Y170.735 E0.01404
G1 X149.013 Y170.881 E0.01404
G1 X148.731 Y171.078 E0.01404
G1 X148.488 Y171.321 E0.01404
G1 X148.42 Y171.419 E0.00486
G1 X148.181 Y171.344 E0.01021
G1 X148.181 Y158.777 E0.51289
G1 X148.42 Y158.702 E0.01021
G1 X148.488 Y158.799 E0.00486
G1 X148.731 Y159.042 E0.01404
G1 X149.013 Y159.24 E0.01404
G1 X149.325 Y159.385 E0.01404
G1 X149.657 Y159.474 E0.01404
G1 X150 Y159.504 E0.01404
G1 X150.343 Y159.474 E0.01404
G1 X150.675 Y159.385 E0.01404
G1 X150.987 Y159.24 E0.01404
G1 X151.269 Y159.042 E0.01404
G1 X151.512 Y158.799 E0.01404
G1 X151.58 Y158.702 E0.00486
G1 X151.819 Y158.777 E0.01021
G1 X151.819 Y171.344 E0.51289
G1 X151.58 Y171.419 E0.01021
G1 X151.512 Y171.321 E0.00486
G1 X151.269 Y171.078 E0.01404
G1 X150.987 Y170.881 E0.01404
G1 X150.675 Y170.735 E0.01404
G1 X150.343 Y170.646 E0.01404
G1 X150.097 Y170.625 E0.01007
G1 E-0.75 F3000
G1 Z0.65 F36000
G1 X150.111 Y184.83
G1 Z0.25
G1 E0.75 F1800
G1 F900
G1 X150 Y184.821 E0.00457
G1 X149.509 Y184.864 E0.02013
G1 X149.034 Y184.991 E0.02006
G1 X149.034 Y175.25 E0.39754
G1 X149.509 Y175.377 E0.02006
G1 X150 Y175.42 E0.02013
G1 X150.491 Y175.377 E0.02013
G1 X150.966 Y175.25 E0.02006
G1 X150.966 Y184.991 E0.39754
G1 X150.491 Y184.864 E0.02006
G1 X150.171 Y184.836 E0.01312
G1 X150.074 Y185.255 F36000
G1 F900
G1 X150 Y185.249 E0.00304
G1 X149.583 Y185.285 E0.01709
G1 X149.178 Y185.393 E0.01709
G1 X148.607 Y185.66 E0.02572
G1 X148.607 Y174.581 E0.45214
G1 X149.178 Y174.848 E0.02572
G1 X149.583 Y174.956 E0.01709
G1 X150 Y174.992 E0.01709
G1 X150.417 Y174.956 E0.01709
G1 X150.822 Y174.848 E0.01709
G1 X151.393 Y174.581 E0.02572
G1 X151.393 Y185.66 E0.45214
G1 X150.822 Y185.393 E0.02572
G1 X150.417 Y185.285 E0.01709
G1 X150.134 Y185.26 E0.0116
G1 X150.037 Y185.68 F36000
G1 F900
G1 X150 Y185.677 E0.00152
G1 X149.657 Y185.707 E0.01404
G1 X149.325 Y185.796 E0.01404
G1 X149.013 Y185.941 E0.01404
G1 X148.731 Y186.138 E0.01404
G1 X148.488 Y186.382 E0.01404
G1 X148.42 Y186.479 E0.00486
G1 X148.181 Y186.404 E0.01021
G1 X148.181 Y173.837 E0.51289
G1 X148.42 Y173.762 E0.01021
G1 X148.488 Y173.859 E0.00486
G1 X148.731 Y174.103 E0.01404
G1 X149.013 Y174.3 E0.01404
G1 X149.325 Y174.445 E0.01404
G1 X149.657 Y174.534 E0.01404
G1 X150 Y174.564 E0.01404
G1 X150.343 Y174.534 E0.01404
G1 X150.675 Y174.445 E0.01404
G1 X150.987 Y174.3 E0.01404
G1 X151.269 Y174.103 E0.01404
G1 X151.512 Y173.859 E0.01404
G1 X151.58 Y173.762 E0.00486
G1 X151.819 Y173.837 E0.01021
G1 X151.819 Y186.404 E0.51289
G1 X151.58 Y186.479 E0.01021
G1 X151.512 Y186.382 E0.00486
G1 X151.269 Y186.138 E0.01404
G1 X150.987 Y185.941 E0.01404
G1 X150.675 Y185.796 E0.01404
G1 X150.343 Y185.707 E0.01404
G1 X150.097 Y185.685 E0.01007
G1 E-0.75 F3000
G1 Z0.65 F36000
G1 X150.111 Y199.891
G1 Z0.25
G1 E0.75 F1800
G1 F900
G1 X150 Y199.881 E0.00457
G1 X149.509 Y199.924 E0.02013
G1 X149.034 Y200.051 E0.02006
G1 X149.034 Y190.31 E0.39754
G1 X149.509 Y190.438 E0.02006
G1 X150 Y190.481 E0.02013
G1 X150.491 Y190.438 E0.02013
G1 X150.966 Y190.31 E0.02006
G1 X150.966 Y200.051 E0.39754
G1 X150.491 Y199.924 E0.02006
G1 X150.171 Y199.896 E0.01312
G1 X150.074 Y200.315 F36000
G1 F900
G1 X150 Y200.309 E0.00304
G1 X149.583 Y200.345 E0.01709
G1 X149.178 Y200.454 E0.01709
G1 X148.607 Y200.72 E0.02572
G1 X148.607 Y189.642 E0.45214
G1 X149.178 Y189.908 E0.02572
G1 X149.583 Y190.016 E0.01709
G1 X150 Y190.053 E0.01709
G1 X150.417 Y190.016 E0.01709
G1 X150.822 Y189.908 E0.01709
G1 X151.393 Y189.642 E0.02572
G1 X151.393 Y200.72 E0.45214
G1 X150.822 Y200.454 E0.02572
G1 X150.417 Y200.345 E0.01709
G1 X150.134 Y200.321 E0.0116
G1 X150.037 Y200.74 F36000
G1 F900
G1 X150 Y200.737 E0.00152
G1 X149.657 Y200.767 E0.01404
G1 X149.325 Y200.856 E0.01404
G1 X149.013 Y201.001 E0.01404
G1 X148.731 Y201.199 E0.01404
G1 X148.488 Y201.442 E0.01404
G1 X148.42 Y201.539 E0.00486
G1 X148.181 Y201.464 E0.01021
G1 X148.181 Y188.897 E0.51289
G1 X148.42 Y188.822 E0.01021
G1 X148.488 Y188.92 E0.00486
G1 X148.731 Y189.163 E0.01404
G1 X149.013 Y189.36 E0.01404
G1 X149.325 Y189.506 E0.01404
G1 X149.657 Y189.595 E0.01404
G1 X150 Y189.625 E0.01404
G1 X150.343 Y189.595 E0.01404
G1 X150.675 Y189.506 E0.01404
G1 X150.987 Y189.36 E0.01404
G1 X151.269 Y189.163 E0.01404
G1 X151.512 Y188.92 E0.01404
G1 X151.58 Y188.822 E0.00486
G1 X151.819 Y188.897 E0.01021
G1 X151.819 Y201.464 E0.51289
G1 X151.58 Y201.539 E0.01021
G1 X151.512 Y201.442 E0.00486
G1 X151.269 Y201.199 E0.01404
G1 X150.987 Y201.001 E0.01404
G1 X150.675 Y200.856 E0.01404
G1 X150.343 Y200.767 E0.01404
G1 X150.097 Y200.745 E0.01007
G1 E-0.75 F3000
G1 Z0.65 F36000
G1 X150.112 Y214.951
G1 Z0.25
G1 E0.75 F1800
G1 F900
G1 X150 Y214.941 E0.00457
G1 X149.509 Y214.984 E0.02013
G1 X149.034 Y215.111 E0.02006
G1 X149.034 Y205.371 E0.39754
G1 X149.509 Y205.498 E0.02006
G1 X150 Y205.541 E0.02013
G1 X150.491 Y205.498 E0.02013
G1 X150.966 Y205.371 E0.02006
G1 X150.966 Y215.111 E0.39754
G1 X150.491 Y214.984 E0.02006
G1 X150.171 Y214.956 E0.01312
G1 X150.074 Y215.376 F36000
G1 F900
G1 X150 Y215.369 E0.00305
G1 X149.583 Y215.406 E0.01709
G1 X149.178 Y215.514 E0.01709
G1 X148.607 Y215.78 E0.02572
G1 X148.607 Y204.702 E0.45214
G1 X149.178 Y204.968 E0.02572
G1 X149.583 Y205.076 E0.01709
G1 X150 Y205.113 E0.01709
G1 X150.417 Y205.076 E0.01709
G1 X150.822 Y204.968 E0.01709
G1 X151.393 Y204.702 E0.02572
G1 X151.393 Y215.78 E0.45214
G1 X150.822 Y215.514 E0.02572
G1 X150.417 Y215.406 E0.01709
G1 X150.134 Y215.381 E0.01159
G1 X150.037 Y215.8 F36000
G1 F900
G1 X150 Y215.797 E0.00152
G1 X149.657 Y215.827 E0.01404
G1 X149.325 Y215.916 E0.01404
G1 X149.013 Y216.061 E0.01404
G1 X148.731 Y216.259 E0.01404
G1 X148.488 Y216.502 E0.01404
G1 X148.42 Y216.6 E0.00486
G1 X148.181 Y216.524 E0.01021
G1 X148.181 Y203.958 E0.51289
G1 X148.42 Y203.882 E0.01021
G1 X148.488 Y203.98 E0.00486
G1 X148.731 Y204.223 E0.01404
G1 X149.013 Y204.42 E0.01404
G1 X149.325 Y204.566 E0.01404
G1 X149.657 Y204.655 E0.01404
G1 X150 Y204.685 E0.01404
G1 X150.343 Y204.655 E0.01404
G1 X150.675 Y204.566 E0.01404
G1 X150.987 Y204.42 E0.01404
G1 X151.269 Y204.223 E0.01404
G1 X151.512 Y203.98 E0.01404
G1 X151.58 Y203.882 E0.00486
G1 X151.819 Y203.958 E0.01021
G1 X151.819 Y216.524 E0.51289
G1 X151.58 Y216.6 E0.01021
G1 X151.512 Y216.502 E0.00486
G1 X151.269 Y216.259 E0.01404
G1 X150.987 Y216.061 E0.01404
G1 X150.675 Y215.916 E0.01404
G1 X150.343 Y215.827 E0.01404
G1 X150.097 Y215.805 E0.01007
G1 E-0.75 F3000
G1 Z0.65 F36000
G1 X149.034 Y220.431
G1 Z0.25
G1 E0.75 F1800
G1 F900
G1 X149.509 Y220.558 E0.02006
G1 X150 Y220.601 E0.02013
G1 X150.491 Y220.558 E0.02013
G1 X150.966 Y220.431 E0.02006
G1 X150.966 Y220.984 E0.02258
G1 X149.034 Y220.985 E0.07887
G1 X149.034 Y220.491 E0.02015
G1 X148.607 Y219.762 F36000
G1 F900
G1 X149.178 Y220.028 E0.02572
G1 X149.583 Y220.137 E0.01709
G1 X150 Y220.173 E0.01709
G1 X150.417 Y220.137 E0.01709
G1 X150.822 Y220.028 E0.01709
G1 X151.393 Y219.762 E0.02572
G1 X151.393 Y221.41 E0.06728
G1 X148.607 Y221.411 E0.11368
G1 X148.607 Y219.822 E0.06486
G1 X148.42 Y218.943 F36000
G1 F900
G1 X148.488 Y219.04 E0.00486
G1 X148.731 Y219.283 E0.01404
G1 X149.013 Y219.481 E0.01404
G1 X149.325 Y219.626 E0.01405
G1 X149.657 Y219.715 E0.01404
G1 X150 Y219.745 E0.01404
G1 X150.343 Y219.715 E0.01404
G1 X150.675 Y219.626 E0.01404
G1 X150.987 Y219.481 E0.01405
G1 X151.269 Y219.283 E0.01404
G1 X151.512 Y219.04 E0.01404
G1 X151.58 Y218.943 E0.00486
G1 X151.819 Y219.018 E0.01021
G1 X151.819 Y221.837 E0.11505
G1 X148.181 Y221.838 E0.14848
G1 X148.181 Y219.018 E0.11509
G1 X148.362 Y218.961 E0.00776
G1 E-0.75 F3000
G1 Z0.65 F36000
G1 X149.889 Y145.29
G1 Z0.25
G1 E0.75 F1800
G1 F900
G1 X150 Y145.3 E0.00457
G1 X150.491 Y145.257 E0.02013
G1 X150.966 Y145.13 E0.02007
G1 X150.966 Y154.87 E0.39754
G1 X150.491 Y154.743 E0.02006
G1 X150 Y154.7 E0.02013
G1 X149.509 Y154.743 E0.02013
G1 X149.034 Y154.87 E0.02006
G1 X149.034 Y145.13 E0.39754
G1 X149.509 Y145.257 E0.02007
G1 X149.829 Y145.285 E0.01312
G1 X149.926 Y144.865 F36000
G1 F900
G1 X150 Y144.872 E0.00304
G1 X150.417 Y144.835 E0.01709
G1 X150.822 Y144.727 E0.01709
G1 X151.393 Y144.461 E0.02572
G1 X151.393 Y155.539 E0.45214
G1 X150.822 Y155.273 E0.02572
G1 X150.417 Y155.165 E0.01709
G1 X150 Y155.128 E0.01709
G1 X149.583 Y155.165 E0.01709
G1 X149.178 Y155.273 E0.01709
G1 X148.607 Y155.539 E0.02572
G1 X148.607 Y144.461 E0.45214
G1 X149.178 Y144.727 E0.02572
G1 X149.583 Y144.835 E0.01709
G1 X149.866 Y144.86 E0.0116
G1 X149.963 Y144.441 F36000
G1 F900
G1 X150 Y144.444 E0.00152
G1 X150.343 Y144.414 E0.01404
G1 X150.675 Y144.325 E0.01404
G1 X150.987 Y144.179 E0.01404
G1 X151.269 Y143.982 E0.01404
G1 X151.512 Y143.739 E0.01404
G1 X151.58 Y143.641 E0.00486
G1 X151.819 Y143.717 E0.01021
G1 X151.819 Y156.283 E0.51289
G1 X151.58 Y156.359 E0.01021
G1 X151.512 Y156.261 E0.00486
G1 X151.269 Y156.018 E0.01404
G1 X150.987 Y155.821 E0.01404
G1 X150.675 Y155.675 E0.01404
G1 X150.343 Y155.586 E0.01404
G1 X150 Y155.556 E0.01404
G1 X149.657 Y155.586 E0.01404
G1 X149.325 Y155.675 E0.01404
G1 X149.013 Y155.821 E0.01404
G1 X148.731 Y156.018 E0.01404
G1 X148.488 Y156.261 E0.01404
G1 X148.42 Y156.359 E0.00486
G1 X148.181 Y156.283 E0.01021
G1 X148.181 Y143.717 E0.51289
G1 X148.42 Y143.641 E0.01021
G1 X148.488 Y143.739 E0.00486
G1 X148.731 Y143.982 E0.01404
G1 X149.013 Y144.179 E0.01404
G1 X149.325 Y144.325 E0.01404
G1 X149.657 Y144.414 E0.01404
G1 X149.903 Y144.435 E0.01007
G1 E-0.75 F3000
G1 Z0.65 F36000
G1 X149.889 Y130.23
G1 Z0.25
G1 E0.75 F1800
G1 F900
G1 X150 Y130.24 E0.00457
G1 X150.491 Y130.197 E0.02013
G1 X150.966 Y130.069 E0.02006
G1 X150.966 Y139.81 E0.39754
G1 X150.491 Y139.683 E0.02006
G1 X150 Y139.64 E0.02013
G1 X149.509 Y139.683 E0.02013
G1 X149.034 Y139.81 E0.02006
G1 X149.034 Y130.069 E0.39754
G1 X149.509 Y130.197 E0.02006
G1 X149.829 Y130.225 E0.01312
G1 X149.926 Y129.805 F36000
G1 F900
G1 X150 Y129.812 E0.00304
G1 X150.417 Y129.775 E0.01709
G1 X150.822 Y129.667 E0.01709
G1 X151.393 Y129.401 E0.02572
G1 X151.393 Y140.479 E0.45214
G1 X150.822 Y140.213 E0.02572
G1 X150.417 Y140.104 E0.01709
G1 X150 Y140.068 E0.01709
G1 X149.583 Y140.104 E0.01709
G1 X149.178 Y140.213 E0.01709
G1 X148.607 Y140.479 E0.02572
G1 X148.607 Y129.401 E0.45214
G1 X149.178 Y129.667 E0.02572
G1 X149.583 Y129.775 E0.01709
G1 X149.866 Y129.8 E0.0116
G1 X149.963 Y129.38 F36000
G1 F900
G1 X150 Y129.384 E0.00152
G1 X150.343 Y129.354 E0.01404
G1 X150.675 Y129.265 E0.01404
G1 X150.987 Y129.119 E0.01404
G1 X151.269 Y128.922 E0.01405
G1 X151.512 Y128.679 E0.01404
G1 X151.58 Y128.581 E0.00486
G1 X151.819 Y128.656 E0.01021
G1 X151.819 Y141.223 E0.51289
G1 X151.58 Y141.298 E0.01021
G1 X151.512 Y141.201 E0.00486
G1 X151.269 Y140.958 E0.01404
G1 X150.987 Y140.76 E0.01404
G1 X150.675 Y140.615 E0.01404
G1 X150.343 Y140.526 E0.01404
G1 X150 Y140.496 E0.01404
G1 X149.657 Y140.526 E0.01404
G1 X149.325 Y140.615 E0.01404
G1 X149.013 Y140.76 E0.01404
G1 X148.731 Y140.958 E0.01404
G1 X148.488 Y141.201 E0.01404
G1 X148.42 Y141.298 E0.00486
G1 X148.181 Y141.223 E0.01021
G1 X148.181 Y128.656 E0.51289
G1 X148.42 Y128.581 E0.01021
G1 X148.488 Y128.679 E0.00486
G1 X148.731 Y128.922 E0.01404
G1 X149.013 Y129.119 E0.01405
G1 X149.325 Y129.265 E0.01404
G1 X149.657 Y129.354 E0.01404
G1 X149.903 Y129.375 E0.01007
G1 E-0.75 F3000
G1 Z0.65 F36000
G1 X149.889 Y115.17
G1 Z0.25
G1 E0.75 F1800
G1 F900
G1 X150 Y115.179 E0.00457
G1 X150.491 Y115.136 E0.02013
G1 X150.966 Y115.009 E0.02006
G1 X150.966 Y124.75 E0.39754
G1 X150.491 Y124.623 E0.02006
G1 X150 Y124.58 E0.02013
G1 X149.509 Y124.623 E0.02013
G1 X149.034 Y124.75 E0.02006
G1 X149.034 Y115.009 E0.39754
G1 X149.509 Y115.136 E0.02006
G1 X149.829 Y115.164 E0.01312
G1 X149.926 Y114.745 F36000
G1 F900
G1 X150 Y114.751 E0.00304
G1 X150.417 Y114.715 E0.01709
G1 X150.822 Y114.607 E0.01709
G1 X151.393 Y114.34 E0.02572
G1 X151.393 Y125.419 E0.45214
G1 X150.822 Y125.152 E0.02572
G1 X150.417 Y125.044 E0.01709
G1 X150 Y125.008 E0.01709
G1 X149.583 Y125.044 E0.01709
G1 X149.178 Y125.152 E0.01709
G1 X148.607 Y125.419 E0.02572
G1 X148.607 Y114.34 E0.45214
G1 X149.178 Y114.607 E0.02572
G1 X149.583 Y114.715 E0.01709
G1 X149.866 Y114.74 E0.0116
G1 X149.963 Y114.32 F36000
G1 F900
G1 X150 Y114.323 E0.00152
G1 X150.343 Y114.294 E0.01404
G1 X150.675 Y114.204 E0.01404
G1 X150.987 Y114.059 E0.01404
G1 X151.269 Y113.862 E0.01405
G1 X151.512 Y113.618 E0.01404
G1 X151.58 Y113.521 E0.00486
G1 X151.819 Y113.596 E0.01021
G1 X151.819 Y126.163 E0.51289
G1 X151.58 Y126.238 E0.01021
G1 X151.512 Y126.141 E0.00486
G1 X151.269 Y125.897 E0.01404
G1 X150.987 Y125.7 E0.01405
G1 X150.675 Y125.555 E0.01404
G1 X150.343 Y125.466 E0.01404
G1 X150 Y125.436 E0.01404
G1 X149.657 Y125.466 E0.01404
G1 X149.325 Y125.555 E0.01404
G1 X149.013 Y125.7 E0.01404
G1 X148.731 Y125.897 E0.01405
G1 X148.488 Y126.141 E0.01404
G1 X148.42 Y126.238 E0.00486
G1 X148.181 Y126.163 E0.01021
G1 X148.181 Y113.596 E0.51289
G1 X148.42 Y113.521 E0.01021
G1 X148.488 Y113.618 E0.00486
G1 X148.731 Y113.862 E0.01404
G1 X149.013 Y114.059 E0.01405
G1 X149.325 Y114.204 E0.01404
G1 X149.657 Y114.294 E0.01404
G1 X149.903 Y114.315 E0.01007
G1 E-0.75 F3000
G1 Z0.65 F36000
G1 X149.889 Y100.109
G1 Z0.25
G1 E0.75 F1800
G1 F900
G1 X150 Y100.119 E0.00457
G1 X150.491 Y100.076 E0.02013
G1 X150.966 Y99.949 E0.02006
G1 X150.966 Y109.69 E0.39754
G1 X150.491 Y109.562 E0.02006
G1 X150 Y109.519 E0.02013
G1 X149.509 Y109.562 E0.02013
G1 X149.034 Y109.69 E0.02006
G1 X149.034 Y99.949 E0.39754
G1 X149.509 Y100.076 E0.02006
G1 X149.829 Y100.104 E0.01312
G1 X149.926 Y99.685 F36000
G1 F900
G1 X150 Y99.691 E0.00304
G1 X150.417 Y99.655 E0.01709
G1 X150.822 Y99.546 E0.01709
G1 X151.393 Y99.28 E0.02572
G1 X151.393 Y110.358 E0.45214
G1 X150.822 Y110.092 E0.02572
G1 X150.417 Y109.984 E0.01709
G1 X150 Y109.947 E0.01709
