; generated by SuperSlicer 2.4 on 2022-06-01 at 00:37:51 UTC


;
;

;
;
; 

; external perimeters extrusion width = 0.40mm
; perimeters extrusion width = 0.40mm
; infill extrusion width = 0.72mm
; solid infill extrusion width = 0.56mm
; top infill extrusion width = 0.40mm
; first layer extrusion width = 0.48mm

; object:{"name":"Metric-Screw-Hex-Nut_Jig-HDRI-v02-embossed","id":"Metric-Screw-Hex-Nut_Jig-HDRI-v02-embossed.stl id:0 copy 0","object_center":[150.000000,150.000000,0.000000],"boundingbox_center":[150.000000,150.000000,4.200000],"boundingbox_size":[50.000000,80.000000,8.400000]}
; plater:{"center":[150.000000,150.000000,0.000000],"boundingbox_center":[150.000000,150.000000,4.200000],"boundingbox_size":[50.000000,80.000000,8.400000]}

;TYPE:Custom
print_start EXTRUDER=250 BED=110 CHAMBER=50
M107
G21 ; set units to millimeters
G90 ; use absolute coordinates
M83 ; use relative distances for extrusion
; Filament gcode
SET_PRESSURE_ADVANCE ADVANCE=0.055
M104 S250 ; set temperature
M109 S250 ; set temperature and wait for it to be reached
M190 S110 ; set bed temperature and wait for it to be reached
M107
;LAYER_CHANGE
;Z:0.25
;HEIGHT:0.25
;BEFORE_LAYER_CHANGE
;0.25
TIMELAPSE_TAKE_FRAME


G1 Z0.25 F36000
;AFTER_LAYER_CHANGE
;0.25
G92 E0
; INIT printing object Metric-Screw-Hex-Nut_Jig-HDRI-v02-embossed.stl id:0 copy 0
G1 E-0.75 F3000
M204 S1500
G1 Z0.65 F36000
; printing object Metric-Screw-Hex-Nut_Jig-HDRI-v02-embossed.stl id:0 copy 0
G1 X133.521 Y153.448
G1 Z0.25
G1 E0.75 F1800
;TYPE:Internal perimeter
;WIDTH:0.48
G1 F900
G1 X133.521 Y161.457 E0.33005
G1 X147.403 Y161.457 E0.57208
G1 X147.403 Y152.596 E0.36519
G1 X133.521 Y152.596 E0.57208
G1 X133.521 Y153.388 E0.03267
G1 X133.948 Y153.448 F36000
G1 F900
G1 X133.948 Y161.031 E0.31248
G1 X146.976 Y161.031 E0.53694
G1 X146.976 Y153.022 E0.33005
G1 X133.948 Y153.022 E0.53694
G1 X133.948 Y153.388 E0.0151
M204 S1000
G1 X134.374 Y153.448 F36000
;TYPE:External perimeter
G1 F900
G1 X134.374 Y160.604 E0.29491
G1 X146.55 Y160.604 E0.5018
G1 X146.55 Y153.448 E0.29491
G1 X134.434 Y153.448 E0.49932
;WIPE_START
M204 S1500
G1 X133.974 Y153.448 F36000
;WIPE_END
G1 X134.374 Y151.92
;TYPE:Internal perimeter
G1 F900
G1 X145.395 Y151.92 E0.45418
G1 X145.395 Y144.062 E0.32381
G1 X133.521 Y144.062 E0.48932
G1 X133.521 Y151.92 E0.32381
G1 X134.314 Y151.92 E0.03267
G1 X134.374 Y151.493 F36000
G1 F900
G1 X144.968 Y151.493 E0.43661
G1 X144.968 Y144.489 E0.28867
G1 X133.948 Y144.489 E0.45418
G1 X133.948 Y151.493 E0.28867
G1 X134.314 Y151.493 E0.0151
M204 S1000
G1 X134.374 Y151.067 F36000
;TYPE:External perimeter
G1 F900
G1 X144.542 Y151.067 E0.41904
G1 X144.542 Y144.915 E0.25353
G1 X134.374 Y144.915 E0.41904
G1 X134.374 Y151.007 E0.25106
;WIPE_START
M204 S1500
G1 X134.374 Y151.467 F36000
;WIPE_END
G1 E-0.75 F3000
G1 Z0.65 F36000
G1 X155.012 Y132.746
G1 Z0.25
G1 E0.75 F1800
;TYPE:Internal perimeter
G1 F900
G1 X155.558 Y133.094 E0.02668
G1 X156.162 Y133.426 E0.02839
G1 X156.784 Y133.717 E0.02834
G1 X157.425 Y133.967 E0.02833
G1 X158.08 Y134.175 E0.02834
G1 X158.747 Y134.341 E0.02833
G1 X159.424 Y134.463 E0.02833
G1 X160.107 Y134.54 E0.02834
G1 X160.794 Y134.574 E0.02833
G1 X161.481 Y134.563 E0.02833
G1 X162.167 Y134.507 E0.02833
G1 X162.507 Y134.457 E0.01417
G1 X162.847 Y134.407 E0.01417
G1 X163.519 Y134.263 E0.02833
G1 X164.181 Y134.077 E0.02834
G1 X164.829 Y133.847 E0.02833
G1 X165.461 Y133.576 E0.02834
G1 X166.074 Y133.265 E0.02833
G1 X166.37 Y133.09 E0.01417
G1 X166.666 Y132.915 E0.01417
G1 X167.233 Y132.527 E0.02833
G1 X167.775 Y132.104 E0.02833
G1 X168.288 Y131.646 E0.02834
G1 X168.77 Y131.156 E0.02833
G1 X169.219 Y130.636 E0.02833
G1 X169.634 Y130.087 E0.02834
G1 X170.013 Y129.513 E0.02833
G1 X170.353 Y128.916 E0.02833
G1 X170.456 Y128.706 E0.00965
G1 X170.72 Y128.767 E0.01118
G1 X170.72 Y131.84 E0.12666
G1 X173.481 Y131.84 E0.11379
G1 X173.481 Y133.02 E0.04861
G1 X171.724 Y133.02 E0.07241
G1 X171.724 Y136.86 E0.15827
G1 X173.481 Y136.86 E0.07241
G1 X173.481 Y138.04 E0.04861
G1 X170.72 Y138.04 E0.11379
G1 X170.72 Y141.88 E0.15827
G1 X173.481 Y141.88 E0.11379
G1 X173.481 Y143.06 E0.04861
G1 X171.724 Y143.06 E0.07241
G1 X171.724 Y146.9 E0.15827
G1 X173.481 Y146.9 E0.07241
G1 X173.481 Y148.08 E0.04861
G1 X170.72 Y148.08 E0.11379
G1 X170.72 Y151.92 E0.15827
G1 X173.481 Y151.92 E0.11379
G1 X173.481 Y153.1 E0.04861
G1 X171.724 Y153.1 E0.07241
G1 X171.724 Y156.94 E0.15827
G1 X173.481 Y156.94 E0.07241
G1 X173.481 Y158.12 E0.04861
G1 X170.72 Y158.12 E0.11379
G1 X170.72 Y161.96 E0.15827
G1 X173.481 Y161.96 E0.11379
G1 X173.481 Y163.14 E0.04861
G1 X171.724 Y163.14 E0.07241
G1 X171.724 Y166.98 E0.15827
G1 X173.481 Y166.98 E0.07241
G1 X173.481 Y168.16 E0.04861
G1 X170.72 Y168.16 E0.11379
G1 X170.72 Y172.001 E0.15827
G1 X173.481 Y172.001 E0.11379
G1 X173.481 Y173.18 E0.04861
G1 X171.724 Y173.18 E0.07241
G1 X171.724 Y177.021 E0.15827
G1 X173.481 Y177.021 E0.07241
G1 X173.481 Y178.2 E0.04861
G1 X170.72 Y178.2 E0.11379
G1 X170.72 Y182.041 E0.15827
G1 X173.481 Y182.041 E0.11379
G1 X173.481 Y183.22 E0.04861
G1 X171.724 Y183.22 E0.07241
G1 X171.724 Y187.061 E0.15827
G1 X173.481 Y187.061 E0.07241
G1 X173.481 Y188.542 E0.06103
G1 X171.895 Y188.542 E0.06539
G1 X170.918 Y187.161 E0.06968
G1 X154.857 Y187.161 E0.66192
G1 X154.857 Y174.761 E0.51101
G1 X133.095 Y174.761 E0.89686
G1 X133.095 Y176.872 E0.08696
G1 X132.541 Y176.294 E0.03297
G1 X132.115 Y175.919 E0.0234
G1 X131.658 Y175.581 E0.02341
G1 X131.175 Y175.283 E0.02341
G1 X130.668 Y175.028 E0.0234
G1 X130.141 Y174.816 E0.02341
G1 X129.598 Y174.65 E0.02341
G1 X129.042 Y174.53 E0.02341
G1 X128.475 Y174.457 E0.02358
G1 X127.899 Y174.445 E0.02373
G1 X127.899 Y173.748 E0.02872
G1 X128.447 Y173.734 E0.02259
G1 X128.988 Y173.657 E0.02251
G1 X129.514 Y173.529 E0.0223
G1 X130.025 Y173.352 E0.0223
G1 X130.518 Y173.127 E0.02231
G1 X130.986 Y172.857 E0.0223
G1 X131.427 Y172.543 E0.02231
G1 X131.836 Y172.188 E0.02231
G1 X132.21 Y171.797 E0.0223
G1 X132.544 Y171.371 E0.0223
G1 X132.85 Y170.896 E0.02329
G1 X133.095 Y170.968 E0.01052
G1 X133.095 Y173.672 E0.11145
G1 X150.841 Y173.672 E0.73135
G1 X150.841 Y162.452 E0.4624
G1 X133.095 Y162.452 E0.73135
G1 X133.095 Y165.177 E0.11231
G1 X132.85 Y165.249 E0.01052
G1 X132.544 Y164.773 E0.02329
G1 X132.21 Y164.348 E0.02231
G1 X131.836 Y163.956 E0.0223
G1 X131.427 Y163.602 E0.02231
G1 X130.986 Y163.288 E0.0223
G1 X130.518 Y163.017 E0.02231
G1 X130.025 Y162.793 E0.0223
G1 X129.514 Y162.616 E0.0223
G1 X128.988 Y162.488 E0.02231
G1 X128.447 Y162.41 E0.02251
G1 X127.899 Y162.397 E0.02259
G1 X127.899 Y161.699 E0.02879
G1 X128.412 Y161.685 E0.02114
G1 X128.918 Y161.602 E0.02115
G1 X129.407 Y161.467 E0.0209
G1 X129.878 Y161.279 E0.0209
G1 X130.326 Y161.041 E0.0209
G1 X130.746 Y160.757 E0.0209
G1 X131.133 Y160.428 E0.0209
G1 X131.481 Y160.06 E0.0209
G1 X131.788 Y159.657 E0.0209
G1 X132.05 Y159.222 E0.0209
G1 X132.263 Y158.762 E0.0209
G1 X132.425 Y158.281 E0.0209
G1 X132.534 Y157.786 E0.0209
G1 X132.588 Y157.282 E0.0209
G1 X132.588 Y156.775 E0.0209
G1 X132.534 Y156.27 E0.0209
G1 X132.425 Y155.775 E0.0209
G1 X132.263 Y155.295 E0.0209
G1 X132.05 Y154.834 E0.0209
G1 X131.788 Y154.4 E0.0209
G1 X131.481 Y153.996 E0.0209
G1 X131.133 Y153.628 E0.0209
G1 X130.746 Y153.299 E0.0209
G1 X130.326 Y153.015 E0.0209
G1 X129.878 Y152.777 E0.0209
G1 X129.407 Y152.59 E0.0209
G1 X128.918 Y152.454 E0.0209
G1 X128.588 Y152.4 E0.01382
G1 X128.585 Y152.113 E0.01183
G1 X128.913 Y152.053 E0.01373
G1 X129.395 Y151.902 E0.02081
G1 X129.855 Y151.695 E0.02081
G1 X130.287 Y151.434 E0.02081
G1 X130.685 Y151.122 E0.02081
G1 X131.042 Y150.765 E0.02081
G1 X131.354 Y150.368 E0.02081
G1 X131.615 Y149.936 E0.02081
G1 X131.822 Y149.475 E0.02081
G1 X131.972 Y148.993 E0.02081
G1 X132.063 Y148.496 E0.02081
G1 X132.094 Y147.992 E0.02081
G1 X132.063 Y147.488 E0.02081
G1 X131.972 Y146.991 E0.02081
G1 X131.822 Y146.509 E0.02081
G1 X131.615 Y146.048 E0.02081
G1 X131.354 Y145.616 E0.02081
G1 X131.042 Y145.219 E0.02081
G1 X130.685 Y144.862 E0.02081
G1 X130.287 Y144.55 E0.02081
G1 X129.855 Y144.289 E0.02081
G1 X129.395 Y144.081 E0.02082
G1 X128.913 Y143.931 E0.02081
G1 X128.538 Y143.863 E0.0157
G1 X128.536 Y143.581 E0.01162
G1 X128.865 Y143.515 E0.01385
G1 X129.311 Y143.364 E0.01939
G1 X129.752 Y143.148 E0.02024
G1 X130.155 Y142.878 E0.01999
G1 X130.517 Y142.56 E0.01987
G1 X130.835 Y142.197 E0.01987
G1 X131.102 Y141.796 E0.01987
G1 X131.314 Y141.363 E0.01987
G1 X131.469 Y140.906 E0.01987
G1 X131.561 Y140.435 E0.0198
G1 X131.592 Y139.966 E0.01936
G1 X131.562 Y139.487 E0.01979
G1 X131.469 Y139.014 E0.01987
G1 X131.314 Y138.557 E0.01987
G1 X131.102 Y138.124 E0.01987
G1 X130.835 Y137.723 E0.01987
G1 X130.517 Y137.36 E0.01987
G1 X130.155 Y137.042 E0.01987
G1 X129.752 Y136.772 E0.01999
G1 X129.311 Y136.556 E0.02024
G1 X128.617 Y136.321 E0.03018
G1 X129.337 Y136.052 E0.03165
G1 X129.766 Y135.818 E0.02017
G1 X130.158 Y135.524 E0.02017
G1 X130.504 Y135.178 E0.02017
G1 X130.797 Y134.786 E0.02017
G1 X131.032 Y134.357 E0.02017
G1 X131.203 Y133.898 E0.02017
G1 X131.307 Y133.42 E0.02017
G1 X131.342 Y132.932 E0.02017
G1 X131.307 Y132.444 E0.02017
G1 X131.203 Y131.965 E0.02017
G1 X131.032 Y131.507 E0.02017
G1 X130.797 Y131.077 E0.02017
G1 X130.504 Y130.685 E0.02017
G1 X130.158 Y130.339 E0.02017
G1 X129.766 Y130.046 E0.02017
G1 X129.337 Y129.811 E0.02017
G1 X128.607 Y129.539 E0.03208
G1 X129.293 Y129.27 E0.03038
G1 X129.705 Y129.031 E0.01962
G1 X130.077 Y128.734 E0.01962
G1 X130.4 Y128.386 E0.01956
G1 X130.662 Y128.001 E0.01919
G1 X130.873 Y127.564 E0.01998
G1 X131.013 Y127.106 E0.01973
G1 X131.083 Y126.638 E0.01953
G1 X131.083 Y126.174 E0.01913
G1 X131.013 Y125.705 E0.01953
G1 X130.874 Y125.25 E0.01962
G1 X130.668 Y124.82 E0.01962
G1 X130.401 Y124.427 E0.01962
G1 X130.077 Y124.077 E0.01962
G1 X129.705 Y123.78 E0.01962
G1 X129.293 Y123.542 E0.01962
G1 X128.599 Y123.269 E0.03077
G1 X129.306 Y122.958 E0.03184
G1 X129.711 Y122.694 E0.01994
G1 X130.067 Y122.366 E0.01994
G1 X130.364 Y121.984 E0.01994
G1 X130.595 Y121.558 E0.01994
G1 X130.752 Y121.101 E0.01994
G1 X130.831 Y120.623 E0.01994
G1 X130.831 Y120.14 E0.01994
G1 X130.752 Y119.662 E0.01994
G1 X130.595 Y119.205 E0.01994
G1 X130.364 Y118.779 E0.01994
G1 X130.067 Y118.397 E0.01994
G1 X129.711 Y118.069 E0.01994
G1 X129.306 Y117.805 E0.01994
G1 X128.587 Y117.49 E0.03235
G1 X129.251 Y117.18 E0.0302
G1 X129.634 Y116.912 E0.01925
G1 X129.964 Y116.582 E0.01925
G1 X130.232 Y116.199 E0.01925
G1 X130.43 Y115.776 E0.01925
G1 X130.55 Y115.325 E0.01925
G1 X130.591 Y114.859 E0.01925
G1 X130.55 Y114.394 E0.01925
G1 X130.43 Y113.943 E0.01925
G1 X130.232 Y113.52 E0.01925
G1 X129.964 Y113.137 E0.01925
G1 X129.666 Y112.839 E0.01738
G1 X133.095 Y112.839 E0.14131
G1 X133.095 Y161.883 E2.02122
G1 X147.829 Y161.883 E0.60722
G1 X147.829 Y152.169 E0.40033
G1 X145.821 Y152.169 E0.08275
G1 X145.821 Y143.636 E0.35168
G1 X144.817 Y143.636 E0.04138
G1 X144.817 Y136.006 E0.31443
G1 X143.813 Y136.006 E0.04138
G1 X143.813 Y129.179 E0.28137
G1 X143.311 Y129.179 E0.02069
G1 X143.311 Y122.854 E0.26068
G1 X142.809 Y122.854 E0.02069
G1 X142.809 Y117.031 E0.23999
G1 X141.805 Y117.031 E0.04138
G1 X141.805 Y112.839 E0.17274
G1 X171.724 Y112.839 E1.23304
G1 X171.724 Y116.78 E0.16241
G1 X173.481 Y116.78 E0.07241
G1 X173.481 Y117.959 E0.04861
G1 X170.72 Y117.959 E0.11379
G1 X170.72 Y119.152 E0.04915
G1 X170.456 Y119.213 E0.01118
G1 X170.353 Y119.002 E0.00965
G1 X170.013 Y118.405 E0.02833
G1 X169.634 Y117.831 E0.02833
G1 X169.219 Y117.283 E0.02834
G1 X168.77 Y116.763 E0.02833
G1 X168.288 Y116.273 E0.02833
G1 X167.775 Y115.815 E0.02833
G1 X167.233 Y115.391 E0.02834
G1 X166.666 Y115.003 E0.02833
G1 X166.074 Y114.653 E0.02833
G1 X165.461 Y114.342 E0.02833
G1 X164.829 Y114.071 E0.02833
G1 X164.181 Y113.842 E0.02833
G1 X163.519 Y113.655 E0.02833
G1 X162.847 Y113.511 E0.02833
G1 X162.167 Y113.412 E0.02834
G1 X161.481 Y113.356 E0.02833
G1 X160.794 Y113.345 E0.02833
G1 X160.451 Y113.361 E0.01417
G1 X160.107 Y113.378 E0.01417
G1 X159.424 Y113.456 E0.02834
G1 X158.747 Y113.578 E0.02833
G1 X158.08 Y113.743 E0.02833
G1 X157.425 Y113.951 E0.02834
G1 X156.784 Y114.202 E0.02833
G1 X156.162 Y114.493 E0.02833
G1 X155.559 Y114.823 E0.02833
G1 X155.275 Y115.004 E0.01385
G1 X154.979 Y115.193 E0.01448
G1 X154.424 Y115.599 E0.02833
G1 X153.896 Y116.04 E0.02833
G1 X153.399 Y116.514 E0.02833
G1 X152.933 Y117.019 E0.02834
G1 X152.5 Y117.554 E0.02833
G1 X152.103 Y118.115 E0.02833
G1 X151.744 Y118.701 E0.02833
G1 X151.423 Y119.309 E0.02834
G1 X151.142 Y119.936 E0.02833
G1 X150.902 Y120.581 E0.02834
G1 X150.704 Y121.239 E0.02833
G1 X150.55 Y121.909 E0.02834
G1 X150.439 Y122.588 E0.02833
G1 X150.372 Y123.272 E0.02833
G1 X150.35 Y123.959 E0.02833
G1 X150.372 Y124.646 E0.02833
G1 X150.439 Y125.331 E0.02833
G1 X150.55 Y126.009 E0.02833
G1 X150.704 Y126.679 E0.02834
G1 X150.902 Y127.338 E0.02833
G1 X151.142 Y127.982 E0.02833
G1 X151.423 Y128.61 E0.02834
G1 X151.744 Y129.217 E0.02833
G1 X152.103 Y129.803 E0.02833
G1 X152.5 Y130.365 E0.02833
G1 X152.933 Y130.899 E0.02833
G1 X153.399 Y131.405 E0.02833
G1 X153.896 Y131.879 E0.02833
G1 X154.424 Y132.32 E0.02833
G1 X154.962 Y132.713 E0.02746
G1 E-0.75 F3000
G1 Z0.65 F36000
G1 X133.521 Y163.731
G1 Z0.25
G1 E0.75 F1800
G1 F900
G1 X133.521 Y173.246 E0.39212
G1 X150.415 Y173.246 E0.69621
G1 X150.415 Y162.878 E0.42726
G1 X133.521 Y162.878 E0.69621
G1 X133.521 Y163.671 E0.03267
G1 X133.948 Y163.731 F36000
G1 F900
G1 X133.948 Y172.819 E0.37455
G1 X149.988 Y172.819 E0.66107
G1 X149.988 Y163.305 E0.39212
G1 X133.948 Y163.305 E0.66107
G1 X133.948 Y163.671 E0.0151
M204 S1000
G1 X134.374 Y163.731 F36000
;TYPE:External perimeter
G1 F900
G1 X134.374 Y172.393 E0.35697
G1 X149.562 Y172.393 E0.62593
G1 X149.562 Y163.731 E0.35697
G1 X134.434 Y163.731 E0.62346
;WIPE_START
M204 S1500
G1 X133.974 Y163.731 F36000
;WIPE_END
G1 E-0.75 F3000
G1 Z0.65 F36000
G1 X131.26 Y186.913
G1 Z0.25
G1 E0.75 F1800
;TYPE:Internal perimeter
G1 F900
G1 X131.67 Y186.661 E0.01983
G1 X132.242 Y186.218 E0.02982
G1 X132.541 Y185.955 E0.01641
G1 X133.095 Y185.377 E0.03297
G1 X133.095 Y187.161 E0.07351
G1 X131.331 Y187.161 E0.07271
G1 X131.277 Y186.971 E0.00816
G1 E-0.75 F3000
G1 Z0.65 F36000
G1 X170.777 Y127.999
G1 Z0.25
G1 E0.75 F1800
G1 F900
G1 X170.915 Y127.662 E0.01504
G1 X171.134 Y127.01 E0.02833
G1 X171.31 Y126.345 E0.02833
G1 X171.416 Y125.805 E0.0227
G1 X171.724 Y125.835 E0.01275
G1 X171.724 Y126.82 E0.04058
G1 X173.481 Y126.82 E0.07241
G1 X173.481 Y127.999 E0.04861
G1 X170.837 Y127.999 E0.10899
G1 X171.538 Y122.979 F36000
G1 F900
G1 X171.443 Y122.248 E0.03041
G1 X171.355 Y121.8 E0.01881
G1 X173.481 Y121.8 E0.08765
G1 X173.481 Y122.979 E0.04861
G1 X171.598 Y122.979 E0.07761
G1 E-0.75 F3000
G1 Z0.65 F36000
G1 X155.242 Y132.386
G1 Z0.25
G1 E0.75 F1800
G1 F900
G1 X155.775 Y132.728 E0.0261
G1 X156.355 Y133.045 E0.02723
G1 X156.952 Y133.325 E0.0272
G1 X157.567 Y133.565 E0.02719
G1 X158.196 Y133.765 E0.0272
G1 X158.837 Y133.924 E0.02719
G1 X159.486 Y134.041 E0.02719
G1 X160.142 Y134.115 E0.0272
G1 X160.801 Y134.147 E0.02719
G1 X161.461 Y134.137 E0.0272
G1 X162.118 Y134.083 E0.02719
G1 X162.445 Y134.035 E0.0136
G1 X162.771 Y133.987 E0.0136
G1 X163.417 Y133.849 E0.02719
G1 X164.052 Y133.67 E0.0272
G1 X164.674 Y133.45 E0.02719
G1 X165.28 Y133.19 E0.0272
G1 X165.869 Y132.891 E0.02719
G1 X166.153 Y132.723 E0.0136
G1 X166.437 Y132.555 E0.0136
G1 X166.982 Y132.183 E0.0272
G1 X167.501 Y131.777 E0.02719
G1 X167.994 Y131.337 E0.0272
G1 X168.456 Y130.867 E0.0272
G1 X168.888 Y130.367 E0.0272
G1 X169.286 Y129.841 E0.0272
G1 X169.649 Y129.29 E0.02719
G1 X169.976 Y128.717 E0.0272
G1 X170.265 Y128.124 E0.0272
G1 X170.515 Y127.513 E0.0272
G1 X170.725 Y126.887 E0.02719
G1 X170.894 Y126.25 E0.0272
G1 X171.022 Y125.602 E0.0272
G1 X171.107 Y124.948 E0.02719
G1 X171.15 Y124.289 E0.0272
G1 X171.15 Y123.629 E0.0272
G1 X171.107 Y122.971 E0.0272
G1 X171.022 Y122.316 E0.02719
G1 X170.894 Y121.669 E0.0272
G1 X170.85 Y121.5 E0.00719
G1 X170.725 Y121.031 E0.02001
G1 X170.515 Y120.406 E0.0272
G1 X170.265 Y119.795 E0.0272
G1 X169.976 Y119.202 E0.0272
G1 X169.649 Y118.628 E0.02719
G1 X169.286 Y118.077 E0.02719
