; generated by SuperSlicer 2.3.57 on 2022-05-20 at 01:42:02 UTC


;
;

;
;
; TODO: check the size of the extruder and the y-bar clearance. Optimize & test supports.

; external perimeters extrusion width = 0.42mm
; perimeters extrusion width = 0.46mm
; infill extrusion width = 0.44mm
; solid infill extrusion width = 0.46mm
; top infill extrusion width = 0.44mm
; first layer extrusion width = 0.56mm

; object:{"name":"mmu2-frame-holder","id":"mmu2-frame-holder.stl id:0 copy 0","object_center":[150.000000,150.000000,0.000000],"boundingbox_center":[150.000000,150.000000,5.000000],"boundingbox_size":[79.758163,62.104080,10.000000]}
; plater:{"center":[150.000000,150.000000,0.000000],"boundingbox_center":[150.000000,150.000000,5.000000],"boundingbox_size":[79.758163,62.104080,10.000000]}

;TYPE:Custom
print_start EXTRUDER=215 BED=55 CHAMBER=15
M107
G21 ; set units to millimeters
G90 ; use absolute coordinates
M83 ; use relative distances for extrusion
M104 S215 ; set temperature
M109 S215 ; set temperature and wait for it to be reached
M190 S55 ; set bed temperature and wait for it to be reached
;LAYER_CHANGE
;Z:0.2
;HEIGHT:0.2
;BEFORE_LAYER_CHANGE
;0.2


G1 Z0.2 F18000
;AFTER_LAYER_CHANGE
;0.2
G1 E-0.75 F3000
G1 Z0.6 F18000
M204 S1500
G1 X110.94 Y116.451
G1 Z0.2
G1 E0.75 F1800
;TYPE:Skirt
;WIDTH:0.52
G1 X110.372 Y117.198 E0.03725
G1 X109.983 Y118.053 E0.03725
G1 X109.795 Y118.977 E0.03745
G1 X106.335 Y160.865 E1.66732
G1 X106.346 Y166.416 E0.22019
G1 X106.563 Y167.417 E0.04064
G1 X107.02 Y168.339 E0.04083
G1 X107.538 Y168.979 E0.03266
G1 X112.742 Y174.13 E0.29046
G1 X127.553 Y184.042 E0.70694
G1 X128.641 Y184.523 E0.0472
G1 X129.825 Y184.679 E0.0474
G1 X131.006 Y184.494 E0.0474
G1 X132.082 Y183.987 E0.0472
G1 X132.736 Y183.455 E0.03346
G1 X192.575 Y123.582 E3.35796
G1 X193.209 Y122.499 E0.04978
G1 X193.493 Y121.277 E0.04978
G1 X193.403 Y120.025 E0.04978
G1 X192.947 Y118.856 E0.04978
G1 X192.338 Y118.045 E0.04024
G1 X190.138 Y115.927 E0.12115
G1 X188.988 Y115.354 E0.05097
G1 X187.718 Y115.155 E0.05097
G1 X113.933 Y115.155 E2.92703
G1 X112.747 Y115.338 E0.0476
G1 X111.665 Y115.846 E0.0474
G1 X110.986 Y116.412 E0.03507
G1 X111.139 Y116.593 F18000
M204 S1000
G1 X111.292 Y116.773
G1 F1800
G1 X110.784 Y117.438 E0.03318
G1 X110.437 Y118.199 E0.03318
G1 X110.27 Y119.023 E0.03337
G1 X106.811 Y160.884 E1.66625
G1 X106.818 Y166.34 E0.21646
G1 X107.006 Y167.238 E0.03637
G1 X107.408 Y168.062 E0.03637
G1 X107.877 Y168.643 E0.02961
G1 X113.031 Y173.751 E0.28788
G1 X127.78 Y183.621 E0.704
G1 X128.749 Y184.058 E0.04217
G1 X129.798 Y184.202 E0.04198
G1 X130.844 Y184.045 E0.04198
G1 X131.804 Y183.599 E0.04198
G1 X132.402 Y183.114 E0.03055
G1 X192.183 Y123.309 E3.35442
G1 X192.757 Y122.343 E0.0446
G1 X193.017 Y121.249 E0.0446
G1 X192.937 Y120.127 E0.0446
G1 X192.526 Y119.081 E0.0446
G1 X191.991 Y118.372 E0.03524
G1 X189.877 Y116.327 E0.11665
G1 X188.852 Y115.811 E0.04553
G1 X187.718 Y115.632 E0.04553
G1 X113.941 Y115.632 E2.92669
G1 X112.895 Y115.792 E0.04198
G1 X111.94 Y116.237 E0.0418
G1 X111.338 Y116.735 E0.03099
M204 S1500
G1 X111.492 Y116.914 F18000
M204 S1000
G1 X111.646 Y117.093
G1 F1800
G1 X111.197 Y117.676 E0.02921
G1 X110.891 Y118.346 E0.02921
G1 X110.745 Y119.068 E0.02921
G1 X107.288 Y160.902 E1.6652
G1 X107.291 Y166.273 E0.21303
G1 X107.451 Y167.064 E0.03202
G1 X107.801 Y167.791 E0.03202
G1 X108.218 Y168.31 E0.02641
G1 X113.324 Y173.374 E0.28526
G1 X128.01 Y183.202 E0.701
G1 X128.85 Y183.59 E0.03673
G1 X129.771 Y183.725 E0.03691
G1 X130.688 Y183.594 E0.03673
G1 X131.533 Y183.206 E0.03691
G1 X132.065 Y182.776 E0.02711
G1 X191.796 Y123.027 E3.35147
G1 X192.309 Y122.178 E0.03935
G1 X192.541 Y121.214 E0.03935
G1 X192.47 Y120.225 E0.03935
G1 X192.103 Y119.303 E0.03935
G1 X191.644 Y118.699 E0.03009
G1 X189.622 Y116.731 E0.11193
G1 X188.719 Y116.27 E0.04022
G1 X187.718 Y116.109 E0.04022
G1 X113.948 Y116.11 E2.9264
G1 X113.045 Y116.245 E0.03621
G1 X112.212 Y116.629 E0.03639
G1 X111.693 Y117.055 E0.02666
; INIT printing object mmu2-frame-holder.stl id:0 copy 0
G1 E-0.75 F3000
M204 S1500
G1 Z0.6 F18000
; printing object mmu2-frame-holder.stl id:0 copy 0
G1 X119.98 Y122.858
M204 S1000
G1 X128.267 Y128.66
G1 Z0.2
G1 E0.75 F1800
;TYPE:Internal perimeter
;WIDTH:0.56
G1 X127.968 Y129.088 E0.02245
G1 X127.546 Y129.992 E0.04287
G1 X127.288 Y130.955 E0.04287
G1 X127.207 Y131.886 E0.0402
G1 X127.207 Y162.409 E1.31235
G1 X127.283 Y163.308 E0.03877
G1 X127.523 Y164.239 E0.04134
G1 X127.915 Y165.116 E0.04134
G1 X128.449 Y165.916 E0.04134
G1 X129.11 Y166.614 E0.04134
G1 X129.878 Y167.192 E0.04134
G1 X130.732 Y167.634 E0.04134
G1 X131.648 Y167.926 E0.04134
G1 X132.6 Y168.06 E0.04134
G1 X133.561 Y168.033 E0.04134
G1 X134.504 Y167.845 E0.04134
G1 X135.402 Y167.503 E0.04134
G1 X136.23 Y167.014 E0.04134
G1 X136.919 Y166.432 E0.03877
G1 X167.01 Y136.342 E1.82963
G1 X167.405 Y135.946 E0.02406
G1 X167.987 Y135.257 E0.03877
G1 X168.476 Y134.429 E0.04134
G1 X168.818 Y133.531 E0.04134
G1 X168.912 Y133.06 E0.02067
G1 X169.006 Y132.588 E0.02067
G1 X169.033 Y131.627 E0.04134
G1 X168.899 Y130.675 E0.04134
G1 X168.607 Y129.759 E0.04134
G1 X168.165 Y128.905 E0.04134
G1 X167.587 Y128.137 E0.04134
G1 X166.889 Y127.477 E0.04134
G1 X166.089 Y126.942 E0.04134
G1 X165.212 Y126.55 E0.04134
G1 X164.281 Y126.31 E0.04134
G1 X163.382 Y126.234 E0.03877
G1 X132.859 Y126.234 E1.31235
G1 X131.928 Y126.315 E0.0402
G1 X130.965 Y126.573 E0.04287
G1 X130.061 Y126.995 E0.04287
G1 X129.244 Y127.567 E0.04287
G1 X128.892 Y127.919 E0.02143
G1 X128.539 Y128.271 E0.02143
G1 X128.302 Y128.611 E0.01783
M204 S1500
G1 X128.513 Y128.76 F18000
M204 S1000
G1 X128.725 Y128.908
G1 F1800
G1 X128.417 Y129.348 E0.02309
G1 X128.034 Y130.169 E0.03898
G1 X127.799 Y131.045 E0.03898
G1 X127.724 Y131.909 E0.03729
G1 X127.724 Y162.388 E1.31044
G1 X127.794 Y163.221 E0.03596
G1 X128.012 Y164.067 E0.03759
G1 X128.37 Y164.865 E0.03759
G1 X128.855 Y165.592 E0.03759
G1 X129.456 Y166.227 E0.03759
G1 X130.154 Y166.753 E0.03759
G1 X130.931 Y167.154 E0.03759
G1 X131.764 Y167.42 E0.03759
G1 X132.629 Y167.542 E0.03759
G1 X133.503 Y167.517 E0.03759
G1 X134.361 Y167.347 E0.03759
G1 X135.177 Y167.035 E0.03759
G1 X135.93 Y166.591 E0.03759
G1 X136.569 Y166.051 E0.03596
G1 X166.644 Y135.976 E1.8287
G1 X167.024 Y135.596 E0.02312
G1 X167.564 Y134.957 E0.03596
G1 X168.008 Y134.204 E0.03758
G1 X168.32 Y133.388 E0.03759
G1 X168.405 Y132.959 E0.01879
G1 X168.49 Y132.53 E0.01879
G1 X168.515 Y131.656 E0.03758
G1 X168.393 Y130.791 E0.03758
G1 X168.127 Y129.958 E0.03759
G1 X167.726 Y129.181 E0.03759
G1 X167.2 Y128.483 E0.03759
G1 X166.565 Y127.882 E0.03759
G1 X165.838 Y127.397 E0.03759
G1 X165.04 Y127.04 E0.03759
G1 X164.194 Y126.821 E0.03759
G1 X163.36 Y126.751 E0.03596
G1 X132.882 Y126.751 E1.31044
G1 X132.018 Y126.826 E0.03729
G1 X131.142 Y127.061 E0.03898
G1 X130.321 Y127.444 E0.03898
G1 X129.578 Y127.964 E0.03898
G1 X129.258 Y128.285 E0.01949
G1 X128.937 Y128.605 E0.01949
G1 X128.76 Y128.859 E0.01331
M204 S1500
G1 X128.971 Y129.007 F18000
M204 S1000
G1 X129.183 Y129.155
;TYPE:External perimeter
G1 F1800
G1 X128.867 Y129.607 E0.02372
G1 X128.522 Y130.347 E0.03509
G1 X128.311 Y131.135 E0.03509
G1 X128.241 Y131.931 E0.03437
G1 X128.241 Y162.366 E1.30854
G1 X128.306 Y163.134 E0.03314
G1 X128.502 Y163.896 E0.03383
G1 X128.824 Y164.614 E0.03383
G1 X129.261 Y165.269 E0.03383
G1 X129.802 Y165.84 E0.03383
G1 X130.43 Y166.314 E0.03383
G1 X131.129 Y166.675 E0.03383
G1 X131.879 Y166.914 E0.03383
G1 X132.658 Y167.024 E0.03383
G1 X133.445 Y167.002 E0.03383
G1 X134.217 Y166.848 E0.03383
G1 X134.952 Y166.568 E0.03383
G1 X135.63 Y166.168 E0.03383
G1 X136.219 Y165.67 E0.03314
G1 X166.278 Y135.611 E1.82776
G1 X166.643 Y135.246 E0.02218
G1 X167.141 Y134.657 E0.03314
G1 X167.54 Y133.979 E0.03383
G1 X167.821 Y133.244 E0.03383
G1 X167.898 Y132.858 E0.01692
G1 X167.975 Y132.472 E0.01692
G1 X167.997 Y131.685 E0.03383
G1 X167.887 Y130.906 E0.03383
G1 X167.648 Y130.156 E0.03384
G1 X167.287 Y129.457 E0.03383
G1 X166.813 Y128.829 E0.03383
G1 X166.241 Y128.288 E0.03383
G1 X165.587 Y127.851 E0.03383
G1 X164.869 Y127.529 E0.03384
G1 X164.107 Y127.333 E0.03383
G1 X163.339 Y127.268 E0.03314
G1 X132.904 Y127.268 E1.30854
G1 X132.108 Y127.338 E0.03437
G1 X131.32 Y127.549 E0.03509
G1 X130.58 Y127.894 E0.03509
G1 X129.912 Y128.362 E0.03509
G1 X129.623 Y128.65 E0.01754
G1 X129.335 Y128.939 E0.01754
G1 X129.218 Y129.106 E0.00878
;WIPE_START
M204 S1500
G1 X128.785 Y129.12 F18000
;WIPE_END
G1 X126.21 Y125.677
M204 S1000
G1 X123.635 Y122.233
;TYPE:Internal perimeter
G1 F1800
G1 X115.942 Y122.237 E0.33076
G1 X115.282 Y122.276 E0.02843
G1 X115.284 Y120.662 E0.06938
G1 X126.211 Y120.662 E0.46982
G1 X127.463 Y121.915 E0.07616
G1 X128.211 Y122.662 E0.04545
G1 X180.69 Y122.662 E2.25634
G1 X182.69 Y120.662 E0.12161
G1 X187.169 Y120.662 E0.19259
G1 X187.455 Y120.948 E0.01738
G1 X129.775 Y178.628 E3.5072
G1 X123.437 Y172.29 E0.38539
G1 X122.32 Y171.336 E0.06317
G1 X121.019 Y170.539 E0.06557
G1 X119.61 Y169.955 E0.06557
G1 X118.128 Y169.599 E0.06557
G1 X116.663 Y169.484 E0.06317
G1 X115.831 Y169.484 E0.03576
G1 X111.835 Y165.488 E0.24297
G1 X111.835 Y162.412 E0.13225
G1 X113.416 Y162.412 E0.06796
G1 X113.607 Y163.368 E0.0419
G1 X113.607 Y165.912 E0.1094
G1 X123.635 Y165.912 E0.43117
G1 X123.635 Y122.293 E1.87541
M204 S1500
G1 X123.377 Y122.522 F18000
M204 S1000
G1 X123.118 Y122.75
G1 F1800
G1 X115.957 Y122.754 E0.30787
G1 X114.764 Y122.824 E0.05138
G1 X114.767 Y120.145 E0.11518
G1 X126.425 Y120.145 E0.50124
G1 X127.829 Y121.549 E0.08536
G1 X128.425 Y122.145 E0.03624
G1 X180.475 Y122.145 E2.23792
G1 X182.475 Y120.145 E0.12161
G1 X187.383 Y120.145 E0.21101
G1 X188.186 Y120.948 E0.04882
G1 X129.775 Y179.359 E3.55167
G1 X123.086 Y172.67 E0.40675
G1 X122.015 Y171.755 E0.06055
G1 X120.784 Y171.001 E0.06207
G1 X119.45 Y170.448 E0.06207
G1 X118.046 Y170.111 E0.06207
G1 X116.642 Y170.001 E0.06055
G1 X115.617 Y170.001 E0.0441
G1 X111.318 Y165.702 E0.26138
G1 X111.318 Y161.895 E0.16369
G1 X113.84 Y161.895 E0.10841
G1 X114.124 Y163.316 E0.06233
G1 X114.124 Y165.395 E0.08937
G1 X123.118 Y165.395 E0.38671
G1 X123.118 Y122.81 E1.83094
M204 S1500
G1 X122.859 Y123.039 F18000
M204 S1000
G1 X122.601 Y123.268
;TYPE:External perimeter
G1 F1800
G1 X115.973 Y123.271 E0.28498
G1 X114.679 Y123.347 E0.05571
G1 X114.724 Y123.878 E0.02292
G1 X114.438 Y123.649 E0.01578
G1 X114.198 Y123.424 E0.01412
G1 X114.248 Y122.606 E0.03526
G1 X114.251 Y119.628 E0.12802
G1 X126.639 Y119.628 E0.53265
G1 X128.195 Y121.183 E0.09457
G1 X128.639 Y121.628 E0.02704
G1 X180.261 Y121.628 E2.2195
G1 X182.261 Y119.628 E0.12161
G1 X187.597 Y119.628 E0.22943
G1 X188.917 Y120.948 E0.08026
G1 X129.775 Y180.09 E3.59613
G1 X122.734 Y173.05 E0.4281
G1 X121.71 Y172.175 E0.05793
G1 X120.548 Y171.463 E0.05857
G1 X119.29 Y170.942 E0.05857
G1 X117.965 Y170.624 E0.05857
G1 X116.622 Y170.518 E0.05793
G1 X115.403 Y170.518 E0.05244
G1 X110.801 Y165.916 E0.2798
G1 X110.801 Y161.378 E0.19513
G1 X114.263 Y161.378 E0.14887
G1 X114.641 Y163.265 E0.08275
G1 X114.641 Y164.878 E0.06934
G1 X122.601 Y164.878 E0.34224
G1 X122.601 Y123.328 E1.78646
;WIPE_START
M204 S1500
G1 X122.601 Y122.868 F18000
;WIPE_END
G1 E-0.75 F3000
G1 Z0.6 F18000
G1 X154.448 Y121.855
M204 S1000
G1 X186.295 Y120.843
G1 Z0.2
G1 E0.75 F1800
;TYPE:Solid infill
;WIDTH:0.560621
G1 X186.642 Y121.19 E0.02113
G1 X186.277 Y121.556 E0.02226
G1 X185.786 Y121.065 E0.02985
G1 X185.055 Y121.065 E0.03148
G1 X185.911 Y121.921 E0.05211
G1 X185.545 Y122.287 E0.02226
G1 X184.324 Y121.065 E0.07437
G1 X183.592 Y121.065 E0.03148
G1 X185.18 Y122.653 E0.09662
G1 X184.814 Y123.018 E0.02226
G1 X182.861 Y121.065 E0.11888
G1 X182.493 Y121.429 E0.02226
G1 X184.448 Y123.384 E0.11902
G1 X184.083 Y123.75 E0.02226
G1 X182.128 Y121.794 E0.11902
G1 X181.762 Y122.16 E0.02226
G1 X183.717 Y124.115 E0.11902
G1 X183.352 Y124.481 E0.02226
G1 X181.396 Y122.526 E0.11902
G1 X181.031 Y122.891 E0.02226
G1 X182.986 Y124.847 E0.11902
G1 X182.62 Y125.212 E0.02226
G1 X180.474 Y123.065 E0.13067
G1 X179.742 Y123.065 E0.03148
G1 X182.255 Y125.578 E0.15293
G1 X181.889 Y125.943 E0.02226
G1 X179.011 Y123.065 E0.17519
G1 X178.28 Y123.065 E0.03148
G1 X181.523 Y126.309 E0.19744
G1 X181.158 Y126.675 E0.02226
G1 X177.549 Y123.065 E0.2197
G1 X176.817 Y123.065 E0.03148
G1 X180.792 Y127.04 E0.24196
G1 X180.427 Y127.406 E0.02226
G1 X176.086 Y123.065 E0.26421
G1 X175.355 Y123.065 E0.03148
G1 X180.061 Y127.772 E0.28647
G1 X179.695 Y128.137 E0.02226
G1 X174.624 Y123.065 E0.30873
G1 X173.892 Y123.065 E0.03148
G1 X179.33 Y128.503 E0.33098
G1 X178.964 Y128.868 E0.02226
G1 X173.161 Y123.065 E0.35324
G1 X172.43 Y123.065 E0.03148
G1 X178.598 Y129.234 E0.3755
G1 X178.233 Y129.6 E0.02226
G1 X171.698 Y123.065 E0.39775
G1 X170.967 Y123.065 E0.03148
G1 X177.867 Y129.965 E0.42001
G1 X177.502 Y130.331 E0.02226
G1 X170.236 Y123.065 E0.44227
G1 X169.505 Y123.065 E0.03148
G1 X177.136 Y130.697 E0.46452
G1 X176.77 Y131.062 E0.02226
G1 X168.773 Y123.065 E0.48678
G1 X168.042 Y123.065 E0.03148
G1 X176.405 Y131.428 E0.50904
G1 X176.039 Y131.793 E0.02226
G1 X167.311 Y123.065 E0.53129
G1 X166.58 Y123.065 E0.03148
G1 X175.673 Y132.159 E0.55355
G1 X175.308 Y132.525 E0.02226
G1 X165.848 Y123.065 E0.57581
G1 X165.117 Y123.065 E0.03148
G1 X174.942 Y132.89 E0.59806
G1 X174.576 Y133.256 E0.02226
G1 X164.386 Y123.065 E0.62032
G1 X163.655 Y123.065 E0.03148
G1 X174.211 Y133.622 E0.64258
G1 X173.845 Y133.987 E0.02226
G1 X162.923 Y123.065 E0.66483
G1 X162.192 Y123.065 E0.03148
G1 X165.277 Y126.15 E0.18776
G1 X164.349 Y125.911 E0.04126
G1 X164.302 Y125.907 E0.00201
G1 X161.461 Y123.065 E0.17295
G1 X160.73 Y123.065 E0.03148
G1 X163.503 Y125.839 E0.16885
G1 X163.399 Y125.831 E0.0045
G1 X162.763 Y125.831 E0.02737
G1 X159.998 Y123.065 E0.16832
G1 X159.267 Y123.065 E0.03148
G1 X162.032 Y125.831 E0.16832
G1 X161.301 Y125.831 E0.03148
G1 X158.536 Y123.065 E0.16832
G1 X157.805 Y123.065 E0.03148
G1 X160.57 Y125.831 E0.16832
G1 X159.838 Y125.831 E0.03148
G1 X157.073 Y123.065 E0.16832
G1 X156.342 Y123.065 E0.03148
G1 X159.107 Y125.831 E0.16832
G1 X158.376 Y125.831 E0.03148
G1 X155.611 Y123.065 E0.16832
G1 X154.88 Y123.065 E0.03148
G1 X157.645 Y125.831 E0.16832
G1 X156.913 Y125.831 E0.03148
G1 X154.148 Y123.065 E0.16832
G1 X153.417 Y123.065 E0.03148
G1 X156.182 Y125.831 E0.16832
G1 X155.451 Y125.831 E0.03148
G1 X152.686 Y123.065 E0.16832
G1 X151.954 Y123.065 E0.03148
G1 X154.72 Y125.831 E0.16832
G1 X153.988 Y125.831 E0.03148
G1 X151.223 Y123.065 E0.16832
G1 X150.492 Y123.065 E0.03148
G1 X153.257 Y125.831 E0.16832
G1 X152.526 Y125.831 E0.03148
G1 X149.761 Y123.065 E0.16832
G1 X149.029 Y123.065 E0.03148
G1 X151.795 Y125.831 E0.16832
G1 X151.063 Y125.831 E0.03148
G1 X148.298 Y123.065 E0.16832
G1 X147.567 Y123.065 E0.03148
G1 X150.332 Y125.831 E0.16832
G1 X149.601 Y125.831 E0.03148
G1 X146.836 Y123.065 E0.16832
G1 X146.104 Y123.065 E0.03148
G1 X148.869 Y125.831 E0.16832
G1 X148.138 Y125.831 E0.03148
G1 X145.373 Y123.065 E0.16832
G1 X144.642 Y123.065 E0.03148
G1 X147.407 Y125.831 E0.16832
G1 X146.676 Y125.831 E0.03148
G1 X143.911 Y123.065 E0.16832
G1 X143.179 Y123.065 E0.03148
G1 X145.944 Y125.831 E0.16832
G1 X145.213 Y125.831 E0.03148
G1 X142.448 Y123.065 E0.16832
G1 X141.717 Y123.065 E0.03148
G1 X144.482 Y125.831 E0.16832
G1 X143.751 Y125.831 E0.03148
G1 X140.986 Y123.065 E0.16832
G1 X140.254 Y123.065 E0.03148
G1 X143.019 Y125.831 E0.16832
G1 X142.288 Y125.831 E0.03148
G1 X139.523 Y123.065 E0.16832
G1 X138.792 Y123.065 E0.03148
G1 X141.557 Y125.831 E0.16832
G1 X140.826 Y125.831 E0.03148
G1 X138.061 Y123.065 E0.16832
G1 X137.329 Y123.065 E0.03148
G1 X140.094 Y125.831 E0.16832
G1 X139.363 Y125.831 E0.03148
G1 X136.598 Y123.065 E0.16832
G1 X135.867 Y123.065 E0.03148
G1 X138.632 Y125.831 E0.16832
G1 X137.901 Y125.831 E0.03148
G1 X135.135 Y123.065 E0.16832
G1 X134.404 Y123.065 E0.03148
G1 X137.169 Y125.831 E0.16832
G1 X136.438 Y125.831 E0.03148
G1 X133.673 Y123.065 E0.16832
G1 X132.942 Y123.065 E0.03148
G1 X135.707 Y125.831 E0.16832
G1 X134.976 Y125.831 E0.03148
G1 X132.21 Y123.065 E0.16832
G1 X131.479 Y123.065 E0.03148
G1 X134.244 Y125.831 E0.16832
G1 X133.513 Y125.831 E0.03148
