; generated by SuperSlicer 2.4 on 2022-05-22 at 23:06:26 UTC


;
;

;
;
; 

; external perimeters extrusion width = 0.40mm
; perimeters extrusion width = 0.45mm
; infill extrusion width = 0.72mm
; solid infill extrusion width = 0.56mm
; top infill extrusion width = 0.40mm
; first layer extrusion width = 0.48mm

; object:{"name":"Mount","id":"Mount.stl id:0 copy 0","object_center":[150.000000,150.000000,0.000000],"boundingbox_center":[150.000000,150.000000,32.298988],"boundingbox_size":[117.000000,66.800003,64.597977]}
; plater:{"center":[150.000000,150.000000,0.000000],"boundingbox_center":[150.000000,150.000000,32.298988],"boundingbox_size":[117.000000,66.800003,64.597977]}

;TYPE:Custom
print_start EXTRUDER=245 BED=110 CHAMBER=50
M107
G21 ; set units to millimeters
G90 ; use absolute coordinates
M83 ; use relative distances for extrusion
; Filament gcode
M104 S245 ; set temperature
M109 S245 ; set temperature and wait for it to be reached
M190 S110 ; set bed temperature and wait for it to be reached
M107
;LAYER_CHANGE
;Z:0.25
;HEIGHT:0.25
;BEFORE_LAYER_CHANGE
;0.25


G1 Z0.25 F27000
;AFTER_LAYER_CHANGE
;0.25
G92 E0
; INIT printing object Mount.stl id:0 copy 0
G1 E-0.75 F3000
M204 S1500
G1 Z0.65 F27000
; printing object Mount.stl id:0 copy 0
G1 X102.606 Y121.785
G1 Z0.25
G1 E0.75 F1800
;TYPE:Internal perimeter
;WIDTH:0.48
G1 F900
G1 X102.606 Y128.043 E0.25623
G1 X96.606 Y128.043 E0.24568
G1 X96.606 Y175.294 E1.93475
G1 X203.394 Y175.294 E4.37255
G1 X203.394 Y128.043 E1.93475
G1 X197.394 Y128.043 E0.24568
G1 X197.394 Y120.506 E0.3086
G1 X102.606 Y120.506 E3.8812
G1 X102.606 Y121.725 E0.04992
G1 X103.032 Y121.785 F27000
G1 F900
G1 X103.032 Y128.469 E0.27369
G1 X97.032 Y128.469 E0.24568
G1 X97.032 Y174.868 E1.89984
G1 X202.968 Y174.868 E4.33763
G1 X202.968 Y128.469 E1.89984
G1 X196.968 Y128.469 E0.24568
G1 X196.968 Y120.932 E0.3086
G1 X103.032 Y120.932 E3.84628
G1 X103.032 Y121.725 E0.03246
G1 X103.459 Y121.785 F27000
G1 F900
G1 X103.459 Y128.896 E0.29115
G1 X97.459 Y128.896 E0.24568
G1 X97.459 Y174.441 E1.86492
G1 X202.541 Y174.441 E4.30272
G1 X202.541 Y128.896 E1.86492
G1 X196.541 Y128.896 E0.24568
G1 X196.541 Y121.359 E0.3086
G1 X103.459 Y121.359 E3.81137
G1 X103.459 Y121.725 E0.015
M204 S1000
G1 X103.885 Y121.785 F27000
;TYPE:External perimeter
G1 F900
G1 X103.885 Y129.322 E0.3086
G1 X97.885 Y129.322 E0.24568
G1 X97.885 Y174.015 E1.83001
G1 X202.115 Y174.015 E4.2678
G1 X202.115 Y129.322 E1.83001
G1 X196.115 Y129.322 E0.24568
G1 X196.115 Y121.785 E0.3086
G1 X103.945 Y121.785 E3.774
;WIPE_START
M204 S1500
G1 X103.485 Y121.785 F27000
;WIPE_END
G1 X103.885 Y119.294
;TYPE:Internal perimeter
G1 F900
G1 X206.394 Y119.294 E4.19733
G1 X206.581 Y119.319 E0.00774
G1 X206.606 Y119.506 E0.00774
G1 X206.606 Y177.294 E2.36618
G1 X206.581 Y177.481 E0.00774
G1 X206.394 Y177.506 E0.00774
G1 X93.606 Y177.506 E4.61821
G1 X93.419 Y177.481 E0.00774
G1 X93.394 Y177.294 E0.00774
G1 X93.394 Y119.506 E2.36618
G1 X93.419 Y119.319 E0.00774
G1 X93.606 Y119.294 E0.00774
G1 X103.825 Y119.294 E0.41842
G1 X103.885 Y118.868 F27000
G1 F900
G1 X206.422 Y118.868 E4.19848
G1 X206.635 Y118.896 E0.00881
G1 X206.761 Y118.948 E0.00558
G1 X206.869 Y119.031 E0.00558
G1 X206.952 Y119.139 E0.00558
G1 X207.004 Y119.265 E0.00558
G1 X207.032 Y119.478 E0.00881
G1 X207.032 Y177.322 E2.36847
G1 X207.004 Y177.535 E0.00881
G1 X206.952 Y177.661 E0.00558
G1 X206.869 Y177.769 E0.00558
G1 X206.761 Y177.852 E0.00558
G1 X206.635 Y177.904 E0.00558
G1 X206.422 Y177.932 E0.00881
G1 X93.578 Y177.932 E4.6205
G1 X93.365 Y177.904 E0.00881
G1 X93.239 Y177.852 E0.00558
G1 X93.131 Y177.769 E0.00558
G1 X93.048 Y177.661 E0.00558
G1 X92.996 Y177.535 E0.00558
G1 X92.968 Y177.322 E0.00881
G1 X92.968 Y119.478 E2.36847
G1 X92.996 Y119.265 E0.00881
G1 X93.048 Y119.139 E0.00558
G1 X93.131 Y119.031 E0.00558
G1 X93.239 Y118.948 E0.00558
G1 X93.365 Y118.896 E0.00558
G1 X93.578 Y118.868 E0.00881
G1 X103.825 Y118.868 E0.41957
G1 X103.885 Y118.441 F27000
G1 F900
G1 X206.45 Y118.441 E4.19962
G1 X206.746 Y118.48 E0.01225
G1 X206.976 Y118.576 E0.01018
G1 X207.173 Y118.727 E0.01018
G1 X207.324 Y118.924 E0.01018
G1 X207.42 Y119.154 E0.01018
G1 X207.459 Y119.45 E0.01225
G1 X207.459 Y177.35 E2.37076
G1 X207.42 Y177.646 E0.01225
G1 X207.324 Y177.876 E0.01018
G1 X207.173 Y178.073 E0.01018
G1 X206.976 Y178.224 E0.01018
G1 X206.746 Y178.32 E0.01018
G1 X206.45 Y178.359 E0.01225
G1 X93.55 Y178.359 E4.62279
G1 X93.254 Y178.32 E0.01225
G1 X93.024 Y178.224 E0.01018
G1 X92.827 Y178.073 E0.01018
G1 X92.676 Y177.876 E0.01018
G1 X92.58 Y177.646 E0.01018
G1 X92.541 Y177.35 E0.01225
G1 X92.541 Y119.45 E2.37076
G1 X92.58 Y119.154 E0.01225
G1 X92.676 Y118.924 E0.01018
G1 X92.827 Y118.727 E0.01018
G1 X93.024 Y118.576 E0.01018
G1 X93.254 Y118.48 E0.01018
G1 X93.55 Y118.441 E0.01225
G1 X103.825 Y118.441 E0.42071
M204 S1000
G1 X103.885 Y118.015 F27000
;TYPE:External perimeter
G1 F900
G1 X206.478 Y118.015 E4.20076
G1 X206.858 Y118.065 E0.01569
G1 X207.126 Y118.176 E0.01189
G1 X207.191 Y118.203 E0.00288
G1 X207.463 Y118.412 E0.01403
G1 X207.477 Y118.423 E0.00075
G1 X207.697 Y118.709 E0.01477
G1 X207.835 Y119.042 E0.01477
G1 X207.885 Y119.422 E0.01569
G1 X207.885 Y177.378 E2.37305
G1 X207.835 Y177.758 E0.01569
G1 X207.697 Y178.091 E0.01477
G1 X207.477 Y178.377 E0.01477
G1 X207.191 Y178.597 E0.01477
G1 X206.858 Y178.735 E0.01477
G1 X206.478 Y178.785 E0.01569
G1 X93.522 Y178.785 E4.62508
G1 X93.142 Y178.735 E0.01569
G1 X93.093 Y178.715 E0.00216
G1 X92.809 Y178.597 E0.01261
G1 X92.523 Y178.377 E0.01477
G1 X92.303 Y178.091 E0.01477
G1 X92.165 Y177.758 E0.01477
G1 X92.115 Y177.378 E0.01569
G1 X92.115 Y119.422 E2.37304
G1 X92.165 Y119.042 E0.01569
G1 X92.303 Y118.709 E0.01477
G1 X92.523 Y118.423 E0.01477
G1 X92.809 Y118.203 E0.01477
G1 X93.142 Y118.065 E0.01477
G1 X93.522 Y118.015 E0.01569
G1 X103.825 Y118.015 E0.42186
;WIPE_START
M204 S1500
G1 X104.085 Y118.361 F27000
;WIPE_END
G1 X206.517 Y120.245
;TYPE:Solid infill
;WIDTH:0.451441
G1 F720
G1 X205.839 Y119.566 E0.03695
G1 X205.236 Y119.566 E0.02322
G1 X206.334 Y120.664 E0.05981
G1 X206.334 Y121.267 E0.02322
G1 X204.633 Y119.566 E0.09264
G1 X204.03 Y119.566 E0.02322
G1 X206.334 Y121.87 E0.12548
G1 X206.334 Y122.473 E0.02322
G1 X203.427 Y119.566 E0.15832
G1 X202.824 Y119.566 E0.02322
G1 X206.334 Y123.076 E0.19116
G1 X206.334 Y123.679 E0.02322
G1 X202.221 Y119.566 E0.22399
G1 X201.618 Y119.566 E0.02322
G1 X206.334 Y124.282 E0.25683
G1 X206.334 Y124.885 E0.02322
G1 X201.015 Y119.566 E0.28967
G1 X200.412 Y119.566 E0.02322
G1 X206.334 Y125.488 E0.3225
G1 X206.334 Y126.091 E0.02322
G1 X199.809 Y119.566 E0.35534
G1 X199.206 Y119.566 E0.02322
G1 X206.334 Y126.694 E0.38818
G1 X206.334 Y127.297 E0.02322
G1 X198.603 Y119.566 E0.42102
G1 X198 Y119.566 E0.02322
G1 X206.334 Y127.9 E0.45385
G1 X206.334 Y128.502 E0.02322
G1 X197.398 Y119.566 E0.48669
G1 X196.795 Y119.566 E0.02322
G1 X206.334 Y129.105 E0.51953
G1 X206.334 Y129.708 E0.02322
G1 X197.641 Y121.016 E0.47341
G1 X197.641 Y121.619 E0.02322
G1 X206.334 Y130.311 E0.47341
G1 X206.334 Y130.914 E0.02322
G1 X203.641 Y128.222 E0.14665
G1 X203.641 Y127.796 E0.0164
G1 X203.215 Y127.796 E0.0164
G1 X197.641 Y122.222 E0.30357
G1 X197.641 Y122.824 E0.02322
G1 X202.612 Y127.796 E0.27073
G1 X202.009 Y127.796 E0.02322
G1 X197.641 Y123.427 E0.23789
G1 X197.641 Y124.03 E0.02322
G1 X201.406 Y127.796 E0.20506
G1 X200.804 Y127.796 E0.02322
G1 X197.641 Y124.633 E0.17222
G1 X197.641 Y125.236 E0.02322
G1 X200.201 Y127.796 E0.13938
G1 X199.598 Y127.796 E0.02322
G1 X197.641 Y125.839 E0.10654
G1 X197.641 Y126.442 E0.02322
G1 X198.995 Y127.796 E0.07371
G1 X198.392 Y127.796 E0.02322
G1 X197.641 Y127.045 E0.04087
G1 X197.641 Y127.648 E0.02322
G1 X197.972 Y127.979 E0.01802
G1 X203.458 Y128.641 F27000
G1 F720
G1 X206.334 Y131.517 E0.15663
G1 X206.334 Y132.12 E0.02322
G1 X203.641 Y129.427 E0.14665
G1 X203.641 Y130.03 E0.02322
G1 X206.334 Y132.723 E0.14665
G1 X206.334 Y133.326 E0.02322
G1 X203.641 Y130.633 E0.14665
G1 X203.641 Y131.236 E0.02322
G1 X206.334 Y133.929 E0.14665
G1 X206.334 Y134.532 E0.02322
G1 X203.641 Y131.839 E0.14665
G1 X203.641 Y132.442 E0.02322
G1 X206.334 Y135.135 E0.14665
G1 X206.334 Y135.738 E0.02322
G1 X203.641 Y133.045 E0.14665
G1 X203.641 Y133.648 E0.02322
G1 X206.334 Y136.341 E0.14665
G1 X206.334 Y136.944 E0.02322
G1 X203.641 Y134.251 E0.14665
G1 X203.641 Y134.854 E0.02322
G1 X206.334 Y137.547 E0.14665
G1 X206.334 Y138.15 E0.02322
G1 X203.641 Y135.457 E0.14665
G1 X203.641 Y136.06 E0.02322
G1 X206.334 Y138.753 E0.14665
G1 X206.334 Y139.356 E0.02322
G1 X203.641 Y136.663 E0.14665
G1 X203.641 Y137.266 E0.02322
G1 X206.334 Y139.958 E0.14665
G1 X206.334 Y140.561 E0.02322
G1 X203.641 Y137.869 E0.14665
G1 X203.641 Y138.472 E0.02322
G1 X206.334 Y141.164 E0.14665
G1 X206.334 Y141.767 E0.02322
G1 X203.641 Y139.075 E0.14665
G1 X203.641 Y139.678 E0.02322
G1 X206.334 Y142.37 E0.14665
G1 X206.334 Y142.973 E0.02322
G1 X203.641 Y140.281 E0.14665
G1 X203.641 Y140.883 E0.02322
G1 X206.334 Y143.576 E0.14665
G1 X206.334 Y144.179 E0.02322
G1 X203.641 Y141.486 E0.14665
G1 X203.641 Y142.089 E0.02322
G1 X206.334 Y144.782 E0.14665
G1 X206.334 Y145.385 E0.02322
G1 X203.641 Y142.692 E0.14665
G1 X203.641 Y143.295 E0.02322
G1 X206.334 Y145.988 E0.14665
G1 X206.334 Y146.591 E0.02322
G1 X203.641 Y143.898 E0.14665
G1 X203.641 Y144.501 E0.02322
G1 X206.334 Y147.194 E0.14665
G1 X206.334 Y147.797 E0.02322
G1 X203.641 Y145.104 E0.14665
G1 X203.641 Y145.707 E0.02322
G1 X206.334 Y148.4 E0.14665
G1 X206.334 Y149.003 E0.02322
G1 X203.641 Y146.31 E0.14665
G1 X203.641 Y146.913 E0.02322
G1 X206.334 Y149.606 E0.14665
G1 X206.334 Y150.209 E0.02322
G1 X203.641 Y147.516 E0.14665
G1 X203.641 Y148.119 E0.02322
G1 X206.334 Y150.812 E0.14665
G1 X206.334 Y151.415 E0.02322
G1 X203.641 Y148.722 E0.14665
G1 X203.641 Y149.325 E0.02322
G1 X206.334 Y152.017 E0.14665
G1 X206.334 Y152.62 E0.02322
G1 X203.641 Y149.928 E0.14665
G1 X203.641 Y150.531 E0.02322
G1 X206.334 Y153.223 E0.14665
G1 X206.334 Y153.826 E0.02322
G1 X203.641 Y151.134 E0.14665
G1 X203.641 Y151.737 E0.02322
G1 X206.334 Y154.429 E0.14665
G1 X206.334 Y155.032 E0.02322
G1 X203.641 Y152.339 E0.14665
G1 X203.641 Y152.942 E0.02322
G1 X206.334 Y155.635 E0.14665
G1 X206.334 Y156.238 E0.02322
G1 X203.641 Y153.545 E0.14665
G1 X203.641 Y154.148 E0.02322
G1 X206.334 Y156.841 E0.14665
G1 X206.334 Y157.444 E0.02322
G1 X203.641 Y154.751 E0.14665
G1 X203.641 Y155.354 E0.02322
G1 X206.334 Y158.047 E0.14665
G1 X206.334 Y158.65 E0.02322
G1 X203.641 Y155.957 E0.14665
G1 X203.641 Y156.56 E0.02322
G1 X206.334 Y159.253 E0.14665
G1 X206.334 Y159.856 E0.02322
G1 X203.641 Y157.163 E0.14665
G1 X203.641 Y157.766 E0.02322
G1 X206.334 Y160.459 E0.14665
G1 X206.334 Y161.062 E0.02322
G1 X203.641 Y158.369 E0.14665
G1 X203.641 Y158.972 E0.02322
G1 X206.334 Y161.665 E0.14665
G1 X206.334 Y162.268 E0.02322
G1 X203.641 Y159.575 E0.14665
G1 X203.641 Y160.178 E0.02322
G1 X206.334 Y162.871 E0.14665
G1 X206.334 Y163.473 E0.02322
G1 X203.641 Y160.781 E0.14665
G1 X203.641 Y161.384 E0.02322
G1 X206.334 Y164.076 E0.14665
G1 X206.334 Y164.679 E0.02322
G1 X203.641 Y161.987 E0.14665
G1 X203.641 Y162.59 E0.02322
G1 X206.334 Y165.282 E0.14665
G1 X206.334 Y165.885 E0.02322
G1 X203.641 Y163.193 E0.14665
G1 X203.641 Y163.796 E0.02322
G1 X206.334 Y166.488 E0.14665
G1 X206.334 Y167.091 E0.02322
G1 X203.641 Y164.398 E0.14665
G1 X203.641 Y165.001 E0.02322
G1 X206.334 Y167.694 E0.14665
G1 X206.334 Y168.297 E0.02322
G1 X203.641 Y165.604 E0.14665
G1 X203.641 Y166.207 E0.02322
G1 X206.334 Y168.9 E0.14665
G1 X206.334 Y169.503 E0.02322
G1 X203.641 Y166.81 E0.14665
G1 X203.641 Y167.413 E0.02322
G1 X206.334 Y170.106 E0.14665
G1 X206.334 Y170.709 E0.02322
G1 X203.641 Y168.016 E0.14665
G1 X203.641 Y168.619 E0.02322
G1 X206.334 Y171.312 E0.14665
G1 X206.334 Y171.915 E0.02322
G1 X203.641 Y169.222 E0.14665
G1 X203.641 Y169.825 E0.02322
G1 X206.334 Y172.518 E0.14665
G1 X206.334 Y173.121 E0.02322
G1 X203.641 Y170.428 E0.14665
G1 X203.641 Y171.031 E0.02322
G1 X206.334 Y173.724 E0.14665
G1 X206.334 Y174.327 E0.02322
G1 X203.641 Y171.634 E0.14665
G1 X203.641 Y172.237 E0.02322
G1 X206.334 Y174.929 E0.14665
G1 X206.334 Y175.532 E0.02322
G1 X203.641 Y172.84 E0.14665
G1 X203.641 Y173.443 E0.02322
G1 X206.334 Y176.135 E0.14665
G1 X206.334 Y176.738 E0.02322
G1 X203.641 Y174.046 E0.14665
G1 X203.641 Y174.649 E0.02322
G1 X206.227 Y177.234 E0.14081
G1 X205.624 Y177.234 E0.02322
G1 X203.641 Y175.252 E0.10797
G1 X203.641 Y175.541 E0.01116
G1 X203.328 Y175.541 E0.01206
G1 X205.021 Y177.234 E0.09219
G1 X204.418 Y177.234 E0.02322
G1 X202.725 Y175.541 E0.09219
G1 X202.122 Y175.541 E0.02322
G1 X203.815 Y177.234 E0.09219
G1 X203.212 Y177.234 E0.02322
G1 X201.519 Y175.541 E0.09219
G1 X200.916 Y175.541 E0.02322
G1 X202.609 Y177.234 E0.09219
G1 X202.006 Y177.234 E0.02322
G1 X200.313 Y175.541 E0.09219
G1 X199.71 Y175.541 E0.02322
G1 X201.403 Y177.234 E0.09219
G1 X200.8 Y177.234 E0.02322
G1 X199.108 Y175.541 E0.09219
G1 X198.505 Y175.541 E0.02322
G1 X200.197 Y177.234 E0.09219
G1 X199.594 Y177.234 E0.02322
G1 X197.902 Y175.541 E0.09219
G1 X197.299 Y175.541 E0.02322
G1 X198.991 Y177.234 E0.09219
G1 X198.388 Y177.234 E0.02322
G1 X196.696 Y175.541 E0.09219
G1 X196.093 Y175.541 E0.02322
G1 X197.785 Y177.234 E0.09219
G1 X197.183 Y177.234 E0.02322
G1 X195.49 Y175.541 E0.09219
G1 X194.887 Y175.541 E0.02322
G1 X196.58 Y177.234 E0.09219
G1 X195.977 Y177.234 E0.02322
G1 X194.284 Y175.541 E0.09219
G1 X193.681 Y175.541 E0.02322
G1 X195.374 Y177.234 E0.09219
G1 X194.771 Y177.234 E0.02322
G1 X193.078 Y175.541 E0.09219
G1 X192.475 Y175.541 E0.02322
G1 X194.168 Y177.234 E0.09219
G1 X193.565 Y177.234 E0.02322
G1 X191.872 Y175.541 E0.09219
G1 X191.269 Y175.541 E0.02322
G1 X192.962 Y177.234 E0.09219
G1 X192.359 Y177.234 E0.02322
G1 X190.666 Y175.541 E0.09219
G1 X190.063 Y175.541 E0.02322
G1 X191.756 Y177.234 E0.09219
G1 X191.153 Y177.234 E0.02322
G1 X189.46 Y175.541 E0.09219
G1 X188.857 Y175.541 E0.02322
G1 X190.55 Y177.234 E0.09219
G1 X189.947 Y177.234 E0.02322
G1 X188.254 Y175.541 E0.09219
G1 X187.651 Y175.541 E0.02322
G1 X189.344 Y177.234 E0.09219
G1 X188.741 Y177.234 E0.02322
G1 X187.049 Y175.541 E0.09219
G1 X186.446 Y175.541 E0.02322
G1 X188.138 Y177.234 E0.09219
G1 X187.535 Y177.234 E0.02322
G1 X185.843 Y175.541 E0.09219
G1 X185.24 Y175.541 E0.02322
G1 X186.932 Y177.234 E0.09219
G1 X186.329 Y177.234 E0.02322
G1 X184.637 Y175.541 E0.09219
G1 X184.034 Y175.541 E0.02322
G1 X185.727 Y177.234 E0.09219
G1 X185.124 Y177.234 E0.02322
G1 X183.431 Y175.541 E0.09219
G1 X182.828 Y175.541 E0.02322
G1 X184.521 Y177.234 E0.09219
G1 X183.918 Y177.234 E0.02322
G1 X182.225 Y175.541 E0.09219
G1 X181.622 Y175.541 E0.02322
G1 X183.315 Y177.234 E0.09219
G1 X182.712 Y177.234 E0.02322
G1 X181.019 Y175.541 E0.09219
G1 X180.416 Y175.541 E0.02322
G1 X182.109 Y177.234 E0.09219
G1 X181.506 Y177.234 E0.02322
G1 X179.813 Y175.541 E0.09219
G1 X179.21 Y175.541 E0.02322
G1 X180.903 Y177.234 E0.09219
G1 X180.3 Y177.234 E0.02322
G1 X178.607 Y175.541 E0.09219
G1 X178.004 Y175.541 E0.02322
G1 X179.697 Y177.234 E0.09219
G1 X179.094 Y177.234 E0.02322
G1 X177.401 Y175.541 E0.09219
G1 X176.798 Y175.541 E0.02322
G1 X178.491 Y177.234 E0.09219
G1 X177.888 Y177.234 E0.02322
G1 X176.195 Y175.541 E0.09219
G1 X175.593 Y175.541 E0.02322
G1 X177.285 Y177.234 E0.09219
G1 X176.682 Y177.234 E0.02322
G1 X174.99 Y175.541 E0.09219
G1 X174.387 Y175.541 E0.02322
G1 X176.079 Y177.234 E0.09219
G1 X175.476 Y177.234 E0.02322
G1 X173.784 Y175.541 E0.09219
G1 X173.181 Y175.541 E0.02322
G1 X174.873 Y177.234 E0.09219
G1 X174.27 Y177.234 E0.02322
G1 X172.578 Y175.541 E0.09219
G1 X171.975 Y175.541 E0.02322
G1 X173.668 Y177.234 E0.09219
G1 X173.065 Y177.234 E0.02322
G1 X171.372 Y175.541 E0.09219
G1 X170.769 Y175.541 E0.02322
G1 X172.462 Y177.234 E0.09219
G1 X171.859 Y177.234 E0.02322
G1 X170.166 Y175.541 E0.09219
G1 X169.563 Y175.541 E0.02322
G1 X171.256 Y177.234 E0.09219
G1 X170.653 Y177.234 E0.02322
G1 X168.96 Y175.541 E0.09219
G1 X168.357 Y175.541 E0.02322
G1 X170.05 Y177.234 E0.09219
G1 X169.447 Y177.234 E0.02322
G1 X167.754 Y175.541 E0.09219
G1 X167.151 Y175.541 E0.02322
