; generated by SuperSlicer 2.5.59 on 2022-09-21 at 23:37:16 UTC


;
;

;
;
; 

; external perimeters extrusion width = 0.40mm
; perimeters extrusion width = 0.40mm
; infill extrusion width = 0.50mm
; solid infill extrusion width = 0.56mm
; top infill extrusion width = 0.40mm
; first layer extrusion width = 0.80mm

; external perimeters extrusion width = 0.40mm
; perimeters extrusion width = 0.40mm
; infill extrusion width = 0.50mm
; solid infill extrusion width = 0.56mm
; top infill extrusion width = 0.40mm
; first layer extrusion width = 0.80mm

; object:{"name":"NewLatch-3","id":"NewLatch-3.0mm.stl id:0 copy 0","object_center":[139.689767,139.689766,0.000000],"boundingbox_center":[139.689767,139.689766,9.458240],"boundingbox_size":[46.730983,46.730983,18.916479]}
; object:{"name":"NewLatch-3","id":"NewLatch-3.0mm.stl id:1 copy 0","object_center":[160.310234,160.310235,0.000000],"boundingbox_center":[160.310234,160.310235,9.458240],"boundingbox_size":[46.730983,46.730983,18.916479]}
; plater:{"center":[150.000000,150.000000,0.000000],"boundingbox_center":[150.000000,150.000000,9.458240],"boundingbox_size":[67.351450,67.351452,18.916479]}

M73 P0 R40


; Pre-Processed for Cancel-Object support by preprocess_cancellation v0.2.0
; 2 known objects
EXCLUDE_OBJECT_DEFINE NAME=NewLatch_3_0mm_stl_id_0_copy_0 CENTER=139.941,140.080 POLYGON=[[146.695,116.526],[146.511,116.557],[146.316,116.651],[146.033,116.905],[116.765,146.164],[116.56,146.501],[116.537,146.877],[116.642,147.156],[116.802,147.349],[132.066,162.613],[132.204,162.723],[132.402,162.818],[132.696,162.852],[132.869,162.819],[138.2,161.085],[138.365,160.987],[138.508,160.854],[160.983,138.368],[161.121,138.11],[162.818,132.877],[162.851,132.592],[162.818,132.402],[162.71,132.182],[162.612,132.065],[147.312,116.765],[146.98,116.562],[146.695,116.526]]
EXCLUDE_OBJECT_DEFINE NAME=NewLatch_3_0mm_stl_id_1_copy_0 CENTER=160.531,160.690 POLYGON=[[167.315,137.146],[167.032,137.218],[166.787,137.393],[137.386,166.784],[137.181,167.121],[137.157,167.498],[137.263,167.776],[137.422,167.969],[152.686,183.233],[152.825,183.344],[153.023,183.438],[153.317,183.472],[153.49,183.44],[158.82,181.705],[159.104,181.499],[181.604,158.989],[181.741,158.73],[183.438,153.498],[183.471,153.212],[183.438,153.023],[183.33,152.803],[183.233,152.686],[167.933,137.386],[167.601,137.183],[167.315,137.146]]
;TYPE:Custom
; custom gcode: start_gcode
PRINT_START EXTRUDER=225 BED=70 AREA_START=113.243,113.232 AREA_END=186.756,186.761
; custom gcode end: start_gcode
M107
G21 ; set units to millimeters
G90 ; use absolute coordinates
M83 ; use relative distances for extrusion
; custom gcode: start_filament_gcode
; Filament gcode
SET_PRESSURE_ADVANCE ADVANCE=0.02
SET_PRESSURE_ADVANCE EXTRUDER=extruder SMOOTH_TIME=0.04
; custom gcode end: start_filament_gcode
;_TOOLCHANGE 0
M104 S225 ; set temperature
M109 S225 ; set temperature and wait for it to be reached
M190 S70 ; set bed temperature and wait for it to be reached
;LAYER_CHANGE
;Z:0.24
;HEIGHT:0.24
G1 E-0.8 F2100
M73 P0 R39
G1 Z0.24 F36000
G92 E0
M204 S2000
G1 X129.599 Y129.625
G1 E0.8 F2100
;TYPE:Skirt
;WIDTH:0.4
G1 F1800
G1 X114.907 Y144.315 E0.72244
G1 X114.531 Y144.747 E0.01991
G1 X114.008 Y145.609 E0.03505
G1 X113.648 Y146.788 E0.04289
G1 X113.605 Y148.035 E0.04339
G1 X113.802 Y149.004 E0.03437
G1 X114.727 Y150.486 E0.06076
G1 X149.513 Y185.273 E1.71068
G1 X151.822 Y186.382 E0.08905
G1 X151.974 Y186.399 E0.00533
G1 X152.989 Y186.389 E0.03531
G1 X159.089 Y185.705 E0.21342
G1 X159.683 Y185.592 E0.02103
G1 X160.545 Y185.274 E0.03195
G1 X161.342 Y184.791 E0.0324
G1 X161.867 Y184.344 E0.02397
G1 X184.654 Y161.517 E1.12157
M73 P1 R39
G1 X185.274 Y160.545 E0.04011
G1 X185.679 Y159.244 E0.04738
G1 X186.397 Y152.904 E0.22187
G1 X186.393 Y151.962 E0.03275
G1 X186.196 Y150.994 E0.03433
G1 X185.271 Y149.512 E0.06076
G1 X150.484 Y114.724 E1.71074
G1 X148.297 Y113.631 E0.085
G1 X147.743 Y113.581 E0.01935
G1 X146.791 Y113.644 E0.03319
G1 X145.911 Y113.88 E0.03167
G1 X145.15 Y114.254 E0.0295
G1 X144.369 Y114.859 E0.03433
G1 X129.599 Y129.625 E0.72626
G1 X129.844 Y129.87 F36000
G1 F1800
G1 X115.152 Y144.56 E0.72244
G1 X114.802 Y144.963 E0.01857
G1 X114.32 Y145.759 E0.03237
G1 X113.988 Y146.854 E0.03977
G1 X113.95 Y148.01 E0.04022
G1 X114.972 Y150.242 E0.08534
G1 X149.758 Y185.028 E1.71068
G1 X151.86 Y186.037 E0.08107
G1 X152.012 Y186.054 E0.00533
G1 X152.951 Y186.044 E0.03265
G1 X159.05 Y185.361 E0.21342
G1 X159.6 Y185.256 E0.01946
G1 X160.402 Y184.958 E0.02977
G1 X161.128 Y184.519 E0.0295
G1 X161.622 Y184.099 E0.02252
G1 X184.381 Y161.304 E1.12012
G1 X184.958 Y160.402 E0.03721
G1 X185.338 Y159.181 E0.04447
G1 X186.052 Y152.865 E0.22103
G1 X186.048 Y151.987 E0.03053
G1 X185.026 Y149.757 E0.08531
G1 X150.239 Y114.969 E1.71074
G1 X148.248 Y113.974 E0.07738
G1 X147.736 Y113.927 E0.01788
G1 X146.842 Y113.986 E0.03118
G1 X146.029 Y114.206 E0.02928
G1 X145.336 Y114.546 E0.02686
G1 X144.614 Y115.104 E0.03171
G1 X129.844 Y129.87 E0.72625
G1 X130.089 Y130.115 F36000
G1 F1800
G1 X115.397 Y144.805 E0.72244
G1 X115.073 Y145.179 E0.01722
G1 X114.632 Y145.91 E0.02969
G1 X114.328 Y146.92 E0.03666
G1 X114.296 Y147.985 E0.03705
G1 X115.217 Y149.997 E0.07694
G1 X150.003 Y184.783 E1.71068
G1 X151.898 Y185.693 E0.07309
G1 X152.584 Y185.724 E0.02387
G1 X159.011 Y185.016 E0.22487
G1 X159.517 Y184.919 E0.0179
G1 X160.26 Y184.642 E0.0276
G1 X160.915 Y184.246 E0.0266
G1 X161.377 Y183.855 E0.02107
G1 X184.109 Y161.09 E1.11866
G1 X184.642 Y160.26 E0.0343
G1 X184.997 Y159.119 E0.04157
G1 X185.708 Y152.827 E0.22019
G1 X185.702 Y152.013 E0.02831
G1 X184.782 Y150.002 E0.07691
G1 X149.994 Y115.214 E1.71074
G1 X148.199 Y114.316 E0.06977
G1 X147.73 Y114.273 E0.0164
G1 X146.893 Y114.329 E0.02917
G1 X146.147 Y114.532 E0.02689
G1 X145.521 Y114.839 E0.02421
G1 X144.859 Y115.349 E0.02909
G1 X130.089 Y130.115 E0.72623
G1 E-0.8 F2100
; printing object NewLatch-3.0mm.stl id:0 copy 0
EXCLUDE_OBJECT_START NAME=NewLatch_3_0mm_stl_id_0_copy_0
; acceleration to travel
M204 S10000
G1 X143.969 Y122.207 F36000
; decel to extrusion
M204 S2000
G1 X146.745 Y120.626
; end travel
G1 E0.8 F2100
;TYPE:Internal perimeter
;WIDTH:0.74799
G1 F1800
G1 X147.493 Y119.88 E0.07336
G1 X148.091 Y120.479 E0.05881
G1 X148.675 Y121.065 E0.05749
G1 X148.793 Y121.216 E0.01339
;WIDTH:0.841578
G1 X148.912 Y121.368 E0.01519
G1 X148.738 Y121.297 E0.01481
;WIDTH:0.74799
G1 X148.565 Y121.226 E0.01305
G1 X148.186 Y121.06 E0.02874
G1 X147.807 Y120.894 E0.02874
G1 X147.449 Y120.778 E0.02615
G1 X146.745 Y120.626 E0.05002
G1 E-0.8 F2100
G1 X144.947 Y121.521 F36000
G1 E0.8 F2100
;WIDTH:0.748495
G1 F1800
G1 X145.448 Y120.866 E0.05738
G1 X147.493 Y118.825 E0.20093
G1 X160.554 Y131.886 E1.2846
G1 X159.532 Y132.905 E0.10039
G1 X149.133 Y122.52 E1.02206
G1 X148.99 Y122.399 E0.013
G1 X148.263 Y121.911 E0.06093
G1 X147.291 Y121.508 E0.07318
G1 X146.53 Y121.343 E0.05414
G1 X145.857 Y121.295 E0.04696
G1 X145.275 Y121.341 E0.04058
G1 X144.947 Y121.521 E0.02602
G1 E-0.8 F2100
G1 X148.912 Y121.368 F36000
G1 E0.8 F2100
;WIDTH:0.841578
G1 F1800
G1 X149.165 Y121.582 E0.02615
;WIDTH:0.73065
G1 X149.419 Y121.797 E0.02248
G1 X149.647 Y122.006 E0.02095
G1 X154.589 Y126.945 E0.47355
G1 X159.532 Y131.885 E0.47355
G1 E-0.8 F2100
; acceleration to travel
M204 S10000
G1 X127.112 Y144.263 F36000
; decel to extrusion
M204 S2000
G1 X120.628 Y146.738
; end travel
G1 E0.8 F2100
;WIDTH:0.740776
G1 F1800
G1 X120.818 Y147.574 E0.05893
G1 X121.134 Y148.374 E0.0592
G1 X121.327 Y148.74 E0.02843
G1 X121.549 Y149.064 E0.02706
G1 X121.771 Y149.389 E0.02706
G1 X121.216 Y148.831 E0.05411
G1 X119.876 Y147.491 E0.13039
G1 X120.628 Y146.738 E0.07321
G1 X121.467 Y144.989 F36000
;WIDTH:0.748495
G1 F1800
G1 X121.344 Y145.257 E0.02057
G1 X121.293 Y145.795 E0.03758
G1 X121.322 Y146.391 E0.0415
G1 X121.51 Y147.3 E0.06455
G1 X121.943 Y148.32 E0.07706
G1 X122.519 Y149.132 E0.06924
G1 X132.907 Y159.534 E1.02235
G1 X131.884 Y160.552 E0.10039
G1 X118.823 Y147.491 E1.28465
G1 X120.865 Y145.448 E0.20088
G1 X121.467 Y144.989 E0.05268
G1 E-0.8 F2100
; acceleration to travel
M204 S10000
G1 X130.149 Y157.108 F36000
; decel to extrusion
M204 S2000
G1 X131.885 Y159.532
; end travel
G1 E0.8 F2100
;WIDTH:0.695518
G1 F1800
G1 X126.945 Y154.589 E0.44909
G1 X122.005 Y149.646 E0.44909
G1 X121.888 Y149.517 E0.01115
;WIDTH:0.737354
G1 X121.771 Y149.389 E0.01187
G1 E-0.8 F2100
; acceleration to travel
M204 S10000
G1 X131.592 Y136.225 F36000
; decel to extrusion
M204 S2000
G1 X133.556 Y133.592
; end travel
G1 E0.8 F2100
;TYPE:External perimeter
;WIDTH:1.020545
G1 F1800
G1 X133.574 Y133.574 E0.00244
G1 X134.071 Y133.076 E0.06805
G1 X134.528 Y132.607 E0.06332
G1 X135.265 Y131.842 E0.1027
G1 X136.003 Y131.078 E0.1027
G1 X136.011 Y131.069 E0.0011
G1 X136.215 Y130.85 E0.029
G1 X136.42 Y130.631 E0.029
G1 X136.883 Y130.13 E0.06595
G1 X137.346 Y129.63 E0.06595
G1 X137.625 Y129.326 E0.03983
G1 X137.903 Y129.023 E0.03983
G1 X138.367 Y128.505 E0.06723
G1 X138.836 Y127.98 E0.06806
G1 X139.003 Y127.789 E0.02452
G1 X139.17 Y127.598 E0.02452
G1 X139.616 Y127.082 E0.06595
G1 X140.063 Y126.567 E0.06595
G1 X140.362 Y126.218 E0.04445
G1 X140.661 Y125.869 E0.04445
G1 X141.241 Y125.17 E0.08781
G1 X141.821 Y124.471 E0.08781
G1 X142.249 Y123.946 E0.06545
G1 X142.676 Y123.422 E0.06545
G1 X143.42 Y122.48 E0.11603
G1 X144.163 Y121.538 E0.11603
G1 X144.179 Y121.518 E0.0024
G1 X144.263 Y121.363 E0.01707
;WIDTH:0.952532
G1 X144.347 Y121.208 E0.01587
;WIDTH:0.88452
G1 X144.431 Y121.053 E0.01467
;WIDTH:0.816508
G1 X144.516 Y120.898 E0.01347
;WIDTH:0.748495
G1 X144.6 Y120.743 E0.01228
G1 X144.884 Y120.371 E0.03251
G1 X147.305 Y117.955 E0.23791
G1 X147.376 Y117.905 E0.00603
G1 X147.587 Y117.861 E0.01502
G1 X161.411 Y131.684 E1.35959
M73 P2 R39
G1 X161.53 Y131.808 E0.01195
G1 X161.439 Y132.062 E0.01872
G1 X159.692 Y133.801 E0.17143
G1 X159.444 Y133.876 E0.01799
G1 X148.604 Y123.05 E1.06547
G1 X148.557 Y123.009 E0.00433
G1 X147.962 Y122.596 E0.0504
G1 X147.133 Y122.239 E0.06274
G1 X146.372 Y122.075 E0.05414
G1 X145.82 Y122.043 E0.03843
G1 X145.35 Y122.086 E0.03288
G1 X145.273 Y122.102 E0.00547
;WIDTH:0.850458
G1 X145.119 Y122.136 E0.01255
;WIDTH:0.98641
G1 X144.965 Y122.169 E0.01469
;WIDTH:1.028226
G1 X143.481 Y124.056 E0.23391
G1 X143.353 Y124.215 E0.01996
G1 X143.225 Y124.375 E0.01996
G1 X142.611 Y125.129 E0.09472
G1 X142.029 Y125.826 E0.0885
G1 X141.447 Y126.523 E0.0885
G1 X141.432 Y126.54 E0.00221
G1 X141.138 Y126.889 E0.04446
G1 X140.844 Y127.237 E0.04446
G1 X140.396 Y127.755 E0.06668
G1 X139.948 Y128.272 E0.06668
G1 X139.769 Y128.474 E0.02637
G1 X139.595 Y128.67 E0.02554
G1 X139.131 Y129.188 E0.06776
G1 X138.667 Y129.706 E0.06776
G1 X138.656 Y129.719 E0.00166
G1 X138.381 Y130.023 E0.03994
G1 X138.107 Y130.327 E0.03994
G1 X137.642 Y130.829 E0.06668
G1 X137.177 Y131.332 E0.06668
G1 X136.957 Y131.564 E0.03117
G1 X136.743 Y131.789 E0.03034
G1 X135.272 Y133.322 E0.20704
G1 X135.03 Y133.568 E0.03358
G1 X134.795 Y133.808 E0.03274
G1 X134.548 Y134.056 E0.03416
G1 X134.301 Y134.305 E0.03416
G1 X133.795 Y134.807 E0.06943
G1 X133.559 Y135.039 E0.03233
G1 X133.322 Y135.272 E0.03233
G1 X132.556 Y136.007 E0.1035
G1 X131.79 Y136.742 E0.1035
G1 X131.777 Y136.754 E0.00166
G1 X131.332 Y137.178 E0.05987
G1 X130.749 Y137.719 E0.07755
G1 X130.537 Y137.915 E0.02811
G1 X130.325 Y138.11 E0.02811
G1 X130.013 Y138.391 E0.04087
G1 X129.701 Y138.671 E0.04087
G1 X128.99 Y139.307 E0.09299
G1 X128.278 Y139.942 E0.09299
G1 X127.943 Y140.234 E0.04327
G1 X127.615 Y140.52 E0.04244
G1 X127.425 Y140.683 E0.02445
G1 X127.234 Y140.847 E0.02445
G1 X126.35 Y141.589 E0.11251
G1 X125.466 Y142.332 E0.11251
G1 X125.295 Y142.475 E0.02176
G1 X125.123 Y142.617 E0.02176
G1 X124.589 Y143.049 E0.0669
G1 X124.056 Y143.481 E0.0669
G1 X123.113 Y144.223 E0.11695
G1 X122.169 Y144.965 E0.11695
G1 X122.081 Y145.038 E0.01115
G1 X122.073 Y145.177 E0.01358
;WIDTH:0.958293
G1 X122.065 Y145.316 E0.01261
;WIDTH:0.888361
G1 X122.058 Y145.455 E0.01164
;WIDTH:0.818428
G1 X122.05 Y145.594 E0.01066
;WIDTH:0.748495
G1 X122.042 Y145.733 E0.00969
G1 X122.058 Y146.256 E0.03639
G1 X122.206 Y147.025 E0.05448
G1 X122.561 Y147.899 E0.06559
G1 X123.049 Y148.603 E0.05956
G1 X133.867 Y159.436 E1.06475
G1 X133.866 Y159.513 E0.00531
G1 X133.768 Y159.732 E0.01675
G1 X132.044 Y161.449 E0.16919
G1 X131.797 Y161.523 E0.01798
G1 X117.853 Y147.58 E1.37141
G1 X117.939 Y147.315 E0.01933
G1 X120.323 Y144.931 E0.23448
G1 X120.758 Y144.588 E0.03852
G1 X120.885 Y144.527 E0.00978
;WIDTH:0.818428
G1 X121.011 Y144.465 E0.01077
;WIDTH:0.888361
G1 X121.138 Y144.404 E0.01175
;WIDTH:0.958293
G1 X121.264 Y144.342 E0.01273
;WIDTH:1.020545
G1 X121.391 Y144.281 E0.0136
G1 X121.538 Y144.163 E0.01819
G1 X122.48 Y143.42 E0.11603
G1 X123.422 Y142.676 E0.11603
G1 X123.573 Y142.556 E0.01873
G1 X123.725 Y142.435 E0.01873
G1 X124.266 Y141.992 E0.06764
G1 X124.808 Y141.549 E0.06764
G1 X125.69 Y140.805 E0.11162
G1 X126.572 Y140.06 E0.11162
G1 X126.756 Y139.904 E0.02329
G1 X126.939 Y139.748 E0.02329
G1 X127.266 Y139.46 E0.04211
G1 X127.593 Y139.172 E0.04211
G1 X128.306 Y138.539 E0.09226
G1 X129.02 Y137.906 E0.09226
G1 X129.33 Y137.623 E0.04055
G1 X129.634 Y137.347 E0.03973
G1 X130.057 Y136.959 E0.05551
G1 X130.344 Y136.691 E0.03792
G1 X130.63 Y136.424 E0.03792
G1 X130.854 Y136.213 E0.0297
G1 X131.078 Y136.003 E0.0297
G1 X132.607 Y134.528 E0.20538
G1 X132.844 Y134.297 E0.03207
G1 X133.082 Y134.065 E0.03207
G1 X133.328 Y133.82 E0.03361
G1 X133.556 Y133.592 E0.03117
;WIPE_START
M204 S5500
G1 X133.943 Y133.696 F36000
;WIPE_END
G1 E-0.8 F2100
; acceleration to travel
M204 S10000
G1 X153.075 Y135.47 F36000
; decel to extrusion
M204 S2000
G1 X156.901 Y135.825
; end travel
G1 E0.8 F2100
;TYPE:Internal perimeter
;WIDTH:0.748495
G1 F1800
G1 X158.948 Y137.872 E0.20134
G1 X137.872 Y158.948 E2.07289
G1 X135.827 Y156.903 E0.20114
G1 X135.985 Y156.951 E0.01147
G1 X136.655 Y157.028 E0.04689
G1 X137.122 Y156.997 E0.03255
G1 X137.746 Y156.845 E0.04467
G1 X138.286 Y156.568 E0.04223
G1 X138.691 Y156.238 E0.03631
G1 X156.241 Y138.688 E1.72613
G1 X156.639 Y138.159 E0.04602
G1 X156.886 Y137.631 E0.04054
G1 X156.997 Y137.153 E0.03411
G1 X157.033 Y136.573 E0.04044
G1 X157.001 Y136.221 E0.02457
G1 X156.901 Y135.825 E0.02842
G1 E-0.8 F2100
; acceleration to travel
M204 S10000
G1 X150.797 Y129.946 F36000
; decel to extrusion
M204 S2000
G1 X149.576 Y128.77
; end travel
G1 E0.8 F2100
;WIDTH:0.913101
G1 F1800
G1 X150.195 Y128.151 E0.07528
G1 X150.505 Y128.461 E0.03766
G1 X153.356 Y131.312 E0.34665
G1 X156.206 Y134.164 E0.34665
G1 X156.394 Y134.364 E0.02356
G1 X156.582 Y134.563 E0.02356
G1 X156.743 Y134.669 E0.01661
;WIDTH:0.748495
G1 X156.905 Y134.775 E0.01344
G1 X157.319 Y135.185 E0.04054
G1 X160.007 Y137.872 E0.2643
G1 X137.872 Y160.007 E2.177
G1 X134.711 Y156.845 E0.31094
G1 X134.557 Y156.649 E0.01734
;WIDTH:0.869635
G1 X134.404 Y156.453 E0.02035
G1 X134.284 Y156.329 E0.01402
G1 X134.164 Y156.206 E0.01402
G1 X128.458 Y150.502 E0.65864
G1 X128.147 Y150.191 E0.03592
G1 X128.769 Y149.575 E0.07149
G1 X129.077 Y149.883 E0.03557
G1 X131.931 Y152.733 E0.32932
G1 X134.786 Y155.584 E0.32932
G1 X134.884 Y155.66 E0.01016
G1 X134.982 Y155.737 E0.01016
G1 X135.348 Y155.911 E0.03308
;WIDTH:0.755919
G1 X135.714 Y156.086 E0.02848
G1 X136.203 Y156.235 E0.03596
G1 X136.605 Y156.281 E0.02843
G1 X137.356 Y156.194 E0.05316
G1 X137.856 Y155.956 E0.03895
G1 X138.162 Y155.709 E0.02758
G1 X155.712 Y138.159 E1.74451
G1 X156.019 Y137.741 E0.03646
G1 X156.167 Y137.424 E0.02459
G1 X156.266 Y136.991 E0.03123
G1 X156.288 Y136.642 E0.02452
G1 X156.255 Y136.291 E0.02483
G1 X156.172 Y135.958 E0.02413
G1 X156.06 Y135.688 E0.02048
G1 X155.948 Y135.419 E0.02048
G1 X155.918 Y135.286 E0.00959
;WIDTH:0.913101
G1 X155.888 Y135.153 E0.01173
G1 X155.736 Y134.969 E0.0205
G1 X155.584 Y134.786 E0.0205
G1 X149.885 Y129.08 E0.6933
G1 X149.576 Y128.77 E0.03763
G1 X148.679 Y128.965 F36000
;TYPE:External perimeter
;WIDTH:0.748495
G1 F1800
G1 X148.641 Y128.675 E0.02029
G1 X148.739 Y128.459 E0.01652
G1 X149.884 Y127.313 E0.11264
G1 X150.101 Y127.216 E0.01652
G1 X150.293 Y127.23 E0.01342
