; generated by SuperSlicer 2.3.57 on 2022-05-21 at 04:55:42 UTC


;
;

;
;
; TODO: check the size of the extruder and the y-bar clearance. Optimize & test supports.

; external perimeters extrusion width = 0.40mm
; perimeters extrusion width = 0.40mm
; infill extrusion width = 0.44mm
; solid infill extrusion width = 0.46mm
; top infill extrusion width = 0.44mm

; object:{"name":"omron_d2f-5_microswitch_probe_body_x1_rev3 (1)","id":"omron_d2f-5_microswitch_probe_body_x1_rev3 (1).STL id:0 copy 0","object_center":[150.000000,150.000000,0.000000],"boundingbox_center":[150.000000,150.000000,4.450000],"boundingbox_size":[26.399994,10.399994,8.900000]}
; plater:{"center":[150.000000,150.000000,0.000000],"boundingbox_center":[150.000000,150.000000,4.450000],"boundingbox_size":[26.399994,10.399994,8.900000]}

;TYPE:Custom
print_start EXTRUDER=240 BED=110 CHAMBER=50
M107
G21 ; set units to millimeters
G90 ; use absolute coordinates
M83 ; use relative distances for extrusion
M104 S240 ; set temperature
M109 S240 ; set temperature and wait for it to be reached
M190 S110 ; set bed temperature and wait for it to be reached
M107
;LAYER_CHANGE
;Z:0.2
;HEIGHT:0.2
;BEFORE_LAYER_CHANGE
;0.2


G1 Z0.2 F18000
;AFTER_LAYER_CHANGE
;0.2
G1 E-0.75 F3000
G1 Z0.6 F18000
M204 S1500
G1 X134.612 Y142.223
G1 Z0.2
G1 E0.75 F1800
;TYPE:Skirt
;WIDTH:0.52
G1 X133.873 Y143.057 E0.04424
G1 X133.328 Y144.088 E0.04623
G1 X133.067 Y145.073 E0.04044
G1 X133.007 Y145.778 E0.02807
G1 X133.011 Y154.375 E0.34103
G1 X133.194 Y155.506 E0.04546
G1 X133.552 Y156.412 E0.03864
G1 X134.28 Y157.452 E0.05036
G1 X135.22 Y158.238 E0.04863
G1 X136.354 Y158.768 E0.04964
G1 X137.525 Y158.983 E0.04724
G1 X162.279 Y158.992 E0.98196
G1 X163.462 Y158.818 E0.04744
G1 X164.408 Y158.451 E0.04024
G1 X165.357 Y157.804 E0.04558
G1 X166.067 Y157.024 E0.04184
G1 X166.553 Y156.197 E0.03804
G1 X166.895 Y155.157 E0.04345
G1 X166.993 Y154.227 E0.03708
G1 X166.962 Y145.297 E0.35427
G1 X166.816 Y144.512 E0.03166
G1 X166.54 Y143.79 E0.03066
G1 X166.09 Y143.002 E0.03602
G1 X165.504 Y142.34 E0.03505
G1 X164.821 Y141.789 E0.03483
G1 X164.094 Y141.403 E0.03266
G1 X163.158 Y141.106 E0.03895
G1 X162.279 Y141.013 E0.03505
G1 X137.721 Y141.008 E0.9742
G1 X136.538 Y141.182 E0.04744
G1 X135.592 Y141.549 E0.04024
G1 X134.662 Y142.189 E0.04479
G1 X134.806 Y142.375 F18000
M204 S1000
G1 X134.95 Y142.561
G1 F1800
G1 X134.275 Y143.316 E0.04017
G1 X133.773 Y144.259 E0.04241
G1 X133.539 Y145.146 E0.03637
G1 X133.487 Y154.334 E0.36449
G1 X133.645 Y155.347 E0.04067
G1 X133.946 Y156.137 E0.03355
G1 X134.611 Y157.107 E0.04665
G1 X135.464 Y157.828 E0.04431
G1 X136.501 Y158.315 E0.04543
G1 X137.57 Y158.508 E0.04309
G1 X162.262 Y158.515 E0.97952
G1 X163.314 Y158.363 E0.04217
G1 X164.137 Y158.054 E0.03487
G1 X165.024 Y157.461 E0.04233
G1 X165.677 Y156.749 E0.03829
G1 X166.12 Y155.996 E0.03468
G1 X166.433 Y155.033 E0.04017
G1 X166.516 Y154.221 E0.03239
G1 X166.492 Y145.389 E0.35033
G1 X166.367 Y144.678 E0.02867
G1 X166.126 Y144.031 E0.02735
G1 X165.719 Y143.303 E0.03312
G1 X165.2 Y142.708 E0.0313
G1 X164.579 Y142.201 E0.03181
G1 X163.93 Y141.851 E0.02923
G1 X163.073 Y141.576 E0.03572
G1 X162.279 Y141.49 E0.03168
G1 X137.738 Y141.485 E0.97354
G1 X136.686 Y141.637 E0.04217
G1 X135.863 Y141.946 E0.03487
G1 X135 Y142.528 E0.04127
M204 S1500
G1 X135.141 Y142.717 F18000
M204 S1000
G1 X135.281 Y142.906
G1 F1800
G1 X134.672 Y143.581 E0.03605
G1 X134.217 Y144.433 E0.0383
G1 X134.01 Y145.222 E0.03237
G1 X133.963 Y154.298 E0.36003
G1 X134.099 Y155.196 E0.03605
G1 X134.346 Y155.871 E0.02851
G1 X134.947 Y156.766 E0.04276
G1 X135.712 Y157.42 E0.03992
G1 X136.646 Y157.86 E0.04095
G1 X137.608 Y158.033 E0.03877
G1 X162.244 Y158.038 E0.97731
G1 X163.175 Y157.906 E0.03728
G1 X163.871 Y157.654 E0.02939
G1 X164.699 Y157.111 E0.03926
G1 X165.291 Y156.469 E0.03464
G1 X165.687 Y155.796 E0.03097
G1 X165.968 Y154.919 E0.03656
G1 X166.038 Y154.215 E0.02807
G1 X166.022 Y145.478 E0.34659
G1 X165.915 Y144.837 E0.02578
G1 X165.709 Y144.264 E0.02413
G1 X165.347 Y143.604 E0.02989
G1 X164.89 Y143.072 E0.02781
G1 X164.33 Y142.608 E0.02885
G1 X163.761 Y142.298 E0.02571
G1 X162.985 Y142.045 E0.03239
G1 X162.279 Y141.967 E0.02816
G1 X137.756 Y141.962 E0.97282
G1 X136.825 Y142.094 E0.03728
G1 X136.129 Y142.346 E0.02939
G1 X135.331 Y142.873 E0.03793
; INIT printing object omron_d2f-5_microswitch_probe_body_x1_rev3 (1).STL id:0 copy 0
G1 E-0.75 F3000
M204 S1500
G1 Z0.6 F18000
; printing object omron_d2f-5_microswitch_probe_body_x1_rev3 (1).STL id:0 copy 0
G1 X141.396 Y145.845
M204 S1000
G1 X147.462 Y148.817
G1 Z0.2
G1 E0.75 F1800
;TYPE:Internal perimeter
;WIDTH:0.4
G1 X147.353 Y149.04 E0.00735
G1 X147.213 Y149.579 E0.01656
G1 X147.185 Y150.139 E0.01664
G1 X147.269 Y150.692 E0.01661
G1 X147.45 Y151.184 E0.01556
G1 X147.614 Y151.483 E0.01015
G1 X147.948 Y151.913 E0.01614
G1 X148.368 Y152.272 E0.01641
G1 X148.857 Y152.544 E0.01663
G1 X149.393 Y152.712 E0.01668
G1 X149.95 Y152.769 E0.01661
G1 X150.506 Y152.712 E0.0166
G1 X151.041 Y152.545 E0.01665
G1 X151.532 Y152.272 E0.01668
G1 X151.958 Y151.907 E0.01665
G1 X152.299 Y151.466 E0.01655
G1 X152.546 Y150.963 E0.01664
G1 X152.687 Y150.42 E0.01664
G1 X152.716 Y149.872 E0.0163
G1 X152.631 Y149.306 E0.017
G1 X152.436 Y148.781 E0.0166
G1 X152.141 Y148.307 E0.01659
G1 X151.767 Y147.911 E0.01617
G1 X151.3 Y147.582 E0.01696
G1 X150.781 Y147.359 E0.01679
G1 X150.25 Y147.249 E0.01609
G1 X149.897 Y147.234 E0.01049
G1 X149.39 Y147.289 E0.01514
G1 X148.859 Y147.455 E0.01651
G1 X148.369 Y147.727 E0.01663
G1 X147.944 Y148.092 E0.01665
G1 X147.6 Y148.536 E0.01668
G1 X147.488 Y148.764 E0.00753
M204 S1500
G1 X147.649 Y148.842 F18000
M204 S1000
G1 X147.809 Y148.921
G1 F1800
G1 X147.69 Y149.164 E0.00805
G1 X147.568 Y149.634 E0.0144
G1 X147.543 Y150.121 E0.01448
G1 X147.617 Y150.603 E0.01447
G1 X147.776 Y151.035 E0.01369
G1 X147.914 Y151.287 E0.00851
G1 X148.208 Y151.665 E0.01423
G1 X148.573 Y151.978 E0.01427
G1 X148.999 Y152.214 E0.01448
G1 X149.466 Y152.361 E0.01452
G1 X149.95 Y152.41 E0.01445
G1 X150.434 Y152.361 E0.01445
G1 X150.9 Y152.215 E0.01449
G1 X151.327 Y151.978 E0.01452
G1 X151.698 Y151.659 E0.0145
G1 X151.995 Y151.276 E0.0144
G1 X152.21 Y150.838 E0.01449
G1 X152.332 Y150.365 E0.01449
G1 X152.357 Y149.889 E0.01416
G1 X152.283 Y149.395 E0.01483
G1 X152.114 Y148.94 E0.01443
G1 X151.857 Y148.526 E0.01446
G1 X151.532 Y148.182 E0.01404
G1 X151.125 Y147.896 E0.01479
G1 X150.673 Y147.701 E0.01461
G1 X150.206 Y147.605 E0.01415
G1 X149.909 Y147.592 E0.00884
G1 X149.463 Y147.64 E0.01331
G1 X149.001 Y147.785 E0.01439
G1 X148.574 Y148.021 E0.01448
G1 X148.204 Y148.339 E0.01449
G1 X147.905 Y148.726 E0.01452
G1 X147.835 Y148.867 E0.00467
M204 S1500
G1 X147.996 Y148.945 F18000
M204 S1000
G1 X148.156 Y149.024
;TYPE:External perimeter
G1 F1800
G1 X148.026 Y149.289 E0.00876
G1 X147.923 Y149.688 E0.01225
G1 X147.902 Y150.103 E0.01233
G1 X147.964 Y150.513 E0.01232
G1 X148.101 Y150.887 E0.01182
G1 X148.213 Y151.09 E0.00687
G1 X148.468 Y151.417 E0.01232
G1 X148.778 Y151.683 E0.01212
G1 X149.141 Y151.885 E0.01233
G1 X149.538 Y152.009 E0.01236
G1 X149.95 Y152.051 E0.0123
G1 X150.362 Y152.009 E0.01229
G1 X150.758 Y151.885 E0.01233
G1 X151.122 Y151.683 E0.01236
G1 X151.437 Y151.412 E0.01234
G1 X151.69 Y151.086 E0.01225
G1 X151.873 Y150.713 E0.01233
G1 X151.977 Y150.311 E0.01235
G1 X151.999 Y149.906 E0.01202
G1 X151.935 Y149.485 E0.01266
G1 X151.792 Y149.098 E0.01226
G1 X151.572 Y148.745 E0.01232
G1 X151.297 Y148.454 E0.01191
G1 X150.95 Y148.209 E0.01262
G1 X150.565 Y148.043 E0.01243
G1 X150.162 Y147.96 E0.01221
G1 X149.92 Y147.95 E0.0072
G1 X149.536 Y147.991 E0.01147
G1 X149.142 Y148.115 E0.01226
G1 X148.779 Y148.316 E0.01232
G1 X148.464 Y148.586 E0.01233
G1 X148.209 Y148.915 E0.01236
G1 X148.182 Y148.97 E0.0018
;WIPE_START
M204 S1500
G1 X147.862 Y149.044 F18000
;WIPE_END
G1 X147.536 Y150.586
M204 S1000
G1 X147.211 Y152.128
;TYPE:Internal perimeter
G1 F1800
G1 X147.429 Y152.408 E0.01052
G1 X147.958 Y152.862 E0.0207
G1 X148.059 Y152.917 E0.00342
G1 X147.993 Y153.172 E0.0078
G1 X145.694 Y153.172 E0.06827
G1 X146.2 Y152.364 E0.02832
G1 X146.301 Y152.128 E0.0076
G1 X147.151 Y152.128 E0.02523
M204 S1500
G1 X149.529 Y152.65 F18000
M204 S1000
G1 X151.907 Y153.172
G1 F1800
G1 X151.841 Y152.917 E0.0078
G1 X151.943 Y152.861 E0.00344
G1 X152.478 Y152.401 E0.02096
G1 X152.689 Y152.128 E0.01024
G1 X153.691 Y152.128 E0.02973
G1 X153.973 Y152.662 E0.01792
G1 X154.318 Y153.172 E0.01828
G1 X151.967 Y153.172 E0.06981
M204 S1500
G1 X149.444 Y152.471 F18000
M204 S1000
G1 X146.921 Y151.771
G1 F1800
G1 X146.921 Y151.493 E0.00827
G1 X147.176 Y151.427 E0.00781
G1 X147.315 Y151.68 E0.00857
G1 X147.688 Y152.16 E0.01805
G1 X148.163 Y152.567 E0.01856
G1 X148.716 Y152.874 E0.01878
G1 X149.321 Y153.064 E0.01884
G1 X149.95 Y153.128 E0.01876
G1 X150.578 Y153.064 E0.01875
G1 X151.183 Y152.875 E0.0188
G1 X151.738 Y152.567 E0.01884
G1 X152.218 Y152.154 E0.01881
G1 X152.604 Y151.656 E0.0187
G1 X152.816 Y151.223 E0.01433
G1 X153.079 Y151.284 E0.008
G1 X153.079 Y151.771 E0.01448
G1 X153.927 Y151.771 E0.02518
G1 X153.988 Y151.927 E0.00498
G1 X154.279 Y152.478 E0.01849
G1 X154.505 Y152.81 E0.01193
G1 X154.787 Y153.155 E0.01323
G1 X155.164 Y153.529 E0.01576
G1 X144.88 Y153.529 E0.30535
G1 X145.502 Y152.805 E0.02833
G1 X145.883 Y152.197 E0.0213
G1 X146.066 Y151.771 E0.01377
G1 X146.861 Y151.771 E0.0236
M204 S1500
G1 X146.272 Y149.301 F18000
M204 S1000
G1 X145.683 Y146.83
G1 F1800
G1 X148.317 Y146.831 E0.07821
G1 X147.424 Y147.597 E0.03495
G1 X147.211 Y147.872 E0.01032
G1 X146.309 Y147.872 E0.02677
G1 X146.027 Y147.338 E0.01792
G1 X145.717 Y146.88 E0.01644
M204 S1500
G1 X148.763 Y146.974 F18000
M204 S1000
G1 X151.81 Y147.068
G1 F1800
G1 X151.885 Y146.831 E0.00738
G1 X154.304 Y146.832 E0.07181
G1 X153.8 Y147.637 E0.02819
G1 X153.699 Y147.872 E0.0076
G1 X152.712 Y147.872 E0.02929
G1 X152.237 Y147.369 E0.02054
G1 X151.859 Y147.103 E0.01371
M204 S1500
G1 X152.469 Y147.666 F18000
M204 S1000
G1 X153.079 Y148.229
G1 F1800
G1 X153.079 Y148.672 E0.01317
G1 X152.833 Y148.743 E0.0076
G1 X152.425 Y148.088 E0.0229
G1 X152.002 Y147.64 E0.0183
G1 X151.475 Y147.269 E0.01912
G1 X150.889 Y147.016 E0.01897
G1 X150.294 Y146.894 E0.01803
G1 X149.886 Y146.877 E0.01213
G1 X149.317 Y146.937 E0.01698
G1 X148.718 Y147.125 E0.01864
G1 X148.164 Y147.432 E0.01879
G1 X147.684 Y147.844 E0.0188
G1 X147.295 Y148.346 E0.01884
G1 X147.184 Y148.573 E0.00752
G1 X146.921 Y148.512 E0.008
G1 X146.921 Y148.229 E0.00842
G1 X146.073 Y148.229 E0.02518
G1 X146.012 Y148.073 E0.00498
G1 X145.721 Y147.522 E0.01849
G1 X145.495 Y147.19 E0.01193
G1 X145.213 Y146.845 E0.01323
G1 X144.837 Y146.473 E0.0157
G1 X155.117 Y146.475 E0.30521
G1 X154.498 Y147.195 E0.02818
G1 X154.117 Y147.803 E0.0213
G1 X153.934 Y148.229 E0.01377
G1 X153.139 Y148.229 E0.0236
M204 S1500
G1 X153.287 Y148.407 F18000
M204 S1000
G1 X153.436 Y148.586
G1 F1800
G1 X153.436 Y151.414 E0.08398
G1 X154.17 Y151.414 E0.02179
G1 X154.313 Y151.778 E0.01161
G1 X154.586 Y152.294 E0.01732
G1 X154.791 Y152.596 E0.01086
G1 X155.052 Y152.914 E0.01221
G1 X155.425 Y153.285 E0.01561
G1 X155.735 Y153.533 E0.0118
G1 X155.907 Y153.64 E0.006
G1 X155.837 Y153.886 E0.0076
G1 X144.164 Y153.886 E0.34658
G1 X144.094 Y153.64 E0.00759
G1 X144.275 Y153.527 E0.00636
G1 X144.792 Y153.084 E0.0202
G1 X145.214 Y152.593 E0.01922
G1 X145.566 Y152.031 E0.01969
G1 X145.831 Y151.414 E0.01993
G1 X146.564 Y151.414 E0.02176
G1 X146.564 Y148.586 E0.08398
G1 X145.83 Y148.586 E0.02179
G1 X145.687 Y148.222 E0.01161
G1 X145.414 Y147.706 E0.01732
G1 X145.209 Y147.404 E0.01086
G1 X144.948 Y147.086 E0.01221
G1 X144.575 Y146.715 E0.01561
G1 X144.265 Y146.467 E0.0118
G1 X144.095 Y146.362 E0.00592
G1 X144.165 Y146.116 E0.0076
G1 X155.83 Y146.118 E0.34633
G1 X155.9 Y146.364 E0.00759
G1 X155.725 Y146.473 E0.00614
G1 X155.208 Y146.916 E0.0202
G1 X154.786 Y147.407 E0.01922
G1 X154.434 Y147.969 E0.01969
G1 X154.169 Y148.586 E0.01993
G1 X153.496 Y148.586 E0.01998
M204 S1500
G1 X153.644 Y148.764 F18000
M204 S1000
G1 X153.793 Y148.943
G1 F1800
G1 X153.793 Y151.057 E0.06277
G1 X154.436 Y151.057 E0.01909
G1 X154.512 Y151.309 E0.00783
G1 X154.638 Y151.629 E0.01019
G1 X154.892 Y152.11 E0.01615
G1 X155.078 Y152.383 E0.0098
G1 X155.316 Y152.674 E0.01118
G1 X155.663 Y153.018 E0.0145
G1 X155.942 Y153.241 E0.0106
G1 X156.453 Y153.558 E0.01785
G1 X157.04 Y153.804 E0.01893
G1 X157.334 Y153.89 E0.00908
G1 X157.582 Y153.933 E0.00746
G1 X157.554 Y154.243 E0.00922
G1 X142.451 Y154.243 E0.44845
G1 X142.412 Y153.947 E0.00885
G1 X142.979 Y153.798 E0.01739
G1 X143.274 Y153.686 E0.00939
G1 X143.592 Y153.533 E0.01046
G1 X144.063 Y153.238 E0.01652
G1 X144.539 Y152.83 E0.0186
G1 X144.925 Y152.38 E0.01762
G1 X145.249 Y151.864 E0.01808
G1 X145.489 Y151.307 E0.01802
G1 X145.564 Y151.057 E0.00775
G1 X146.207 Y151.057 E0.01909
G1 X146.207 Y148.943 E0.06277
G1 X145.564 Y148.943 E0.01909
G1 X145.488 Y148.691 E0.00783
G1 X145.362 Y148.371 E0.01019
G1 X145.108 Y147.89 E0.01615
G1 X144.922 Y147.617 E0.0098
G1 X144.684 Y147.326 E0.01118
G1 X144.337 Y146.982 E0.0145
G1 X144.058 Y146.759 E0.0106
G1 X143.549 Y146.443 E0.01779
G1 X142.989 Y146.204 E0.01808
G1 X142.408 Y146.055 E0.01781
G1 X142.445 Y145.758 E0.00888
G1 X157.533 Y145.761 E0.44798
G1 X157.571 Y146.057 E0.00885
G1 X157.021 Y146.202 E0.01689
G1 X156.726 Y146.314 E0.00939
G1 X156.408 Y146.467 E0.01046
G1 X155.937 Y146.762 E0.01652
G1 X155.461 Y147.17 E0.0186
G1 X155.075 Y147.62 E0.01762
G1 X154.751 Y148.136 E0.01808
G1 X154.511 Y148.693 E0.01802
G1 X154.436 Y148.943 E0.00775
G1 X153.853 Y148.943 E0.01731
G1 E-0.75 F3000
M204 S1500
G1 Z0.6 F18000
G1 X157.273 Y147.646
M204 S1000
G1 X160.693 Y146.349
G1 Z0.2
G1 E0.75 F1800
G1 X160.771 Y146.119 E0.00722
G1 X161.886 Y146.119 E0.03309
G1 X161.886 Y147.507 E0.04118
G1 X161.498 Y147.029 E0.01825
G1 X161.218 Y146.753 E0.0117
G1 X160.741 Y146.386 E0.01788
M204 S1500
G1 X161.492 Y146.074 F18000
M204 S1000
G1 X162.243 Y145.762
G1 F1800
G1 X162.243 Y148.352 E0.07689
G1 X161.968 Y148.405 E0.00831
G1 X161.902 Y148.241 E0.00527
G1 X161.584 Y147.701 E0.01861
G1 X161.234 Y147.27 E0.01649
G1 X160.983 Y147.022 E0.01046
G1 X160.484 Y146.639 E0.01868
G1 X159.999 Y146.37 E0.01647
G1 X159.697 Y146.244 E0.00972
G1 X159.391 Y146.144 E0.00955
G1 X159.022 Y146.066 E0.01122
G1 X159.053 Y145.762 E0.00908
G1 X162.183 Y145.762 E0.09292
M204 S1500
G1 X162.034 Y149.144 F18000
M204 S1000
G1 X161.886 Y152.526
G1 F1800
G1 X161.886 Y153.886 E0.04037
G1 X160.772 Y153.886 E0.03308
G1 X160.693 Y153.657 E0.00719
G1 X161.208 Y153.256 E0.01937
G1 X161.466 Y153.005 E0.01068
G1 X161.846 Y152.571 E0.01713
M204 S1500
G1 X161.914 Y152.071 F18000
M204 S1000
G1 X161.981 Y151.571
G1 F1800
G1 X162.243 Y151.632 E0.00798
G1 X162.243 Y154.243 E0.07752
G1 X159.068 Y154.243 E0.09425
G1 X159.027 Y153.951 E0.00876
G1 X159.661 Y153.769 E0.01957
G1 X159.986 Y153.636 E0.01041
G1 X160.535 Y153.327 E0.01872
G1 X160.973 Y152.986 E0.01647
G1 X161.207 Y152.759 E0.00968
G1 X161.42 Y152.516 E0.00959
G1 X161.738 Y152.061 E0.01649
G1 X161.954 Y151.625 E0.01446
G1 E-0.75 F3000
M204 S1500
G1 Z0.6 F18000
G1 X150.63 Y148.984
M204 S1000
G1 X139.306 Y146.343
G1 Z0.2
G1 E0.75 F1800
G1 X138.793 Y146.743 E0.01932
G1 X138.558 Y146.97 E0.0097
G1 X138.114 Y147.47 E0.01984
G1 X138.114 Y146.114 E0.04025
G1 X139.228 Y146.114 E0.03306
G1 X139.287 Y146.287 E0.00541
M204 S1500
G1 X138.522 Y146.022 F18000
M204 S1000
G1 X137.757 Y145.757
G1 F1800
G1 X140.929 Y145.758 E0.09419
G1 X140.97 Y146.05 E0.00876
G1 X140.339 Y146.231 E0.0195
G1 X140.014 Y146.364 E0.01041
G1 X139.465 Y146.673 E0.01872
G1 X139.028 Y147.013 E0.01644
G1 X138.816 Y147.218 E0.00874
G1 X138.593 Y147.469 E0.00997
G1 X138.377 Y147.76 E0.01075
G1 X138.106 Y148.227 E0.01604
G1 X138.026 Y148.407 E0.00584
G1 X137.757 Y148.35 E0.00816
G1 X137.757 Y145.817 E0.07519
M204 S1500
G1 X137.936 Y149.155 F18000
M204 S1000
G1 X138.114 Y152.493
G1 F1800
G1 X138.556 Y153.03 E0.02067
G1 X139.003 Y153.432 E0.01784
G1 X139.306 Y153.651 E0.0111
G1 X139.23 Y153.886 E0.00734
G1 X138.114 Y153.886 E0.03314
G1 X138.114 Y152.553 E0.03959
M204 S1500
G1 X137.936 Y152.099 F18000
M204 S1000
