; generated by SuperSlicer 2.5.59 on 2022-09-23 at 02:49:20 UTC


;
;

;
;
; 

; external perimeters extrusion width = 0.40mm
; perimeters extrusion width = 0.40mm
; infill extrusion width = 0.50mm
; solid infill extrusion width = 0.56mm
; top infill extrusion width = 0.40mm
; first layer extrusion width = 0.80mm

; object:{"name":"Overhang Directional Test v4","id":"Overhang Directional Test v4.stl id:0 copy 0","object_center":[150.000000,150.000000,0.000000],"boundingbox_center":[150.000000,150.000000,11.597674],"boundingbox_size":[64.784532,64.784532,23.195349]}
; plater:{"center":[150.000000,150.000000,0.000000],"boundingbox_center":[150.000000,150.000000,11.597674],"boundingbox_size":[64.784532,64.784532,23.195349]}

M73 P0 R31


; Pre-Processed for Cancel-Object support by preprocess_cancellation v0.2.0
; 1 known objects
EXCLUDE_OBJECT_DEFINE NAME=Overhang_Directional_Test_v4_stl_id_0_copy_0 CENTER=149.999,150.020 POLYGON=[[159.821,117.687],[128.792,129.074],[117.687,140.179],[129.074,171.208],[140.179,182.313],[171.208,170.926],[182.313,159.821],[170.926,128.792],[159.821,117.687]]
;TYPE:Custom
PRINT_START EXTRUDER=260 BED=110 AREA_START=122.984,122.984 AREA_END=177.016,177.016
M107
G21 ; set units to millimeters
G90 ; use absolute coordinates
M83 ; use relative distances for extrusion
; Filament gcode
SET_PRESSURE_ADVANCE ADVANCE=0.02
SET_PRESSURE_ADVANCE EXTRUDER=extruder SMOOTH_TIME=0.04
;_TOOLCHANGE 0
M104 S260 ; set temperature
M109 S260 ; set temperature and wait for it to be reached
M190 S110 ; set bed temperature and wait for it to be reached
M107
;LAYER_CHANGE
;Z:0.24
;HEIGHT:0.24
G1 Z0.24 F36000
G92 E0
M73 P1 R31
G1 E-0.7 F1800
M204 S2000
G1 X129.299 Y129.299 F36000
G1 E0.7 F1800
;TYPE:Skirt
;WIDTH:0.4
G1 X125.116 Y133.482 E0.18926
G1 X124.53 Y134.174 E0.02898
G1 X124.029 Y134.972 E0.03018
G1 X123.843 Y135.358 E0.0137
G1 X123.436 Y136.666 E0.04382
G1 X123.33 Y137.603 E0.03018
G1 X123.363 Y138.553 E0.03041
G1 X126.838 Y166.394 E0.89757
G1 X127.007 Y167.227 E0.02719
G1 X127.504 Y168.503 E0.04382
G1 X128.006 Y169.302 E0.03018
G1 X128.591 Y169.993 E0.02898
G1 X133.482 Y174.884 E0.22128
G1 X134.174 Y175.47 E0.02898
G1 X134.972 Y175.971 E0.03018
G1 X135.358 Y176.157 E0.0137
G1 X136.666 Y176.564 E0.04382
G1 X137.603 Y176.67 E0.03018
G1 X138.553 Y176.637 E0.03041
G1 X166.394 Y173.162 E0.89757
G1 X167.227 Y172.993 E0.02719
G1 X168.503 Y172.496 E0.04382
G1 X169.302 Y171.994 E0.03018
G1 X169.993 Y171.409 E0.02898
G1 X174.884 Y166.518 E0.22128
G1 X175.47 Y165.826 E0.02898
G1 X175.971 Y165.028 E0.03018
G1 X176.157 Y164.642 E0.0137
G1 X176.564 Y163.334 E0.04382
G1 X176.67 Y162.397 E0.03018
G1 X176.637 Y161.447 E0.03041
G1 X173.162 Y133.606 E0.89757
G1 X172.993 Y132.773 E0.02719
G1 X172.496 Y131.497 E0.04382
G1 X171.724 Y130.359 E0.044
G1 X166.518 Y125.116 E0.23637
G1 X165.826 Y124.53 E0.02898
G1 X165.028 Y124.029 E0.03018
G1 X164.642 Y123.843 E0.0137
G1 X163.334 Y123.436 E0.04382
G1 X162.397 Y123.33 E0.03018
G1 X161.447 Y123.363 E0.03041
G1 X133.606 Y126.838 E0.89757
G1 X132.773 Y127.007 E0.02719
G1 X131.497 Y127.504 E0.04382
G1 X130.698 Y128.006 E0.03018
G1 X130.007 Y128.591 E0.02898
G1 X129.299 Y129.299 E0.03202
G1 X129.544 Y129.544 F36000
G1 F1800
G1 X125.361 Y133.727 E0.18926
G1 X124.801 Y134.39 E0.02774
G1 X124.341 Y135.123 E0.02769
M73 P1 R30
G1 X124.155 Y135.508 E0.0137
G1 X123.774 Y136.743 E0.04134
G1 X123.677 Y137.603 E0.02769
G1 X123.706 Y138.51 E0.02904
G1 X127.182 Y166.351 E0.89757
G1 X127.344 Y167.15 E0.02608
G1 X127.816 Y168.353 E0.04134
G1 X128.277 Y169.086 E0.02769
G1 X128.836 Y169.748 E0.02774
G1 X133.727 Y174.639 E0.22128
G1 X134.39 Y175.199 E0.02774
G1 X135.123 Y175.659 E0.02769
G1 X135.508 Y175.845 E0.0137
G1 X136.743 Y176.226 E0.04134
G1 X137.603 Y176.323 E0.02769
G1 X138.51 Y176.294 E0.02904
G1 X166.351 Y172.818 E0.89757
G1 X167.15 Y172.656 E0.02608
G1 X168.353 Y172.184 E0.04134
G1 X169.086 Y171.723 E0.02769
G1 X169.748 Y171.164 E0.02774
G1 X174.639 Y166.273 E0.22128
G1 X175.199 Y165.61 E0.02774
G1 X175.659 Y164.877 E0.02769
G1 X175.845 Y164.492 E0.0137
G1 X176.226 Y163.257 E0.04134
G1 X176.323 Y162.397 E0.02769
G1 X176.294 Y161.49 E0.02904
G1 X172.818 Y133.649 E0.89757
G1 X172.656 Y132.85 E0.02608
G1 X172.184 Y131.647 E0.04134
G1 X171.453 Y130.575 E0.04152
G1 X166.273 Y125.361 E0.23513
G1 X165.61 Y124.801 E0.02774
G1 X164.877 Y124.341 E0.02769
G1 X164.492 Y124.155 E0.0137
G1 X163.257 Y123.774 E0.04134
G1 X162.397 Y123.677 E0.02769
G1 X161.49 Y123.706 E0.02904
G1 X133.649 Y127.182 E0.89757
G1 X132.85 Y127.344 E0.02608
G1 X131.647 Y127.816 E0.04134
G1 X130.914 Y128.277 E0.02769
G1 X130.252 Y128.836 E0.02774
G1 X129.544 Y129.544 E0.03202
G1 X129.789 Y129.789 F36000
G1 F1800
G1 X125.605 Y133.972 E0.18926
G1 X125.072 Y134.605 E0.0265
G1 X124.653 Y135.273 E0.02521
G1 X124.467 Y135.659 E0.0137
G1 X124.111 Y136.82 E0.03886
G1 X124.023 Y137.603 E0.02521
G1 X124.05 Y138.467 E0.02766
G1 X127.526 Y166.308 E0.89757
G1 X127.682 Y167.073 E0.02497
G1 X128.128 Y168.203 E0.03886
G1 X128.547 Y168.87 E0.02521
G1 X129.081 Y169.504 E0.0265
G1 X133.972 Y174.395 E0.22128
G1 X134.605 Y174.928 E0.0265
G1 X135.273 Y175.347 E0.02521
G1 X135.659 Y175.533 E0.0137
G1 X136.82 Y175.889 E0.03886
G1 X137.603 Y175.977 E0.02521
G1 X138.467 Y175.95 E0.02766
G1 X166.308 Y172.474 E0.89757
G1 X167.073 Y172.318 E0.02497
G1 X168.203 Y171.872 E0.03886
G1 X168.87 Y171.453 E0.02521
G1 X169.504 Y170.919 E0.0265
G1 X174.395 Y166.028 E0.22128
G1 X174.928 Y165.395 E0.0265
G1 X175.347 Y164.727 E0.02521
G1 X175.533 Y164.341 E0.0137
G1 X175.889 Y163.18 E0.03886
G1 X175.977 Y162.397 E0.02521
G1 X175.95 Y161.533 E0.02766
G1 X172.474 Y133.692 E0.89757
G1 X172.318 Y132.927 E0.02497
G1 X171.872 Y131.797 E0.03886
G1 X171.182 Y130.791 E0.03904
G1 X166.028 Y125.605 E0.23389
G1 X165.395 Y125.072 E0.0265
G1 X164.727 Y124.653 E0.02521
G1 X164.341 Y124.467 E0.0137
G1 X163.18 Y124.111 E0.03886
G1 X162.397 Y124.023 E0.02521
G1 X161.533 Y124.05 E0.02766
G1 X133.692 Y127.526 E0.89757
M73 P2 R30
G1 X132.927 Y127.682 E0.02497
G1 X131.797 Y128.128 E0.03886
G1 X131.13 Y128.547 E0.02521
G1 X130.496 Y129.081 E0.0265
G1 X129.789 Y129.789 E0.03202
G1 X130.034 Y130.034 F36000
G1 F1800
G1 X125.85 Y134.217 E0.18926
G1 X125.343 Y134.821 E0.02525
G1 X124.965 Y135.423 E0.02273
G1 X124.779 Y135.809 E0.0137
G1 X124.449 Y136.897 E0.03638
G1 X124.369 Y137.603 E0.02273
G1 X124.394 Y138.425 E0.02629
G1 X127.869 Y166.265 E0.89757
G1 X128.02 Y166.996 E0.02386
G1 X128.44 Y168.052 E0.03638
G1 X128.818 Y168.654 E0.02273
G1 X129.326 Y169.259 E0.02525
G1 X134.217 Y174.15 E0.22128
G1 X134.821 Y174.657 E0.02525
G1 X135.423 Y175.035 E0.02273
G1 X135.809 Y175.221 E0.0137
G1 X136.897 Y175.551 E0.03638
G1 X137.603 Y175.631 E0.02273
G1 X138.425 Y175.606 E0.02629
G1 X166.265 Y172.131 E0.89757
G1 X166.996 Y171.98 E0.02386
G1 X168.052 Y171.56 E0.03638
G1 X168.654 Y171.182 E0.02273
G1 X169.259 Y170.674 E0.02525
G1 X174.15 Y165.783 E0.22128
G1 X174.657 Y165.179 E0.02525
G1 X175.035 Y164.577 E0.02273
G1 X175.221 Y164.191 E0.0137
G1 X175.551 Y163.103 E0.03638
G1 X175.631 Y162.397 E0.02273
G1 X175.606 Y161.575 E0.02629
G1 X172.131 Y133.735 E0.89757
G1 X171.98 Y133.004 E0.02386
G1 X171.56 Y131.948 E0.03638
G1 X170.911 Y131.007 E0.03656
G1 X165.783 Y125.85 E0.23265
G1 X165.179 Y125.343 E0.02525
G1 X164.577 Y124.965 E0.02273
G1 X164.191 Y124.779 E0.0137
G1 X163.103 Y124.449 E0.03638
G1 X162.397 Y124.369 E0.02273
G1 X161.575 Y124.394 E0.02629
G1 X133.735 Y127.869 E0.89757
G1 X133.004 Y128.02 E0.02386
G1 X131.948 Y128.44 E0.03638
G1 X131.346 Y128.818 E0.02273
G1 X130.741 Y129.326 E0.02525
G1 X130.034 Y130.034 E0.03202
G1 E-0.7
; printing object Overhang Directional Test v4.stl id:0 copy 0
EXCLUDE_OBJECT_START NAME=Overhang_Directional_Test_v4_stl_id_0_copy_0
G1 X134.148 Y134.148 F36000
G1 E0.7 F1800
;TYPE:Internal perimeter
;WIDTH:0.8
G1 X134.342 Y133.954 E0.01884
G1 X141.094 Y140.706 E0.6561
G1 X141.859 Y141.369 E0.06957
G1 X142.793 Y141.97 E0.07632
G1 X143.804 Y142.431 E0.07632
G1 X144.87 Y142.744 E0.07632
G1 X145.969 Y142.902 E0.07632
G1 X147.08 Y142.902 E0.07632
G1 X148.179 Y142.744 E0.07632
G1 X149.245 Y142.431 E0.07632
G1 X150.256 Y141.97 E0.07632
G1 X151.19 Y141.369 E0.07632
G1 X151.955 Y140.706 E0.06957
G1 X162.183 Y130.479 E0.99381
G1 X166.046 Y134.342 E0.37539
G1 X159.294 Y141.094 E0.6561
G1 X158.631 Y141.859 E0.06957
G1 X158.03 Y142.793 E0.07632
G1 X157.569 Y143.804 E0.07632
G1 X157.256 Y144.87 E0.07632
G1 X157.098 Y145.969 E0.07632
G1 X157.098 Y147.08 E0.07632
G1 X157.256 Y148.179 E0.07632
G1 X157.569 Y149.245 E0.07632
G1 X158.03 Y150.256 E0.07632
G1 X158.631 Y151.19 E0.07632
G1 X159.294 Y151.955 E0.06957
G1 X169.521 Y162.183 E0.99381
G1 X165.658 Y166.046 E0.37539
G1 X158.906 Y159.294 E0.6561
G1 X158.141 Y158.631 E0.06956
G1 X157.207 Y158.03 E0.07632
G1 X156.196 Y157.569 E0.07632
G1 X155.13 Y157.256 E0.07632
G1 X154.031 Y157.098 E0.07632
G1 X152.92 Y157.098 E0.07632
G1 X151.821 Y157.256 E0.07632
G1 X150.755 Y157.569 E0.07632
G1 X149.744 Y158.03 E0.07632
G1 X148.81 Y158.631 E0.07632
G1 X148.045 Y159.294 E0.06957
G1 X137.817 Y169.521 E0.99381
G1 X133.954 Y165.658 E0.37539
G1 X140.706 Y158.906 E0.6561
G1 X141.369 Y158.141 E0.06956
G1 X141.97 Y157.207 E0.07632
G1 X142.431 Y156.196 E0.07632
G1 X142.744 Y155.13 E0.07632
G1 X142.902 Y154.031 E0.07632
G1 X142.902 Y152.92 E0.07632
G1 X142.744 Y151.821 E0.07632
G1 X142.431 Y150.755 E0.07632
G1 X141.97 Y149.744 E0.07632
G1 X141.369 Y148.81 E0.07632
G1 X140.706 Y148.045 E0.06957
G1 X130.479 Y137.817 E0.99381
G1 X134.148 Y134.148 E0.35655
G1 X133.619 Y133.619 F36000
G1 F1800
G1 X134.342 Y132.896 E0.07027
G1 X141.604 Y140.158 E0.70569
G1 X142.309 Y140.768 E0.06405
G1 X143.153 Y141.311 E0.06897
G1 X144.066 Y141.728 E0.06897
G1 X145.029 Y142.011 E0.06896
G1 X146.023 Y142.154 E0.06897
G1 X147.026 Y142.154 E0.06896
G1 X148.02 Y142.011 E0.06897
G1 X148.983 Y141.728 E0.06896
G1 X149.896 Y141.311 E0.06897
G1 X150.74 Y140.768 E0.06897
G1 X151.445 Y140.158 E0.06405
G1 X162.183 Y129.42 E1.04341
G1 X167.104 Y134.342 E0.47825
G1 X159.842 Y141.604 E0.70569
G1 X159.232 Y142.309 E0.06405
G1 X158.689 Y143.153 E0.06897
G1 X158.272 Y144.066 E0.06897
G1 X157.989 Y145.029 E0.06896
G1 X157.846 Y146.023 E0.06897
G1 X157.846 Y147.026 E0.06896
G1 X157.989 Y148.02 E0.06897
G1 X158.272 Y148.983 E0.06896
G1 X158.689 Y149.896 E0.06897
G1 X159.232 Y150.74 E0.06897
G1 X159.842 Y151.445 E0.06405
G1 X170.58 Y162.183 E1.04341
G1 X165.658 Y167.104 E0.47825
G1 X158.396 Y159.842 E0.70569
G1 X157.691 Y159.232 E0.06405
G1 X156.847 Y158.689 E0.06897
G1 X155.934 Y158.272 E0.06897
G1 X154.971 Y157.989 E0.06896
G1 X153.977 Y157.846 E0.06897
G1 X152.974 Y157.846 E0.06896
G1 X151.98 Y157.989 E0.06897
G1 X151.017 Y158.272 E0.06896
G1 X150.104 Y158.689 E0.06897
G1 X149.26 Y159.232 E0.06897
G1 X148.555 Y159.842 E0.06405
G1 X137.817 Y170.58 E1.04341
G1 X132.896 Y165.658 E0.47825
G1 X140.158 Y158.396 E0.70569
G1 X140.768 Y157.691 E0.06405
G1 X141.311 Y156.847 E0.06897
G1 X141.728 Y155.934 E0.06897
G1 X142.011 Y154.971 E0.06896
G1 X142.154 Y153.977 E0.06897
G1 X142.154 Y152.974 E0.06896
G1 X142.011 Y151.98 E0.06897
G1 X141.728 Y151.017 E0.06896
G1 X141.311 Y150.104 E0.06897
G1 X140.768 Y149.26 E0.06897
G1 X140.158 Y148.555 E0.06405
G1 X129.42 Y137.817 E1.04341
G1 X133.619 Y133.619 E0.40798
G1 X133.089 Y133.089 F36000
G1 F1800
G1 X133.752 Y132.427 E0.06434
G1 X133.939 Y132.278 E0.01649
G1 X134.092 Y132.204 E0.01164
G1 X134.257 Y132.166 E0.01164
G1 X134.427 Y132.166 E0.01164
G1 X134.592 Y132.204 E0.01164
G1 X134.744 Y132.278 E0.01164
G1 X134.932 Y132.427 E0.01649
G1 X142.115 Y139.61 E0.69793
G1 X142.758 Y140.168 E0.05854
G1 X143.513 Y140.652 E0.06161
G1 X144.328 Y141.025 E0.06161
G1 X145.189 Y141.278 E0.06161
G1 X146.076 Y141.405 E0.06161
G1 X146.973 Y141.405 E0.06161
G1 X147.86 Y141.278 E0.06161
G1 X148.721 Y141.025 E0.06161
G1 X149.536 Y140.652 E0.06161
G1 X150.291 Y140.168 E0.06161
G1 X150.934 Y139.61 E0.05854
G1 X161.592 Y128.952 E1.03565
M73 P3 R30
G1 X161.78 Y128.802 E0.01649
G1 X161.933 Y128.729 E0.01164
G1 X162.098 Y128.691 E0.01164
G1 X162.267 Y128.691 E0.01164
G1 X162.433 Y128.729 E0.01164
G1 X162.585 Y128.802 E0.01164
G1 X162.773 Y128.952 E0.01649
G1 X167.573 Y133.752 E0.4664
G1 X167.722 Y133.939 E0.01649
G1 X167.796 Y134.092 E0.01164
G1 X167.834 Y134.257 E0.01164
G1 X167.834 Y134.427 E0.01164
G1 X167.796 Y134.592 E0.01164
G1 X167.722 Y134.744 E0.01164
G1 X167.573 Y134.932 E0.01649
G1 X160.39 Y142.115 E0.69793
G1 X159.832 Y142.758 E0.05854
G1 X159.348 Y143.513 E0.06161
G1 X158.975 Y144.328 E0.06161
G1 X158.722 Y145.189 E0.06161
G1 X158.595 Y146.076 E0.06161
G1 X158.595 Y146.973 E0.06161
G1 X158.722 Y147.86 E0.06161
G1 X158.975 Y148.721 E0.06161
G1 X159.348 Y149.536 E0.06161
G1 X159.832 Y150.291 E0.06161
G1 X160.39 Y150.934 E0.05854
G1 X171.048 Y161.592 E1.03565
G1 X171.198 Y161.78 E0.01649
G1 X171.271 Y161.933 E0.01164
G1 X171.309 Y162.098 E0.01164
G1 X171.309 Y162.267 E0.01164
G1 X171.271 Y162.433 E0.01164
G1 X171.198 Y162.585 E0.01164
G1 X171.048 Y162.773 E0.01649
G1 X166.248 Y167.573 E0.4664
G1 X166.061 Y167.722 E0.01649
G1 X165.908 Y167.796 E0.01164
G1 X165.743 Y167.834 E0.01164
G1 X165.573 Y167.834 E0.01164
G1 X165.408 Y167.796 E0.01164
G1 X165.256 Y167.722 E0.01164
G1 X165.068 Y167.573 E0.01649
G1 X157.885 Y160.39 E0.69793
G1 X157.242 Y159.832 E0.05854
G1 X156.487 Y159.348 E0.06161
G1 X155.672 Y158.975 E0.06161
G1 X154.811 Y158.722 E0.06161
G1 X153.924 Y158.595 E0.06161
G1 X153.027 Y158.595 E0.06161
G1 X152.14 Y158.722 E0.06161
G1 X151.279 Y158.975 E0.06161
G1 X150.464 Y159.348 E0.06161
G1 X149.709 Y159.832 E0.06161
G1 X149.066 Y160.39 E0.05854
G1 X138.408 Y171.048 E1.03565
G1 X138.22 Y171.198 E0.01649
G1 X138.067 Y171.271 E0.01164
G1 X137.902 Y171.309 E0.01164
G1 X137.733 Y171.309 E0.01164
G1 X137.567 Y171.271 E0.01164
G1 X137.415 Y171.198 E0.01164
G1 X137.227 Y171.048 E0.01649
G1 X132.427 Y166.248 E0.4664
G1 X132.278 Y166.061 E0.01649
G1 X132.204 Y165.908 E0.01164
G1 X132.166 Y165.743 E0.01164
G1 X132.166 Y165.573 E0.01164
G1 X132.204 Y165.408 E0.01164
G1 X132.278 Y165.256 E0.01164
G1 X132.427 Y165.068 E0.01649
G1 X139.61 Y157.885 E0.69793
G1 X140.168 Y157.242 E0.05854
G1 X140.652 Y156.487 E0.06161
G1 X141.025 Y155.672 E0.06161
G1 X141.278 Y154.811 E0.06161
G1 X141.405 Y153.924 E0.06161
G1 X141.405 Y153.027 E0.06161
G1 X141.278 Y152.14 E0.06161
G1 X141.025 Y151.279 E0.06161
G1 X140.652 Y150.464 E0.06161
G1 X140.168 Y149.709 E0.06161
G1 X139.61 Y149.066 E0.05854
G1 X128.952 Y138.408 E1.03565
G1 X128.802 Y138.22 E0.01649
G1 X128.729 Y138.067 E0.01164
G1 X128.691 Y137.902 E0.01164
G1 X128.691 Y137.733 E0.01164
G1 X128.729 Y137.567 E0.01164
G1 X128.802 Y137.415 E0.01164
G1 X128.952 Y137.227 E0.01649
G1 X133.089 Y133.089 E0.40206
G1 X132.56 Y132.56 F36000
;TYPE:External perimeter
G1 F1800
G1 X133.252 Y131.868 E0.06723
G1 X133.539 Y131.64 E0.02517
G1 X133.843 Y131.493 E0.02323
G1 X134.173 Y131.418 E0.02323
G1 X134.511 Y131.418 E0.02323
G1 X134.841 Y131.493 E0.02323
G1 X135.145 Y131.64 E0.02323
G1 X135.432 Y131.868 E0.02517
G1 X142.625 Y139.062 E0.69898
G1 X143.208 Y139.567 E0.05302
G1 X143.872 Y139.994 E0.05425
G1 X144.591 Y140.322 E0.05425
G1 X145.348 Y140.544 E0.05425
G1 X146.13 Y140.657 E0.05425
G1 X146.919 Y140.657 E0.05425
G1 X147.701 Y140.544 E0.05425
G1 X148.458 Y140.322 E0.05425
G1 X149.177 Y139.994 E0.05425
G1 X149.841 Y139.567 E0.05425
G1 X150.424 Y139.062 E0.05302
G1 X161.093 Y128.393 E1.0367
G1 X161.379 Y128.164 E0.02517
G1 X161.684 Y128.018 E0.02323
G1 X162.014 Y127.943 E0.02323
G1 X162.352 Y127.943 E0.02323
G1 X162.681 Y128.018 E0.02323
G1 X162.986 Y128.164 E0.02323
G1 X163.272 Y128.393 E0.02517
G1 X168.132 Y133.252 E0.47218
G1 X168.36 Y133.539 E0.02517
G1 X168.507 Y133.843 E0.02323
G1 X168.582 Y134.173 E0.02323
G1 X168.582 Y134.511 E0.02323
G1 X168.507 Y134.841 E0.02323
G1 X168.36 Y135.145 E0.02323
G1 X168.132 Y135.432 E0.02517
G1 X160.938 Y142.625 E0.69898
G1 X160.433 Y143.208 E0.05302
G1 X160.006 Y143.872 E0.05425
G1 X159.678 Y144.591 E0.05425
G1 X159.456 Y145.348 E0.05425
G1 X159.343 Y146.13 E0.05425
G1 X159.343 Y146.919 E0.05425
