; generated by SuperSlicer 2.5.59 on 2022-09-22 at 06:16:39 UTC


;
;

;
;
; 

; external perimeters extrusion width = 0.40mm
; perimeters extrusion width = 0.50mm
; infill extrusion width = 0.72mm
; solid infill extrusion width = 0.56mm
; top infill extrusion width = 0.40mm

; object:{"name":"Overhang Directional Test v4","id":"Overhang Directional Test v4.stl id:0 copy 0","object_center":[150.000000,150.000000,0.000000],"boundingbox_center":[150.000000,150.000000,11.597674],"boundingbox_size":[64.784532,64.784532,23.195349]}
; plater:{"center":[150.000000,150.000000,0.000000],"boundingbox_center":[150.000000,150.000000,11.597674],"boundingbox_size":[64.784532,64.784532,23.195349]}

M73 P0 R24


; Pre-Processed for Cancel-Object support by preprocess_cancellation v0.2.0
; 1 known objects
EXCLUDE_OBJECT_DEFINE NAME=Overhang_Directional_Test_v4_stl_id_0_copy_0 CENTER=150.000,150.064 POLYGON=[[117.899,117.899],[117.899,182.101],[182.101,182.101],[182.101,117.899]]
;TYPE:Custom
; custom gcode: start_gcode
PRINT_START EXTRUDER=225 BED=70 AREA_START=127.689,127.689 AREA_END=172.311,172.311
; custom gcode end: start_gcode
M107
G21 ; set units to millimeters
G90 ; use absolute coordinates
M83 ; use relative distances for extrusion
; custom gcode: start_filament_gcode
; Filament gcode
SET_PRESSURE_ADVANCE ADVANCE=0.02
SET_PRESSURE_ADVANCE EXTRUDER=extruder SMOOTH_TIME=0.04
; custom gcode end: start_filament_gcode
;_TOOLCHANGE 0
M104 S225 ; set temperature
M109 S225 ; set temperature and wait for it to be reached
M190 S70 ; set bed temperature and wait for it to be reached
;LAYER_CHANGE
;Z:0.24
;HEIGHT:0.24
G1 Z0.24 F36000
G92 E0
M73 P1 R24
G1 E-0.7 F1800
; printing object Overhang Directional Test v4.stl id:0 copy 0
EXCLUDE_OBJECT_START NAME=Overhang_Directional_Test_v4_stl_id_0_copy_0
M204 S2000
G1 X134.399 Y132.637 F36000
G1 E0.7 F1800
;TYPE:Internal perimeter
;WIDTH:0.5
G1 X134.488 Y132.637 E0.00395
G1 X134.574 Y132.657 E0.00395
G1 X134.654 Y132.695 E0.00395
G1 X134.793 Y132.807 E0.00799
G1 X141.924 Y139.937 E0.45129
G1 X142.592 Y140.517 E0.03958
G1 X143.384 Y141.026 E0.04214
G1 X143.813 Y141.221 E0.02107
G1 X144.241 Y141.417 E0.02107
G1 X145.144 Y141.682 E0.04214
G1 X146.076 Y141.816 E0.04214
G1 X147.018 Y141.816 E0.04214
G1 X147.95 Y141.682 E0.04214
G1 X148.853 Y141.417 E0.04214
G1 X149.71 Y141.026 E0.04214
G1 X150.502 Y140.517 E0.04214
G1 X151.171 Y139.937 E0.03958
G1 X161.754 Y129.354 E0.66981
G1 X161.894 Y129.243 E0.00799
G1 X161.973 Y129.204 E0.00395
G1 X162.05 Y129.187 E0.00352
G1 X162.181 Y129.192 E0.00589
G1 X162.234 Y129.204 E0.0024
G1 X162.313 Y129.243 E0.00395
G1 X162.453 Y129.354 E0.00799
G1 X167.193 Y134.094 E0.30001
G1 X167.305 Y134.234 E0.00799
G1 X167.343 Y134.313 E0.00395
G1 X167.363 Y134.399 E0.00395
G1 X167.363 Y134.488 E0.00395
G1 X167.343 Y134.574 E0.00395
G1 X167.305 Y134.654 E0.00395
G1 X167.193 Y134.793 E0.00799
G1 X160.063 Y141.924 E0.45129
G1 X159.483 Y142.592 E0.03958
G1 X158.974 Y143.384 E0.04214
G1 X158.779 Y143.813 E0.02107
G1 X158.583 Y144.241 E0.02107
G1 X158.318 Y145.144 E0.04214
G1 X158.184 Y146.076 E0.04214
G1 X158.184 Y147.018 E0.04214
G1 X158.318 Y147.95 E0.04214
G1 X158.583 Y148.853 E0.04214
G1 X158.974 Y149.71 E0.04214
G1 X159.483 Y150.502 E0.04214
G1 X160.063 Y151.171 E0.03958
G1 X170.646 Y161.754 E0.66981
G1 X170.757 Y161.894 E0.00799
G1 X170.796 Y161.973 E0.00395
G1 X170.815 Y162.059 E0.00395
G1 X170.815 Y162.148 E0.00395
G1 X170.796 Y162.234 E0.00395
G1 X170.757 Y162.313 E0.00395
G1 X170.646 Y162.453 E0.00799
G1 X165.906 Y167.193 E0.30001
G1 X165.766 Y167.305 E0.00799
G1 X165.687 Y167.343 E0.00395
G1 X165.601 Y167.363 E0.00395
G1 X165.512 Y167.363 E0.00395
G1 X165.426 Y167.343 E0.00395
G1 X165.346 Y167.305 E0.00395
G1 X165.207 Y167.193 E0.00799
G1 X158.076 Y160.063 E0.45129
G1 X157.408 Y159.483 E0.03958
G1 X156.616 Y158.974 E0.04214
G1 X156.187 Y158.779 E0.02107
G1 X155.759 Y158.583 E0.02107
G1 X154.856 Y158.318 E0.04214
G1 X153.924 Y158.184 E0.04214
G1 X152.982 Y158.184 E0.04214
G1 X152.05 Y158.318 E0.04214
G1 X151.147 Y158.583 E0.04214
G1 X150.29 Y158.974 E0.04214
G1 X149.498 Y159.483 E0.04214
G1 X148.829 Y160.063 E0.03958
G1 X138.246 Y170.646 E0.66981
G1 X138.106 Y170.757 E0.00799
G1 X138.027 Y170.796 E0.00395
G1 X137.941 Y170.815 E0.00395
G1 X137.852 Y170.815 E0.00395
G1 X137.766 Y170.796 E0.00395
G1 X137.687 Y170.757 E0.00395
G1 X137.547 Y170.646 E0.00799
G1 X132.807 Y165.906 E0.30001
G1 X132.695 Y165.766 E0.00799
G1 X132.657 Y165.687 E0.00395
G1 X132.637 Y165.601 E0.00395
G1 X132.637 Y165.512 E0.00395
G1 X132.657 Y165.426 E0.00395
G1 X132.695 Y165.346 E0.00395
G1 X132.807 Y165.207 E0.00799
G1 X139.937 Y158.076 E0.45129
G1 X140.517 Y157.408 E0.03958
G1 X141.026 Y156.616 E0.04214
G1 X141.221 Y156.187 E0.02107
G1 X141.417 Y155.759 E0.02107
G1 X141.682 Y154.856 E0.04214
G1 X141.816 Y153.924 E0.04214
G1 X141.816 Y152.982 E0.04214
G1 X141.682 Y152.05 E0.04214
G1 X141.417 Y151.147 E0.04214
G1 X141.026 Y150.29 E0.04214
G1 X140.517 Y149.498 E0.04214
G1 X139.937 Y148.829 E0.03958
G1 X129.354 Y138.246 E0.66981
G1 X129.243 Y138.106 E0.00799
G1 X129.204 Y138.027 E0.00395
G1 X129.185 Y137.941 E0.00395
G1 X129.185 Y137.852 E0.00395
G1 X129.204 Y137.766 E0.00395
G1 X129.243 Y137.687 E0.00395
G1 X129.354 Y137.547 E0.00799
G1 X134.094 Y132.807 E0.30001
G1 X134.234 Y132.695 E0.00799
G1 X134.313 Y132.657 E0.00395
G1 X134.399 Y132.637 E0.00395
G1 X134.164 Y132.231 F36000
G1 F1800
G1 X134.349 Y132.189 E0.00847
G1 X134.538 Y132.189 E0.00848
G1 X134.723 Y132.231 E0.00848
G1 X134.894 Y132.313 E0.00848
G1 X135.092 Y132.472 E0.01137
G1 X142.23 Y139.609 E0.4517
G1 X142.862 Y140.157 E0.03743
G1 X143.6 Y140.631 E0.03927
G1 X143.999 Y140.813 E0.01963
G1 X144.398 Y140.996 E0.01963
G1 X145.24 Y141.243 E0.03927
G1 X146.108 Y141.368 E0.03927
G1 X146.986 Y141.368 E0.03927
G1 X147.854 Y141.243 E0.03927
G1 X148.696 Y140.996 E0.03927
G1 X149.494 Y140.631 E0.03927
G1 X150.233 Y140.157 E0.03927
G1 X150.865 Y139.609 E0.03743
G1 X161.455 Y129.019 E0.67022
G1 X161.654 Y128.86 E0.01138
G1 X161.824 Y128.778 E0.00847
G1 X162.009 Y128.736 E0.00848
G1 X162.198 Y128.736 E0.00848
G1 X162.241 Y128.746 E0.00198
G1 X162.383 Y128.778 E0.0065
G1 X162.553 Y128.86 E0.00848
G1 X162.752 Y129.019 E0.01138
G1 X167.528 Y133.795 E0.30226
G1 X167.687 Y133.994 E0.01138
G1 X167.769 Y134.164 E0.00848
G1 X167.811 Y134.349 E0.00847
G1 X167.811 Y134.538 E0.00848
G1 X167.769 Y134.723 E0.00848
G1 X167.687 Y134.894 E0.00848
G1 X167.528 Y135.092 E0.01137
G1 X160.391 Y142.23 E0.4517
G1 X159.843 Y142.862 E0.03743
G1 X159.369 Y143.6 E0.03927
G1 X159.187 Y143.999 E0.01963
G1 X159.004 Y144.398 E0.01963
G1 X158.757 Y145.24 E0.03927
G1 X158.632 Y146.108 E0.03927
G1 X158.632 Y146.986 E0.03927
G1 X158.757 Y147.854 E0.03927
G1 X159.004 Y148.696 E0.03927
G1 X159.369 Y149.494 E0.03927
G1 X159.843 Y150.233 E0.03927
G1 X160.391 Y150.865 E0.03743
G1 X170.981 Y161.455 E0.67022
G1 X171.14 Y161.654 E0.01138
G1 X171.222 Y161.824 E0.00848
G1 X171.264 Y162.009 E0.00848
G1 X171.264 Y162.198 E0.00848
G1 X171.222 Y162.383 E0.00847
G1 X171.14 Y162.553 E0.00848
G1 X170.981 Y162.752 E0.01138
G1 X166.205 Y167.528 E0.30226
G1 X166.006 Y167.687 E0.01138
G1 X165.836 Y167.769 E0.00848
G1 X165.651 Y167.811 E0.00847
G1 X165.462 Y167.811 E0.00848
G1 X165.277 Y167.769 E0.00848
G1 X165.106 Y167.687 E0.00848
G1 X164.908 Y167.528 E0.01137
G1 X157.77 Y160.391 E0.4517
M73 P2 R24
G1 X157.138 Y159.843 E0.03743
G1 X156.4 Y159.369 E0.03927
G1 X156.001 Y159.187 E0.01963
G1 X155.602 Y159.004 E0.01963
G1 X154.76 Y158.757 E0.03927
G1 X153.892 Y158.632 E0.03927
G1 X153.014 Y158.632 E0.03927
G1 X152.146 Y158.757 E0.03927
G1 X151.304 Y159.004 E0.03927
G1 X150.506 Y159.369 E0.03927
G1 X149.767 Y159.843 E0.03927
G1 X149.135 Y160.391 E0.03743
G1 X138.545 Y170.981 E0.67022
G1 X138.346 Y171.14 E0.01138
G1 X138.176 Y171.222 E0.00848
G1 X137.991 Y171.264 E0.00848
G1 X137.802 Y171.264 E0.00848
G1 X137.617 Y171.222 E0.00847
G1 X137.447 Y171.14 E0.00848
G1 X137.248 Y170.981 E0.01138
G1 X132.472 Y166.205 E0.30226
G1 X132.313 Y166.006 E0.01138
G1 X132.231 Y165.836 E0.00848
G1 X132.189 Y165.651 E0.00847
G1 X132.189 Y165.462 E0.00848
G1 X132.231 Y165.277 E0.00848
G1 X132.313 Y165.106 E0.00848
G1 X132.472 Y164.908 E0.01137
G1 X139.609 Y157.77 E0.4517
G1 X140.157 Y157.138 E0.03743
G1 X140.631 Y156.4 E0.03927
G1 X140.813 Y156.001 E0.01963
G1 X140.996 Y155.602 E0.01963
G1 X141.243 Y154.76 E0.03927
G1 X141.368 Y153.892 E0.03927
G1 X141.368 Y153.014 E0.03927
G1 X141.243 Y152.146 E0.03927
G1 X140.996 Y151.304 E0.03927
G1 X140.631 Y150.506 E0.03927
G1 X140.157 Y149.767 E0.03927
G1 X139.609 Y149.135 E0.03743
G1 X129.019 Y138.545 E0.67022
G1 X128.86 Y138.346 E0.01138
G1 X128.778 Y138.176 E0.00847
G1 X128.736 Y137.991 E0.00848
G1 X128.736 Y137.802 E0.00848
G1 X128.778 Y137.617 E0.00847
G1 X128.86 Y137.447 E0.00848
G1 X129.019 Y137.248 E0.01138
G1 X133.795 Y132.472 E0.30226
G1 X133.994 Y132.313 E0.01138
G1 X134.164 Y132.231 E0.00848
G1 X133.754 Y131.931 F36000
G1 F1800
G1 X134.015 Y131.805 E0.013
G1 X134.298 Y131.741 E0.013
G1 X134.589 Y131.741 E0.013
G1 X134.872 Y131.805 E0.013
G1 X135.134 Y131.931 E0.013
G1 X135.392 Y132.137 E0.01476
G1 X142.535 Y139.281 E0.4521
G1 X143.131 Y139.797 E0.03528
G1 X143.815 Y140.236 E0.0364
G1 X144.185 Y140.405 E0.0182
G1 X144.555 Y140.574 E0.0182
G1 X145.335 Y140.803 E0.0364
G1 X146.14 Y140.919 E0.0364
G1 X146.954 Y140.919 E0.0364
G1 X147.759 Y140.803 E0.0364
G1 X148.539 Y140.574 E0.0364
G1 X149.279 Y140.236 E0.0364
G1 X149.963 Y139.797 E0.0364
G1 X150.559 Y139.281 E0.03528
G1 X161.155 Y128.684 E0.67063
G1 X161.413 Y128.478 E0.01476
G1 X161.675 Y128.352 E0.013
G1 X161.958 Y128.288 E0.013
G1 X162.249 Y128.288 E0.013
G1 X162.341 Y128.309 E0.00424
G1 X162.532 Y128.352 E0.00876
G1 X162.794 Y128.478 E0.013
G1 X163.052 Y128.684 E0.01476
G1 X167.863 Y133.496 E0.30452
G1 X168.069 Y133.754 E0.01476
G1 X168.195 Y134.015 E0.013
G1 X168.259 Y134.298 E0.013
G1 X168.259 Y134.589 E0.013
G1 X168.195 Y134.872 E0.013
G1 X168.069 Y135.134 E0.013
G1 X167.863 Y135.392 E0.01476
G1 X160.719 Y142.535 E0.4521
G1 X160.203 Y143.131 E0.03528
G1 X159.764 Y143.815 E0.0364
G1 X159.595 Y144.185 E0.0182
G1 X159.426 Y144.555 E0.0182
G1 X159.197 Y145.335 E0.0364
G1 X159.081 Y146.14 E0.0364
G1 X159.081 Y146.954 E0.0364
G1 X159.197 Y147.759 E0.0364
G1 X159.426 Y148.539 E0.0364
G1 X159.764 Y149.279 E0.0364
G1 X160.203 Y149.963 E0.0364
G1 X160.719 Y150.559 E0.03528
G1 X171.316 Y161.155 E0.67063
G1 X171.522 Y161.413 E0.01476
G1 X171.648 Y161.675 E0.013
G1 X171.712 Y161.958 E0.013
G1 X171.712 Y162.249 E0.013
G1 X171.648 Y162.532 E0.013
G1 X171.522 Y162.794 E0.013
G1 X171.316 Y163.052 E0.01476
G1 X166.504 Y167.863 E0.30452
G1 X166.246 Y168.069 E0.01476
G1 X165.985 Y168.195 E0.013
G1 X165.702 Y168.259 E0.013
G1 X165.411 Y168.259 E0.013
G1 X165.128 Y168.195 E0.013
G1 X164.866 Y168.069 E0.013
G1 X164.608 Y167.863 E0.01476
G1 X157.465 Y160.719 E0.4521
G1 X156.869 Y160.203 E0.03528
G1 X156.185 Y159.764 E0.0364
G1 X155.815 Y159.595 E0.0182
G1 X155.445 Y159.426 E0.0182
G1 X154.665 Y159.197 E0.0364
G1 X153.86 Y159.081 E0.0364
G1 X153.046 Y159.081 E0.0364
G1 X152.241 Y159.197 E0.0364
G1 X151.461 Y159.426 E0.0364
G1 X150.721 Y159.764 E0.0364
G1 X150.037 Y160.203 E0.0364
G1 X149.441 Y160.719 E0.03528
G1 X138.845 Y171.316 E0.67063
G1 X138.587 Y171.522 E0.01476
G1 X138.325 Y171.648 E0.013
G1 X138.042 Y171.712 E0.013
G1 X137.751 Y171.712 E0.013
G1 X137.468 Y171.648 E0.013
G1 X137.206 Y171.522 E0.013
G1 X136.948 Y171.316 E0.01476
G1 X132.137 Y166.504 E0.30452
G1 X131.931 Y166.246 E0.01476
G1 X131.805 Y165.985 E0.013
G1 X131.741 Y165.702 E0.013
G1 X131.741 Y165.411 E0.013
G1 X131.805 Y165.128 E0.013
G1 X131.931 Y164.866 E0.013
G1 X132.137 Y164.608 E0.01476
G1 X139.281 Y157.465 E0.4521
G1 X139.797 Y156.869 E0.03528
G1 X140.236 Y156.185 E0.0364
G1 X140.405 Y155.815 E0.0182
G1 X140.574 Y155.445 E0.0182
G1 X140.803 Y154.665 E0.0364
G1 X140.919 Y153.86 E0.0364
G1 X140.919 Y153.046 E0.0364
G1 X140.803 Y152.241 E0.0364
G1 X140.574 Y151.461 E0.0364
G1 X140.236 Y150.721 E0.0364
G1 X139.797 Y150.037 E0.0364
G1 X139.281 Y149.441 E0.03528
G1 X128.684 Y138.845 E0.67063
G1 X128.478 Y138.587 E0.01476
G1 X128.352 Y138.325 E0.013
G1 X128.288 Y138.042 E0.013
G1 X128.288 Y137.751 E0.013
G1 X128.352 Y137.468 E0.013
G1 X128.478 Y137.206 E0.013
G1 X128.684 Y136.948 E0.01476
G1 X133.496 Y132.137 E0.30452
G1 X133.754 Y131.931 E0.01476
G1 X133.54 Y131.592 F36000
;TYPE:External perimeter
;WIDTH:0.4
G1 F1800
G1 X133.883 Y131.427 E0.01322
G1 X134.254 Y131.342 E0.01322
G1 X134.634 Y131.342 E0.01322
G1 X135.004 Y131.427 E0.01322
G1 X135.347 Y131.592 E0.01322
G1 X135.658 Y131.839 E0.01381
G1 X142.807 Y138.989 E0.35158
G1 X143.37 Y139.477 E0.02592
G1 X144.007 Y139.886 E0.0263
G1 X144.351 Y140.043 E0.01315
G1 X144.695 Y140.2 E0.01315
G1 X145.42 Y140.413 E0.0263
G1 X146.169 Y140.521 E0.0263
G1 X146.925 Y140.521 E0.0263
G1 X147.674 Y140.413 E0.0263
G1 X148.4 Y140.2 E0.0263
G1 X149.088 Y139.886 E0.0263
G1 X149.724 Y139.477 E0.0263
G1 X150.287 Y138.989 E0.02593
G1 X160.889 Y128.386 E0.52138
G1 X161.2 Y128.139 E0.01381
G1 X161.543 Y127.974 E0.01322
G1 X161.913 Y127.889 E0.01322
G1 X162.294 Y127.889 E0.01322
G1 X162.43 Y127.92 E0.00485
G1 X162.664 Y127.974 E0.00837
G1 X163.007 Y128.139 E0.01322
G1 X163.317 Y128.386 E0.01381
G1 X168.161 Y133.23 E0.23818
G1 X168.408 Y133.54 E0.01381
G1 X168.573 Y133.883 E0.01322
G1 X168.658 Y134.254 E0.01322
G1 X168.658 Y134.634 E0.01322
G1 X168.573 Y135.004 E0.01322
G1 X168.408 Y135.347 E0.01322
G1 X168.161 Y135.658 E0.01381
G1 X161.011 Y142.807 E0.35158
G1 X160.523 Y143.37 E0.02592
G1 X160.114 Y144.007 E0.0263
G1 X159.957 Y144.351 E0.01315
G1 X159.8 Y144.695 E0.01315
G1 X159.587 Y145.42 E0.0263
G1 X159.479 Y146.169 E0.0263
G1 X159.479 Y146.925 E0.0263
G1 X159.587 Y147.674 E0.0263
G1 X159.8 Y148.4 E0.0263
G1 X160.114 Y149.088 E0.0263
G1 X160.523 Y149.724 E0.0263
G1 X161.011 Y150.287 E0.02593
G1 X171.614 Y160.889 E0.52138
G1 X171.861 Y161.2 E0.01381
G1 X172.026 Y161.543 E0.01322
G1 X172.111 Y161.913 E0.01322
G1 X172.111 Y162.294 E0.01322
G1 X172.026 Y162.664 E0.01322
G1 X171.861 Y163.007 E0.01322
G1 X171.614 Y163.317 E0.01381
G1 X166.77 Y168.161 E0.23818
G1 X166.46 Y168.408 E0.01381
G1 X166.117 Y168.573 E0.01322
G1 X165.746 Y168.658 E0.01322
G1 X165.366 Y168.658 E0.01322
G1 X164.996 Y168.573 E0.01322
G1 X164.653 Y168.408 E0.01322
G1 X164.342 Y168.161 E0.01381
G1 X157.193 Y161.011 E0.35158
G1 X156.63 Y160.523 E0.02592
G1 X155.993 Y160.114 E0.0263
G1 X155.649 Y159.957 E0.01315
G1 X155.305 Y159.8 E0.01315
G1 X154.58 Y159.587 E0.0263
G1 X153.831 Y159.479 E0.0263
G1 X153.075 Y159.479 E0.0263
G1 X152.326 Y159.587 E0.0263
G1 X151.6 Y159.8 E0.0263
G1 X150.912 Y160.114 E0.0263
G1 X150.276 Y160.523 E0.0263
G1 X149.713 Y161.011 E0.02592
G1 X139.111 Y171.614 E0.52138
G1 X138.8 Y171.861 E0.01381
G1 X138.457 Y172.026 E0.01322
G1 X138.087 Y172.111 E0.01322
G1 X137.706 Y172.111 E0.01322
G1 X137.336 Y172.026 E0.01322
G1 X136.993 Y171.861 E0.01322
G1 X136.683 Y171.614 E0.01381
G1 X131.839 Y166.77 E0.23818
G1 X131.592 Y166.46 E0.01381
G1 X131.427 Y166.117 E0.01322
G1 X131.342 Y165.746 E0.01322
G1 X131.342 Y165.366 E0.01322
G1 X131.427 Y164.996 E0.01322
G1 X131.592 Y164.653 E0.01322
G1 X131.839 Y164.342 E0.01381
G1 X138.989 Y157.193 E0.35158
G1 X139.477 Y156.63 E0.02592
G1 X139.886 Y155.993 E0.0263
G1 X140.043 Y155.649 E0.01315
G1 X140.2 Y155.305 E0.01315
G1 X140.413 Y154.58 E0.0263
G1 X140.521 Y153.831 E0.0263
G1 X140.521 Y153.075 E0.0263
G1 X140.413 Y152.326 E0.0263
G1 X140.2 Y151.6 E0.0263
G1 X139.886 Y150.912 E0.0263
G1 X139.477 Y150.276 E0.0263
G1 X138.989 Y149.713 E0.02592
G1 X128.386 Y139.111 E0.52138
G1 X128.139 Y138.8 E0.01381
G1 X127.974 Y138.457 E0.01322
G1 X127.889 Y138.087 E0.01322
G1 X127.889 Y137.706 E0.01322
G1 X127.974 Y137.336 E0.01322
G1 X128.139 Y136.993 E0.01322
G1 X128.386 Y136.683 E0.01381
G1 X133.23 Y131.839 E0.23818
M73 P3 R24
G1 X133.54 Y131.592 E0.01381
;WIPE_START
M204 S5500
G1 X133.887 Y131.792 F36000
;WIPE_END
G1 E-0.7 F1800
; acceleration to travel
M204 S10000
G1 X157.236 Y129.675 F36000
; decel to extrusion
