; generated by SuperSlicer 2.3.57 on 2022-05-22 at 18:50:16 UTC


;
;

;
;
; TODO: check the size of the extruder and the y-bar clearance. Optimize & test supports.

; external perimeters extrusion width = 0.42mm
; perimeters extrusion width = 0.44mm
; infill extrusion width = 0.44mm
; solid infill extrusion width = 0.44mm
; top infill extrusion width = 0.44mm
; first layer extrusion width = 0.56mm

; object:{"name":"Probe_Dock_v2","id":"Probe_Dock_v2.1.stl id:0 copy 0","object_center":[149.999999,150.000000,0.000000],"boundingbox_center":[149.999999,150.000000,8.500013],"boundingbox_size":[36.255010,10.500026,17.000030]}
; plater:{"center":[149.999999,150.000000,0.000000],"boundingbox_center":[149.999999,150.000000,8.500013],"boundingbox_size":[36.255010,10.500026,17.000030]}

;TYPE:Custom
print_start EXTRUDER=250 BED=110 CHAMBER=55
M107
G21 ; set units to millimeters
G90 ; use absolute coordinates
M83 ; use relative distances for extrusion
M104 S250 ; set temperature
M109 S250 ; set temperature and wait for it to be reached
M190 S110 ; set bed temperature and wait for it to be reached
;LAYER_CHANGE
;Z:0.3
;HEIGHT:0.3
;BEFORE_LAYER_CHANGE
;0.3


G1 Z0.3 F18000
;AFTER_LAYER_CHANGE
;0.3
G1 E-0.75 F3000
M204 S1500
G1 Z0.7 F18000
G1 X130.388 Y140.412
G1 Z0.3
G1 E0.75 F1800
;TYPE:Skirt
;WIDTH:0.56
G1 F3600
G1 X127.593 Y143.199 E0.22934
G1 X126.77 Y144.345 E0.082
G1 X126.224 Y145.646 E0.082
G1 X125.977 Y147.222 E0.09268
G1 X125.979 Y154.476 E0.42153
G1 X126.173 Y155.89 E0.08294
G1 X126.653 Y157.229 E0.08262
G1 X127.112 Y158.04 E0.05419
G1 X127.657 Y158.762 E0.05252
G1 X128.289 Y159.403 E0.0523
G1 X129.003 Y159.958 E0.05258
G1 X129.801 Y160.425 E0.0537
G1 X130.681 Y160.788 E0.05535
G1 X131.504 Y161.009 E0.04948
G1 X132.414 Y161.131 E0.05336
G1 X152.234 Y161.248 E1.15171
G1 X167.23 Y161.147 E0.8714
G1 X168.714 Y160.962 E0.0869
G1 X170.106 Y160.47 E0.08581
G1 X171.4 Y159.661 E0.08866
G1 X172.428 Y158.661 E0.08337
G1 X173.255 Y157.415 E0.08685
G1 X173.799 Y155.998 E0.08823
G1 X174.025 Y154.3 E0.09953
G1 X174.024 Y147.292 E0.40719
G1 X173.888 Y146.092 E0.07022
G1 X173.46 Y144.798 E0.07914
G1 X172.762 Y143.629 E0.07914
G1 X169.558 Y140.365 E0.26579
G1 X168.661 Y139.721 E0.06415
G1 X167.659 Y139.244 E0.0645
G1 X166.588 Y138.951 E0.0645
G1 X165.483 Y138.852 E0.0645
G1 X134.409 Y138.853 E1.80562
G1 X133.094 Y139.017 E0.077
G1 X131.843 Y139.454 E0.077
G1 X131.084 Y139.88 E0.05055
G1 X130.435 Y140.375 E0.04743
; INIT printing object Probe_Dock_v2.1.stl id:0 copy 0
G1 E-0.75 F3000
G1 Z0.7 F18000
; printing object Probe_Dock_v2.1.stl id:0 copy 0
G1 X140.539 Y147.362
G1 Z0.3
G1 E0.75 F1800
;TYPE:Internal perimeter
G1 F3600
G1 X141.868 Y147.362 E0.07723
G1 X142.361 Y147.362 E0.02864
G1 X145.811 Y147.362 E0.20046
G1 X146.304 Y147.362 E0.02864
G1 X149.479 Y147.362 E0.18448
G1 X149.195 Y147.745 E0.02768
G1 X148.943 Y148.115 E0.02598
G1 X148.793 Y148.391 E0.01827
G1 X148.591 Y148.79 E0.02598
G1 X148.481 Y149.084 E0.01826
G1 X148.333 Y149.506 E0.02598
G1 X148.265 Y149.813 E0.01826
G1 X148.174 Y150.251 E0.02599
G1 X148.149 Y150.564 E0.01827
G1 X148.116 Y151.005 E0.02569
G1 X148.14 Y151.447 E0.02568
G1 X148.159 Y151.76 E0.01827
G1 X148.243 Y152.2 E0.02598
G1 X148.331 Y152.638 E0.02596
G1 X147.766 Y152.638 E0.03285
G1 X144.291 Y152.638 E0.20193
G1 X143.794 Y152.638 E0.02885
G1 X140.816 Y152.638 E0.17308
G1 X140.319 Y152.638 E0.02885
G1 X138.431 Y152.638 E0.1097
G1 X138.341 Y152.282 E0.02129
G1 X138.559 Y152.164 E0.01439
G1 X138.825 Y152 E0.0182
G1 X139.169 Y151.732 E0.02529
G1 X139.4 Y151.521 E0.01819
G1 X139.695 Y151.201 E0.02529
G1 X139.884 Y150.951 E0.01818
G1 X140.122 Y150.587 E0.02529
G1 X140.261 Y150.307 E0.0182
G1 X140.436 Y149.908 E0.02529
G1 X140.522 Y149.607 E0.0182
G1 X140.629 Y149.185 E0.02531
G1 X140.658 Y148.872 E0.01821
G1 X140.693 Y148.45 E0.02463
G1 X140.658 Y148.028 E0.02463
G1 X140.629 Y147.715 E0.01821
G1 X140.554 Y147.421 E0.01767
G1 X139.885 Y146.867 F18000
G1 F3600
G1 X141.868 Y146.867 E0.11524
G1 X142.361 Y146.867 E0.02864
G1 X145.811 Y146.867 E0.20046
G1 X146.304 Y146.867 E0.02864
G1 X149.754 Y146.867 E0.20046
G1 X150.74 Y146.867 E0.05732
G1 X150.239 Y147.298 E0.03839
G1 X150.042 Y147.499 E0.01638
G1 X149.767 Y147.806 E0.02397
G1 X149.599 Y148.033 E0.01637
G1 X149.366 Y148.373 E0.02397
G1 X149.232 Y148.621 E0.01638
G1 X149.046 Y148.989 E0.02397
G1 X148.947 Y149.253 E0.01638
G1 X148.811 Y149.642 E0.02397
G1 X148.75 Y149.918 E0.01638
G1 X148.665 Y150.321 E0.02397
G1 X148.643 Y150.602 E0.01639
G1 X148.612 Y151.01 E0.02374
G1 X148.635 Y151.418 E0.02373
G1 X148.652 Y151.699 E0.01638
G1 X148.729 Y152.104 E0.02397
G1 X148.785 Y152.381 E0.01638
G1 X148.914 Y152.773 E0.02397
G1 X149.041 Y153.133 E0.02222
G1 X148.262 Y153.133 E0.04525
G1 X147.766 Y153.133 E0.02885
G1 X144.291 Y153.133 E0.20193
G1 X143.794 Y153.133 E0.02885
G1 X140.816 Y153.133 E0.17308
G1 X140.319 Y153.133 E0.02885
G1 X136.844 Y153.133 E0.20193
G1 X136.348 Y153.133 E0.02885
G1 X133.989 Y153.133 E0.13703
G1 X133.989 Y152.772 E0.02097
G1 X133.989 Y152.28 E0.02862
G1 X133.989 Y151.46 E0.04761
G1 X134.434 Y151.735 E0.03036
G1 X134.776 Y151.921 E0.02263
G1 X135.03 Y152.019 E0.01581
G1 X135.398 Y152.146 E0.02263
G1 X135.666 Y152.196 E0.01582
G1 X136.05 Y152.26 E0.02264
G1 X136.694 Y152.26 E0.03741
G1 X137.078 Y152.196 E0.02264
G1 X137.346 Y152.146 E0.01582
G1 X137.714 Y152.019 E0.02263
G1 X137.968 Y151.921 E0.01581
G1 X138.311 Y151.735 E0.02263
G1 X138.542 Y151.592 E0.01581
G1 X138.849 Y151.353 E0.02263
G1 X139.05 Y151.17 E0.01581
G1 X139.314 Y150.883 E0.02262
G1 X139.478 Y150.666 E0.0158
G1 X139.691 Y150.34 E0.02263
G1 X139.812 Y150.096 E0.01582
G1 X139.969 Y149.74 E0.02263
G1 X140.043 Y149.478 E0.01581
G1 X140.139 Y149.1 E0.02264
G1 X140.164 Y148.829 E0.01582
G1 X140.195 Y148.45 E0.02211
G1 X140.164 Y148.071 E0.02211
G1 X140.139 Y147.8 E0.01582
G1 X140.043 Y147.422 E0.02264
G1 X139.902 Y146.925 E0.03005
G1 X138.976 Y146.371 F18000
G1 F3600
G1 X141.868 Y146.371 E0.16809
G1 X142.361 Y146.371 E0.02864
G1 X145.811 Y146.371 E0.20046
G1 X146.304 Y146.371 E0.02864
G1 X149.754 Y146.371 E0.20046
G1 X150.246 Y146.371 E0.02864
G1 X151.917 Y146.371 E0.09709
G1 X152.001 Y146.737 E0.02182
G1 X151.596 Y146.932 E0.02613
G1 X151.378 Y147.055 E0.01449
G1 X151.062 Y147.262 E0.02196
G1 X150.864 Y147.414 E0.01449
G1 X150.578 Y147.66 E0.02196
G1 X150.403 Y147.838 E0.01449
G1 X150.151 Y148.12 E0.02196
G1 X150.003 Y148.32 E0.01449
G1 X149.79 Y148.632 E0.02196
G1 X149.671 Y148.851 E0.01449
G1 X149.501 Y149.188 E0.02196
G1 X149.413 Y149.422 E0.01449
G1 X149.288 Y149.779 E0.02196
G1 X149.234 Y150.022 E0.01449
G1 X149.157 Y150.392 E0.02196
G1 X149.137 Y150.641 E0.0145
G1 X149.109 Y151.015 E0.02179
G1 X149.13 Y151.389 E0.02178
G1 X149.145 Y151.638 E0.01449
G1 X149.215 Y152.009 E0.02196
G1 X149.265 Y152.254 E0.01449
G1 X149.383 Y152.612 E0.02196
G1 X149.466 Y152.848 E0.01449
G1 X149.63 Y153.188 E0.02196
G1 X149.859 Y153.629 E0.02886
G1 X148.262 Y153.629 E0.09277
G1 X147.766 Y153.629 E0.02885
G1 X144.291 Y153.629 E0.20193
G1 X143.794 Y153.629 E0.02885
G1 X140.816 Y153.629 E0.17308
G1 X140.319 Y153.629 E0.02885
G1 X136.844 Y153.629 E0.20193
G1 X136.348 Y153.629 E0.02885
G1 X133.494 Y153.629 E0.16583
G1 X133.494 Y153.265 E0.02115
G1 X133.494 Y152.772 E0.02862
G1 X133.494 Y152.28 E0.02862
G1 X133.494 Y151.294 E0.05725
G1 X133.494 Y150.22 E0.0624
G1 X134.044 Y150.818 E0.0472
G1 X134.215 Y150.974 E0.01342
G1 X134.486 Y151.185 E0.01997
G1 X134.682 Y151.306 E0.01343
G1 X134.984 Y151.47 E0.01997
G1 X135.2 Y151.553 E0.01343
G1 X135.525 Y151.665 E0.01997
G1 X135.752 Y151.707 E0.01343
G1 X136.091 Y151.764 E0.01997
G1 X136.653 Y151.764 E0.03264
G1 X136.992 Y151.707 E0.01997
G1 X137.219 Y151.665 E0.01343
G1 X137.544 Y151.553 E0.01997
G1 X137.76 Y151.47 E0.01343
G1 X138.062 Y151.306 E0.01997
G1 X138.258 Y151.185 E0.01343
G1 X138.53 Y150.974 E0.01997
G1 X138.7 Y150.818 E0.01343
G1 X138.933 Y150.565 E0.01996
G1 X139.072 Y150.381 E0.01342
G1 X139.26 Y150.093 E0.01997
G1 X139.363 Y149.886 E0.01343
G1 X139.501 Y149.572 E0.01997
G1 X139.564 Y149.349 E0.01343
G1 X139.649 Y149.016 E0.01998
G1 X139.67 Y148.786 E0.01344
G1 X139.698 Y148.45 E0.01958
G1 X139.67 Y148.114 E0.01958
G1 X139.649 Y147.884 E0.01344
G1 X139.564 Y147.551 E0.01998
G1 X139.501 Y147.328 E0.01343
G1 X139.363 Y147.014 E0.01997
G1 X139.26 Y146.807 E0.01343
G1 X139.008 Y146.421 E0.02674
G1 X158.125 Y147.362 F18000
G1 F2880
G1 X159.46 Y147.362 E0.0776
G1 X159.371 Y147.715 E0.02115
G1 X159.342 Y148.027 E0.0182
G1 X159.307 Y148.45 E0.02465
G1 X159.322 Y148.634 E0.01075
G1 X158.944 Y148.737 E0.02276
G1 X158.752 Y148.339 E0.02568
G1 X158.588 Y148.071 E0.01826
G1 X158.158 Y147.413 E0.04571
G1 X159.419 Y150.509 F18000
G1 F3473.4007
G1 X159.79 Y150.41 E0.0223
G1 X159.878 Y150.587 E0.01147
G1 X160.116 Y150.951 E0.02529
G1 X160.305 Y151.201 E0.01819
G1 X160.599 Y151.521 E0.02529
G1 X160.831 Y151.732 E0.01819
G1 X161.174 Y152 E0.02529
G1 X161.44 Y152.164 E0.01819
G1 X161.658 Y152.282 E0.01439
G1 X161.568 Y152.638 E0.02129
G1 X159.233 Y152.638 E0.13569
G1 X159.361 Y152.026 E0.03632
G1 X159.408 Y151.715 E0.01826
G1 X159.441 Y151.269 E0.02598
G1 X159.444 Y150.955 E0.01825
G1 X159.422 Y150.568 E0.0225
G1 X158.526 Y153.133 F18000
G1 F3600
G1 X158.708 Y152.612 E0.03208
G1 X158.789 Y152.342 E0.01637
G1 X158.873 Y151.938 E0.02396
G1 X158.915 Y151.66 E0.01638
G1 X158.946 Y151.248 E0.02397
G1 X158.948 Y150.967 E0.01637
G1 X158.925 Y150.555 E0.02397
G1 X158.889 Y150.275 E0.01638
G1 X158.812 Y149.87 E0.02397
G1 X158.737 Y149.598 E0.01637
G1 X158.608 Y149.207 E0.02397
G1 X158.496 Y148.948 E0.01637
G1 X158.317 Y148.576 E0.02397
G1 X158.17 Y148.336 E0.01637
G1 X157.944 Y147.991 E0.02397
G1 X157.765 Y147.773 E0.01638
G1 X157.496 Y147.461 E0.02397
G1 X156.849 Y146.867 E0.05102
G1 X157.639 Y146.867 E0.04591
G1 X158.132 Y146.867 E0.02864
G1 X160.114 Y146.867 E0.11521
G1 X159.956 Y147.422 E0.03354
G1 X159.861 Y147.8 E0.02263
G1 X159.836 Y148.071 E0.01582
G1 X159.804 Y148.45 E0.02212
G1 X159.836 Y148.829 E0.02212
G1 X159.861 Y149.1 E0.01582
G1 X159.956 Y149.478 E0.02263
G1 X160.031 Y149.74 E0.01581
G1 X160.187 Y150.096 E0.02263
G1 X160.309 Y150.34 E0.01581
G1 X160.522 Y150.666 E0.02263
G1 X160.686 Y150.883 E0.01581
G1 X160.949 Y151.17 E0.02263
G1 X161.15 Y151.353 E0.01581
G1 X161.458 Y151.592 E0.02263
G1 X161.689 Y151.735 E0.01581
G1 X162.031 Y151.921 E0.02263
G1 X162.285 Y152.019 E0.01581
G1 X162.654 Y152.146 E0.02264
G1 X162.921 Y152.196 E0.01582
G1 X163.306 Y152.26 E0.02264
G1 X163.949 Y152.26 E0.03741
G1 X164.334 Y152.196 E0.02264
G1 X164.601 Y152.146 E0.01582
G1 X164.97 Y152.019 E0.02264
G1 X165.224 Y151.921 E0.01581
G1 X165.566 Y151.735 E0.02263
G1 X166.011 Y151.46 E0.03039
G1 X166.011 Y152.28 E0.04762
G1 X166.011 Y152.772 E0.02862
G1 X166.011 Y153.133 E0.02097
G1 X163.652 Y153.133 E0.13703
G1 X163.156 Y153.133 E0.02885
G1 X159.681 Y153.133 E0.20193
G1 X159.184 Y153.133 E0.02885
G1 X158.586 Y153.133 E0.03477
G1 X157.712 Y153.629 F18000
G1 F3600
G1 X158.008 Y153.043 E0.03813
G1 X158.112 Y152.816 E0.01449
G1 X158.237 Y152.46 E0.02196
G1 X158.308 Y152.221 E0.01449
G1 X158.385 Y151.851 E0.02195
G1 X158.422 Y151.604 E0.01449
G1 X158.45 Y151.227 E0.02195
G1 X158.452 Y150.978 E0.01449
G1 X158.431 Y150.601 E0.02196
G1 X158.399 Y150.354 E0.01449
G1 X158.329 Y149.982 E0.02196
G1 X158.262 Y149.742 E0.01449
G1 X158.144 Y149.383 E0.02196
G1 X158.045 Y149.154 E0.01449
G1 X157.881 Y148.814 E0.02196
G1 X157.751 Y148.601 E0.01449
G1 X157.544 Y148.285 E0.02196
G1 X157.385 Y148.092 E0.01449
G1 X157.139 Y147.806 E0.02196
G1 X156.955 Y147.637 E0.01449
G1 X156.673 Y147.386 E0.02196
G1 X156.468 Y147.244 E0.01449
G1 X156.158 Y147.033 E0.02179
G1 X155.823 Y146.864 E0.02179
G1 X155.564 Y146.734 E0.01688
G1 X155.649 Y146.371 E0.02166
G1 X157.639 Y146.371 E0.11562
G1 X158.132 Y146.371 E0.02864
G1 X161.024 Y146.371 E0.16807
G1 X160.739 Y146.807 E0.03023
G1 X160.636 Y147.014 E0.01343
G1 X160.498 Y147.328 E0.01997
G1 X160.435 Y147.551 E0.01343
G1 X160.351 Y147.884 E0.01997
G1 X160.329 Y148.114 E0.01343
G1 X160.302 Y148.45 E0.01959
G1 X160.329 Y148.786 E0.01959
G1 X160.351 Y149.016 E0.01343
G1 X160.435 Y149.349 E0.01997
G1 X160.498 Y149.572 E0.01343
G1 X160.636 Y149.886 E0.01997
G1 X160.739 Y150.093 E0.01343
G1 X160.927 Y150.381 E0.01997
G1 X161.067 Y150.565 E0.01343
G1 X161.299 Y150.818 E0.01996
G1 X161.47 Y150.974 E0.01343
G1 X161.741 Y151.185 E0.01997
G1 X161.938 Y151.306 E0.01343
G1 X162.24 Y151.47 E0.01997
G1 X162.455 Y151.553 E0.01343
G1 X162.78 Y151.665 E0.01997
G1 X163.008 Y151.707 E0.01343
G1 X163.347 Y151.764 E0.01997
G1 X163.908 Y151.764 E0.03264
G1 X164.247 Y151.707 E0.01997
G1 X164.475 Y151.665 E0.01343
G1 X164.8 Y151.553 E0.01997
G1 X165.015 Y151.47 E0.01343
G1 X165.317 Y151.306 E0.01997
G1 X165.514 Y151.185 E0.01343
G1 X165.785 Y150.974 E0.01997
G1 X165.956 Y150.818 E0.01343
G1 X166.506 Y150.22 E0.04723
G1 X166.506 Y151.787 E0.09105
G1 X166.506 Y152.28 E0.02862
G1 X166.506 Y152.772 E0.02862
G1 X166.506 Y153.265 E0.02862
G1 X166.506 Y153.629 E0.02115
G1 X163.652 Y153.629 E0.16583
G1 X163.156 Y153.629 E0.02885
G1 X159.681 Y153.629 E0.20193
G1 X159.184 Y153.629 E0.02885
G1 X157.772 Y153.629 E0.08204
G1 X156.642 Y154.129 F18000
G1 F3600
G1 X157.096 Y153.602 E0.0404
G1 X157.29 Y153.318 E0.02001
G1 X157.407 Y153.135 E0.01262
G1 X157.561 Y152.828 E0.01995
G1 X157.651 Y152.631 E0.0126
G1 X157.765 Y152.307 E0.01994
G1 X157.827 Y152.099 E0.0126
G1 X157.897 Y151.763 E0.01994
G1 X157.929 Y151.549 E0.0126
G1 X157.955 Y151.206 E0.01994
G1 X157.957 Y150.99 E0.0126
G1 X157.937 Y150.647 E0.01994
G1 X157.909 Y150.432 E0.0126
G1 X157.846 Y150.095 E0.01995
G1 X157.788 Y149.886 E0.0126
G1 X157.68 Y149.559 E0.01994
G1 X157.594 Y149.361 E0.0126
G1 X157.445 Y149.051 E0.01995
G1 X157.332 Y148.866 E0.0126
G1 X157.144 Y148.579 E0.01994
G1 X157.006 Y148.412 E0.0126
G1 X156.782 Y148.151 E0.01995
G1 X156.622 Y148.005 E0.0126
G1 X156.367 Y147.776 E0.01995
G1 X156.188 Y147.653 E0.01261
G1 X155.906 Y147.461 E0.01984
G1 X155.601 Y147.307 E0.01984
G1 X155.407 Y147.21 E0.0126
G1 X155.083 Y147.096 E0.01995
G1 X154.877 Y147.027 E0.0126
G1 X154.541 Y146.957 E0.01995
G1 X154.328 Y146.918 E0.0126
G1 X153.986 Y146.892 E0.01995
G1 X153.769 Y146.882 E0.0126
G1 X153.426 Y146.902 E0.01994
G1 X153.211 Y146.922 E0.0126
G1 X152.873 Y146.986 E0.01994
G1 X152.662 Y147.036 E0.0126
G1 X152.336 Y147.144 E0.01994
G1 X152.134 Y147.223 E0.0126
G1 X151.825 Y147.372 E0.01995
G1 X151.636 Y147.479 E0.0126
G1 X151.349 Y147.667 E0.01994
G1 X151.177 Y147.798 E0.0126
G1 X150.917 Y148.022 E0.01994
G1 X150.765 Y148.177 E0.0126
G1 X150.536 Y148.433 E0.01994
G1 X150.407 Y148.607 E0.0126
G1 X150.213 Y148.891 E0.01995
G1 X150.11 Y149.081 E0.0126
G1 X149.955 Y149.388 E0.01995
G1 X149.879 Y149.591 E0.0126
G1 X149.766 Y149.915 E0.01995
G1 X149.719 Y150.126 E0.0126
G1 X149.648 Y150.462 E0.01995
G1 X149.631 Y150.679 E0.01261
G1 X149.606 Y151.019 E0.01984
G1 X149.625 Y151.36 E0.01983
G1 X149.638 Y151.577 E0.01261
G1 X149.702 Y151.914 E0.01994
G1 X149.745 Y152.126 E0.01261
G1 X149.852 Y152.452 E0.01995
G1 X149.924 Y152.657 E0.0126
G1 X150.073 Y152.966 E0.01994
G1 X150.173 Y153.159 E0.01262
G1 X150.362 Y153.446 E0.01996
G1 X150.489 Y153.625 E0.01275
G1 X150.929 Y154.128 E0.03883
G1 X150.251 Y154.125 E0.0394
G1 X149.752 Y154.124 E0.02897
G1 X148.262 Y154.124 E0.08655
G1 X147.766 Y154.124 E0.02885
G1 X144.291 Y154.124 E0.20193
G1 X143.794 Y154.124 E0.02885
G1 X140.816 Y154.124 E0.17308
G1 X140.319 Y154.124 E0.02885
G1 X136.844 Y154.124 E0.20193
G1 X136.348 Y154.124 E0.02885
G1 X132.998 Y154.124 E0.19463
G1 X132.998 Y153.757 E0.02132
G1 X132.998 Y153.265 E0.02862
G1 X132.998 Y152.772 E0.02862
G1 X132.998 Y152.28 E0.02862
G1 X132.998 Y151.294 E0.05725
G1 X132.998 Y150.802 E0.02862
G1 X132.998 Y150.309 E0.02862
G1 X132.998 Y149.817 E0.02862
G1 X132.998 Y149.324 E0.02862
G1 X132.998 Y148.831 E0.02862
G1 X132.998 Y148.339 E0.02862
G1 X132.998 Y147.716 E0.03617
G1 X133.394 Y147.32 E0.03253
G1 X133.708 Y147.505 E0.02116
G1 X133.658 Y147.679 E0.01053
G1 X133.585 Y147.968 E0.01731
G1 X133.568 Y148.157 E0.01105
G1 X133.543 Y148.45 E0.01706
