; generated by SuperSlicer 2.5.59 on 2022-08-22 at 05:10:19 UTC


;
;

;
;
; 

; external perimeters extrusion width = 0.42mm
; perimeters extrusion width = 0.44mm
; infill extrusion width = 0.72mm
; solid infill extrusion width = 0.56mm
; top infill extrusion width = 0.40mm
; first layer extrusion width = 0.48mm

; object:{"name":"LED_Strip_Holder_300mm (1)","id":"LED_Strip_Holder_300mm (1).stl id:0 copy 0","object_center":[149.987095,149.987095,0.000000],"boundingbox_center":[149.987095,149.987095,8.250000],"boundingbox_size":[234.545532,234.545532,16.500000]}
; plater:{"center":[149.987095,149.987095,0.000000],"boundingbox_center":[149.987095,149.987095,8.250000],"boundingbox_size":[234.545532,234.545532,16.500000]}

M73 P0 R54
;TYPE:Custom
; custom gcode: start_gcode
PRINT_START EXTRUDER=250 BED=110 
; custom gcode end: start_gcode
M107
G21 ; set units to millimeters
G90 ; use absolute coordinates
M83 ; use relative distances for extrusion
; custom gcode: start_filament_gcode
; Filament gcode
SET_PRESSURE_ADVANCE ADVANCE=0.03
SET_PRESSURE_ADVANCE EXTRUDER=extruder SMOOTH_TIME=0.04
; custom gcode end: start_filament_gcode
;_TOOLCHANGE 0
M109 S250 ; set temperature and wait for it to be reached
M190 S110 ; set bed temperature and wait for it to be reached
;LAYER_CHANGE
;Z:0.24
;HEIGHT:0.24
G1 Z0.24 F42000
G92 E0
G1 E-0.5 F1800
; printing object LED_Strip_Holder_300mm (1).stl id:0 copy 0
M204 S2000
G1 X266.019 Y47.023 F42000
G1 E0.5 F1800
;TYPE:Internal perimeter
;WIDTH:0.428495
G1 X47.023 Y266.019 E11.65006
G1 X33.955 Y252.952 E0.69517
G1 X252.952 Y33.955 E11.65006
M73 P1 R53
G1 X259.485 Y40.489 E0.34758
G1 X266.019 Y47.023 E0.34759
M204 S1000
G1 X266.625 Y47.023 F42000
;TYPE:External perimeter
G1 F1800
G1 X47.023 Y266.625 E11.6823
G1 X33.349 Y252.952 E0.72741
G1 X252.952 Y33.349 E11.68229
G1 X259.788 Y40.186 E0.3637
G1 X266.625 Y47.023 E0.3637
;WIPE_START
M204 S7000
G1 X266.239 Y47.126 F42000
;WIPE_END
G1 E-0.5 F1800
; acceleration to travel
M204 S10000
G1 X255.057 Y36.344 F42000
; decel to extrusion
M204 S2000
G1 X252.815 Y34.182
; end travel
G1 E0.5 F1800
;TYPE:Solid infill
;WIDTH:0.479941
G1 F2700
G1 X265.662 Y47.029 E0.77668
G1 X265.359 Y47.332 E0.01832
G1 X252.642 Y34.615 E0.7688
M73 P2 R53
G1 X252.339 Y34.918 E0.01832
G1 X265.056 Y47.635 E0.7688
G1 X264.753 Y47.938 E0.01832
G1 X252.036 Y35.221 E0.7688
G1 X251.733 Y35.524 E0.01832
G1 X264.45 Y48.241 E0.7688
G1 X264.147 Y48.544 E0.01832
G1 X251.43 Y35.827 E0.7688
G1 X251.127 Y36.13 E0.01832
G1 X263.844 Y48.847 E0.7688
G1 X263.541 Y49.15 E0.01832
G1 X250.825 Y36.433 E0.7688
G1 X250.522 Y36.736 E0.01832
G1 X263.238 Y49.453 E0.7688
G1 X262.935 Y49.756 E0.01832
G1 X250.219 Y37.039 E0.7688
G1 X249.916 Y37.342 E0.01832
G1 X262.632 Y50.059 E0.7688
G1 X262.329 Y50.362 E0.01832
G1 X249.613 Y37.645 E0.7688
G1 X249.31 Y37.948 E0.01832
G1 X262.026 Y50.665 E0.7688
G1 X261.723 Y50.968 E0.01832
G1 X249.007 Y38.251 E0.7688
G1 X248.704 Y38.554 E0.01832
G1 X261.42 Y51.271 E0.7688
G1 X261.117 Y51.574 E0.01832
G1 X248.401 Y38.857 E0.7688
G1 X248.098 Y39.16 E0.01832
G1 X260.814 Y51.877 E0.7688
G1 X260.511 Y52.18 E0.01832
G1 X247.795 Y39.463 E0.7688
G1 X247.492 Y39.766 E0.01832
G1 X260.208 Y52.483 E0.7688
G1 X259.905 Y52.786 E0.01832
G1 X247.189 Y40.069 E0.7688
G1 X246.886 Y40.372 E0.01832
G1 X259.602 Y53.089 E0.7688
G1 X259.299 Y53.392 E0.01832
G1 X246.583 Y40.675 E0.7688
G1 X246.28 Y40.978 E0.01832
G1 X258.996 Y53.695 E0.7688
G1 X258.693 Y53.998 E0.01832
G1 X245.977 Y41.281 E0.7688
G1 X245.674 Y41.584 E0.01832
G1 X258.39 Y54.301 E0.7688
G1 X258.087 Y54.604 E0.01832
G1 X245.371 Y41.887 E0.7688
G1 X245.068 Y42.19 E0.01832
G1 X257.784 Y54.907 E0.7688
G1 X257.481 Y55.21 E0.01832
G1 X244.765 Y42.493 E0.7688
G1 X244.462 Y42.796 E0.01832
G1 X257.178 Y55.513 E0.7688
G1 X256.875 Y55.816 E0.01832
G1 X244.159 Y43.099 E0.7688
G1 X243.856 Y43.402 E0.01832
G1 X256.572 Y56.119 E0.7688
G1 X256.269 Y56.421 E0.01832
G1 X243.553 Y43.705 E0.7688
G1 X243.25 Y44.008 E0.01832
G1 X255.966 Y56.724 E0.7688
G1 X255.663 Y57.027 E0.01832
G1 X242.947 Y44.311 E0.7688
G1 X242.644 Y44.614 E0.01832
G1 X255.36 Y57.33 E0.7688
G1 X255.057 Y57.633 E0.01832
G1 X242.341 Y44.917 E0.7688
G1 X242.038 Y45.22 E0.01832
G1 X254.754 Y57.936 E0.7688
G1 X254.451 Y58.239 E0.01832
G1 X241.735 Y45.523 E0.7688
G1 X241.432 Y45.826 E0.01832
G1 X254.148 Y58.542 E0.7688
G1 X253.845 Y58.845 E0.01832
G1 X241.129 Y46.129 E0.7688
G1 X240.826 Y46.432 E0.01832
G1 X253.542 Y59.148 E0.7688
G1 X253.239 Y59.451 E0.01832
G1 X240.523 Y46.735 E0.7688
G1 X240.22 Y47.038 E0.01832
G1 X252.936 Y59.754 E0.7688
G1 X252.633 Y60.057 E0.01832
G1 X239.917 Y47.341 E0.7688
G1 X239.614 Y47.644 E0.01832
G1 X252.33 Y60.36 E0.7688
G1 X252.027 Y60.663 E0.01832
G1 X239.311 Y47.947 E0.7688
G1 X239.008 Y48.25 E0.01832
G1 X251.724 Y60.966 E0.7688
G1 X251.421 Y61.269 E0.01832
G1 X238.705 Y48.553 E0.7688
G1 X238.402 Y48.856 E0.01832
G1 X251.118 Y61.572 E0.7688
G1 X250.815 Y61.875 E0.01832
G1 X238.099 Y49.159 E0.7688
G1 X237.796 Y49.462 E0.01832
G1 X250.512 Y62.178 E0.7688
G1 X250.209 Y62.481 E0.01832
G1 X237.493 Y49.765 E0.7688
G1 X237.19 Y50.068 E0.01832
G1 X249.906 Y62.784 E0.7688
G1 X249.603 Y63.087 E0.01832
G1 X236.887 Y50.371 E0.7688
G1 X236.584 Y50.674 E0.01832
G1 X249.3 Y63.39 E0.7688
G1 X248.997 Y63.693 E0.01832
G1 X236.281 Y50.977 E0.7688
G1 X235.978 Y51.28 E0.01832
G1 X248.694 Y63.996 E0.7688
G1 X248.391 Y64.299 E0.01832
G1 X235.675 Y51.583 E0.7688
G1 X235.372 Y51.886 E0.01832
G1 X248.088 Y64.602 E0.7688
G1 X247.785 Y64.905 E0.01832
G1 X235.069 Y52.189 E0.7688
G1 X234.766 Y52.492 E0.01832
G1 X247.482 Y65.208 E0.7688
G1 X247.179 Y65.511 E0.01832
G1 X234.463 Y52.795 E0.7688
G1 X234.16 Y53.098 E0.01832
G1 X246.876 Y65.814 E0.7688
G1 X246.573 Y66.117 E0.01832
G1 X233.857 Y53.401 E0.7688
G1 X233.554 Y53.704 E0.01832
G1 X246.27 Y66.42 E0.7688
G1 X245.967 Y66.723 E0.01832
G1 X233.251 Y54.007 E0.7688
G1 X232.948 Y54.31 E0.01832
G1 X245.664 Y67.026 E0.7688
G1 X245.361 Y67.329 E0.01832
G1 X232.645 Y54.613 E0.7688
G1 X232.342 Y54.916 E0.01832
G1 X245.058 Y67.632 E0.7688
G1 X244.755 Y67.935 E0.01832
G1 X232.039 Y55.219 E0.7688
G1 X231.736 Y55.522 E0.01832
G1 X244.452 Y68.238 E0.7688
G1 X244.149 Y68.541 E0.01832
G1 X231.433 Y55.825 E0.7688
G1 X231.13 Y56.128 E0.01832
G1 X243.846 Y68.844 E0.7688
G1 X243.543 Y69.147 E0.01832
G1 X230.827 Y56.431 E0.7688
G1 X230.524 Y56.734 E0.01832
G1 X243.24 Y69.45 E0.7688
M73 P2 R52
G1 X242.937 Y69.753 E0.01832
G1 X230.221 Y57.037 E0.7688
G1 X229.918 Y57.34 E0.01832
G1 X242.634 Y70.056 E0.7688
G1 X242.331 Y70.359 E0.01832
G1 X229.615 Y57.643 E0.7688
M73 P3 R52
G1 X229.312 Y57.946 E0.01832
G1 X242.028 Y70.662 E0.7688
G1 X241.725 Y70.965 E0.01832
G1 X229.009 Y58.249 E0.7688
G1 X228.706 Y58.552 E0.01832
G1 X241.422 Y71.268 E0.7688
G1 X241.119 Y71.571 E0.01832
G1 X228.403 Y58.855 E0.7688
G1 X228.1 Y59.158 E0.01832
G1 X240.816 Y71.874 E0.7688
G1 X240.513 Y72.177 E0.01832
G1 X227.797 Y59.461 E0.7688
G1 X227.494 Y59.764 E0.01832
G1 X240.21 Y72.48 E0.7688
G1 X239.907 Y72.783 E0.01832
G1 X227.191 Y60.067 E0.7688
G1 X226.888 Y60.37 E0.01832
G1 X239.604 Y73.086 E0.7688
G1 X239.301 Y73.389 E0.01832
G1 X226.585 Y60.673 E0.7688
G1 X226.282 Y60.976 E0.01832
G1 X238.998 Y73.692 E0.7688
G1 X238.695 Y73.995 E0.01832
G1 X225.979 Y61.279 E0.7688
G1 X225.676 Y61.582 E0.01832
G1 X238.392 Y74.298 E0.7688
G1 X238.089 Y74.601 E0.01832
G1 X225.373 Y61.885 E0.7688
G1 X225.07 Y62.188 E0.01832
G1 X237.787 Y74.904 E0.7688
G1 X237.484 Y75.207 E0.01832
G1 X224.767 Y62.491 E0.7688
G1 X224.464 Y62.794 E0.01832
G1 X237.181 Y75.51 E0.7688
G1 X236.878 Y75.813 E0.01832
G1 X224.161 Y63.097 E0.7688
G1 X223.858 Y63.4 E0.01832
G1 X236.575 Y76.116 E0.7688
G1 X236.272 Y76.419 E0.01832
G1 X223.555 Y63.703 E0.7688
G1 X223.252 Y64.006 E0.01832
G1 X235.969 Y76.722 E0.7688
G1 X235.666 Y77.025 E0.01832
G1 X222.949 Y64.309 E0.7688
G1 X222.646 Y64.612 E0.01832
G1 X235.363 Y77.328 E0.7688
G1 X235.06 Y77.631 E0.01832
G1 X222.343 Y64.915 E0.7688
G1 X222.04 Y65.218 E0.01832
G1 X234.757 Y77.934 E0.7688
G1 X234.454 Y78.237 E0.01832
G1 X221.737 Y65.521 E0.7688
G1 X221.434 Y65.824 E0.01832
G1 X234.151 Y78.54 E0.7688
G1 X233.848 Y78.843 E0.01832
G1 X221.131 Y66.127 E0.7688
G1 X220.828 Y66.43 E0.01832
G1 X233.545 Y79.146 E0.7688
G1 X233.242 Y79.449 E0.01832
G1 X220.525 Y66.733 E0.7688
G1 X220.222 Y67.036 E0.01832
G1 X232.939 Y79.752 E0.7688
G1 X232.636 Y80.055 E0.01832
G1 X219.919 Y67.339 E0.7688
G1 X219.616 Y67.642 E0.01832
G1 X232.333 Y80.358 E0.7688
G1 X232.03 Y80.661 E0.01832
G1 X219.313 Y67.945 E0.7688
G1 X219.01 Y68.248 E0.01832
G1 X231.727 Y80.964 E0.7688
G1 X231.424 Y81.267 E0.01832
G1 X218.707 Y68.551 E0.7688
G1 X218.404 Y68.854 E0.01832
G1 X231.121 Y81.57 E0.7688
G1 X230.818 Y81.873 E0.01832
G1 X218.101 Y69.157 E0.7688
G1 X217.798 Y69.459 E0.01832
G1 X230.515 Y82.176 E0.7688
G1 X230.212 Y82.479 E0.01832
G1 X217.495 Y69.762 E0.7688
G1 X217.192 Y70.065 E0.01832
G1 X229.909 Y82.782 E0.7688
G1 X229.606 Y83.085 E0.01832
G1 X216.889 Y70.368 E0.7688
G1 X216.586 Y70.671 E0.01832
G1 X229.303 Y83.388 E0.7688
G1 X229 Y83.691 E0.01832
G1 X216.283 Y70.974 E0.7688
G1 X215.98 Y71.277 E0.01832
G1 X228.697 Y83.994 E0.7688
G1 X228.394 Y84.297 E0.01832
G1 X215.677 Y71.58 E0.7688
G1 X215.374 Y71.883 E0.01832
G1 X228.091 Y84.6 E0.7688
G1 X227.788 Y84.903 E0.01832
G1 X215.071 Y72.186 E0.7688
G1 X214.768 Y72.489 E0.01832
G1 X227.485 Y85.206 E0.7688
G1 X227.182 Y85.509 E0.01832
G1 X214.465 Y72.792 E0.7688
G1 X214.163 Y73.095 E0.01832
G1 X226.879 Y85.812 E0.7688
G1 X226.576 Y86.115 E0.01832
G1 X213.86 Y73.398 E0.7688
G1 X213.557 Y73.701 E0.01832
G1 X226.273 Y86.418 E0.7688
G1 X225.97 Y86.721 E0.01832
G1 X213.254 Y74.004 E0.7688
G1 X212.951 Y74.307 E0.01832
G1 X225.667 Y87.024 E0.7688
G1 X225.364 Y87.327 E0.01832
G1 X212.648 Y74.61 E0.7688
G1 X212.345 Y74.913 E0.01832
G1 X225.061 Y87.63 E0.7688
G1 X224.758 Y87.933 E0.01832
G1 X212.042 Y75.216 E0.7688
G1 X211.739 Y75.519 E0.01832
G1 X224.455 Y88.236 E0.7688
G1 X224.152 Y88.539 E0.01832
G1 X211.436 Y75.822 E0.7688
G1 X211.133 Y76.125 E0.01832
G1 X223.849 Y88.842 E0.7688
G1 X223.546 Y89.145 E0.01832
G1 X210.83 Y76.428 E0.7688
G1 X210.527 Y76.731 E0.01832
G1 X223.243 Y89.448 E0.7688
G1 X222.94 Y89.751 E0.01832
G1 X210.224 Y77.034 E0.7688
G1 X209.921 Y77.337 E0.01832
G1 X222.637 Y90.054 E0.7688
G1 X222.334 Y90.357 E0.01832
G1 X209.618 Y77.64 E0.7688
G1 X209.315 Y77.943 E0.01832
G1 X222.031 Y90.66 E0.7688
G1 X221.728 Y90.963 E0.01832
G1 X209.012 Y78.246 E0.7688
G1 X208.709 Y78.549 E0.01832
G1 X221.425 Y91.266 E0.7688
G1 X221.122 Y91.569 E0.01832
G1 X208.406 Y78.852 E0.7688
G1 X208.103 Y79.155 E0.01832
G1 X220.819 Y91.872 E0.7688
G1 X220.516 Y92.175 E0.01832
G1 X207.8 Y79.458 E0.7688
G1 X207.497 Y79.761 E0.01832
G1 X220.213 Y92.478 E0.7688
G1 X219.91 Y92.781 E0.01832
G1 X207.194 Y80.064 E0.7688
G1 X206.891 Y80.367 E0.01832
G1 X219.607 Y93.083 E0.7688
G1 X219.304 Y93.386 E0.01832
G1 X206.588 Y80.67 E0.7688
M73 P4 R52
G1 X206.285 Y80.973 E0.01832
G1 X219.001 Y93.689 E0.7688
G1 X218.698 Y93.992 E0.01832
G1 X205.982 Y81.276 E0.7688
G1 X205.679 Y81.579 E0.01832
G1 X218.395 Y94.295 E0.7688
G1 X218.092 Y94.598 E0.01832
G1 X205.376 Y81.882 E0.7688
G1 X205.073 Y82.185 E0.01832
G1 X217.789 Y94.901 E0.7688
G1 X217.486 Y95.204 E0.01832
G1 X204.77 Y82.488 E0.7688
G1 X204.467 Y82.791 E0.01832
G1 X217.183 Y95.507 E0.7688
G1 X216.88 Y95.81 E0.01832
G1 X204.164 Y83.094 E0.7688
G1 X203.861 Y83.397 E0.01832
G1 X216.577 Y96.113 E0.7688
G1 X216.274 Y96.416 E0.01832
G1 X203.558 Y83.7 E0.7688
G1 X203.255 Y84.003 E0.01832
G1 X215.971 Y96.719 E0.7688
G1 X215.668 Y97.022 E0.01832
G1 X202.952 Y84.306 E0.7688
G1 X202.649 Y84.609 E0.01832
G1 X215.365 Y97.325 E0.7688
G1 X215.062 Y97.628 E0.01832
G1 X202.346 Y84.912 E0.7688
G1 X202.043 Y85.215 E0.01832
G1 X214.759 Y97.931 E0.7688
G1 X214.456 Y98.234 E0.01832
G1 X201.74 Y85.518 E0.7688
G1 X201.437 Y85.821 E0.01832
G1 X214.153 Y98.537 E0.7688
G1 X213.85 Y98.84 E0.01832
G1 X201.134 Y86.124 E0.7688
G1 X200.831 Y86.427 E0.01832
G1 X213.547 Y99.143 E0.7688
G1 X213.244 Y99.446 E0.01832
G1 X200.528 Y86.73 E0.7688
G1 X200.225 Y87.033 E0.01832
G1 X212.941 Y99.749 E0.7688
G1 X212.638 Y100.052 E0.01832
G1 X199.922 Y87.336 E0.7688
G1 X199.619 Y87.639 E0.01832
G1 X212.335 Y100.355 E0.7688
G1 X212.032 Y100.658 E0.01832
G1 X199.316 Y87.942 E0.7688
G1 X199.013 Y88.245 E0.01832
G1 X211.729 Y100.961 E0.7688
G1 X211.426 Y101.264 E0.01832
G1 X198.71 Y88.548 E0.7688
G1 X198.407 Y88.851 E0.01832
G1 X211.123 Y101.567 E0.7688
G1 X210.82 Y101.87 E0.01832
G1 X198.104 Y89.154 E0.7688
G1 X197.801 Y89.457 E0.01832
G1 X210.517 Y102.173 E0.7688
G1 X210.214 Y102.476 E0.01832
G1 X197.498 Y89.76 E0.7688
G1 X197.195 Y90.063 E0.01832
G1 X209.911 Y102.779 E0.7688
G1 X209.608 Y103.082 E0.01832
G1 X196.892 Y90.366 E0.7688
G1 X196.589 Y90.669 E0.01832
G1 X209.305 Y103.385 E0.7688
G1 X209.002 Y103.688 E0.01832
G1 X196.286 Y90.972 E0.7688
G1 X195.983 Y91.275 E0.01832
G1 X208.699 Y103.991 E0.7688
G1 X208.396 Y104.294 E0.01832
G1 X195.68 Y91.578 E0.7688
G1 X195.377 Y91.881 E0.01832
G1 X208.093 Y104.597 E0.7688
G1 X207.79 Y104.9 E0.01832
G1 X195.074 Y92.184 E0.7688
G1 X194.771 Y92.487 E0.01832
G1 X207.487 Y105.203 E0.7688
G1 X207.184 Y105.506 E0.01832
G1 X194.468 Y92.79 E0.7688
G1 X194.165 Y93.093 E0.01832
G1 X206.881 Y105.809 E0.7688
G1 X206.578 Y106.112 E0.01832
G1 X193.862 Y93.396 E0.7688
G1 X193.559 Y93.699 E0.01832
G1 X206.275 Y106.415 E0.7688
G1 X205.972 Y106.718 E0.01832
G1 X193.256 Y94.002 E0.7688
G1 X192.953 Y94.305 E0.01832
G1 X205.669 Y107.021 E0.7688
G1 X205.366 Y107.324 E0.01832
G1 X192.65 Y94.608 E0.7688
G1 X192.347 Y94.911 E0.01832
G1 X205.063 Y107.627 E0.7688
G1 X204.76 Y107.93 E0.01832
G1 X192.044 Y95.214 E0.7688
G1 X191.741 Y95.517 E0.01832
G1 X204.457 Y108.233 E0.7688
G1 X204.154 Y108.536 E0.01832
G1 X191.438 Y95.82 E0.7688
G1 X191.135 Y96.123 E0.01832
G1 X203.851 Y108.839 E0.7688
G1 X203.548 Y109.142 E0.01832
G1 X190.832 Y96.426 E0.7688
G1 X190.529 Y96.729 E0.01832
G1 X203.245 Y109.445 E0.7688
G1 X202.942 Y109.748 E0.01832
G1 X190.226 Y97.032 E0.7688
G1 X189.923 Y97.335 E0.01832
G1 X202.639 Y110.051 E0.7688
G1 X202.336 Y110.354 E0.01832
G1 X189.62 Y97.638 E0.7688
G1 X189.317 Y97.941 E0.01832
G1 X202.033 Y110.657 E0.7688
G1 X201.73 Y110.96 E0.01832
G1 X189.014 Y98.244 E0.7688
G1 X188.711 Y98.547 E0.01832
G1 X201.427 Y111.263 E0.7688
G1 X201.125 Y111.566 E0.01832
G1 X188.408 Y98.85 E0.7688
G1 X188.105 Y99.153 E0.01832
G1 X200.822 Y111.869 E0.7688
M73 P4 R51
G1 X200.519 Y112.172 E0.01832
G1 X187.802 Y99.456 E0.7688
G1 X187.499 Y99.759 E0.01832
G1 X200.216 Y112.475 E0.7688
G1 X199.913 Y112.778 E0.01832
G1 X187.196 Y100.062 E0.7688
G1 X186.893 Y100.365 E0.01832
G1 X199.61 Y113.081 E0.7688
G1 X199.307 Y113.384 E0.01832
G1 X186.59 Y100.668 E0.7688
G1 X186.287 Y100.971 E0.01832
G1 X199.004 Y113.687 E0.7688
G1 X198.701 Y113.99 E0.01832
G1 X185.984 Y101.274 E0.7688
G1 X185.681 Y101.577 E0.01832
G1 X198.398 Y114.293 E0.7688
G1 X198.095 Y114.596 E0.01832
G1 X185.378 Y101.88 E0.7688
G1 X185.075 Y102.183 E0.01832
G1 X197.792 Y114.899 E0.7688
G1 X197.489 Y115.202 E0.01832
G1 X184.772 Y102.486 E0.7688
G1 X184.469 Y102.789 E0.01832
G1 X197.186 Y115.505 E0.7688
G1 X196.883 Y115.808 E0.01832
G1 X184.166 Y103.092 E0.7688
G1 X183.863 Y103.395 E0.01832
G1 X196.58 Y116.111 E0.7688
G1 X196.277 Y116.414 E0.01832
G1 X183.56 Y103.698 E0.7688
G1 X183.257 Y104.001 E0.01832
G1 X195.974 Y116.717 E0.7688
M73 P5 R51
G1 X195.671 Y117.02 E0.01832
G1 X182.954 Y104.304 E0.7688
G1 X182.651 Y104.607 E0.01832
G1 X195.368 Y117.323 E0.7688
G1 X195.065 Y117.626 E0.01832
G1 X182.348 Y104.91 E0.7688
G1 X182.045 Y105.213 E0.01832
G1 X194.762 Y117.929 E0.7688
G1 X194.459 Y118.232 E0.01832
G1 X181.742 Y105.516 E0.7688
G1 X181.439 Y105.819 E0.01832
G1 X194.156 Y118.535 E0.7688
G1 X193.853 Y118.838 E0.01832
G1 X181.136 Y106.121 E0.7688
G1 X180.833 Y106.424 E0.01832
G1 X193.55 Y119.141 E0.7688
G1 X193.247 Y119.444 E0.01832
G1 X180.53 Y106.727 E0.7688
G1 X180.227 Y107.03 E0.01832
G1 X192.944 Y119.747 E0.7688
G1 X192.641 Y120.05 E0.01832
G1 X179.924 Y107.333 E0.7688
G1 X179.621 Y107.636 E0.01832
