; generated by SuperSlicer 2.5.59 on 2022-08-22 at 03:09:11 UTC


;
;

;
;
; 

; external perimeters extrusion width = 0.40mm
; perimeters extrusion width = 0.48mm
; infill extrusion width = 0.72mm
; solid infill extrusion width = 0.56mm
; top infill extrusion width = 0.40mm
; first layer extrusion width = 0.48mm

; object:{"name":"3DBenchy","id":"3DBenchy.stl id:0 copy 0","object_center":[147.129146,152.870854,0.000000],"boundingbox_center":[147.129146,152.870854,24.000000],"boundingbox_size":[50.826130,50.826130,48.000000]}
; plater:{"center":[147.129146,152.870854,0.000000],"boundingbox_center":[147.129146,152.870854,24.000000],"boundingbox_size":[50.826130,50.826130,48.000000]}

;TYPE:Custom
PRINT_START EXTRUDER=250 BED=110 
M107
G21 ; set units to millimeters
G90 ; use absolute coordinates
M83 ; use relative distances for extrusion
; Filament gcode
SET_PRESSURE_ADVANCE ADVANCE=0.03
SET_PRESSURE_ADVANCE EXTRUDER=extruder SMOOTH_TIME=0.04
;_TOOLCHANGE 0
M104 S250 ; set temperature
M109 S250 ; set temperature and wait for it to be reached
M190 S110 ; set bed temperature and wait for it to be reached
M107
;LAYER_CHANGE
;Z:0.25
;HEIGHT:0.25
;BEFORE_LAYER_CHANGE
;0.25
TIMELAPSE_TAKE_FRAME


G1 Z0.25 F27000
;AFTER_LAYER_CHANGE
;0.25
G92 E0
G1 E-0.8 F3000
M204 S1500
G1 Z0.45 F27000
; printing object 3DBenchy.stl id:0 copy 0
G1 X142.393 Y156.875
G1 Z0.25
G1 E0.8 F2700
;TYPE:Internal perimeter
;WIDTH:0.48
G1 F1800
G1 X142.308 Y156.29 E0.02623
G1 X142.529 Y156.18 E0.01091
G1 X143.21 Y156.862 E0.04273
G1 X142.453 Y156.874 E0.03353
G1 E-0.8 F3000
G1 Z0.45 F27000
G1 X135.821 Y170.25
G1 Z0.25
G1 E0.8 F2700
G1 F1800
G1 X136.62 Y169.855 E0.03951
G1 X137.164 Y169.453 E0.02995
G1 X137.713 Y168.897 E0.03465
G1 X138.123 Y168.319 E0.03141
G1 X138.378 Y167.782 E0.02632
G1 X138.554 Y167.092 E0.03156
G1 X138.563 Y166.35 E0.03291
G1 X138.435 Y165.821 E0.0241
G1 X138.981 Y166.083 E0.02681
G1 X139.691 Y166.117 E0.03151
G1 X140.225 Y165.967 E0.02459
G1 X140.712 Y165.69 E0.02483
G1 X141.044 Y165.384 E0.02001
G1 X141.317 Y165.023 E0.02004
G1 X141.583 Y164.402 E0.02997
G1 X141.577 Y163.562 E0.0372
G1 X141.351 Y162.989 E0.0273
G1 X141.952 Y163.137 E0.02743
G1 X142.419 Y163.152 E0.02072
G1 X142.92 Y163.066 E0.02251
G1 X143.298 Y162.936 E0.01772
G1 X143.714 Y162.727 E0.02061
G1 X144.076 Y162.489 E0.01923
G1 X144.618 Y162.019 E0.03178
G1 X145.105 Y161.451 E0.03314
G1 X145.466 Y160.819 E0.03225
G1 X145.686 Y160.103 E0.0332
G1 X145.71 Y159.794 E0.01375
G1 X146.15 Y159.804 E0.01951
G1 X146.78 Y159.567 E0.02985
G1 X147.182 Y159.261 E0.02236
G1 X147.647 Y158.722 E0.03155
G1 X148.293 Y158.085 E0.04024
G1 X148.694 Y157.616 E0.02732
G1 X149.026 Y157.136 E0.02587
G1 X149.282 Y156.604 E0.02617
G1 X150.057 Y156.508 E0.03463
G1 X150.543 Y156.327 E0.02296
G1 X150.945 Y156.085 E0.02083
G1 X151.298 Y155.775 E0.0208
G1 X151.59 Y155.407 E0.02084
G1 X151.84 Y154.936 E0.02361
G1 X151.96 Y154.423 E0.02337
G1 X152.277 Y154.29 E0.01523
G1 X152.833 Y153.855 E0.03127
G1 X153.186 Y153.148 E0.03502
G1 X153.198 Y153.016 E0.00589
G1 X153.846 Y152.828 E0.02987
G1 X153.969 Y153.037 E0.01076
G1 X154.64 Y153.525 E0.03676
G1 X155.402 Y153.759 E0.03531
G1 X154.926 Y154.302 E0.03197
G1 X154.277 Y154.942 E0.04041
G1 X136.512 Y170.67 E1.05142
G1 X136.354 Y170.777 E0.00847
G1 X135.864 Y170.292 E0.03056
G1 E-0.8 F3000
G1 Z0.45 F27000
G1 X140.008 Y160.69
G1 Z0.25
G1 E0.8 F2700
G1 F1800
G1 X139.954 Y160.994 E0.01368
G1 X139.982 Y161.148 E0.00693
G1 X139.76 Y161.264 E0.01108
G1 X138.955 Y160.459 E0.05043
G1 X139.229 Y160.12 E0.01934
G1 X139.684 Y160.558 E0.02797
G1 X139.952 Y160.668 E0.01285
G1 E-0.8 F3000
G1 Z0.45 F27000
G1 X136.95 Y164.358
G1 Z0.25
G1 E0.8 F2700
G1 F1800
G1 X136.379 Y164.314 E0.02536
G1 X135.842 Y164.408 E0.02416
G1 X135.37 Y164.637 E0.02324
G1 X135.606 Y163.905 E0.0341
G1 X135.609 Y163.744 E0.00716
G1 X135.767 Y163.679 E0.00756
G1 X136.037 Y163.456 E0.0155
G1 X136.907 Y164.316 E0.0542
G1 E-0.8 F3000
G1 Z0.45 F27000
G1 X148.985 Y156.101
G1 Z0.25
G1 E0.8 F2700
G1 F1800
G1 X149.398 Y156.16 E0.01849
G1 X149.956 Y156.091 E0.02489
G1 X150.357 Y155.942 E0.01898
G1 X150.693 Y155.739 E0.0174
G1 X150.988 Y155.48 E0.01739
G1 X151.232 Y155.172 E0.01741
G1 X151.438 Y154.785 E0.01944
G1 X151.565 Y154.24 E0.02481
G1 X151.564 Y154.126 E0.00505
G1 X152.06 Y153.919 E0.02382
G1 X152.494 Y153.579 E0.02446
G1 X152.769 Y153.029 E0.02724
G1 X152.801 Y152.687 E0.01521
G1 X153.593 Y152.457 E0.03654
G1 X153.933 Y152.139 E0.02066
G1 X154.292 Y152.744 E0.03114
G1 X154.834 Y153.138 E0.02972
G1 X155.476 Y153.336 E0.02979
G1 X156.344 Y153.254 E0.03861
G1 X155.908 Y153.829 E0.03196
G1 X155.236 Y154.594 E0.04512
G1 X154.568 Y155.254 E0.0416
G1 X136.774 Y171.008 E1.05319
G1 X136.676 Y171.085 E0.00551
G1 X136.587 Y171.134 E0.00449
G1 X136.389 Y171.189 E0.00913
G1 X136.252 Y171.168 E0.00611
G1 X136.191 Y171.147 E0.00289
G1 X136.017 Y171.044 E0.00893
G1 X134.952 Y169.99 E0.0664
G1 X135.452 Y169.895 E0.02254
G1 X135.818 Y169.776 E0.01703
G1 X136.397 Y169.49 E0.02866
G1 X136.884 Y169.13 E0.0268
G1 X137.386 Y168.622 E0.03164
G1 X137.754 Y168.103 E0.02823
G1 X137.975 Y167.637 E0.02285
G1 X138.128 Y167.036 E0.02747
G1 X138.136 Y166.398 E0.02828
G1 X137.986 Y165.776 E0.02836
G1 X137.64 Y165.151 E0.03163
G1 X136.944 Y164.785 E0.03484
G1 X136.4 Y164.744 E0.02419
G1 X135.974 Y164.818 E0.01914
G1 X135.438 Y165.078 E0.0264
G1 X135.056 Y165.443 E0.0234
G1 X134.797 Y165.893 E0.02303
G1 X134.696 Y166.403 E0.02304
G1 X134.732 Y166.708 E0.01361
G1 X134.275 Y166.483 E0.02254
G1 X133.997 Y166.265 E0.01567
G1 X133.646 Y165.909 E0.02217
G1 X133.442 Y165.64 E0.01497
G1 X133.381 Y165.528 E0.00564
G1 X133.314 Y165.328 E0.00936
G1 X133.834 Y165.191 E0.02382
G1 X134.221 Y165.049 E0.0183
G1 X134.647 Y164.785 E0.0222
G1 X135.028 Y164.311 E0.02694
G1 X135.181 Y163.834 E0.02219
G1 X135.189 Y163.455 E0.01679
G1 X135.546 Y163.309 E0.0171
G1 X135.912 Y163.006 E0.02105
G1 X136.033 Y162.853 E0.00865
G1 X137.947 Y164.744 E0.11919
G1 X138.356 Y165.216 E0.02769
G1 X138.626 Y165.44 E0.01555
G1 X139.087 Y165.661 E0.02268
G1 X139.642 Y165.688 E0.0246
G1 X140.059 Y165.571 E0.01921
G1 X140.459 Y165.343 E0.02037
G1 X140.727 Y165.096 E0.01616
G1 X140.946 Y164.807 E0.01604
G1 X141.156 Y164.316 E0.02372
G1 X141.152 Y163.645 E0.02973
G1 X140.967 Y163.178 E0.02225
G1 X140.779 Y162.883 E0.01549
G1 X140.509 Y162.584 E0.01786
G1 X140.016 Y162.123 E0.0299
G1 X138.382 Y160.49 E0.10236
G1 X138.785 Y159.991 E0.02845
G1 X138.995 Y159.518 E0.02289
G1 X139.304 Y159.441 E0.01414
G1 X139.523 Y159.811 E0.01903
G1 X139.92 Y160.194 E0.02449
G1 X140.487 Y160.426 E0.02711
G1 X140.387 Y160.994 E0.02557
G1 X140.485 Y161.545 E0.02479
G1 X140.761 Y162.021 E0.02438
G1 X141.139 Y162.372 E0.02288
G1 X141.575 Y162.605 E0.02191
G1 X142.01 Y162.712 E0.01986
G1 X142.39 Y162.724 E0.01682
G1 X142.814 Y162.651 E0.01908
G1 X143.132 Y162.542 E0.01492
G1 X143.5 Y162.357 E0.01824
G1 X143.819 Y162.148 E0.01687
G1 X144.314 Y161.717 E0.02912
G1 X144.755 Y161.204 E0.02996
G1 X145.072 Y160.649 E0.02835
G1 X145.264 Y160.023 E0.02901
G1 X145.321 Y159.288 E0.03267
G1 X145.538 Y159.363 E0.01018
G1 X146.077 Y159.376 E0.02389
G1 X146.572 Y159.19 E0.02341
G1 X146.888 Y158.949 E0.01762
G1 X147.336 Y158.431 E0.03035
G1 X147.981 Y157.794 E0.04019
G1 X148.356 Y157.356 E0.02554
G1 X148.656 Y156.921 E0.02342
G1 X148.943 Y156.325 E0.0293
G1 X148.974 Y156.16 E0.00746
G1 E-0.8 F3000
G1 Z0.45 F27000
G1 X157.34 Y148.491
G1 Z0.25
G1 E0.8 F2700
G1 F1800
G1 X157.766 Y148.5 E0.01889
G1 X158.196 Y148.312 E0.02081
G1 X158.007 Y148.989 E0.03115
G1 X157.818 Y149.557 E0.02655
G1 X157.364 Y148.546 E0.04915
G1 X156.675 Y148.05 F27000
G1 F1800
G1 X157.681 Y148.072 E0.04461
G1 X158.177 Y147.855 E0.02399
G1 X158.457 Y147.637 E0.01572
G1 X158.543 Y147.547 E0.00549
G1 X158.772 Y147.669 E0.01153
G1 X158.576 Y148.536 E0.0394
G1 X158.415 Y149.114 E0.02655
G1 X158.174 Y149.84 E0.03394
G1 X157.893 Y150.556 E0.03405
G1 X157.63 Y150.522 E0.01176
G1 X157.613 Y150.389 E0.00597
G1 X157.486 Y149.933 E0.02096
G1 X157.267 Y149.37 E0.02678
G1 X156.827 Y148.372 E0.04835
G1 X156.7 Y148.104 E0.0131
G1 E-0.8 F3000
G1 Z0.45 F27000
G1 X148.656 Y155.546
G1 Z0.25
G1 E0.8 F2700
G1 F1800
G1 X149.063 Y155.681 E0.01903
G1 X149.403 Y155.73 E0.01519
G1 X149.854 Y155.674 E0.02014
G1 X150.171 Y155.556 E0.01499
G1 X150.441 Y155.393 E0.01397
G1 X150.678 Y155.185 E0.01398
G1 X150.873 Y154.938 E0.01397
G1 X151.035 Y154.634 E0.01527
G1 X151.138 Y154.193 E0.02007
G1 X151.133 Y153.707 E0.02153
G1 X151.489 Y153.695 E0.01578
G1 X151.842 Y153.548 E0.01696
G1 X152.156 Y153.302 E0.01764
G1 X152.352 Y152.909 E0.01945
G1 X152.387 Y152.533 E0.01676
G1 X152.339 Y152.132 E0.01789
G1 X152.859 Y152.226 E0.0234
G1 X153.376 Y152.076 E0.02388
G1 X153.776 Y151.702 E0.02425
G1 X153.997 Y151.219 E0.02353
G1 X153.989 Y150.73 E0.02171
G1 X153.861 Y150.406 E0.01544
G1 X153.615 Y150.089 E0.01777
G1 X153.216 Y149.817 E0.02138
G1 X152.873 Y149.699 E0.01609
G1 X151.612 Y149.385 E0.0576
G1 X151.338 Y148.303 E0.04945
G1 X152.06 Y148.613 E0.03483
G1 X153.63 Y149.335 E0.07657
G1 X154.248 Y149.577 E0.02942
G1 X154.289 Y149.646 E0.00356
G1 X154.42 Y150.02 E0.01758
G1 X154.66 Y150.557 E0.02608
G1 X154.693 Y150.689 E0.00599
G1 X154.685 Y150.781 E0.00412
G1 X154.663 Y150.839 E0.00275
G1 X154.401 Y151.314 E0.02405
G1 X154.325 Y151.668 E0.01602
G1 X154.364 Y152.028 E0.01607
G1 X154.614 Y152.451 E0.02174
G1 X155.027 Y152.752 E0.02267
G1 X155.521 Y152.904 E0.02288
G1 X156.017 Y152.857 E0.02212
G1 X156.398 Y152.659 E0.01902
G1 X156.727 Y152.322 E0.02085
G1 X157 Y151.865 E0.02361
G1 X157.147 Y151.496 E0.01757
G1 X157.214 Y151.223 E0.0125
G1 X157.241 Y150.851 E0.01653
G1 X157.194 Y150.473 E0.01687
G1 X157.081 Y150.068 E0.01862
G1 X156.873 Y149.533 E0.02542
G1 X156.439 Y148.549 E0.04768
G1 X155.221 Y145.972 E0.12632
G1 X154.726 Y144.993 E0.04859
G1 X155.049 Y144.981 E0.01435
G1 X155.654 Y144.695 E0.02966
G1 X155.722 Y145.223 E0.02358
G1 X155.866 Y146.14 E0.04113
G1 X155.998 Y146.64 E0.0229
G1 X156.23 Y147.068 E0.0216
G1 X156.599 Y147.415 E0.02244
G1 X157.069 Y147.632 E0.02293
G1 X157.597 Y147.643 E0.02339
G1 X157.958 Y147.486 E0.01746
G1 X158.17 Y147.32 E0.01191
G1 X159.149 Y146.284 E0.06319
G1 X159.372 Y146.388 E0.0109
G1 X159.273 Y147.25 E0.03845
G1 X159.17 Y147.841 E0.02658
G1 X158.99 Y148.641 E0.03633
G1 X158.823 Y149.238 E0.02749
G1 X158.575 Y149.986 E0.0349
G1 X158.324 Y150.625 E0.03042
G1 X158.031 Y151.277 E0.0317
G1 X157.722 Y151.88 E0.03002
G1 X157.403 Y152.44 E0.02853
G1 X156.836 Y153.311 E0.04605
G1 X156.238 Y154.099 E0.04384
G1 X155.546 Y154.887 E0.04647
G1 X154.86 Y155.565 E0.04278
G1 X137.047 Y171.336 E1.05428
G1 X136.912 Y171.442 E0.00758
G1 X136.749 Y171.531 E0.00823
G1 X136.595 Y171.586 E0.00727
G1 X136.464 Y171.61 E0.00589
G1 X136.344 Y171.613 E0.00533
G1 X136.152 Y171.584 E0.00858
G1 X136.012 Y171.537 E0.00657
G1 X135.884 Y171.472 E0.00635
G1 X135.754 Y171.384 E0.00695
G1 X135.611 Y171.257 E0.00847
G1 X133.896 Y169.545 E0.10739
G1 X134.612 Y169.583 E0.03174
G1 X134.927 Y169.561 E0.01402
G1 X135.346 Y169.481 E0.01888
G1 X135.657 Y169.38 E0.01448
G1 X136.174 Y169.124 E0.0256
G1 X136.604 Y168.807 E0.02365
G1 X137.058 Y168.347 E0.02863
G1 X137.385 Y167.886 E0.02504
G1 X137.572 Y167.491 E0.01937
G1 X137.703 Y166.98 E0.02339
G1 X137.709 Y166.446 E0.02366
G1 X137.585 Y165.932 E0.02344
G1 X137.329 Y165.469 E0.02344
G1 X136.824 Y165.203 E0.02528
G1 X136.421 Y165.173 E0.01791
G1 X136.107 Y165.228 E0.01413
G1 X135.684 Y165.433 E0.0208
G1 X135.395 Y165.709 E0.01772
G1 X135.201 Y166.045 E0.01718
G1 X135.127 Y166.42 E0.01695
G1 X135.151 Y166.625 E0.00917
G1 X135.102 Y166.723 E0.00485
G1 X135.012 Y166.831 E0.00622
G1 X134.907 Y166.92 E0.00611
G1 X134.795 Y166.984 E0.00574
G1 X134.691 Y167.021 E0.00485
G1 X134.515 Y167.039 E0.00787
G1 X134.399 Y167.019 E0.00522
G1 X134.327 Y166.995 E0.00336
G1 X134.047 Y166.846 E0.01402
G1 X133.713 Y166.584 E0.01885
G1 X133.323 Y166.188 E0.02461
G1 X133.083 Y165.871 E0.0176
G1 X132.989 Y165.699 E0.00869
G1 X132.92 Y165.493 E0.00966
G1 X132.909 Y165.401 E0.00412
G1 X132.917 Y165.301 E0.0044
G1 X132.948 Y165.192 E0.00506
G1 X132.998 Y165.091 E0.00498
G1 X133.121 Y164.938 E0.00869
G1 X133.706 Y164.784 E0.02681
G1 X134.034 Y164.664 E0.01547
G1 X134.36 Y164.461 E0.01704
G1 X134.646 Y164.105 E0.02022
G1 X134.756 Y163.763 E0.01593
G1 X134.764 Y163.376 E0.01713
G1 X134.683 Y163.086 E0.01337
G1 X134.948 Y163.093 E0.01173
G1 X135.324 Y162.939 E0.01801
G1 X135.606 Y162.706 E0.01619
G1 X136.012 Y162.195 E0.02894
G1 X136.273 Y162.491 E0.01752
G1 X138.258 Y164.452 E0.12366
G1 X138.655 Y164.91 E0.02685
G1 X138.858 Y165.078 E0.01167
G1 X139.194 Y165.24 E0.01654
G1 X139.593 Y165.259 E0.0177
G1 X139.894 Y165.174 E0.01384
G1 X140.206 Y164.997 E0.01591
G1 X140.41 Y164.809 E0.01231
G1 X140.574 Y164.592 E0.01204
G1 X140.729 Y164.23 E0.01746
G1 X140.726 Y163.727 E0.02225
G1 X140.586 Y163.373 E0.0169
G1 X140.438 Y163.143 E0.0121
G1 X140.204 Y162.883 E0.01551
G1 X139.72 Y162.429 E0.02941
G1 X137.764 Y160.475 E0.12249
G1 X138.14 Y160.111 E0.02319
G1 X138.418 Y159.766 E0.01963
G1 X138.587 Y159.385 E0.01848
G1 X138.642 Y159.007 E0.01692
G1 X139.078 Y159.058 E0.01943
G1 X139.575 Y158.933 E0.02271
G1 X139.671 Y159.224 E0.01357
G1 X139.86 Y159.544 E0.01649
G1 X140.157 Y159.831 E0.01829
G1 X140.644 Y160.029 E0.0233
G1 X141.271 Y159.931 E0.02812
G1 X140.89 Y160.595 E0.03392
G1 X140.82 Y160.994 E0.01793
G1 X140.891 Y161.396 E0.01812
G1 X141.097 Y161.752 E0.0182
G1 X141.389 Y162.022 E0.01761
G1 X141.729 Y162.204 E0.0171
G1 X142.069 Y162.287 E0.01549
G1 X142.36 Y162.297 E0.01292
G1 X142.708 Y162.237 E0.01565
G1 X142.967 Y162.148 E0.01212
G1 X143.287 Y161.987 E0.01588
G1 X143.561 Y161.808 E0.01451
G1 X144.011 Y161.416 E0.02646
G1 X144.405 Y160.958 E0.02678
G1 X144.679 Y160.479 E0.02445
G1 X144.843 Y159.943 E0.02481
G1 X144.886 Y159.387 E0.02473
G1 X144.754 Y158.515 E0.03909
G1 X145.283 Y158.824 E0.02713
G1 X145.615 Y158.939 E0.01557
G1 X146.005 Y158.948 E0.01729
G1 X146.363 Y158.813 E0.01696
G1 X146.594 Y158.637 E0.01288
G1 X147.024 Y158.139 E0.02915
G1 X147.669 Y157.503 E0.04014
G1 X148.017 Y157.095 E0.02377
G1 X148.286 Y156.706 E0.02097
G1 X148.534 Y156.191 E0.02534
G1 X148.644 Y155.605 E0.02642
G1 E-0.8 F3000
G1 Z0.45 F27000
G1 X146.842 Y150.991
G1 Z0.25
G1 E0.8 F2700
G1 F1800
G1 X146.219 Y150.673 E0.03099
G1 X145.536 Y150.461 E0.0317
G1 X145.117 Y150.391 E0.01882
G1 X144.646 Y150.368 E0.02091
G1 X144.082 Y150.416 E0.02507
G1 X143.407 Y150.607 E0.03112
G1 X142.786 Y150.935 E0.0311
G1 X142.303 Y151.282 E0.02636
G1 X141.82 Y151.703 E0.02839
G1 X140.763 Y152.738 E0.06555
G1 X140.491 Y153.099 E0.02002
G1 X140.247 Y153.597 E0.0246
G1 X140.137 Y154.18 E0.0263
G1 X139.513 Y154.303 E0.02822
G1 X139.098 Y154.473 E0.01986
G1 X138.704 Y154.695 E0.02006
G1 X138.174 Y155.096 E0.02944
G1 X137.595 Y155.705 E0.03724
G1 X137.19 Y156.315 E0.03245
G1 X136.907 Y157.02 E0.03367
G1 X136.41 Y157.199 E0.02341
G1 X135.982 Y157.527 E0.02387
G1 X133.662 Y159.868 E0.14607
G1 X133.076 Y160.382 E0.03454
G1 X132.732 Y160.878 E0.02676
G1 X132.55 Y161.473 E0.02757
G1 X132.27 Y161.541 E0.01277
G1 X131.789 Y161.744 E0.02315
G1 X131.423 Y161.959 E0.01881
G1 X130.981 Y162.3 E0.02474
G1 X130.618 Y162.654 E0.02249
G1 X130.354 Y162.962 E0.01796
G1 X130.047 Y163.413 E0.02418
G1 X129.698 Y164.126 E0.03519
G1 X129.219 Y163.643 E0.03016
G1 X129.339 Y163.477 E0.00905
G1 X144.87 Y145.93 E1.03845
G1 X145.396 Y145.37 E0.03402
G1 X146.157 Y144.659 E0.04614
G1 X146.543 Y144.339 E0.02226
G1 X147.125 Y143.901 E0.03225
G1 X147.58 Y143.591 E0.02443
G1 X148.109 Y143.264 E0.02754
G1 X148.646 Y142.964 E0.02725
G1 X149.174 Y142.7 E0.02615
G1 X149.785 Y142.429 E0.02965
G1 X150.259 Y142.244 E0.02255
G1 X150.895 Y142.029 E0.02975
G1 X151.976 Y141.74 E0.04958
G1 X152.542 Y141.626 E0.02559
G1 X153.227 Y141.523 E0.03069
G1 X154.107 Y141.45 E0.03912
G1 X153.354 Y142.205 E0.04728
G1 X153.084 Y142.533 E0.01883
G1 X152.837 Y142.983 E0.02272
G1 X152.792 Y143.136 E0.00711
G1 X152.415 Y143.217 E0.01705
G1 X151.651 Y143.897 E0.04532
G1 X151.356 Y144.886 E0.04576
G1 X150.818 Y145.025 E0.02462
G1 X150.382 Y145.243 E0.02162
