; generated by SuperSlicer 2.5.59 on 2022-08-22 at 04:21:56 UTC


;
;

;
;
; 

; external perimeters extrusion width = 0.40mm
; perimeters extrusion width = 0.48mm
; infill extrusion width = 0.72mm
; solid infill extrusion width = 0.56mm
; top infill extrusion width = 0.40mm
; first layer extrusion width = 0.48mm

; object:{"name":"3DBenchy","id":"3DBenchy.stl id:0 copy 0","object_center":[149.999990,150.000004,0.000000],"boundingbox_center":[149.999990,150.000004,24.000000],"boundingbox_size":[50.826130,50.826130,48.000000]}
; plater:{"center":[149.999990,150.000004,0.000000],"boundingbox_center":[149.999990,150.000004,24.000000],"boundingbox_size":[50.826130,50.826130,48.000000]}

M73 P0 R43
;TYPE:Custom
; custom gcode: start_gcode
PRINT_START EXTRUDER=250 BED=110 
; custom gcode end: start_gcode
M107
G21 ; set units to millimeters
G90 ; use absolute coordinates
M83 ; use relative distances for extrusion
; custom gcode: start_filament_gcode
; Filament gcode
SET_PRESSURE_ADVANCE ADVANCE=0.03
SET_PRESSURE_ADVANCE EXTRUDER=extruder SMOOTH_TIME=0.04
; custom gcode end: start_filament_gcode
;_TOOLCHANGE 0
M109 S250 ; set temperature and wait for it to be reached
M190 S110 ; set bed temperature and wait for it to be reached
;LAYER_CHANGE
;Z:0.24
;HEIGHT:0.24
G1 Z0.24 F27000
G92 E0
G1 E-0.5 F1800
; printing object 3DBenchy.stl id:0 copy 0
M204 S2000
G1 X145.266 Y154.003 F27000
G1 E0.5 F1800
;TYPE:Internal perimeter
;WIDTH:0.48
G1 X145.182 Y153.426 E0.02489
G1 X145.403 Y153.315 E0.01059
G1 X146.076 Y153.99 E0.04074
G1 X145.266 Y154.003 E0.03465
G1 E-0.5
; acceleration to travel
M204 S10000
G1 X139.798 Y165.15 F27000
; decel to extrusion
M204 S2000
G1 X138.705 Y167.38
; end travel
G1 E0.5 F1800
G1 X139.494 Y166.99 E0.03764
G1 X140.039 Y166.587 E0.02894
G1 X140.589 Y166.031 E0.03348
G1 X141 Y165.451 E0.03035
G1 X141.255 Y164.914 E0.02545
G1 X141.431 Y164.222 E0.03051
G1 X141.44 Y163.478 E0.03182
G1 X141.316 Y162.962 E0.02271
G1 X141.85 Y163.219 E0.02534
G1 X142.562 Y163.253 E0.0305
G1 X143.098 Y163.102 E0.0238
G1 X143.587 Y162.824 E0.02402
G1 X143.92 Y162.517 E0.01937
G1 X144.193 Y162.156 E0.0194
G1 X144.461 Y161.532 E0.029
G1 X144.455 Y160.69 E0.03601
G1 X144.232 Y160.127 E0.02586
G1 X144.822 Y160.272 E0.02596
G1 X145.29 Y160.287 E0.02004
G1 X145.792 Y160.201 E0.02177
G1 X146.171 Y160.071 E0.01714
G1 X146.588 Y159.862 E0.01992
G1 X146.951 Y159.623 E0.01859
G1 X147.493 Y159.152 E0.0307
G1 X147.981 Y158.584 E0.03202
G1 X148.343 Y157.951 E0.03118
G1 X148.563 Y157.233 E0.03209
G1 X148.586 Y156.929 E0.01304
G1 X149.022 Y156.94 E0.01861
G1 X149.654 Y156.702 E0.02889
G1 X150.057 Y156.395 E0.02165
G1 X150.523 Y155.856 E0.03046
G1 X151.169 Y155.218 E0.03882
G1 X151.57 Y154.749 E0.02639
G1 X151.902 Y154.268 E0.025
G1 X152.157 Y153.739 E0.02512
G1 X152.93 Y153.644 E0.03328
G1 X153.416 Y153.462 E0.02222
G1 X153.82 Y153.219 E0.02015
G1 X154.174 Y152.909 E0.02012
G1 X154.466 Y152.539 E0.02015
G1 X154.718 Y152.067 E0.02286
G1 X154.836 Y151.556 E0.02243
G1 X155.151 Y151.424 E0.0146
G1 X155.708 Y150.989 E0.0302
G1 X156.063 Y150.279 E0.03394
G1 X156.075 Y150.15 E0.00557
G1 X156.714 Y149.964 E0.02842
G1 X156.835 Y150.17 E0.01022
G1 X157.508 Y150.66 E0.03557
G1 X158.257 Y150.891 E0.03352
G1 X157.79 Y151.423 E0.03032
G1 X157.142 Y152.063 E0.03893
G1 X139.379 Y167.791 E1.01437
G1 X139.225 Y167.894 E0.00793
G1 X138.705 Y167.38 E0.03128
G1 E-0.5
; acceleration to travel
M204 S10000
G1 X142.177 Y159.416 F27000
; decel to extrusion
M204 S2000
G1 X142.871 Y157.824
; end travel
G1 E0.5 F1800
G1 X142.819 Y158.124 E0.01303
G1 X142.842 Y158.256 E0.00577
G1 X142.619 Y158.373 E0.01075
G1 X141.834 Y157.588 E0.04746
G1 X142.1 Y157.258 E0.01811
G1 X142.551 Y157.693 E0.02676
G1 X142.871 Y157.824 E0.0148
G1 E-0.5
G1 X139.803 Y161.479 F27000
G1 E0.5 F1800
G1 X139.25 Y161.437 E0.02375
G1 X138.711 Y161.531 E0.02338
G1 X138.252 Y161.754 E0.02179
G1 X138.484 Y161.034 E0.03234
G1 X138.487 Y160.877 E0.0067
G1 X138.64 Y160.814 E0.0071
G1 X138.907 Y160.594 E0.0148
G1 X139.803 Y161.479 E0.05386
G1 E-0.5
; acceleration to travel
M204 S10000
G1 X146.797 Y157.266 F27000
; decel to extrusion
M204 S2000
G1 X148.196 Y156.423
; end travel
G1 E0.5 F1800
G1 X148.408 Y156.497 E0.00961
G1 X148.949 Y156.509 E0.02312
G1 X149.445 Y156.323 E0.02265
G1 X149.762 Y156.081 E0.01705
G1 X150.21 Y155.563 E0.02929
G1 X150.855 Y154.926 E0.03877
G1 X151.23 Y154.488 E0.02466
G1 X151.531 Y154.052 E0.02262
G1 X151.818 Y153.455 E0.02832
G1 X151.859 Y153.234 E0.00961
G1 X152.268 Y153.293 E0.01767
G1 X152.827 Y153.225 E0.02407
G1 X153.229 Y153.075 E0.01835
G1 X153.566 Y152.872 E0.01682
G1 X153.862 Y152.612 E0.01682
G1 X154.106 Y152.304 E0.01682
G1 X154.313 Y151.915 E0.01881
G1 X154.44 Y151.37 E0.02396
G1 X154.439 Y151.258 E0.00476
G1 X154.933 Y151.051 E0.0229
G1 X155.368 Y150.711 E0.02361
G1 X155.644 Y150.16 E0.02638
G1 X155.676 Y149.819 E0.0146
G1 X156.466 Y149.59 E0.03517
G1 X156.803 Y149.275 E0.01974
G1 X157.159 Y149.876 E0.02986
G1 X157.703 Y150.271 E0.02874
G1 X158.347 Y150.47 E0.02881
G1 X159.2 Y150.389 E0.03666
G1 X158.773 Y150.952 E0.03022
G1 X158.102 Y151.718 E0.04353
G1 X157.435 Y152.376 E0.04009
G1 X139.642 Y168.131 E1.01609
G1 X139.544 Y168.207 E0.00528
G1 X139.455 Y168.256 E0.00437
G1 X139.259 Y168.31 E0.00868
G1 X139.125 Y168.29 E0.0058
G1 X139.063 Y168.269 E0.00281
G1 X138.892 Y168.168 E0.00848
G1 X137.835 Y167.121 E0.06359
G1 X138.324 Y167.028 E0.02129
G1 X138.69 Y166.909 E0.01645
G1 X139.27 Y166.622 E0.02768
G1 X139.757 Y166.263 E0.02589
G1 X140.26 Y165.754 E0.03056
G1 X140.629 Y165.234 E0.02727
G1 X140.85 Y164.767 E0.02208
G1 X141.003 Y164.166 E0.02655
G1 X141.011 Y163.527 E0.02733
G1 X140.861 Y162.903 E0.02741
G1 X140.514 Y162.277 E0.0306
G1 X139.816 Y161.91 E0.03371
G1 X139.271 Y161.868 E0.0234
G1 X138.844 Y161.943 E0.01852
G1 X138.307 Y162.204 E0.02553
G1 X137.924 Y162.569 E0.02263
G1 X137.664 Y163.021 E0.02228
G1 X137.562 Y163.532 E0.02229
G1 X137.597 Y163.83 E0.01283
G1 X137.149 Y163.609 E0.02139
G1 X136.871 Y163.391 E0.01509
G1 X136.52 Y163.035 E0.02136
G1 X136.317 Y162.766 E0.01441
G1 X136.256 Y162.655 E0.00541
G1 X136.19 Y162.46 E0.00882
G1 X136.706 Y162.325 E0.0228
G1 X137.094 Y162.182 E0.01769
G1 X137.521 Y161.917 E0.02147
G1 X137.903 Y161.441 E0.02607
G1 X138.056 Y160.963 E0.0215
G1 X138.063 Y160.587 E0.01607
G1 X138.418 Y160.442 E0.01637
G1 X138.785 Y160.139 E0.02037
G1 X138.904 Y159.989 E0.00819
G1 X140.815 Y161.876 E0.11479
G1 X141.224 Y162.348 E0.02673
G1 X141.495 Y162.572 E0.01504
G1 X141.957 Y162.795 E0.02194
G1 X142.513 Y162.821 E0.0238
G1 X142.932 Y162.704 E0.01859
G1 X143.332 Y162.476 E0.01969
G1 X143.601 Y162.228 E0.01563
G1 X143.82 Y161.939 E0.01552
G1 X144.031 Y161.446 E0.02294
G1 X144.027 Y160.773 E0.02875
G1 X143.842 Y160.305 E0.02152
G1 X143.653 Y160.01 E0.01498
G1 X143.382 Y159.71 E0.01726
G1 X142.89 Y159.249 E0.02885
G1 X141.259 Y157.619 E0.0986
G1 X141.66 Y157.121 E0.02733
G1 X141.869 Y156.65 E0.02202
M73 P1 R43
G1 X142.173 Y156.574 E0.01342
G1 X142.39 Y156.942 E0.01826
G1 X142.789 Y157.327 E0.0237
G1 X143.353 Y157.558 E0.02605
G1 X143.254 Y158.123 E0.02456
G1 X143.352 Y158.676 E0.02398
G1 X143.628 Y159.153 E0.02358
G1 X144.008 Y159.504 E0.02212
G1 X144.444 Y159.738 E0.02118
G1 X144.88 Y159.846 E0.0192
G1 X145.261 Y159.858 E0.01627
G1 X145.686 Y159.785 E0.01844
G1 X146.005 Y159.675 E0.01442
G1 X146.373 Y159.49 E0.01762
G1 X146.692 Y159.281 E0.0163
G1 X147.188 Y158.85 E0.02812
G1 X147.629 Y158.336 E0.02894
G1 X147.947 Y157.78 E0.02739
G1 X148.139 Y157.153 E0.02803
G1 X148.196 Y156.423 E0.0313
G1 E-0.5
; acceleration to travel
M204 S10000
G1 X158.217 Y147.426 F27000
; decel to extrusion
M204 S2000
G1 X160.221 Y145.627
; end travel
G1 E0.5 F1800
G1 X160.638 Y145.636 E0.01785
G1 X161.053 Y145.454 E0.01933
G1 X160.868 Y146.115 E0.02934
G1 X160.686 Y146.664 E0.0247
G1 X160.221 Y145.627 E0.0486
G1 X159.553 Y145.184 F27000
G1 F1800
G1 X160.553 Y145.205 E0.04279
G1 X161.05 Y144.988 E0.02321
G1 X161.707 Y144.477 E0.03556
G1 X161.439 Y145.664 E0.05202
G1 X161.278 Y146.241 E0.0256
G1 X161.037 Y146.967 E0.03274
G1 X160.768 Y147.651 E0.03139
G1 X160.522 Y147.638 E0.01055
G1 X160.361 Y147.061 E0.02562
G1 X160.142 Y146.497 E0.02585
G1 X159.702 Y145.499 E0.04665
G1 X159.553 Y145.184 E0.01491
G1 E-0.5
; acceleration to travel
M204 S10000
G1 X150.655 Y154.263 F27000
; decel to extrusion
M204 S2000
G1 X148.876 Y156.079
; end travel
G1 E0.5 F1800
G1 X149.235 Y155.944 E0.0164
G1 X149.466 Y155.768 E0.01245
G1 X149.897 Y155.27 E0.02813
G1 X150.541 Y154.634 E0.03872
G1 X150.89 Y154.226 E0.02294
G1 X151.159 Y153.836 E0.02025
G1 X151.407 Y153.32 E0.02447
G1 X151.528 Y152.678 E0.02795
G1 X151.934 Y152.812 E0.01828
G1 X152.273 Y152.861 E0.01466
G1 X152.725 Y152.806 E0.01946
G1 X153.042 Y152.687 E0.01449
G1 X153.313 Y152.524 E0.01349
G1 X153.55 Y152.316 E0.01351
G1 X153.746 Y152.068 E0.0135
G1 X153.908 Y151.764 E0.01476
G1 X154.011 Y151.322 E0.01937
G1 X154.007 Y150.838 E0.02072
G1 X154.36 Y150.826 E0.01514
G1 X154.714 Y150.678 E0.0164
G1 X155.028 Y150.433 E0.01702
G1 X155.225 Y150.04 E0.01882
G1 X155.26 Y149.662 E0.01621
G1 X155.213 Y149.264 E0.01714
G1 X155.73 Y149.358 E0.02247
G1 X156.248 Y149.207 E0.02308
G1 X156.649 Y148.833 E0.02344
G1 X156.87 Y148.349 E0.02274
G1 X156.862 Y147.858 E0.02098
G1 X156.734 Y147.534 E0.01492
G1 X156.487 Y147.217 E0.01717
G1 X156.088 Y146.945 E0.02065
G1 X155.744 Y146.826 E0.01554
G1 X154.484 Y146.512 E0.05553
G1 X154.211 Y145.435 E0.0475
G1 X154.93 Y145.744 E0.03344
G1 X156.5 Y146.466 E0.07388
G1 X157.117 Y146.707 E0.02836
G1 X157.158 Y146.776 E0.0034
G1 X157.289 Y147.15 E0.01696
G1 X157.529 Y147.687 E0.02516
G1 X157.562 Y147.818 E0.00575
G1 X157.554 Y147.91 E0.00395
G1 X157.532 Y147.967 E0.00263
G1 X157.269 Y148.443 E0.02321
G1 X157.194 Y148.797 E0.01549
G1 X157.232 Y149.158 E0.01554
G1 X157.483 Y149.581 E0.02102
G1 X157.897 Y149.883 E0.0219
G1 X158.391 Y150.035 E0.02211
G1 X158.889 Y149.988 E0.02137
G1 X159.27 Y149.79 E0.01838
G1 X159.599 Y149.453 E0.02014
G1 X159.873 Y148.995 E0.0228
G1 X160.02 Y148.626 E0.01696
G1 X160.087 Y148.352 E0.01207
G1 X160.114 Y147.98 E0.01596
G1 X160.067 Y147.601 E0.0163
G1 X159.954 Y147.196 E0.01797
G1 X159.746 Y146.662 E0.02454
G1 X159.312 Y145.677 E0.04601
G1 X158.093 Y143.1 E0.12189
G1 X157.599 Y142.124 E0.04678
G1 X157.92 Y142.113 E0.01373
G1 X158.524 Y141.827 E0.02856
G1 X158.59 Y142.352 E0.02262
G1 X158.734 Y143.27 E0.0397
G1 X158.867 Y143.77 E0.02211
G1 X159.1 Y144.198 E0.02086
G1 X159.469 Y144.546 E0.02168
G1 X159.939 Y144.763 E0.02215
G1 X160.468 Y144.775 E0.02261
G1 X160.83 Y144.617 E0.01688
G1 X161.042 Y144.451 E0.01152
G1 X162.011 Y143.424 E0.06036
G1 X162.236 Y143.529 E0.01058
G1 X162.137 Y144.379 E0.03659
G1 X162.035 Y144.97 E0.02564
G1 X161.855 Y145.769 E0.03501
G1 X161.688 Y146.366 E0.02651
G1 X161.44 Y147.113 E0.03367
G1 X161.189 Y147.751 E0.02931
G1 X160.896 Y148.404 E0.03059
G1 X160.588 Y149.006 E0.02892
G1 X160.269 Y149.565 E0.02752
G1 X159.702 Y150.436 E0.04444
G1 X159.105 Y151.224 E0.04224
G1 X158.414 Y152.012 E0.04484
G1 X157.727 Y152.69 E0.04124
G1 X139.916 Y168.46 E1.01715
G1 X139.781 Y168.565 E0.0073
G1 X139.617 Y168.656 E0.008
G1 X139.466 Y168.71 E0.00689
G1 X139.334 Y168.734 E0.00571
G1 X139.214 Y168.736 E0.00515
G1 X139.024 Y168.708 E0.0082
G1 X138.883 Y168.661 E0.00637
G1 X138.755 Y168.596 E0.00612
G1 X138.628 Y168.509 E0.0066
G1 X138.483 Y168.381 E0.00826
G1 X136.776 Y166.677 E0.10314
G1 X137.483 Y166.714 E0.03025
G1 X137.798 Y166.692 E0.01354
G1 X138.217 Y166.612 E0.01823
G1 X138.528 Y166.511 E0.01398
G1 X139.046 Y166.255 E0.02471
G1 X139.476 Y165.938 E0.02284
G1 X139.93 Y165.478 E0.02764
G1 X140.257 Y165.017 E0.02418
G1 X140.445 Y164.621 E0.01871
G1 X140.576 Y164.109 E0.02258
G1 X140.582 Y163.575 E0.02285
G1 X140.458 Y163.06 E0.02264
G1 X140.201 Y162.597 E0.02265
G1 X139.695 Y162.33 E0.02444
G1 X139.292 Y162.3 E0.01731
G1 X138.977 Y162.355 E0.01365
G1 X138.554 Y162.56 E0.0201
G1 X138.264 Y162.836 E0.01713
G1 X138.07 Y163.173 E0.01661
G1 X137.996 Y163.549 E0.01638
G1 X138.02 Y163.754 E0.00883
G1 X137.971 Y163.851 E0.00464
G1 X137.881 Y163.958 E0.00598
G1 X137.776 Y164.047 E0.00588
G1 X137.664 Y164.111 E0.00552
G1 X137.562 Y164.148 E0.00466
G1 X137.386 Y164.166 E0.00757
G1 X137.27 Y164.146 E0.00502
G1 X137.198 Y164.122 E0.00323
G1 X136.919 Y163.974 E0.01351
G1 X136.585 Y163.712 E0.01817
G1 X136.195 Y163.316 E0.02373
G1 X135.956 Y162.999 E0.01697
G1 X135.862 Y162.828 E0.00837
G1 X135.793 Y162.622 E0.0093
G1 X135.782 Y162.53 E0.00396
G1 X135.79 Y162.431 E0.00423
G1 X135.821 Y162.322 E0.00486
G1 X135.871 Y162.221 E0.00479
G1 X135.993 Y162.069 E0.00834
G1 X136.577 Y161.915 E0.02585
G1 X136.905 Y161.795 E0.01494
G1 X137.233 Y161.592 E0.01647
G1 X137.519 Y161.235 E0.01955
G1 X137.629 Y160.892 E0.01542
G1 X137.636 Y160.505 E0.01652
G1 X137.557 Y160.217 E0.0128
G1 X137.819 Y160.224 E0.01121
G1 X138.196 Y160.07 E0.01739
G1 X138.478 Y159.837 E0.01565
G1 X138.882 Y159.327 E0.02783
G1 X139.142 Y159.622 E0.01679
G1 X141.128 Y161.583 E0.11931
G1 X141.524 Y162.041 E0.02591
G1 X141.727 Y162.209 E0.01127
G1 X142.064 Y162.371 E0.01599
G1 X142.464 Y162.39 E0.01711
G1 X142.765 Y162.305 E0.01338
G1 X143.078 Y162.128 E0.01537
G1 X143.283 Y161.939 E0.0119
G1 X143.447 Y161.722 E0.01164
G1 X143.602 Y161.359 E0.01688
G1 X143.599 Y160.856 E0.0215
G1 X143.458 Y160.501 E0.01633
G1 X143.311 Y160.271 E0.01169
G1 X143.076 Y160.011 E0.01497
G1 X142.592 Y159.557 E0.02838
G1 X140.638 Y157.605 E0.11809
G1 X141.013 Y157.241 E0.0223
G1 X141.291 Y156.896 E0.01897
G1 X141.46 Y156.515 E0.01784
G1 X141.515 Y156.138 E0.01626
G1 X141.948 Y156.189 E0.01867
G1 X142.445 Y156.065 E0.02187
G1 X142.54 Y156.353 E0.01299
G1 X142.729 Y156.674 E0.01594
G1 X143.027 Y156.961 E0.01769
G1 X143.515 Y157.161 E0.02252
G1 X144.138 Y157.063 E0.02696
G1 X143.759 Y157.724 E0.03255
G1 X143.689 Y158.123 E0.01733
G1 X143.76 Y158.526 E0.01752
G1 X143.967 Y158.882 E0.01759
G1 X144.259 Y159.153 E0.01702
G1 X144.599 Y159.335 E0.01652
G1 X144.939 Y159.419 E0.01497
G1 X145.231 Y159.428 E0.01249
G1 X145.579 Y159.368 E0.01511
G1 X145.838 Y159.279 E0.01171
G1 X146.159 Y159.118 E0.01533
G1 X146.433 Y158.939 E0.01401
G1 X146.884 Y158.547 E0.02554
G1 X147.277 Y158.088 E0.02585
G1 X147.551 Y157.609 E0.02361
G1 X147.716 Y157.073 E0.02396
G1 X147.759 Y156.516 E0.02388
G1 X147.628 Y155.648 E0.03754
G1 X148.153 Y155.955 E0.02599
G1 X148.485 Y156.07 E0.01505
G1 X148.876 Y156.079 E0.01671
G1 E-0.5
; acceleration to travel
M204 S10000
G1 X149.563 Y149.435 F27000
; decel to extrusion
M204 S2000
G1 X149.701 Y148.107
; end travel
G1 E0.5 F1800
G1 X149.093 Y147.797 E0.02918
G1 X148.409 Y147.584 E0.03063
G1 X147.989 Y147.514 E0.01819
G1 X147.517 Y147.49 E0.02021
G1 X146.952 Y147.539 E0.02423
G1 X146.275 Y147.731 E0.03008
G1 X145.654 Y148.059 E0.03005
G1 X145.169 Y148.406 E0.02547
G1 X144.686 Y148.827 E0.02741
G1 X143.629 Y149.863 E0.06328
G1 X143.356 Y150.224 E0.01936
G1 X143.112 Y150.724 E0.0238
G1 X143.003 Y151.304 E0.02522
G1 X142.382 Y151.426 E0.02706
G1 X141.966 Y151.596 E0.01921
G1 X141.569 Y151.82 E0.01946
G1 X141.041 Y152.221 E0.02838
G1 X140.461 Y152.83 E0.03596
G1 X140.055 Y153.442 E0.03136
G1 X139.773 Y154.145 E0.03241
G1 X139.278 Y154.322 E0.02244
G1 X138.849 Y154.651 E0.02312
G1 X136.528 Y156.993 E0.14096
G1 X135.941 Y157.507 E0.03335
G1 X135.597 Y158.006 E0.02593
G1 X135.416 Y158.597 E0.02643
G1 X135.139 Y158.664 E0.0122
G1 X134.657 Y158.867 E0.02238
G1 X134.29 Y159.083 E0.01818
G1 X133.847 Y159.424 E0.0239
G1 X133.484 Y159.779 E0.02173
G1 X133.22 Y160.088 E0.01736
G1 X132.912 Y160.539 E0.02337
G1 X132.568 Y161.243 E0.0335
G1 X132.102 Y160.771 E0.02834
G1 X132.218 Y160.611 E0.00848
G1 X147.749 Y143.065 E1.00183
G1 X148.274 Y142.506 E0.03282
G1 X149.034 Y141.796 E0.04446
G1 X149.421 Y141.476 E0.02146
G1 X150.002 Y141.038 E0.03112
G1 X150.457 Y140.728 E0.02351
G1 X150.984 Y140.402 E0.02654
G1 X151.521 Y140.102 E0.02627
G1 X152.048 Y139.839 E0.0252
G1 X152.66 Y139.568 E0.02861
G1 X153.133 Y139.383 E0.0217
G1 X153.768 Y139.168 E0.02867
G1 X154.848 Y138.88 E0.04782
G1 X155.413 Y138.766 E0.02463
G1 X156.098 Y138.663 E0.02959
