; generated by SuperSlicer 2.4 on 2022-05-29 at 23:43:05 UTC


;
;

;
;
; 

; external perimeters extrusion width = 0.40mm
; perimeters extrusion width = 0.45mm
; infill extrusion width = 0.72mm
; solid infill extrusion width = 0.56mm
; top infill extrusion width = 0.40mm
; first layer extrusion width = 0.48mm

; object:{"name":"sb_adxl_mount_generic_15","id":"sb_adxl_mount_generic_15.5mm_c-c-beta2.stl id:0 copy 0","object_center":[150.000000,150.000000,0.000000],"boundingbox_center":[150.000000,150.000000,4.850000],"boundingbox_size":[33.153839,13.350000,9.700000]}
; plater:{"center":[150.000000,150.000000,0.000000],"boundingbox_center":[150.000000,150.000000,4.850000],"boundingbox_size":[33.153839,13.350000,9.700000]}

;TYPE:Custom
print_start EXTRUDER=250 BED=110 CHAMBER=50
M107
G21 ; set units to millimeters
G90 ; use absolute coordinates
M83 ; use relative distances for extrusion
; Filament gcode
SET_PRESSURE_ADVANCE ADVANCE=0.03465
M104 S250 ; set temperature
M109 S250 ; set temperature and wait for it to be reached
M190 S110 ; set bed temperature and wait for it to be reached
M107
;LAYER_CHANGE
;Z:0.25
;HEIGHT:0.25
;BEFORE_LAYER_CHANGE
;0.25
TIMELAPSE_TAKE_FRAME


G1 Z0.25 F27000
;AFTER_LAYER_CHANGE
;0.25
G92 E0
; INIT printing object sb_adxl_mount_generic_15.5mm_c-c-beta2.stl id:0 copy 0
G1 E-0.75 F3000
M204 S1500
G1 Z0.65 F27000
; printing object sb_adxl_mount_generic_15.5mm_c-c-beta2.stl id:0 copy 0
G1 X139.817 Y145.41
G1 Z0.25
G1 E0.75 F1800
;TYPE:Internal perimeter
;WIDTH:0.48
G1 F900
G1 X139.817 Y145.219 E0.00781
G1 X145.471 Y145.219 E0.23153
G1 X145.292 Y146.003 E0.03293
G1 X145.287 Y146.53 E0.0216
G1 X145.352 Y146.975 E0.01839
G1 X145.545 Y147.523 E0.0238
G1 X145.834 Y148.006 E0.02305
G1 X146.245 Y148.446 E0.02468
G1 X146.706 Y148.77 E0.02305
G1 X147.26 Y149.007 E0.02468
G1 X147.781 Y149.108 E0.02173
G1 X148.216 Y149.121 E0.0178
G1 X148.743 Y149.048 E0.02179
G1 X149.309 Y148.842 E0.02468
G1 X149.787 Y148.545 E0.02305
G1 X150.223 Y148.129 E0.02468
G1 X150.519 Y147.691 E0.02164
G1 X150.703 Y147.297 E0.0178
G1 X150.842 Y146.781 E0.02188
G1 X150.877 Y146.168 E0.02515
G1 X150.774 Y145.564 E0.02506
G1 X150.638 Y145.219 E0.0152
G1 X160.971 Y145.219 E0.4231
G1 X160.792 Y146.003 E0.03293
G1 X160.787 Y146.53 E0.0216
G1 X160.852 Y146.975 E0.01839
G1 X161.045 Y147.523 E0.0238
G1 X161.334 Y148.006 E0.02305
G1 X161.745 Y148.446 E0.02468
G1 X162.206 Y148.77 E0.02305
G1 X162.76 Y149.007 E0.02468
G1 X163.281 Y149.108 E0.02173
G1 X163.716 Y149.121 E0.0178
G1 X164.243 Y149.048 E0.02179
G1 X164.683 Y148.888 E0.01917
G1 X164.683 Y152.312 E0.14019
G1 X162.214 Y154.781 E0.14297
G1 X147.606 Y154.781 E0.59813
G1 X141.89 Y149.831 E0.3096
G1 X139.817 Y149.831 E0.0849
G1 X139.817 Y145.47 E0.17857
G1 X139.391 Y145.41 F27000
G1 F900
G1 X139.391 Y144.793 E0.02527
G1 X146.275 Y144.793 E0.28188
G1 X146.03 Y145.122 E0.01682
G1 X145.832 Y145.553 E0.01942
G1 X145.718 Y146.053 E0.021
G1 X145.713 Y146.501 E0.01835
G1 X145.768 Y146.872 E0.01535
G1 X145.933 Y147.341 E0.02036
G1 X146.176 Y147.748 E0.01941
G1 X146.527 Y148.123 E0.021
G1 X146.915 Y148.395 E0.01942
G1 X147.386 Y148.597 E0.021
G1 X147.829 Y148.683 E0.01844
G1 X148.193 Y148.693 E0.01491
G1 X148.64 Y148.632 E0.01849
G1 X149.122 Y148.457 E0.021
G1 X149.525 Y148.206 E0.01942
G1 X149.895 Y147.852 E0.021
G1 X150.147 Y147.48 E0.01838
G1 X150.301 Y147.15 E0.01491
G1 X150.419 Y146.713 E0.01855
G1 X150.448 Y146.192 E0.02135
G1 X150.361 Y145.679 E0.02129
G1 X150.2 Y145.27 E0.01803
G1 X149.922 Y144.793 E0.0226
G1 X161.775 Y144.793 E0.48532
G1 X161.53 Y145.122 E0.01682
G1 X161.332 Y145.553 E0.01942
G1 X161.218 Y146.053 E0.021
G1 X161.213 Y146.501 E0.01835
G1 X161.268 Y146.872 E0.01535
G1 X161.433 Y147.341 E0.02036
G1 X161.676 Y147.748 E0.01941
G1 X162.027 Y148.123 E0.021
G1 X162.415 Y148.395 E0.01942
G1 X162.886 Y148.597 E0.021
G1 X163.329 Y148.683 E0.01844
G1 X163.693 Y148.693 E0.01491
G1 X164.14 Y148.632 E0.01849
G1 X164.622 Y148.457 E0.021
G1 X165.109 Y148.153 E0.0235
G1 X165.109 Y152.489 E0.17751
G1 X162.391 Y155.207 E0.15743
G1 X147.447 Y155.207 E0.61187
G1 X141.731 Y150.257 E0.3096
G1 X139.391 Y150.257 E0.09584
G1 X139.391 Y145.47 E0.19603
G1 X146.685 Y144.971 F27000
G1 F900
G1 X146.651 Y145.001 E0.00184
G1 X146.399 Y145.341 E0.01733
G1 X146.238 Y145.691 E0.01578
G1 X146.144 Y146.104 E0.01733
G1 X146.14 Y146.472 E0.0151
G1 X146.184 Y146.77 E0.0123
G1 X146.321 Y147.159 E0.01691
G1 X146.519 Y147.49 E0.01578
G1 X146.808 Y147.799 E0.01733
G1 X147.123 Y148.021 E0.01578
G1 X147.512 Y148.187 E0.01733
G1 X147.876 Y148.258 E0.01516
G1 X148.169 Y148.266 E0.01203
G1 X148.537 Y148.215 E0.01519
G1 X148.935 Y148.071 E0.01733
G1 X149.262 Y147.867 E0.01578
G1 X149.568 Y147.575 E0.01733
G1 X149.775 Y147.269 E0.01512
G1 X149.899 Y147.003 E0.01203
G1 X149.996 Y146.644 E0.01523
G1 X150.02 Y146.216 E0.01755
G1 X149.948 Y145.795 E0.01751
G1 X149.815 Y145.456 E0.0149
G1 X149.687 Y145.236 E0.01042
G1 X149.426 Y144.924 E0.01666
G1 X149.123 Y144.685 E0.01578
G1 X149.011 Y144.63 E0.00514
G1 X149.073 Y144.366 E0.01107
G1 X162.596 Y144.366 E0.55371
G1 X162.663 Y144.62 E0.01076
G1 X162.441 Y144.746 E0.01045
G1 X162.151 Y145.001 E0.01578
G1 X161.899 Y145.341 E0.01733
G1 X161.738 Y145.691 E0.01578
G1 X161.644 Y146.104 E0.01733
G1 X161.64 Y146.472 E0.0151
G1 X161.684 Y146.77 E0.0123
G1 X161.821 Y147.159 E0.01691
G1 X162.019 Y147.49 E0.01578
G1 X162.308 Y147.799 E0.01733
G1 X162.623 Y148.021 E0.01578
G1 X163.012 Y148.187 E0.01733
G1 X163.376 Y148.258 E0.01516
G1 X163.669 Y148.266 E0.01203
G1 X164.037 Y148.215 E0.01519
G1 X164.435 Y148.071 E0.01733
G1 X164.762 Y147.867 E0.01578
G1 X165.068 Y147.575 E0.01733
G1 X165.294 Y147.24 E0.01656
G1 X165.536 Y147.314 E0.01033
G1 X165.536 Y152.665 E0.21911
G1 X162.567 Y155.634 E0.17189
G1 X147.288 Y155.634 E0.62561
G1 X141.572 Y150.684 E0.3096
G1 X136.538 Y150.684 E0.20614
G1 X136.537 Y150.455 E0.00937
G1 X136.514 Y149.955 E0.0205
G1 X136.998 Y150.032 E0.0201
G1 X137.424 Y150.059 E0.01745
G1 X138.964 Y150.071 E0.06308
G1 X138.964 Y144.983 E0.20836
G1 X137.825 Y144.984 E0.04667
G1 X137.026 Y145.008 E0.03271
G1 X136.324 Y145.085 E0.02891
G1 X136.17 Y144.366 E0.03011
G1 X147.096 Y144.366 E0.44734
G1 X147.163 Y144.62 E0.01076
G1 X146.941 Y144.746 E0.01045
G1 X146.73 Y144.932 E0.01149
M204 S1000
G1 X146.967 Y145.291 F27000
;TYPE:External perimeter
G1 F900
G1 X146.879 Y145.41 E0.00603
G1 X146.768 Y145.559 E0.00762
G1 X146.644 Y145.829 E0.01215
G1 X146.57 Y146.154 E0.01365
G1 X146.567 Y146.443 E0.01185
G1 X146.6 Y146.667 E0.00926
G1 X146.666 Y146.856 E0.00821
G1 X146.709 Y146.977 E0.00526
G1 X146.827 Y147.175 E0.00944
G1 X146.861 Y147.232 E0.00271
G1 X147.089 Y147.476 E0.01365
G1 X147.332 Y147.646 E0.01215
G1 X147.638 Y147.777 E0.01365
G1 X147.923 Y147.833 E0.01187
G1 X148.012 Y147.835 E0.00366
G1 X148.146 Y147.839 E0.00549
G1 X148.434 Y147.799 E0.01189
G1 X148.747 Y147.686 E0.01365
G1 X148.894 Y147.594 E0.00708
G1 X148.999 Y147.529 E0.00508
G1 X149.24 Y147.298 E0.01365
G1 X149.403 Y147.059 E0.01185
G1 X149.44 Y146.977 E0.00366
G1 X149.497 Y146.856 E0.00548
G1 X149.573 Y146.576 E0.01191
G1 X149.58 Y146.443 E0.00543
G1 X149.592 Y146.24 E0.00833
G1 X149.535 Y145.91 E0.01373
G1 X149.465 Y145.731 E0.00784
G1 X149.43 Y145.642 E0.00392
G1 X149.337 Y145.482 E0.00761
G1 X149.128 Y145.231 E0.01336
G1 X148.894 Y145.048 E0.01215
G1 X148.594 Y144.899 E0.01374
G1 X148.267 Y144.82 E0.01375
G1 X147.977 Y144.812 E0.01191
G1 X147.756 Y144.845 E0.00914
G1 X147.582 Y144.899 E0.00744
G1 X147.56 Y144.906 E0.00096
G1 X147.479 Y144.931 E0.00345
G1 X147.189 Y145.095 E0.01365
G1 X147.012 Y145.252 E0.00969
;WIPE_START
M204 S1500
G1 X146.822 Y145.264 F27000
;WIPE_END
M204 S1000
G1 X138.538 Y145.41
G1 F900
G1 X137.819 Y145.411 E0.02943
G1 X137.056 Y145.434 E0.03127
G1 X136.62 Y145.482 E0.01793
G1 X136.414 Y145.504 E0.00849
G1 X136.449 Y146.2 E0.02851
G1 X136.449 Y149.513 E0.13565
G1 X137.046 Y149.608 E0.02473
G1 X137.368 Y149.629 E0.01322
G1 X137.439 Y149.633 E0.00292
G1 X138.538 Y149.642 E0.045
G1 X138.538 Y145.47 E0.17083
;WIPE_START
M204 S1500
G1 X138.538 Y145.01 F27000
;WIPE_END
G1 E-0.75 F3000
G1 Z0.65 F27000
; acceleration to travel
G1 X152.657 Y145.696
; decel to extrusion
M204 S1000
G1 X162.07 Y146.154
; end travel
G1 Z0.25
G1 E0.75 F1800
G1 F900
G1 X162.067 Y146.443 E0.01185
G1 X162.1 Y146.667 E0.00926
G1 X162.209 Y146.977 E0.01347
G1 X162.361 Y147.232 E0.01215
G1 X162.589 Y147.476 E0.01365
G1 X162.832 Y147.646 E0.01215
G1 X163.138 Y147.777 E0.01365
G1 X163.233 Y147.796 E0.00396
G1 X163.423 Y147.833 E0.00792
G1 X163.512 Y147.835 E0.00366
G1 X163.646 Y147.839 E0.00549
G1 X163.934 Y147.799 E0.01189
G1 X164.247 Y147.686 E0.01365
G1 X164.499 Y147.529 E0.01215
G1 X164.74 Y147.298 E0.01365
G1 X164.903 Y147.059 E0.01185
G1 X164.997 Y146.856 E0.00914
G1 X165.073 Y146.576 E0.01191
G1 X165.074 Y146.558 E0.00073
G1 X165.092 Y146.24 E0.01302
G1 X165.035 Y145.909 E0.01374
G1 X164.93 Y145.642 E0.01176
G1 X164.837 Y145.482 E0.00761
G1 X164.628 Y145.231 E0.01336
G1 X164.394 Y145.048 E0.01215
G1 X164.094 Y144.899 E0.01374
G1 X163.767 Y144.82 E0.01375
G1 X163.477 Y144.812 E0.01191
G1 X163.256 Y144.845 E0.00914
G1 X163.213 Y144.858 E0.00185
G1 X162.979 Y144.931 E0.01
G1 X162.689 Y145.095 E0.01365
G1 X162.584 Y145.188 E0.00575
G1 X162.467 Y145.291 E0.00641
G1 X162.268 Y145.559 E0.01366
G1 X162.144 Y145.829 E0.01215
G1 X162.083 Y146.095 E0.0112
;WIPE_START
M204 S1500
G1 X161.808 Y146.278 F27000
;WIPE_END
G1 E-0.75 F3000
G1 Z0.65 F27000
M204 S1000
G1 X164.322 Y143.94
G1 Z0.25
G1 E0.75 F1800
G1 F900
G1 X165.962 Y145.58 E0.09495
G1 X165.962 Y152.842 E0.29735
G1 X162.744 Y156.06 E0.18635
G1 X147.129 Y156.06 E0.63935
G1 X141.414 Y151.11 E0.3096
G1 X136.114 Y151.11 E0.217
G1 X136.111 Y150.466 E0.02638
G1 X136.087 Y149.964 E0.02057
G1 X136.033 Y149.478 E0.02002
G1 X136.023 Y149.003 E0.01948
G1 X136.023 Y146.055 E0.1207
G1 X135.91 Y145.188 E0.03578
G1 X135.643 Y143.94 E0.05226
G1 X164.262 Y143.94 E1.17183
;WIPE_START
M204 S1500
G1 X164.322 Y144.34 F27000
;WIPE_END
G1 X162.82 Y144.448
;TYPE:Gap fill
;WIDTH:0.574804
G1 F900
G1 X163.089 Y144.407 E0.01365
G1 X163.133 Y144.4 E0.00222
G1 X163.302 Y144.386 E0.00849
;WIDTH:0.549072
G1 X163.43 Y144.377 E0.0061
G1 X163.472 Y144.376 E0.00197
G1 X163.636 Y144.378 E0.00781
G1 X163.8 Y144.381 E0.00781
G1 X163.988 Y144.4 E0.009
;WIDTH:0.614626
G1 X164.125 Y144.416 E0.00743
;WIDTH:0.571074
G1 X164.267 Y144.5 E0.00819
;WIDTH:0.510499
G1 X164.423 Y144.611 E0.0084
;WIDTH:0.42788
G1 X164.578 Y144.723 E0.00688
;WIDTH:0.399184
G1 X164.606 Y144.746 E0.0012
G1 X164.733 Y144.858 E0.00561
;WIDTH:0.358642
G1 X164.859 Y144.97 E0.00495
G1 X164.882 Y144.992 E0.00093
G1 X165.005 Y145.126 E0.00532
;WIDTH:0.395747
G1 X165.127 Y145.261 E0.00597
G1 X165.213 Y145.37 E0.00454
;WIDTH:0.452679
G1 X165.279 Y145.456 E0.0042
;WIDTH:0.481114
G1 X165.388 Y145.619 E0.00804
;WIDTH:0.598652
G1 X165.478 Y145.757 E0.00862
G1 X165.494 Y145.811 E0.00293
G1 X165.51 Y146 E0.00992
;WIDTH:0.554694
G1 X165.526 Y146.189 E0.00912
G1 X165.527 Y146.243 E0.00259
G1 X165.516 Y146.621 E0.01822
G1 X165.494 Y146.812 E0.00924
G1 X165.422 Y146.851 E0.00394
;WIDTH:0.336827
G1 X165.255 Y146.944 E0.00519
;WIDTH:0.184959
G1 X165.156 Y146.993 E0.00139
G1 E-0.75 F3000
G1 Z0.65 F27000
G1 X160.081 Y145.283
G1 Z0.25
G1 E0.75 F1800
;TYPE:Solid infill
;WIDTH:0.464961
G1 F1200
G1 X160.679 Y145.881 E0.03354
G1 X160.64 Y146.445 E0.02244
G1 X159.661 Y145.466 E0.05492
G1 X159.058 Y145.466 E0.02391
G1 X161.103 Y147.511 E0.1147
G1 X163.877 Y149.079 F27000
G1 F1200
G1 X164.436 Y149.638 E0.03133
G1 X164.436 Y150.241 E0.02391
G1 X163.516 Y149.321 E0.05157
G1 X163.249 Y149.363 E0.01073
G1 X162.733 Y149.141 E0.02229
G1 X164.436 Y150.844 E0.09551
G1 X164.436 Y151.447 E0.02391
G1 X158.455 Y145.466 E0.33545
G1 X157.852 Y145.466 E0.02391
G1 X164.436 Y152.05 E0.36927
G1 X164.436 Y152.21 E0.00634
G1 X164.214 Y152.431 E0.01242
G1 X157.249 Y145.466 E0.39067
G1 X156.646 Y145.466 E0.02391
G1 X163.913 Y152.733 E0.40758
G1 X163.611 Y153.034 E0.01691
G1 X156.043 Y145.466 E0.42449
G1 X155.44 Y145.466 E0.02391
G1 X163.31 Y153.336 E0.4414
G1 X163.008 Y153.637 E0.01691
G1 X154.838 Y145.466 E0.45831
G1 X154.235 Y145.466 E0.02391
G1 X162.707 Y153.938 E0.47522
G1 X162.405 Y154.24 E0.01691
G1 X153.632 Y145.466 E0.49213
G1 X153.029 Y145.466 E0.02391
G1 X162.096 Y154.534 E0.50861
G1 X161.493 Y154.534 E0.02391
G1 X152.426 Y145.466 E0.50861
G1 X151.823 Y145.466 E0.02391
G1 X160.89 Y154.534 E0.50861
G1 X160.287 Y154.534 E0.02391
G1 X151.22 Y145.466 E0.50861
G1 X150.955 Y145.466 E0.01049
G1 X151.069 Y145.919 E0.01849
G1 X159.684 Y154.534 E0.48324
G1 X159.081 Y154.534 E0.02391
G1 X151.052 Y146.504 E0.45039
G1 X150.937 Y146.992 E0.01989
G1 X158.478 Y154.534 E0.42301
G1 X157.875 Y154.534 E0.02391
G1 X150.822 Y147.481 E0.39562
G1 X150.743 Y147.819 E0.01378
G1 X150.648 Y147.909 E0.00519
G1 X157.272 Y154.534 E0.37158
G1 X156.67 Y154.534 E0.02391
G1 X150.339 Y148.203 E0.35508
G1 X150.03 Y148.497 E0.01692
G1 X156.067 Y154.534 E0.33859
G1 X155.464 Y154.534 E0.02391
G1 X149.721 Y148.791 E0.32209
G1 X149.433 Y149.066 E0.01579
G1 X149.401 Y149.074 E0.00131
G1 X154.861 Y154.534 E0.30624
G1 X154.258 Y154.534 E0.02391
G1 X148.92 Y149.196 E0.29938
G1 X148.44 Y149.319 E0.01967
G1 X153.655 Y154.534 E0.29252
G1 X153.052 Y154.534 E0.02391
G1 X147.634 Y149.116 E0.30392
G1 X145.248 Y146.127 F27000
G1 F1200
G1 X144.587 Y145.466 E0.03705
G1 X143.984 Y145.466 E0.02391
G1 X145.368 Y146.85 E0.0776
G1 X143.198 Y145.283 F27000
G1 F1200
G1 X145.265 Y147.35 E0.11594
G1 X145.311 Y147.624 E0.01102
G1 X146.08 Y148.637 E0.05047
G1 X147.135 Y149.22 E0.04779
G1 X152.449 Y154.534 E0.29807
G1 X151.846 Y154.534 E0.02391
G1 X142.779 Y145.466 E0.50861
G1 X142.176 Y145.466 E0.02391
G1 X151.243 Y154.534 E0.50861
G1 X150.64 Y154.534 E0.02391
G1 X141.573 Y145.466 E0.50861
G1 X140.97 Y145.466 E0.02391
G1 X150.037 Y154.534 E0.50861
G1 X149.434 Y154.534 E0.02391
G1 X140.367 Y145.466 E0.50861
G1 X140.064 Y145.466 E0.012
G1 X140.064 Y145.767 E0.01192
G1 X148.831 Y154.534 E0.49175
G1 X148.228 Y154.534 E0.02391
G1 X140.064 Y146.37 E0.45793
G1 X140.064 Y146.973 E0.02391
G1 X147.153 Y154.062 E0.39763
G1 X142.653 Y150.164 E0.23614
G1 X140.064 Y147.576 E0.14519
G1 X140.064 Y148.179 E0.02391
G1 X141.469 Y149.584 E0.07881
G1 X140.866 Y149.584 E0.02391
G1 X140.064 Y148.782 E0.04499
G1 X140.064 Y149.384 E0.02391
G1 X140.447 Y149.767 E0.02146
G1 X147.367 Y154.133 F27000
;TYPE:Gap fill
;WIDTH:0.289608
G1 F900
G1 X147.452 Y154.212 E0.00263
G1 X147.588 Y154.339 E0.00421
;WIDTH:0.258782
G1 X147.724 Y154.465 E0.00366
;WIDTH:0.224055
G1 X147.865 Y154.568 E0.00286
G1 E-0.75 F3000
G1 Z0.65 F27000
G1 X139.195 Y150.379
G1 Z0.25
G1 E0.75 F1800
;WIDTH:0.28632
G1 F900
G1 X139.085 Y150.378 E0.00245
G1 X138.25 Y150.375 E0.01865
G1 X137.416 Y150.372 E0.01865
G1 X137.189 Y150.364 E0.00508
;WIDTH:0.314646
G1 X136.968 Y150.357 E0.00553
;WIDTH:0.341294
G1 X136.862 Y150.349 E0.00295
G1 X136.723 Y150.344 E0.00384
G1 X136.447 Y144.721 F27000
;WIDTH:0.350662
G1 F900
G1 X136.595 Y144.71 E0.00425
G1 X136.797 Y144.699 E0.00576
;WIDTH:0.30458
G1 X137.009 Y144.687 E0.00511
G1 X137.414 Y144.681 E0.00976
;WIDTH:0.279899
G1 X137.822 Y144.675 E0.00887
G1 X138.452 Y144.675 E0.0137
G1 X139.083 Y144.675 E0.0137
G1 X139.195 Y144.674 E0.00244
G1 X147.324 Y144.464 F27000
;WIDTH:0.650281
G1 F900
G1 X147.457 Y144.436 E0.00778
;WIDTH:0.574605
G1 X147.589 Y144.407 E0.00679
G1 X147.633 Y144.4 E0.00222
G1 X147.802 Y144.386 E0.00849
;WIDTH:0.548751
G1 X147.93 Y144.377 E0.00609
G1 X147.972 Y144.376 E0.00197
G1 X148.136 Y144.378 E0.0078
G1 X148.3 Y144.381 E0.0078
G1 X148.465 Y144.397 E0.00788
;WIDTH:0.621282
G1 X148.579 Y144.411 E0.00625
G1 X148.725 Y144.426 E0.00802
G1 X148.853 Y144.444 E0.00706
; INIT stop printing object sb_adxl_mount_generic_15.5mm_c-c-beta2.stl id:0 copy 0
M106 S127.5
;LAYER_CHANGE
;Z:0.45
;HEIGHT:0.2
;BEFORE_LAYER_CHANGE
;0.45
TIMELAPSE_TAKE_FRAME


; stop printing object sb_adxl_mount_generic_15.5mm_c-c-beta2.stl id:0 copy 0
G1 Z0.45 F27000
;AFTER_LAYER_CHANGE
;0.45
G92 E0
M104 S245 ; set temperature
