; generated by SuperSlicer 2.3.57 on 2022-05-20 at 03:08:37 UTC


;
;

;
;
; TODO: check the size of the extruder and the y-bar clearance. Optimize & test supports.

; external perimeters extrusion width = 0.40mm
; perimeters extrusion width = 0.40mm
; infill extrusion width = 0.44mm
; solid infill extrusion width = 0.46mm
; top infill extrusion width = 0.44mm

; object:{"name":"Shape-Box","id":"Shape-Box id:0 copy 0","object_center":[150.000000,150.000000,0.000000],"boundingbox_center":[150.000000,150.000000,15.000000],"boundingbox_size":[30.000000,30.000000,30.000000]}
; plater:{"center":[150.000000,150.000000,0.000000],"boundingbox_center":[150.000000,150.000000,15.000000],"boundingbox_size":[30.000000,30.000000,30.000000]}

;TYPE:Custom
print_start EXTRUDER=215 BED=55 CHAMBER=15
M107
G21 ; set units to millimeters
G90 ; use absolute coordinates
M83 ; use relative distances for extrusion
M104 S215 ; set temperature
M109 S215 ; set temperature and wait for it to be reached
M190 S55 ; set bed temperature and wait for it to be reached
M107
;LAYER_CHANGE
;Z:0.2
;HEIGHT:0.2
;BEFORE_LAYER_CHANGE
;0.2


G1 Z0.2 F18000
;AFTER_LAYER_CHANGE
;0.2
G1 E-0.75 F3000
G1 Z0.6 F18000
M204 S1500
G1 X131.949 Y132.334
G1 Z0.2
G1 E0.75 F1800
;TYPE:Skirt
;WIDTH:0.52
G1 X132.57 Y131.757 E0.03366
G1 X133.29 Y131.318 E0.03346
G1 X134.084 Y131.032 E0.03346
G1 X134.918 Y130.911 E0.03346
G1 X164.905 Y130.907 E1.18955
G1 X165.68 Y130.98 E0.03086
G1 X166.422 Y131.193 E0.03066
G1 X167.118 Y131.542 E0.03086
G1 X167.737 Y132.013 E0.03086
G1 X168.259 Y132.59 E0.03086
G1 X168.664 Y133.254 E0.03086
G1 X168.941 Y133.981 E0.03086
G1 X169.077 Y134.742 E0.03066
G1 X169.091 Y165.032 E1.20157
G1 X169.006 Y165.749 E0.02866
G1 X168.801 Y166.437 E0.02846
G1 X168.479 Y167.083 E0.02866
G1 X168.051 Y167.666 E0.02866
G1 X167.406 Y168.262 E0.03485
G1 X166.65 Y168.71 E0.03485
G1 X165.818 Y168.991 E0.03485
G1 X164.945 Y169.092 E0.03485
G1 X134.968 Y169.091 E1.18915
G1 X134.251 Y169.006 E0.02866
G1 X133.563 Y168.801 E0.02846
G1 X132.917 Y168.479 E0.02866
G1 X132.334 Y168.051 E0.02866
G1 X131.738 Y167.406 E0.03485
G1 X131.29 Y166.65 E0.03485
G1 X131.009 Y165.818 E0.03485
G1 X130.908 Y164.945 E0.03485
G1 X130.909 Y134.968 E1.18915
G1 X130.994 Y134.251 E0.02866
G1 X131.199 Y133.563 E0.02846
G1 X131.521 Y132.917 E0.02866
G1 X131.913 Y132.383 E0.02628
G1 X132.105 Y132.525 F18000
M204 S1000
G1 X132.296 Y132.668
G1 F1800
G1 X132.323 Y132.631 E0.00179
G1 X132.873 Y132.126 E0.02961
G1 X133.512 Y131.741 E0.02961
G1 X134.215 Y131.491 E0.02961
G1 X134.959 Y131.387 E0.0298
G1 X164.905 Y131.384 E1.18792
G1 X165.596 Y131.45 E0.02754
G1 X166.258 Y131.642 E0.02735
G1 X166.878 Y131.955 E0.02754
G1 X167.425 Y132.374 E0.02735
G1 X167.885 Y132.888 E0.02735
G1 X168.245 Y133.482 E0.02754
G1 X168.487 Y134.132 E0.02754
G1 X168.605 Y134.816 E0.02754
G1 X168.614 Y165.005 E1.19755
G1 X168.54 Y165.647 E0.02566
G1 X168.355 Y166.267 E0.02566
G1 X168.063 Y166.85 E0.02585
G1 X167.677 Y167.369 E0.02566
G1 X167.105 Y167.891 E0.03074
G1 X166.436 Y168.283 E0.03074
G1 X165.701 Y168.528 E0.03074
G1 X164.931 Y168.615 E0.03074
G1 X134.99 Y168.614 E1.18774
G1 X134.348 Y168.539 E0.02566
G1 X133.728 Y168.353 E0.02566
G1 X133.15 Y168.063 E0.02566
G1 X132.631 Y167.677 E0.02566
G1 X132.109 Y167.105 E0.03074
G1 X131.717 Y166.436 E0.03074
G1 X131.472 Y165.701 E0.03074
G1 X131.385 Y164.931 E0.03074
G1 X131.386 Y134.99 E1.18774
G1 X131.461 Y134.348 E0.02566
G1 X131.647 Y133.728 E0.02566
G1 X131.937 Y133.15 E0.02566
G1 X132.26 Y132.716 E0.02149
M204 S1500
G1 X132.465 Y132.844 F18000
M204 S1000
G1 X132.67 Y132.971
G1 F1800
G1 X132.696 Y132.93 E0.00195
G1 X133.177 Y132.494 E0.02571
G1 X133.738 Y132.162 E0.02588
G1 X134.35 Y131.949 E0.02571
G1 X134.992 Y131.863 E0.02571
G1 X164.904 Y131.861 E1.18659
G1 X165.51 Y131.919 E0.02413
G1 X166.09 Y132.088 E0.02395
G1 X166.632 Y132.363 E0.02413
G1 X167.113 Y132.736 E0.02413
G1 X167.516 Y133.191 E0.02413
G1 X167.827 Y133.714 E0.02413
G1 X168.033 Y134.281 E0.02395
G1 X168.131 Y134.881 E0.02413
G1 X168.137 Y164.984 E1.19417
G1 X167.907 Y166.102 E0.04527
G1 X167.304 Y167.07 E0.04527
G1 X166.805 Y167.519 E0.02658
G1 X166.226 Y167.855 E0.02658
G1 X165.589 Y168.064 E0.02658
G1 X164.923 Y168.138 E0.02658
G1 X135.016 Y168.137 E1.18641
G1 X133.898 Y167.907 E0.04527
G1 X132.93 Y167.304 E0.04527
G1 X132.481 Y166.805 E0.02658
G1 X132.145 Y166.226 E0.02658
G1 X131.936 Y165.589 E0.02658
G1 X131.862 Y164.923 E0.02658
G1 X131.863 Y135.016 E1.18641
G1 X132.093 Y133.898 E0.04527
G1 X132.639 Y133.022 E0.04093
; INIT printing object Shape-Box id:0 copy 0
G1 E-0.75 F3000
M204 S1500
G1 Z0.6 F18000
; printing object Shape-Box id:0 copy 0
G1 X133.969 Y134.161
M204 S1000
G1 X135.3 Y135.3
G1 Z0.2
G1 E0.75 F1800
;TYPE:External perimeter
;WIDTH:0.4
G1 X164.7 Y135.3 E0.87292
G1 X164.7 Y164.7 E0.87292
G1 X135.3 Y164.7 E0.87292
G1 X135.3 Y135.36 E0.87114
;WIPE_START
M204 S1500
G1 X135.3 Y135.3 F18000
;WIPE_END
G1 E-0.75 F3000
G1 Z0.6 F18000
G1 X149.514 Y135.361
M204 S1000
G1 X163.727 Y135.422
G1 Z0.2
G1 E0.75 F1800
;TYPE:Solid infill
;WIDTH:0.465549
G1 X164.397 Y136.092 E0.03329
G1 X164.397 Y136.687 E0.02092
G1 X163.313 Y135.603 E0.05388
G1 X162.717 Y135.603 E0.02092
G1 X164.397 Y137.283 E0.08347
G1 X164.397 Y137.878 E0.02092
G1 X162.122 Y135.603 E0.11305
G1 X161.526 Y135.603 E0.02092
G1 X164.397 Y138.474 E0.14264
G1 X164.397 Y139.069 E0.02092
G1 X160.931 Y135.603 E0.17222
G1 X160.335 Y135.603 E0.02092
G1 X164.397 Y139.665 E0.20181
G1 X164.397 Y140.26 E0.02092
G1 X159.74 Y135.603 E0.23139
G1 X159.144 Y135.603 E0.02092
G1 X164.397 Y140.856 E0.26098
G1 X164.397 Y141.451 E0.02092
G1 X158.549 Y135.603 E0.29056
G1 X157.953 Y135.603 E0.02092
G1 X164.397 Y142.047 E0.32015
G1 X164.397 Y142.642 E0.02092
G1 X157.358 Y135.603 E0.34973
G1 X156.762 Y135.603 E0.02092
G1 X164.397 Y143.238 E0.37932
G1 X164.397 Y143.833 E0.02092
G1 X156.167 Y135.603 E0.4089
G1 X155.571 Y135.603 E0.02092
G1 X164.397 Y144.429 E0.43849
G1 X164.397 Y145.024 E0.02092
G1 X154.976 Y135.603 E0.46807
G1 X154.38 Y135.603 E0.02092
G1 X164.397 Y145.62 E0.49766
G1 X164.397 Y146.215 E0.02092
G1 X153.785 Y135.603 E0.52724
G1 X153.189 Y135.603 E0.02092
G1 X164.397 Y146.811 E0.55682
G1 X164.397 Y147.406 E0.02092
G1 X152.594 Y135.603 E0.58641
G1 X151.998 Y135.603 E0.02092
G1 X164.397 Y148.002 E0.61599
G1 X164.397 Y148.597 E0.02092
G1 X151.403 Y135.603 E0.64558
G1 X150.807 Y135.603 E0.02092
G1 X164.397 Y149.193 E0.67516
G1 X164.397 Y149.788 E0.02092
G1 X150.212 Y135.603 E0.70475
G1 X149.616 Y135.603 E0.02092
G1 X164.397 Y150.384 E0.73433
G1 X164.397 Y150.979 E0.02092
G1 X149.021 Y135.603 E0.76392
G1 X148.425 Y135.603 E0.02092
G1 X164.397 Y151.575 E0.7935
G1 X164.397 Y152.17 E0.02092
G1 X147.83 Y135.603 E0.82309
G1 X147.234 Y135.603 E0.02092
G1 X164.397 Y152.766 E0.85267
G1 X164.397 Y153.361 E0.02092
G1 X146.639 Y135.603 E0.88226
G1 X146.043 Y135.603 E0.02092
G1 X164.397 Y153.957 E0.91184
G1 X164.397 Y154.552 E0.02092
G1 X145.448 Y135.603 E0.94143
G1 X144.852 Y135.603 E0.02092
G1 X164.397 Y155.148 E0.97101
G1 X164.397 Y155.743 E0.02092
G1 X144.257 Y135.603 E1.0006
G1 X143.661 Y135.603 E0.02092
G1 X164.397 Y156.339 E1.03018
G1 X164.397 Y156.934 E0.02092
G1 X143.066 Y135.603 E1.05977
G1 X142.47 Y135.603 E0.02092
G1 X164.397 Y157.53 E1.08935
G1 X164.397 Y158.125 E0.02092
G1 X141.875 Y135.603 E1.11894
G1 X141.279 Y135.603 E0.02092
G1 X164.397 Y158.721 E1.14852
G1 X164.397 Y159.316 E0.02092
G1 X140.684 Y135.603 E1.17811
G1 X140.088 Y135.603 E0.02092
G1 X164.397 Y159.912 E1.20769
G1 X164.397 Y160.507 E0.02092
G1 X139.493 Y135.603 E1.23728
G1 X138.897 Y135.603 E0.02092
G1 X164.397 Y161.103 E1.26686
G1 X164.397 Y161.698 E0.02092
G1 X138.302 Y135.603 E1.29645
G1 X137.706 Y135.603 E0.02092
G1 X164.397 Y162.294 E1.32603
G1 X164.397 Y162.889 E0.02092
G1 X137.111 Y135.603 E1.35562
G1 X136.515 Y135.603 E0.02092
G1 X164.397 Y163.485 E1.3852
G1 X164.397 Y164.08 E0.02092
G1 X135.92 Y135.603 E1.41479
G1 X135.603 Y135.603 E0.01114
G1 X135.603 Y135.881 E0.00978
G1 X164.119 Y164.397 E1.4167
G1 X163.523 Y164.397 E0.02092
G1 X135.603 Y136.477 E1.38711
G1 X135.603 Y137.072 E0.02092
G1 X162.928 Y164.397 E1.35753
G1 X162.332 Y164.397 E0.02092
G1 X135.603 Y137.668 E1.32794
G1 X135.603 Y138.263 E0.02092
G1 X161.737 Y164.397 E1.29836
G1 X161.141 Y164.397 E0.02092
G1 X135.603 Y138.859 E1.26877
G1 X135.603 Y139.454 E0.02092
G1 X160.546 Y164.397 E1.23919
G1 X159.95 Y164.397 E0.02092
G1 X135.603 Y140.05 E1.2096
G1 X135.603 Y140.645 E0.02092
G1 X159.355 Y164.397 E1.18002
G1 X158.759 Y164.397 E0.02092
G1 X135.603 Y141.241 E1.15043
G1 X135.603 Y141.836 E0.02092
G1 X158.164 Y164.397 E1.12085
G1 X157.568 Y164.397 E0.02092
G1 X135.603 Y142.432 E1.09126
G1 X135.603 Y143.027 E0.02092
G1 X156.973 Y164.397 E1.06168
G1 X156.377 Y164.397 E0.02092
G1 X135.603 Y143.623 E1.03209
G1 X135.603 Y144.218 E0.02092
G1 X155.782 Y164.397 E1.00251
G1 X155.186 Y164.397 E0.02092
G1 X135.603 Y144.814 E0.97292
G1 X135.603 Y145.409 E0.02092
G1 X154.591 Y164.397 E0.94334
G1 X153.995 Y164.397 E0.02092
G1 X135.603 Y146.005 E0.91375
G1 X135.603 Y146.6 E0.02092
G1 X153.4 Y164.397 E0.88417
G1 X152.804 Y164.397 E0.02092
G1 X135.603 Y147.196 E0.85458
G1 X135.603 Y147.791 E0.02092
G1 X152.209 Y164.397 E0.825
G1 X151.613 Y164.397 E0.02092
G1 X135.603 Y148.387 E0.79541
G1 X135.603 Y148.982 E0.02092
G1 X151.018 Y164.397 E0.76583
G1 X150.422 Y164.397 E0.02092
G1 X135.603 Y149.578 E0.73625
G1 X135.603 Y150.173 E0.02092
G1 X149.827 Y164.397 E0.70666
G1 X149.231 Y164.397 E0.02092
G1 X135.603 Y150.769 E0.67708
G1 X135.603 Y151.364 E0.02092
G1 X148.636 Y164.397 E0.64749
G1 X148.04 Y164.397 E0.02092
G1 X135.603 Y151.96 E0.61791
G1 X135.603 Y152.555 E0.02092
G1 X147.445 Y164.397 E0.58832
G1 X146.849 Y164.397 E0.02092
G1 X135.603 Y153.151 E0.55874
G1 X135.603 Y153.746 E0.02092
G1 X146.254 Y164.397 E0.52915
G1 X145.658 Y164.397 E0.02092
G1 X135.603 Y154.342 E0.49957
G1 X135.603 Y154.937 E0.02092
G1 X145.063 Y164.397 E0.46998
G1 X144.467 Y164.397 E0.02092
G1 X135.603 Y155.533 E0.4404
G1 X135.603 Y156.128 E0.02092
G1 X143.872 Y164.397 E0.41081
G1 X143.276 Y164.397 E0.02092
G1 X135.603 Y156.724 E0.38123
G1 X135.603 Y157.319 E0.02092
G1 X142.681 Y164.397 E0.35164
G1 X142.085 Y164.397 E0.02092
G1 X135.603 Y157.915 E0.32206
G1 X135.603 Y158.51 E0.02092
G1 X141.49 Y164.397 E0.29247
G1 X140.894 Y164.397 E0.02092
G1 X135.603 Y159.106 E0.26289
G1 X135.603 Y159.701 E0.02092
G1 X140.299 Y164.397 E0.2333
G1 X139.703 Y164.397 E0.02092
G1 X135.603 Y160.297 E0.20372
G1 X135.603 Y160.892 E0.02092
G1 X139.108 Y164.397 E0.17413
G1 X138.512 Y164.397 E0.02092
G1 X135.603 Y161.488 E0.14455
G1 X135.603 Y162.083 E0.02092
G1 X137.917 Y164.397 E0.11496
G1 X137.321 Y164.397 E0.02092
G1 X135.603 Y162.679 E0.08538
G1 X135.603 Y163.274 E0.02092
G1 X136.726 Y164.397 E0.05579
G1 X136.13 Y164.397 E0.02092
G1 X135.422 Y163.689 E0.0352
; INIT stop printing object Shape-Box id:0 copy 0
M106 S84.15
;LAYER_CHANGE
;Z:0.4
;HEIGHT:0.2
;BEFORE_LAYER_CHANGE
;0.4


; stop printing object Shape-Box id:0 copy 0
M204 S1500
G1 Z0.4 F18000
;AFTER_LAYER_CHANGE
;0.4
M104 S205 ; set temperature
; INIT printing object Shape-Box id:0 copy 0
; printing object Shape-Box id:0 copy 0
G1 X135.2 Y163.689
;TYPE:External perimeter
;WIDTH:0.4
G1 F2400
G1 X135.2 Y135.2 E0.84586
G1 X164.8 Y135.2 E0.87886
G1 X164.8 Y164.8 E0.87886
G1 X135.2 Y164.8 E0.87886
G1 X135.2 Y163.749 E0.03122
;WIPE_START
G1 X135.546 Y163.489 F18000
;WIPE_END
G1 E-0.75 F3000
G1 Z0.8 F18000
G1 X163.827 Y164.678
G1 Z0.4
G1 E0.75 F1800
;TYPE:Solid infill
;WIDTH:0.465453
G1 F7200
G1 X164.497 Y164.008 E0.03329
G1 X164.497 Y163.413 E0.02092
G1 X163.413 Y164.497 E0.05387
G1 X162.817 Y164.497 E0.02092
G1 X164.497 Y162.817 E0.08345
G1 X164.497 Y162.222 E0.02092
G1 X162.222 Y164.497 E0.11303
G1 X161.626 Y164.497 E0.02092
G1 X164.497 Y161.626 E0.14261
G1 X164.497 Y161.031 E0.02092
G1 X161.031 Y164.497 E0.17219
G1 X160.435 Y164.497 E0.02092
G1 X164.497 Y160.435 E0.20177
G1 X164.497 Y159.84 E0.02092
G1 X159.84 Y164.497 E0.23134
G1 X159.244 Y164.497 E0.02092
G1 X164.497 Y159.244 E0.26092
G1 X164.497 Y158.649 E0.02092
G1 X158.649 Y164.497 E0.2905
G1 X158.053 Y164.497 E0.02092
G1 X164.497 Y158.053 E0.32008
G1 X164.497 Y157.458 E0.02092
G1 X157.458 Y164.497 E0.34966
G1 X156.862 Y164.497 E0.02092
G1 X164.497 Y156.862 E0.37924
G1 X164.497 Y156.267 E0.02092
G1 X156.267 Y164.497 E0.40882
G1 X155.671 Y164.497 E0.02092
G1 X164.497 Y155.671 E0.4384
G1 X164.497 Y155.076 E0.02092
G1 X155.076 Y164.497 E0.46797
G1 X154.48 Y164.497 E0.02092
G1 X164.497 Y154.48 E0.49755
G1 X164.497 Y153.885 E0.02092
G1 X153.885 Y164.497 E0.52713
G1 X153.289 Y164.497 E0.02092
G1 X164.497 Y153.289 E0.55671
G1 X164.497 Y152.694 E0.02092
G1 X152.694 Y164.497 E0.58629
G1 X152.098 Y164.497 E0.02092
G1 X164.497 Y152.098 E0.61587
G1 X164.497 Y151.503 E0.02092
G1 X151.503 Y164.497 E0.64545
G1 X150.907 Y164.497 E0.02092
G1 X164.497 Y150.907 E0.67503
G1 X164.497 Y150.312 E0.02092
G1 X150.312 Y164.497 E0.7046
G1 X149.716 Y164.497 E0.02092
G1 X164.497 Y149.716 E0.73418
G1 X164.497 Y149.121 E0.02092
G1 X149.121 Y164.497 E0.76376
G1 X148.525 Y164.497 E0.02092
G1 X164.497 Y148.525 E0.79334
G1 X164.497 Y147.93 E0.02092
G1 X147.93 Y164.497 E0.82292
G1 X147.334 Y164.497 E0.02092
G1 X164.497 Y147.334 E0.8525
G1 X164.497 Y146.739 E0.02092
G1 X146.739 Y164.497 E0.88208
G1 X146.143 Y164.497 E0.02092
G1 X164.497 Y146.143 E0.91166
G1 X164.497 Y145.548 E0.02092
G1 X145.548 Y164.497 E0.94123
G1 X144.952 Y164.497 E0.02092
G1 X164.497 Y144.952 E0.97081
G1 X164.497 Y144.357 E0.02092
G1 X144.357 Y164.497 E1.00039
G1 X143.761 Y164.497 E0.02092
G1 X164.497 Y143.761 E1.02997
G1 X164.497 Y143.166 E0.02092
G1 X143.166 Y164.497 E1.05955
G1 X142.57 Y164.497 E0.02092
G1 X164.497 Y142.57 E1.08913
G1 X164.497 Y141.975 E0.02092
G1 X141.975 Y164.497 E1.11871
G1 X141.379 Y164.497 E0.02092
G1 X164.497 Y141.379 E1.14829
G1 X164.497 Y140.784 E0.02092
G1 X140.784 Y164.497 E1.17786
G1 X140.188 Y164.497 E0.02092
G1 X164.497 Y140.188 E1.20744
G1 X164.497 Y139.593 E0.02092
G1 X139.593 Y164.497 E1.23702
G1 X138.997 Y164.497 E0.02092
G1 X164.497 Y138.997 E1.2666
G1 X164.497 Y138.402 E0.02092
G1 X138.402 Y164.497 E1.29618
G1 X137.806 Y164.497 E0.02092
G1 X164.497 Y137.806 E1.32576
G1 X164.497 Y137.211 E0.02092
G1 X137.211 Y164.497 E1.35534
G1 X136.615 Y164.497 E0.02092
G1 X164.497 Y136.615 E1.38492
G1 X164.497 Y136.02 E0.02092
G1 X136.02 Y164.497 E1.41449
G1 X135.503 Y164.497 E0.01816
G1 X135.503 Y164.419 E0.00276
G1 X164.419 Y135.503 E1.43627
G1 X163.823 Y135.503 E0.02092
G1 X135.503 Y163.823 E1.40669
G1 X135.503 Y163.228 E0.02092
G1 X163.228 Y135.503 E1.37712
G1 X162.632 Y135.503 E0.02092
G1 X135.503 Y162.632 E1.34754
G1 X135.503 Y162.037 E0.02092
G1 X162.037 Y135.503 E1.31796
G1 X161.441 Y135.503 E0.02092
G1 X135.503 Y161.441 E1.28838
G1 X135.503 Y160.846 E0.02092
G1 X160.846 Y135.503 E1.2588
G1 X160.25 Y135.503 E0.02092
G1 X135.503 Y160.25 E1.22922
G1 X135.503 Y159.655 E0.02092
G1 X159.655 Y135.503 E1.19964
G1 X159.059 Y135.503 E0.02092
G1 X135.503 Y159.059 E1.17006
G1 X135.503 Y158.464 E0.02092
G1 X158.464 Y135.503 E1.14049
G1 X157.868 Y135.503 E0.02092
G1 X135.503 Y157.868 E1.11091
G1 X135.503 Y157.273 E0.02092
G1 X157.273 Y135.503 E1.08133
G1 X156.677 Y135.503 E0.02092
G1 X135.503 Y156.677 E1.05175
G1 X135.503 Y156.082 E0.02092
G1 X156.082 Y135.503 E1.02217
G1 X155.486 Y135.503 E0.02092
G1 X135.503 Y155.486 E0.99259
G1 X135.503 Y154.891 E0.02092
G1 X154.891 Y135.503 E0.96301
G1 X154.295 Y135.503 E0.02092
G1 X135.503 Y154.295 E0.93343
G1 X135.503 Y153.7 E0.02092
G1 X153.7 Y135.503 E0.90386
G1 X153.104 Y135.503 E0.02092
G1 X135.503 Y153.104 E0.87428
G1 X135.503 Y152.509 E0.02092
G1 X152.509 Y135.503 E0.8447
G1 X151.913 Y135.503 E0.02092
G1 X135.503 Y151.913 E0.81512
G1 X135.503 Y151.318 E0.02092
G1 X151.318 Y135.503 E0.78554
G1 X150.722 Y135.503 E0.02092
G1 X135.503 Y150.722 E0.75596
G1 X135.503 Y150.127 E0.02092
G1 X150.127 Y135.503 E0.72638
G1 X149.531 Y135.503 E0.02092
G1 X135.503 Y149.531 E0.6968
G1 X135.503 Y148.936 E0.02092
G1 X148.936 Y135.503 E0.66723
G1 X148.34 Y135.503 E0.02092
