; generated by SuperSlicer 2.5.59 on 2022-09-13 at 00:38:40 UTC


;
;

;
;
; 

; external perimeters extrusion width = 0.40mm
; perimeters extrusion width = 0.40mm
; infill extrusion width = 0.50mm
; solid infill extrusion width = 0.56mm
; top infill extrusion width = 0.40mm
; first layer extrusion width = 0.80mm

; object:{"name":"Shape-Box","id":"Shape-Box id:0 copy 0","object_center":[150.000000,150.000000,0.000000],"boundingbox_center":[150.000000,150.000000,0.500000],"boundingbox_size":[70.710678,70.710678,1.000000]}
; plater:{"center":[150.000000,150.000000,0.000000],"boundingbox_center":[150.000000,150.000000,0.500000],"boundingbox_size":[70.710678,70.710678,1.000000]}

M73 P0 R7
;TYPE:Custom
; custom gcode: start_gcode
PRINT_START EXTRUDER=255 BED=110 AREA_START=110.359,110.359 AREA_END=189.641,189.641
; custom gcode end: start_gcode
M107
G21 ; set units to millimeters
G90 ; use absolute coordinates
M83 ; use relative distances for extrusion
; custom gcode: start_filament_gcode
; Filament gcode
SET_PRESSURE_ADVANCE ADVANCE=0.02
SET_PRESSURE_ADVANCE EXTRUDER=extruder SMOOTH_TIME=0.04
; custom gcode end: start_filament_gcode
;_TOOLCHANGE 0
M104 S255 ; set temperature
M109 S255 ; set temperature and wait for it to be reached
M190 S110 ; set bed temperature and wait for it to be reached
;LAYER_CHANGE
;Z:0.24
;HEIGHT:0.24
G1 Z0.24 F36000
G92 E0
M73 P4 R6
G1 E-0.5 F1800
M204 S2000
G1 X129.544 Y129.544 F36000
G1 E0.5 F1800
;TYPE:Skirt
;WIDTH:0.4
G1 F900
G1 X111.821 Y147.266 E0.80181
M73 P5 R6
G1 X110.72 Y149.513 E0.08004
G1 X110.897 Y151.251 E0.05589
G1 X111.821 Y152.734 E0.05589
G1 X147.266 Y188.179 E1.60363
M73 P6 R6
G1 X149.513 Y189.28 E0.08004
G1 X151.251 Y189.103 E0.05589
G1 X152.734 Y188.179 E0.05589
G1 X188.179 Y152.734 E1.60363
G1 X189.28 Y150.487 E0.08004
G1 X189.103 Y148.749 E0.05589
G1 X188.179 Y147.266 E0.05589
M73 P7 R6
G1 X152.734 Y111.821 E1.60363
G1 X150.487 Y110.72 E0.08004
G1 X148.749 Y110.897 E0.05589
G1 X147.266 Y111.821 E0.05589
G1 X129.544 Y129.544 E0.80181
M73 P8 R6
G1 X129.789 Y129.789 F36000
G1 F900
G1 X112.066 Y147.511 E0.80181
G1 X111.086 Y149.403 E0.06816
G1 X111.2 Y151.065 E0.0533
G1 X112.066 Y152.489 E0.0533
G1 X147.511 Y187.934 E1.60363
M73 P9 R6
G1 X149.403 Y188.914 E0.06816
G1 X151.065 Y188.8 E0.0533
G1 X152.489 Y187.934 E0.0533
G1 X187.934 Y152.489 E1.60363
M73 P10 R6
G1 X188.914 Y150.597 E0.06816
G1 X188.8 Y148.935 E0.0533
G1 X187.934 Y147.511 E0.0533
G1 X152.489 Y112.066 E1.60363
M73 P11 R6
G1 X150.597 Y111.086 E0.06816
G1 X148.935 Y111.2 E0.0533
G1 X147.511 Y112.066 E0.0533
G1 X129.789 Y129.789 E0.80181
G1 X130.034 Y130.034 F36000
G1 F900
G1 X112.311 Y147.756 E0.80181
M73 P12 R6
G1 X111.459 Y149.303 E0.05649
G1 X111.507 Y150.883 E0.05057
G1 X112.311 Y152.244 E0.05057
G1 X147.756 Y187.689 E1.60363
G1 X149.303 Y188.541 E0.05649
G1 X150.883 Y188.493 E0.05057
M73 P13 R6
G1 X152.244 Y187.689 E0.05057
G1 X187.689 Y152.244 E1.60363
G1 X188.541 Y150.697 E0.05649
G1 X188.493 Y149.117 E0.05057
G1 X187.689 Y147.756 E0.05057
G1 X152.244 Y112.311 E1.60363
M73 P14 R6
G1 X150.697 Y111.459 E0.05649
G1 X149.117 Y111.507 E0.05057
G1 X147.756 Y112.311 E0.05057
G1 X130.034 Y130.034 E0.80181
M73 P15 R6
G1 E-0.5 F1800
; printing object Shape-Box id:0 copy 0
; acceleration to travel
M204 S10000
G1 X146.672 Y173.092 F36000
; decel to extrusion
M204 S2000
G1 X150 Y181.704
; end travel
G1 E0.5 F1800
;TYPE:Internal perimeter
;WIDTH:0.748495
G1 F900
G1 X118.296 Y150 E2.86872
G1 X150 Y118.296 E2.86872
M73 P16 R6
G1 X181.704 Y150 E2.86872
M73 P17 R5
G1 X165.852 Y165.852 E1.43436
G1 X150 Y181.704 E1.43436
G1 X150 Y182.762 F36000
G1 F900
G1 X117.238 Y150 E2.9645
M73 P18 R5
G1 X150 Y117.238 E2.9645
M73 P19 R5
G1 X182.762 Y150 E2.9645
M73 P20 R5
G1 X166.381 Y166.381 E1.48225
G1 X150 Y182.762 E1.48225
G1 X150 Y183.821 F36000
G1 F900
G1 X116.179 Y150 E3.06028
M73 P21 R5
G1 X150 Y116.179 E3.06028
M73 P22 R5
G1 X183.821 Y150 E3.06028
M73 P23 R5
G1 X166.911 Y166.911 E1.53014
G1 X150 Y183.821 E1.53014
M204 S1500
G1 X150 Y184.88 F36000
;TYPE:External perimeter
G1 F900
G1 X115.12 Y150 E3.15606
M73 P24 R5
G1 X150 Y115.12 E3.15606
M73 P25 R5
G1 X184.88 Y150 E3.15606
M73 P26 R5
G1 X167.44 Y167.44 E1.57803
G1 X150 Y184.88 E1.57803
;WIPE_START
M204 S5000
G1 X149.896 Y184.493 F36000
;WIPE_END
G1 E-0.5 F1800
; acceleration to travel
M204 S10000
G1 X150.874 Y130.37 F36000
; decel to extrusion
M204 S2000
G1 X151.07 Y119.525
; end travel
G1 E0.5 F1800
;TYPE:Solid infill
;WIDTH:0.799236
G1 X149.385 Y119.525 E0.11564
G1 X148.637 Y120.273 E0.07266
G1 X151.363 Y120.273 E0.18715
G1 X152.112 Y121.022 E0.07266
M73 P27 R5
G1 X147.888 Y121.022 E0.28991
G1 X147.14 Y121.77 E0.07266
G1 X152.86 Y121.77 E0.39267
G1 X153.609 Y122.519 E0.07266
G1 X146.391 Y122.519 E0.49543
G1 X145.643 Y123.267 E0.07266
G1 X154.357 Y123.267 E0.59819
G1 X155.106 Y124.016 E0.07266
G1 X144.894 Y124.016 E0.70095
G1 X144.146 Y124.764 E0.07266
G1 X155.854 Y124.764 E0.80372
G1 X156.603 Y125.513 E0.07266
G1 X143.397 Y125.513 E0.90648
G1 X142.649 Y126.261 E0.07266
G1 X157.351 Y126.261 E1.00924
G1 X158.1 Y127.01 E0.07266
G1 X141.9 Y127.01 E1.112
G1 X141.152 Y127.758 E0.07266
G1 X158.848 Y127.758 E1.21476
G1 X159.597 Y128.507 E0.07266
G1 X140.403 Y128.507 E1.31752
M73 P28 R5
G1 X139.655 Y129.255 E0.07266
G1 X160.345 Y129.255 E1.42028
G1 X161.094 Y130.004 E0.07266
G1 X138.906 Y130.004 E1.52304
G1 X138.158 Y130.752 E0.07266
G1 X161.842 Y130.752 E1.6258
G1 X162.591 Y131.501 E0.07266
G1 X137.409 Y131.501 E1.72856
G1 X136.661 Y132.249 E0.07266
G1 X163.339 Y132.249 E1.83132
M73 P29 R5
G1 X164.088 Y132.998 E0.07266
G1 X135.912 Y132.998 E1.93408
G1 X135.164 Y133.746 E0.07266
G1 X164.836 Y133.746 E2.03684
G1 X165.585 Y134.495 E0.07266
G1 X134.415 Y134.495 E2.1396
G1 X133.667 Y135.243 E0.07266
G1 X166.333 Y135.243 E2.24236
M73 P30 R5
G1 X167.082 Y135.992 E0.07266
G1 X132.918 Y135.992 E2.34512
G1 X132.17 Y136.74 E0.07266
G1 X167.83 Y136.74 E2.44788
M73 P30 R4
G1 X168.579 Y137.489 E0.07266
G1 X131.421 Y137.489 E2.55064
G1 X130.673 Y138.237 E0.07266
G1 X169.327 Y138.237 E2.6534
M73 P31 R4
G1 X170.076 Y138.986 E0.07266
G1 X129.924 Y138.986 E2.75616
G1 X129.176 Y139.734 E0.07266
G1 X170.824 Y139.734 E2.85893
G1 X171.573 Y140.483 E0.07266
G1 X128.427 Y140.483 E2.96169
M73 P32 R4
G1 X127.679 Y141.231 E0.07266
G1 X172.321 Y141.231 E3.06445
G1 X173.07 Y141.98 E0.07266
G1 X126.93 Y141.98 E3.16721
G1 X126.182 Y142.728 E0.07266
G1 X173.818 Y142.728 E3.26997
M73 P33 R4
G1 X174.567 Y143.477 E0.07266
G1 X125.433 Y143.477 E3.37273
G1 X124.685 Y144.225 E0.07266
G1 X175.315 Y144.225 E3.47549
M73 P34 R4
G1 X176.064 Y144.974 E0.07266
G1 X123.936 Y144.973 E3.57825
G1 X123.188 Y145.722 E0.07266
G1 X176.812 Y145.722 E3.68101
G1 X177.561 Y146.47 E0.07266
G1 X122.439 Y146.47 E3.78377
M73 P35 R4
G1 X121.691 Y147.219 E0.07266
G1 X178.309 Y147.219 E3.88653
G1 X179.058 Y147.967 E0.07266
G1 X120.942 Y147.967 E3.98929
M73 P36 R4
G1 X120.194 Y148.716 E0.07266
G1 X179.806 Y148.716 E4.09205
G1 X180.554 Y149.464 E0.07266
G1 X119.446 Y149.464 E4.19481
M73 P37 R4
G1 X118.91 Y150 E0.05199
G1 X119.123 Y150.213 E0.02067
G1 X180.877 Y150.213 E4.2391
G1 X180.129 Y150.961 E0.07266
G1 X119.871 Y150.961 E4.13634
M73 P38 R4
G1 X120.62 Y151.71 E0.07266
G1 X179.38 Y151.71 E4.03358
G1 X178.632 Y152.458 E0.07266
G1 X121.368 Y152.458 E3.93082
M73 P39 R4
G1 X122.117 Y153.207 E0.07266
G1 X177.883 Y153.207 E3.82805
G1 X177.135 Y153.955 E0.07266
G1 X122.865 Y153.955 E3.72529
M73 P40 R4
G1 X123.614 Y154.704 E0.07266
G1 X176.386 Y154.704 E3.62253
G1 X175.638 Y155.452 E0.07266
G1 X124.362 Y155.452 E3.51977
G1 X125.111 Y156.201 E0.07266
G1 X174.889 Y156.201 E3.41701
M73 P41 R4
G1 X174.141 Y156.949 E0.07266
G1 X125.859 Y156.949 E3.31425
G1 X126.608 Y157.698 E0.07266
G1 X173.392 Y157.698 E3.21149
G1 X172.644 Y158.446 E0.07266
M73 P42 R4
G1 X127.356 Y158.446 E3.10873
G1 X128.105 Y159.195 E0.07266
G1 X171.895 Y159.195 E3.00597
G1 X171.147 Y159.943 E0.07266
G1 X128.853 Y159.943 E2.90321
M73 P43 R4
G1 X129.602 Y160.692 E0.07266
G1 X170.398 Y160.692 E2.80045
G1 X169.65 Y161.44 E0.07266
G1 X130.35 Y161.44 E2.69769
G1 X131.099 Y162.189 E0.07266
G1 X168.901 Y162.189 E2.59493
G1 X168.153 Y162.937 E0.07266
G1 X131.847 Y162.937 E2.49217
M73 P44 R4
G1 X132.596 Y163.686 E0.07266
G1 X167.404 Y163.686 E2.38941
M73 P44 R3
G1 X166.656 Y164.434 E0.07266
G1 X133.344 Y164.434 E2.28665
G1 X134.093 Y165.183 E0.07266
G1 X165.907 Y165.183 E2.18389
M73 P45 R3
G1 X165.159 Y165.931 E0.07266
G1 X134.841 Y165.931 E2.08113
G1 X135.59 Y166.68 E0.07266
G1 X164.41 Y166.68 E1.97837
G1 X163.662 Y167.428 E0.07266
G1 X136.338 Y167.428 E1.8756
G1 X137.087 Y168.177 E0.07266
G1 X162.913 Y168.177 E1.77284
G1 X162.165 Y168.925 E0.07266
G1 X137.835 Y168.925 E1.67008
M73 P46 R3
G1 X138.584 Y169.674 E0.07266
G1 X161.416 Y169.674 E1.56732
G1 X160.668 Y170.422 E0.07266
G1 X139.332 Y170.422 E1.46456
G1 X140.081 Y171.171 E0.07266
G1 X159.919 Y171.171 E1.3618
G1 X159.171 Y171.919 E0.07266
G1 X140.829 Y171.919 E1.25904
G1 X141.578 Y172.668 E0.07266
G1 X158.422 Y172.668 E1.15628
M73 P47 R3
G1 X157.674 Y173.416 E0.07266
G1 X142.326 Y173.416 E1.05352
G1 X143.075 Y174.165 E0.07266
G1 X156.925 Y174.165 E0.95076
G1 X156.177 Y174.913 E0.07266
G1 X143.823 Y174.913 E0.848
G1 X144.572 Y175.662 E0.07266
G1 X155.428 Y175.662 E0.74524
G1 X154.68 Y176.41 E0.07266
G1 X145.32 Y176.41 E0.64248
G1 X146.069 Y177.159 E0.07266
G1 X153.931 Y177.159 E0.53972
G1 X153.183 Y177.907 E0.07266
G1 X146.817 Y177.907 E0.43696
G1 X147.566 Y178.656 E0.07266
G1 X152.434 Y178.656 E0.3342
G1 X151.686 Y179.404 E0.07266
G1 X148.314 Y179.404 E0.23144
G1 X149.063 Y180.153 E0.07266
G1 X150.937 Y180.153 E0.12868
G1 X150.189 Y180.901 E0.07266
G1 X149.356 Y180.901 E0.05716
;LAYER_CHANGE
;Z:0.44
;HEIGHT:0.2
; stop printing object Shape-Box id:0 copy 0
M204 S5000
G1 Z0.44 F36000
G92 E0
M104 S250 ; set temperature
; printing object Shape-Box id:0 copy 0
M204 S2500
G1 X150 Y183.695
;TYPE:Internal perimeter
;WIDTH:0.357079
G1 F10800
G1 X116.305 Y150 E1.14519
G1 X150 Y116.305 E1.14519
G1 X183.695 Y150 E1.14519
M73 P48 R3
G1 X166.847 Y166.847 E0.57259
G1 X150 Y183.695 E0.57259
G1 X150 Y184.2 F36000
G1 F10800
G1 X115.8 Y150 E1.16235
G1 X150 Y115.8 E1.16235
G1 X184.2 Y150 E1.16235
G1 X167.1 Y167.1 E0.58117
G1 X150 Y184.2 E0.58117
G1 X150 Y184.705 F36000
G1 F10800
G1 X115.295 Y150 E1.17951
G1 X150 Y115.295 E1.17951
G1 X184.705 Y150 E1.17951
G1 X167.352 Y167.352 E0.58976
G1 X150 Y184.705 E0.58976
M204 S1500
G1 X150 Y185.21 F36000
;TYPE:External perimeter
G1 F4800
M106 S191.25
G1 X114.79 Y150 E1.19667
G1 X150 Y114.79 E1.19667
M73 P49 R3
G1 X185.21 Y150 E1.19667
G1 X167.605 Y167.605 E0.59834
G1 X150 Y185.21 E0.59834
M107
;WIPE_START
M204 S5000
G1 X149.896 Y184.823 F36000
;WIPE_END
; acceleration to travel
M204 S10000
G1 X170.405 Y162.704
; decel to extrusion
M204 S5500
G1 X182.868 Y149.261
; end travel
;TYPE:Solid infill
;WIDTH:0.559684
G1 F12000
G1 X182.868 Y150.425 E0.04601
G1 X182.351 Y150.942 E0.02891
G1 X182.351 Y149.058 E0.07446
G1 X181.834 Y148.541 E0.02891
G1 X181.834 Y151.459 E0.11534
G1 X181.317 Y151.976 E0.02891
G1 X181.317 Y148.024 E0.15623
G1 X180.8 Y147.507 E0.02891
G1 X180.8 Y152.493 E0.19711
G1 X180.283 Y153.01 E0.02891
G1 X180.283 Y146.99 E0.238
G1 X179.766 Y146.473 E0.02891
G1 X179.766 Y153.527 E0.27888
G1 X179.249 Y154.044 E0.02891
G1 X179.249 Y145.956 E0.31976
G1 X178.732 Y145.439 E0.02891
G1 X178.732 Y154.561 E0.36065
G1 X178.215 Y155.078 E0.02891
G1 X178.215 Y144.922 E0.40153
G1 X177.698 Y144.405 E0.02891
G1 X177.698 Y155.595 E0.44241
G1 X177.181 Y156.113 E0.02891
G1 X177.181 Y143.887 E0.4833
G1 X176.663 Y143.37 E0.02891
G1 X176.663 Y156.63 E0.52418
G1 X176.146 Y157.147 E0.02891
G1 X176.146 Y142.853 E0.56507
G1 X175.629 Y142.336 E0.02891
G1 X175.629 Y157.664 E0.60595
G1 X175.112 Y158.181 E0.02891
G1 X175.112 Y141.819 E0.64683
G1 X174.595 Y141.302 E0.02891
G1 X174.595 Y158.698 E0.68772
G1 X174.078 Y159.215 E0.02891
G1 X174.078 Y140.785 E0.7286
G1 X173.561 Y140.268 E0.02891
G1 X173.561 Y159.732 E0.76948
G1 X173.044 Y160.249 E0.02891
G1 X173.044 Y139.751 E0.81037
G1 X172.527 Y139.234 E0.02891
G1 X172.527 Y160.766 E0.85125
G1 X172.01 Y161.283 E0.02891
G1 X172.01 Y138.717 E0.89214
G1 X171.493 Y138.2 E0.02891
G1 X171.493 Y161.8 E0.93302
G1 X170.976 Y162.317 E0.02891
M73 P50 R3
G1 X170.976 Y137.683 E0.9739
G1 X170.459 Y137.165 E0.02891
G1 X170.459 Y162.835 E1.01479
G1 X169.941 Y163.352 E0.02891
G1 X169.941 Y136.648 E1.05567
G1 X169.424 Y136.131 E0.02891
G1 X169.424 Y163.869 E1.09655
G1 X168.907 Y164.386 E0.02891
G1 X168.907 Y135.614 E1.13744
G1 X168.39 Y135.097 E0.02891
G1 X168.39 Y164.903 E1.17832
G1 X167.873 Y165.42 E0.02891
G1 X167.873 Y134.58 E1.21921
G1 X167.356 Y134.063 E0.02891
G1 X167.356 Y165.937 E1.26009
G1 X166.839 Y166.454 E0.02891
G1 X166.839 Y133.546 E1.30097
G1 X166.322 Y133.029 E0.02891
G1 X166.322 Y166.971 E1.34186
G1 X165.805 Y167.488 E0.02891
G1 X165.805 Y132.512 E1.38274
G1 X165.288 Y131.995 E0.02891
G1 X165.288 Y168.005 E1.42363
G1 X164.771 Y168.522 E0.02891
G1 X164.771 Y131.478 E1.46451
G1 X164.254 Y130.96 E0.02891
G1 X164.254 Y169.04 E1.50539
G1 X163.736 Y169.557 E0.02891
G1 X163.736 Y130.443 E1.54628
G1 X163.219 Y129.926 E0.02891
G1 X163.219 Y170.074 E1.58716
G1 X162.702 Y170.591 E0.02891
G1 X162.702 Y129.409 E1.62804
G1 X162.185 Y128.892 E0.02891
G1 X162.185 Y171.108 E1.66893
G1 X161.668 Y171.625 E0.02891
G1 X161.668 Y128.375 E1.70981
G1 X161.151 Y127.858 E0.02891
G1 X161.151 Y172.142 E1.7507
M73 P51 R3
G1 X160.634 Y172.659 E0.02891
G1 X160.634 Y127.341 E1.79158
G1 X160.117 Y126.824 E0.02891
G1 X160.117 Y173.176 E1.83246
G1 X159.6 Y173.693 E0.02891
G1 X159.6 Y126.307 E1.87335
G1 X159.083 Y125.79 E0.02891
G1 X159.083 Y174.21 E1.91423
G1 X158.566 Y174.727 E0.02891
G1 X158.566 Y125.273 E1.95511
G1 X158.049 Y124.756 E0.02891
G1 X158.049 Y175.244 E1.996
G1 X157.532 Y175.762 E0.02891
G1 X157.532 Y124.238 E2.03688
G1 X157.014 Y123.721 E0.02891
G1 X157.014 Y176.279 E2.07777
G1 X156.497 Y176.796 E0.02891
G1 X156.497 Y123.204 E2.11865
G1 X155.98 Y122.687 E0.02891
G1 X155.98 Y177.313 E2.15953
G1 X155.463 Y177.83 E0.02891
G1 X155.463 Y122.17 E2.20042
G1 X154.946 Y121.653 E0.02891
G1 X154.946 Y178.347 E2.2413
G1 X154.429 Y178.864 E0.02891
G1 X154.429 Y121.136 E2.28218
G1 X153.912 Y120.619 E0.02891
G1 X153.912 Y179.381 E2.32307
M73 P52 R3
G1 X153.395 Y179.898 E0.02891
G1 X153.395 Y120.102 E2.36395
G1 X152.878 Y119.585 E0.02891
G1 X152.878 Y180.415 E2.40484
G1 X152.361 Y180.932 E0.02891
G1 X152.361 Y119.068 E2.44572
G1 X151.844 Y118.551 E0.02891
G1 X151.844 Y181.449 E2.4866
G1 X151.327 Y181.966 E0.02891
G1 X151.327 Y118.034 E2.52749
G1 X150.81 Y117.516 E0.02891
G1 X150.81 Y182.484 E2.56837
G1 X150.292 Y183.001 E0.02891
G1 X150.292 Y116.999 E2.60925
G1 X150 Y116.707 E0.01635
G1 X149.775 Y116.932 E0.01256
G1 X149.775 Y183.068 E2.61461
G1 X149.258 Y182.551 E0.02891
G1 X149.258 Y117.449 E2.57373
G1 X148.741 Y117.966 E0.02891
G1 X148.741 Y182.034 E2.53285
G1 X148.224 Y181.517 E0.02891
G1 X148.224 Y118.483 E2.49196
G1 X147.707 Y119 E0.02891
G1 X147.707 Y181 E2.45108
M73 P53 R3
G1 X147.19 Y180.483 E0.02891
G1 X147.19 Y119.517 E2.4102
G1 X146.673 Y120.034 E0.02891
G1 X146.673 Y179.966 E2.36931
G1 X146.156 Y179.449 E0.02891
G1 X146.156 Y120.551 E2.32843
G1 X145.639 Y121.068 E0.02891
G1 X145.639 Y178.932 E2.28754
G1 X145.122 Y178.415 E0.02891
G1 X145.122 Y121.585 E2.24666
G1 X144.605 Y122.102 E0.02891
G1 X144.605 Y177.898 E2.20578
G1 X144.087 Y177.381 E0.02891
G1 X144.087 Y122.619 E2.16489
G1 X143.57 Y123.137 E0.02891
G1 X143.57 Y176.863 E2.12401
G1 X143.053 Y176.346 E0.02891
G1 X143.053 Y123.654 E2.08313
G1 X142.536 Y124.171 E0.02891
G1 X142.536 Y175.829 E2.04224
G1 X142.019 Y175.312 E0.02891
G1 X142.019 Y124.688 E2.00136
G1 X141.502 Y125.205 E0.02891
G1 X141.502 Y174.795 E1.96047
G1 X140.985 Y174.278 E0.02891
G1 X140.985 Y125.722 E1.91959
M73 P54 R3
G1 X140.468 Y126.239 E0.02891
G1 X140.468 Y173.761 E1.87871
G1 X139.951 Y173.244 E0.02891
G1 X139.951 Y126.756 E1.83782
G1 X139.434 Y127.273 E0.02891
G1 X139.434 Y172.727 E1.79694
G1 X138.917 Y172.21 E0.02891
G1 X138.917 Y127.79 E1.75606
