; generated by SuperSlicer 2.4 on 2022-06-20 at 07:16:52 UTC


;
;

;
;
; 

; external perimeters extrusion width = 0.40mm
; perimeters extrusion width = 0.48mm
; infill extrusion width = 0.60mm
; solid infill extrusion width = 0.56mm
; top infill extrusion width = 0.40mm
; first layer extrusion width = 0.48mm

; object:{"name":"Shape-Box","id":"Shape-Box id:0 copy 0","object_center":[150.000000,150.000000,0.000000],"boundingbox_center":[150.000000,150.000000,0.500000],"boundingbox_size":[75.000000,75.000000,1.000000]}
; plater:{"center":[150.000000,150.000000,0.000000],"boundingbox_center":[150.000000,150.000000,0.500000],"boundingbox_size":[75.000000,75.000000,1.000000]}

;TYPE:Custom
print_start EXTRUDER=255 BED=110 CHAMBER=50
M107
G21 ; set units to millimeters
G90 ; use absolute coordinates
M83 ; use relative distances for extrusion
; Filament gcode
SET_PRESSURE_ADVANCE ADVANCE=0.06
M104 S255 ; set temperature
M109 S255 ; set temperature and wait for it to be reached
M190 S110 ; set bed temperature and wait for it to be reached
M107
;LAYER_CHANGE
;Z:0.25
;HEIGHT:0.25
;BEFORE_LAYER_CHANGE
;0.25
TIMELAPSE_TAKE_FRAME


G1 Z0.25 F36000
;AFTER_LAYER_CHANGE
;0.25
G92 E0
; INIT printing object Shape-Box id:0 copy 0
G1 E-0.8 F3600
M204 S1500
G1 Z0.65 F36000
; printing object Shape-Box id:0 copy 0
G1 X113.968 Y113.968
G1 Z0.25
G1 E0.8 F1800
;TYPE:Internal perimeter
;WIDTH:0.48
G1 F900
G1 X186.032 Y113.968 E2.98263
G1 X186.032 Y186.032 E2.98263
G1 X113.968 Y186.032 E2.98263
G1 X113.968 Y114.028 E2.98015
G1 X113.542 Y113.542 F36000
G1 F900
G1 X186.458 Y113.542 E3.01792
G1 X186.458 Y186.458 E3.01792
G1 X113.542 Y186.458 E3.01792
G1 X113.542 Y113.602 E3.01544
G1 X113.116 Y113.116 F36000
G1 F900
G1 X186.884 Y113.116 E3.05322
G1 X186.884 Y186.884 E3.05322
G1 X113.116 Y186.884 E3.05322
G1 X113.116 Y113.176 E3.05073
M204 S1000
G1 X112.689 Y112.689 F36000
;TYPE:External perimeter
G1 F900
G1 X187.311 Y112.689 E3.08851
G1 X187.311 Y187.311 E3.08851
G1 X112.689 Y187.311 E3.08851
G1 X112.689 Y112.749 E3.08603
;WIPE_START
M204 S1500
G1 X113.036 Y112.889 F36000
;WIPE_END
G1 X185.106 Y114.032
;TYPE:Solid infill
;WIDTH:0.478109
G1 F1200
G1 X185.784 Y114.711 E0.03956
G1 X185.784 Y115.314 E0.02486
G1 X184.686 Y114.216 E0.06402
G1 X184.083 Y114.216 E0.02486
G1 X185.784 Y115.917 E0.09918
G1 X185.784 Y116.52 E0.02486
G1 X183.48 Y114.216 E0.13433
G1 X182.877 Y114.216 E0.02486
G1 X185.784 Y117.123 E0.16949
G1 X185.784 Y117.726 E0.02486
G1 X182.274 Y114.216 E0.20464
G1 X181.671 Y114.216 E0.02486
G1 X185.784 Y118.329 E0.23979
G1 X185.784 Y118.932 E0.02486
G1 X181.068 Y114.216 E0.27495
G1 X180.466 Y114.216 E0.02486
G1 X185.784 Y119.534 E0.3101
G1 X185.784 Y120.137 E0.02486
G1 X179.863 Y114.216 E0.34525
G1 X179.26 Y114.216 E0.02486
G1 X185.784 Y120.74 E0.38041
G1 X185.784 Y121.343 E0.02486
G1 X178.657 Y114.216 E0.41556
G1 X178.054 Y114.216 E0.02486
G1 X185.784 Y121.946 E0.45071
G1 X185.784 Y122.549 E0.02486
G1 X177.451 Y114.216 E0.48587
G1 X176.848 Y114.216 E0.02486
G1 X185.784 Y123.152 E0.52102
G1 X185.784 Y123.755 E0.02486
G1 X176.245 Y114.216 E0.55617
G1 X175.642 Y114.216 E0.02486
G1 X185.784 Y124.358 E0.59133
G1 X185.784 Y124.961 E0.02486
G1 X175.039 Y114.216 E0.62648
G1 X174.436 Y114.216 E0.02486
G1 X185.784 Y125.564 E0.66163
G1 X185.784 Y126.167 E0.02486
G1 X173.833 Y114.216 E0.69679
G1 X173.23 Y114.216 E0.02486
G1 X185.784 Y126.77 E0.73194
G1 X185.784 Y127.373 E0.02486
G1 X172.627 Y114.216 E0.76709
G1 X172.024 Y114.216 E0.02486
G1 X185.784 Y127.976 E0.80225
G1 X185.784 Y128.579 E0.02486
G1 X171.421 Y114.216 E0.8374
G1 X170.818 Y114.216 E0.02486
G1 X185.784 Y129.182 E0.87255
G1 X185.784 Y129.785 E0.02486
G1 X170.215 Y114.216 E0.90771
G1 X169.612 Y114.216 E0.02486
G1 X185.784 Y130.388 E0.94286
G1 X185.784 Y130.991 E0.02486
G1 X169.009 Y114.216 E0.97801
G1 X168.407 Y114.216 E0.02486
G1 X185.784 Y131.593 E1.01317
G1 X185.784 Y132.196 E0.02486
G1 X167.804 Y114.216 E1.04832
G1 X167.201 Y114.216 E0.02486
G1 X185.784 Y132.799 E1.08347
G1 X185.784 Y133.402 E0.02486
G1 X166.598 Y114.216 E1.11863
G1 X165.995 Y114.216 E0.02486
G1 X185.784 Y134.005 E1.15378
G1 X185.784 Y134.608 E0.02486
G1 X165.392 Y114.216 E1.18893
G1 X164.789 Y114.216 E0.02486
G1 X185.784 Y135.211 E1.22409
G1 X185.784 Y135.814 E0.02486
G1 X164.186 Y114.216 E1.25924
G1 X163.583 Y114.216 E0.02486
G1 X185.784 Y136.417 E1.29439
G1 X185.784 Y137.02 E0.02486
G1 X162.98 Y114.216 E1.32955
G1 X162.377 Y114.216 E0.02486
G1 X185.784 Y137.623 E1.3647
G1 X185.784 Y138.226 E0.02486
G1 X161.774 Y114.216 E1.39986
G1 X161.171 Y114.216 E0.02486
G1 X185.784 Y138.829 E1.43501
G1 X185.784 Y139.432 E0.02486
G1 X160.568 Y114.216 E1.47016
G1 X159.965 Y114.216 E0.02486
G1 X185.784 Y140.035 E1.50532
G1 X185.784 Y140.638 E0.02486
G1 X159.362 Y114.216 E1.54047
G1 X158.759 Y114.216 E0.02486
G1 X185.784 Y141.241 E1.57562
G1 X185.784 Y141.844 E0.02486
G1 X158.156 Y114.216 E1.61078
G1 X157.553 Y114.216 E0.02486
G1 X185.784 Y142.447 E1.64593
G1 X185.784 Y143.049 E0.02486
G1 X156.951 Y114.216 E1.68108
G1 X156.348 Y114.216 E0.02486
G1 X185.784 Y143.652 E1.71624
G1 X185.784 Y144.255 E0.02486
G1 X155.745 Y114.216 E1.75139
G1 X155.142 Y114.216 E0.02486
G1 X185.784 Y144.858 E1.78654
G1 X185.784 Y145.461 E0.02486
G1 X154.539 Y114.216 E1.8217
G1 X153.936 Y114.216 E0.02486
G1 X185.784 Y146.064 E1.85685
G1 X185.784 Y146.667 E0.02486
G1 X153.333 Y114.216 E1.892
G1 X152.73 Y114.216 E0.02486
G1 X185.784 Y147.27 E1.92716
G1 X185.784 Y147.873 E0.02486
G1 X152.127 Y114.216 E1.96231
G1 X151.524 Y114.216 E0.02486
G1 X185.784 Y148.476 E1.99746
G1 X185.784 Y149.079 E0.02486
G1 X150.921 Y114.216 E2.03262
G1 X150.318 Y114.216 E0.02486
G1 X185.784 Y149.682 E2.06777
G1 X185.784 Y150.285 E0.02486
G1 X149.715 Y114.216 E2.10292
G1 X149.112 Y114.216 E0.02486
G1 X185.784 Y150.888 E2.13808
G1 X185.784 Y151.491 E0.02486
G1 X148.509 Y114.216 E2.17323
G1 X147.906 Y114.216 E0.02486
G1 X185.784 Y152.094 E2.20838
G1 X185.784 Y152.697 E0.02486
G1 X147.303 Y114.216 E2.24354
G1 X146.7 Y114.216 E0.02486
G1 X185.784 Y153.3 E2.27869
G1 X185.784 Y153.903 E0.02486
G1 X146.097 Y114.216 E2.31384
G1 X145.494 Y114.216 E0.02486
G1 X185.784 Y154.506 E2.349
G1 X185.784 Y155.108 E0.02486
G1 X144.892 Y114.216 E2.38415
G1 X144.289 Y114.216 E0.02486
G1 X185.784 Y155.711 E2.4193
G1 X185.784 Y156.314 E0.02486
G1 X143.686 Y114.216 E2.45446
G1 X143.083 Y114.216 E0.02486
G1 X185.784 Y156.917 E2.48961
G1 X185.784 Y157.52 E0.02486
G1 X142.48 Y114.216 E2.52477
G1 X141.877 Y114.216 E0.02486
G1 X185.784 Y158.123 E2.55992
G1 X185.784 Y158.726 E0.02486
G1 X141.274 Y114.216 E2.59507
G1 X140.671 Y114.216 E0.02486
G1 X185.784 Y159.329 E2.63023
G1 X185.784 Y159.932 E0.02486
G1 X140.068 Y114.216 E2.66538
G1 X139.465 Y114.216 E0.02486
G1 X185.784 Y160.535 E2.70053
G1 X185.784 Y161.138 E0.02486
G1 X138.862 Y114.216 E2.73569
G1 X138.259 Y114.216 E0.02486
G1 X185.784 Y161.741 E2.77084
G1 X185.784 Y162.344 E0.02486
G1 X137.656 Y114.216 E2.80599
G1 X137.053 Y114.216 E0.02486
G1 X185.784 Y162.947 E2.84115
G1 X185.784 Y163.55 E0.02486
G1 X136.45 Y114.216 E2.8763
G1 X135.847 Y114.216 E0.02486
G1 X185.784 Y164.153 E2.91145
G1 X185.784 Y164.756 E0.02486
G1 X135.244 Y114.216 E2.94661
G1 X134.641 Y114.216 E0.02486
G1 X185.784 Y165.359 E2.98176
G1 X185.784 Y165.962 E0.02486
G1 X134.038 Y114.216 E3.01691
G1 X133.436 Y114.216 E0.02486
G1 X185.784 Y166.564 E3.05207
G1 X185.784 Y167.167 E0.02486
G1 X132.833 Y114.216 E3.08722
G1 X132.23 Y114.216 E0.02486
G1 X185.784 Y167.77 E3.12237
G1 X185.784 Y168.373 E0.02486
G1 X131.627 Y114.216 E3.15753
G1 X131.024 Y114.216 E0.02486
G1 X185.784 Y168.976 E3.19268
G1 X185.784 Y169.579 E0.02486
G1 X130.421 Y114.216 E3.22783
G1 X129.818 Y114.216 E0.02486
G1 X185.784 Y170.182 E3.26299
G1 X185.784 Y170.785 E0.02486
G1 X129.215 Y114.216 E3.29814
G1 X128.612 Y114.216 E0.02486
G1 X185.784 Y171.388 E3.33329
G1 X185.784 Y171.991 E0.02486
G1 X128.009 Y114.216 E3.36845
G1 X127.406 Y114.216 E0.02486
G1 X185.784 Y172.594 E3.4036
G1 X185.784 Y173.197 E0.02486
G1 X126.803 Y114.216 E3.43875
G1 X126.2 Y114.216 E0.02486
G1 X185.784 Y173.8 E3.47391
G1 X185.784 Y174.403 E0.02486
G1 X125.597 Y114.216 E3.50906
G1 X124.994 Y114.216 E0.02486
G1 X185.784 Y175.006 E3.54421
G1 X185.784 Y175.609 E0.02486
G1 X124.391 Y114.216 E3.57937
G1 X123.788 Y114.216 E0.02486
G1 X185.784 Y176.212 E3.61452
G1 X185.784 Y176.815 E0.02486
G1 X123.185 Y114.216 E3.64967
G1 X122.582 Y114.216 E0.02486
G1 X185.784 Y177.418 E3.68483
G1 X185.784 Y178.021 E0.02486
G1 X121.98 Y114.216 E3.71998
G1 X121.377 Y114.216 E0.02486
G1 X185.784 Y178.623 E3.75514
G1 X185.784 Y179.226 E0.02486
G1 X120.774 Y114.216 E3.79029
G1 X120.171 Y114.216 E0.02486
G1 X185.784 Y179.829 E3.82544
G1 X185.784 Y180.432 E0.02486
G1 X119.568 Y114.216 E3.8606
G1 X118.965 Y114.216 E0.02486
G1 X185.784 Y181.035 E3.89575
G1 X185.784 Y181.638 E0.02486
G1 X118.362 Y114.216 E3.9309
G1 X117.759 Y114.216 E0.02486
G1 X185.784 Y182.241 E3.96606
G1 X185.784 Y182.844 E0.02486
G1 X117.156 Y114.216 E4.00121
G1 X116.553 Y114.216 E0.02486
G1 X185.784 Y183.447 E4.03636
G1 X185.784 Y184.05 E0.02486
G1 X115.95 Y114.216 E4.07152
G1 X115.347 Y114.216 E0.02486
G1 X185.784 Y184.653 E4.10667
G1 X185.784 Y185.256 E0.02486
G1 X114.744 Y114.216 E4.14182
G1 X114.216 Y114.216 E0.02178
G1 X114.216 Y114.29 E0.00307
G1 X185.71 Y185.784 E4.16829
G1 X185.107 Y185.784 E0.02486
G1 X114.216 Y114.893 E4.13313
G1 X114.216 Y115.496 E0.02486
G1 X184.504 Y185.784 E4.09798
G1 X183.901 Y185.784 E0.02486
G1 X114.216 Y116.099 E4.06282
G1 X114.216 Y116.702 E0.02486
G1 X183.298 Y185.784 E4.02767
G1 X182.695 Y185.784 E0.02486
G1 X114.216 Y117.305 E3.99252
G1 X114.216 Y117.908 E0.02486
G1 X182.092 Y185.784 E3.95736
G1 X181.489 Y185.784 E0.02486
G1 X114.216 Y118.511 E3.92221
G1 X114.216 Y119.114 E0.02486
G1 X180.886 Y185.784 E3.88706
G1 X180.283 Y185.784 E0.02486
G1 X114.216 Y119.717 E3.8519
G1 X114.216 Y120.32 E0.02486
G1 X179.68 Y185.784 E3.81675
G1 X179.077 Y185.784 E0.02486
G1 X114.216 Y120.923 E3.7816
G1 X114.216 Y121.526 E0.02486
G1 X178.474 Y185.784 E3.74644
G1 X177.871 Y185.784 E0.02486
G1 X114.216 Y122.129 E3.71129
G1 X114.216 Y122.732 E0.02486
G1 X177.268 Y185.784 E3.67614
G1 X176.666 Y185.784 E0.02486
G1 X114.216 Y123.334 E3.64098
G1 X114.216 Y123.937 E0.02486
G1 X176.063 Y185.784 E3.60583
G1 X175.46 Y185.784 E0.02486
G1 X114.216 Y124.54 E3.57068
G1 X114.216 Y125.143 E0.02486
G1 X174.857 Y185.784 E3.53552
G1 X174.254 Y185.784 E0.02486
G1 X114.216 Y125.746 E3.50037
G1 X114.216 Y126.349 E0.02486
G1 X173.651 Y185.784 E3.46522
G1 X173.048 Y185.784 E0.02486
G1 X114.216 Y126.952 E3.43006
G1 X114.216 Y127.555 E0.02486
G1 X172.445 Y185.784 E3.39491
G1 X171.842 Y185.784 E0.02486
G1 X114.216 Y128.158 E3.35976
G1 X114.216 Y128.761 E0.02486
G1 X171.239 Y185.784 E3.3246
G1 X170.636 Y185.784 E0.02486
G1 X114.216 Y129.364 E3.28945
G1 X114.216 Y129.967 E0.02486
G1 X170.033 Y185.784 E3.2543
G1 X169.43 Y185.784 E0.02486
G1 X114.216 Y130.57 E3.21914
G1 X114.216 Y131.173 E0.02486
G1 X168.827 Y185.784 E3.18399
G1 X168.224 Y185.784 E0.02486
G1 X114.216 Y131.776 E3.14884
G1 X114.216 Y132.379 E0.02486
G1 X167.621 Y185.784 E3.11368
G1 X167.018 Y185.784 E0.02486
G1 X114.216 Y132.982 E3.07853
G1 X114.216 Y133.585 E0.02486
G1 X166.415 Y185.784 E3.04338
G1 X165.812 Y185.784 E0.02486
G1 X114.216 Y134.188 E3.00822
G1 X114.216 Y134.79 E0.02486
G1 X165.21 Y185.784 E2.97307
G1 X164.607 Y185.784 E0.02486
G1 X114.216 Y135.393 E2.93791
G1 X114.216 Y135.996 E0.02486
G1 X164.004 Y185.784 E2.90276
G1 X163.401 Y185.784 E0.02486
G1 X114.216 Y136.599 E2.86761
G1 X114.216 Y137.202 E0.02486
G1 X162.798 Y185.784 E2.83245
G1 X162.195 Y185.784 E0.02486
G1 X114.216 Y137.805 E2.7973
G1 X114.216 Y138.408 E0.02486
G1 X161.592 Y185.784 E2.76215
G1 X160.989 Y185.784 E0.02486
G1 X114.216 Y139.011 E2.72699
G1 X114.216 Y139.614 E0.02486
G1 X160.386 Y185.784 E2.69184
G1 X159.783 Y185.784 E0.02486
G1 X114.216 Y140.217 E2.65669
G1 X114.216 Y140.82 E0.02486
G1 X159.18 Y185.784 E2.62153
G1 X158.577 Y185.784 E0.02486
G1 X114.216 Y141.423 E2.58638
G1 X114.216 Y142.026 E0.02486
G1 X157.974 Y185.784 E2.55123
G1 X157.371 Y185.784 E0.02486
G1 X114.216 Y142.629 E2.51607
G1 X114.216 Y143.232 E0.02486
G1 X156.768 Y185.784 E2.48092
G1 X156.165 Y185.784 E0.02486
G1 X114.216 Y143.835 E2.44577
G1 X114.216 Y144.438 E0.02486
G1 X155.562 Y185.784 E2.41061
G1 X154.959 Y185.784 E0.02486
G1 X114.216 Y145.041 E2.37546
G1 X114.216 Y145.644 E0.02486
G1 X154.356 Y185.784 E2.34031
G1 X153.753 Y185.784 E0.02486
G1 X114.216 Y146.247 E2.30515
G1 X114.216 Y146.849 E0.02486
G1 X153.151 Y185.784 E2.27
G1 X152.548 Y185.784 E0.02486
G1 X114.216 Y147.452 E2.23485
G1 X114.216 Y148.055 E0.02486
G1 X151.945 Y185.784 E2.19969
G1 X151.342 Y185.784 E0.02486
G1 X114.216 Y148.658 E2.16454
G1 X114.216 Y149.261 E0.02486
G1 X150.739 Y185.784 E2.12939
G1 X150.136 Y185.784 E0.02486
G1 X114.216 Y149.864 E2.09423
G1 X114.216 Y150.467 E0.02486
G1 X149.533 Y185.784 E2.05908
G1 X148.93 Y185.784 E0.02486
G1 X114.216 Y151.07 E2.02393
G1 X114.216 Y151.673 E0.02486
G1 X148.327 Y185.784 E1.98877
G1 X147.724 Y185.784 E0.02486
G1 X114.216 Y152.276 E1.95362
G1 X114.216 Y152.879 E0.02486
G1 X147.121 Y185.784 E1.91847
G1 X146.518 Y185.784 E0.02486
G1 X114.216 Y153.482 E1.88331
G1 X114.216 Y154.085 E0.02486
G1 X145.915 Y185.784 E1.84816
G1 X145.312 Y185.784 E0.02486
G1 X114.216 Y154.688 E1.81301
G1 X114.216 Y155.291 E0.02486
G1 X144.709 Y185.784 E1.77785
G1 X144.106 Y185.784 E0.02486
G1 X114.216 Y155.894 E1.7427
G1 X114.216 Y156.497 E0.02486
G1 X143.503 Y185.784 E1.70754
G1 X142.9 Y185.784 E0.02486
G1 X114.216 Y157.1 E1.67239
G1 X114.216 Y157.703 E0.02486
G1 X142.297 Y185.784 E1.63724
G1 X141.695 Y185.784 E0.02486
G1 X114.216 Y158.305 E1.60208
G1 X114.216 Y158.908 E0.02486
G1 X141.092 Y185.784 E1.56693
G1 X140.489 Y185.784 E0.02486
G1 X114.216 Y159.511 E1.53178
G1 X114.216 Y160.114 E0.02486
G1 X139.886 Y185.784 E1.49662
G1 X139.283 Y185.784 E0.02486
G1 X114.216 Y160.717 E1.46147
G1 X114.216 Y161.32 E0.02486
G1 X138.68 Y185.784 E1.42632
G1 X138.077 Y185.784 E0.02486
G1 X114.216 Y161.923 E1.39116
G1 X114.216 Y162.526 E0.02486
G1 X137.474 Y185.784 E1.35601
G1 X136.871 Y185.784 E0.02486
G1 X114.216 Y163.129 E1.32086
G1 X114.216 Y163.732 E0.02486
G1 X136.268 Y185.784 E1.2857
G1 X135.665 Y185.784 E0.02486
G1 X114.216 Y164.335 E1.25055
G1 X114.216 Y164.938 E0.02486
G1 X135.062 Y185.784 E1.2154
G1 X134.459 Y185.784 E0.02486
G1 X114.216 Y165.541 E1.18024
G1 X114.216 Y166.144 E0.02486
G1 X133.856 Y185.784 E1.14509
G1 X133.253 Y185.784 E0.02486
G1 X114.216 Y166.747 E1.10994
G1 X114.216 Y167.35 E0.02486
G1 X132.65 Y185.784 E1.07478
G1 X132.047 Y185.784 E0.02486
G1 X114.216 Y167.953 E1.03963
G1 X114.216 Y168.556 E0.02486
G1 X131.444 Y185.784 E1.00448
G1 X130.841 Y185.784 E0.02486
G1 X114.216 Y169.159 E0.96932
G1 X114.216 Y169.762 E0.02486
G1 X130.238 Y185.784 E0.93417
G1 X129.636 Y185.784 E0.02486
G1 X114.216 Y170.364 E0.89902
G1 X114.216 Y170.967 E0.02486
G1 X129.033 Y185.784 E0.86386
G1 X128.43 Y185.784 E0.02486
G1 X114.216 Y171.57 E0.82871
G1 X114.216 Y172.173 E0.02486
G1 X127.827 Y185.784 E0.79356
G1 X127.224 Y185.784 E0.02486
G1 X114.216 Y172.776 E0.7584
G1 X114.216 Y173.379 E0.02486
G1 X126.621 Y185.784 E0.72325
G1 X126.018 Y185.784 E0.02486
G1 X114.216 Y173.982 E0.6881
G1 X114.216 Y174.585 E0.02486
G1 X125.415 Y185.784 E0.65294
G1 X124.812 Y185.784 E0.02486
G1 X114.216 Y175.188 E0.61779
G1 X114.216 Y175.791 E0.02486
G1 X124.209 Y185.784 E0.58264
G1 X123.606 Y185.784 E0.02486
G1 X114.216 Y176.394 E0.54748
G1 X114.216 Y176.997 E0.02486
G1 X123.003 Y185.784 E0.51233
G1 X122.4 Y185.784 E0.02486
G1 X114.216 Y177.6 E0.47717
G1 X114.216 Y178.203 E0.02486
G1 X121.797 Y185.784 E0.44202
G1 X121.194 Y185.784 E0.02486
G1 X114.216 Y178.806 E0.40687
G1 X114.216 Y179.409 E0.02486
G1 X120.591 Y185.784 E0.37171
G1 X119.988 Y185.784 E0.02486
G1 X114.216 Y180.012 E0.33656
G1 X114.216 Y180.615 E0.02486
G1 X119.385 Y185.784 E0.30141
G1 X118.782 Y185.784 E0.02486
G1 X114.216 Y181.218 E0.26625
G1 X114.216 Y181.82 E0.02486
G1 X118.18 Y185.784 E0.2311
G1 X117.577 Y185.784 E0.02486
G1 X114.216 Y182.423 E0.19595
