; generated by SuperSlicer 2.5.59 on 2022-09-09 at 22:18:52 UTC


;
;

;
;
; 

; external perimeters extrusion width = 0.40mm
; perimeters extrusion width = 0.40mm
; infill extrusion width = 0.72mm
; solid infill extrusion width = 0.56mm
; top infill extrusion width = 0.40mm

; object:{"name":"Shape-Box","id":"Shape-Box id:0 copy 0","object_center":[150.000000,150.000000,0.000000],"boundingbox_center":[150.000000,150.000000,12.500000],"boundingbox_size":[60.000000,60.000000,25.000000]}
; plater:{"center":[150.000000,150.000000,0.000000],"boundingbox_center":[150.000000,150.000000,12.500000],"boundingbox_size":[60.000000,60.000000,25.000000]}

M73 P0 R42
;TYPE:Custom
; custom gcode: start_gcode
PRINT_START EXTRUDER=255 BED=110 AREA_START=119.98,119.98 AREA_END=180.02,180.02
; custom gcode end: start_gcode
M107
G21 ; set units to millimeters
G90 ; use absolute coordinates
M83 ; use relative distances for extrusion
; custom gcode: start_filament_gcode
; Filament gcode
SET_PRESSURE_ADVANCE ADVANCE=0.02
SET_PRESSURE_ADVANCE EXTRUDER=extruder SMOOTH_TIME=0.04
; custom gcode end: start_filament_gcode
;_TOOLCHANGE 0
M104 S255 ; set temperature
M109 S255 ; set temperature and wait for it to be reached
M190 S110 ; set bed temperature and wait for it to be reached
;LAYER_CHANGE
;Z:0.24
;HEIGHT:0.24
G1 Z0.24 F27000
G92 E0
G1 E-0.5 F1800
; printing object Shape-Box id:0 copy 0
M204 S2000
G1 X150 Y178.775 F27000
G1 E0.5 F1800
;TYPE:Internal perimeter
;WIDTH:0.348495
G1 X121.225 Y178.775 E0.79302
G1 X121.225 Y121.225 E1.58605
G1 X178.775 Y121.225 E1.58605
G1 X178.775 Y178.775 E1.58605
M73 P1 R42
G1 X150 Y178.775 E0.79302
G1 X150 Y179.123 F27000
G1 F1800
G1 X120.877 Y179.123 E0.80263
G1 X120.877 Y120.877 E1.60526
G1 X179.123 Y120.877 E1.60526
G1 X179.123 Y179.123 E1.60526
G1 X150 Y179.123 E0.80263
G1 X150 Y179.472 F27000
G1 F1800
G1 X120.528 Y179.472 E0.81223
G1 X120.528 Y120.528 E1.62446
G1 X179.472 Y120.528 E1.62446
G1 X179.472 Y179.472 E1.62446
G1 X150 Y179.472 E0.81223
M204 S1000
G1 X150 Y179.82 F27000
;TYPE:External perimeter
G1 F1800
G1 X120.18 Y179.82 E0.82184
G1 X120.18 Y120.18 E1.64367
G1 X179.82 Y120.18 E1.64367
G1 X179.82 Y179.82 E1.64367
G1 X150 Y179.82 E0.82184
;WIPE_START
M204 S4000
M73 P2 R42
G1 X149.8 Y179.474 F27000
;WIPE_END
G1 E-0.5 F1800
; acceleration to travel
M204 S10000
G1 X126.091 Y131.283 F27000
; decel to extrusion
M204 S2000
G1 X121.285 Y121.514
; end travel
G1 E0.5 F1800
;TYPE:Solid infill
;WIDTH:0.560006
G1 F3600
G1 X178.496 Y121.514 E2.69959
G1 X178.496 Y122.023 E0.02399
G1 X121.504 Y122.023 E2.68928
G1 X121.504 Y122.531 E0.02399
G1 X178.496 Y122.531 E2.68928
G1 X178.496 Y123.04 E0.02399
G1 X121.504 Y123.04 E2.68928
G1 X121.504 Y123.548 E0.02399
G1 X178.496 Y123.548 E2.68928
M73 P2 R41
G1 X178.496 Y124.057 E0.02399
G1 X121.504 Y124.057 E2.68928
G1 X121.504 Y124.565 E0.02399
G1 X178.496 Y124.565 E2.68928
G1 X178.496 Y125.074 E0.02399
G1 X121.504 Y125.074 E2.68928
G1 X121.504 Y125.582 E0.02399
G1 X178.496 Y125.582 E2.68928
G1 X178.496 Y126.091 E0.02399
G1 X121.504 Y126.091 E2.68928
G1 X121.504 Y126.599 E0.02399
G1 X178.496 Y126.599 E2.68928
G1 X178.496 Y127.108 E0.02399
G1 X121.504 Y127.108 E2.68928
G1 X121.504 Y127.616 E0.02399
G1 X178.496 Y127.616 E2.68928
G1 X178.496 Y128.125 E0.02399
G1 X121.504 Y128.125 E2.68928
G1 X121.504 Y128.633 E0.02399
G1 X178.496 Y128.633 E2.68928
G1 X178.496 Y129.142 E0.02399
G1 X121.504 Y129.142 E2.68928
G1 X121.504 Y129.65 E0.02399
G1 X178.496 Y129.65 E2.68928
G1 X178.496 Y130.159 E0.02399
G1 X121.504 Y130.159 E2.68928
G1 X121.504 Y130.667 E0.02399
G1 X178.496 Y130.667 E2.68928
G1 X178.496 Y131.176 E0.02399
G1 X121.504 Y131.176 E2.68928
G1 X121.504 Y131.684 E0.02399
G1 X178.496 Y131.684 E2.68928
G1 X178.496 Y132.193 E0.02399
G1 X121.504 Y132.193 E2.68928
G1 X121.504 Y132.701 E0.02399
G1 X178.496 Y132.701 E2.68928
G1 X178.496 Y133.21 E0.02399
G1 X121.504 Y133.21 E2.68928
G1 X121.504 Y133.718 E0.02399
G1 X178.496 Y133.718 E2.68928
M73 P3 R41
G1 X178.496 Y134.227 E0.02399
G1 X121.504 Y134.227 E2.68928
G1 X121.504 Y134.735 E0.02399
G1 X178.496 Y134.735 E2.68928
G1 X178.496 Y135.243 E0.02399
G1 X121.504 Y135.243 E2.68928
G1 X121.504 Y135.752 E0.02399
G1 X178.496 Y135.752 E2.68928
G1 X178.496 Y136.26 E0.02399
G1 X121.504 Y136.26 E2.68928
G1 X121.504 Y136.769 E0.02399
G1 X178.496 Y136.769 E2.68928
G1 X178.496 Y137.277 E0.02399
G1 X121.504 Y137.277 E2.68928
G1 X121.504 Y137.786 E0.02399
G1 X178.496 Y137.786 E2.68928
G1 X178.496 Y138.294 E0.02399
G1 X121.504 Y138.294 E2.68928
G1 X121.504 Y138.803 E0.02399
G1 X178.496 Y138.803 E2.68928
G1 X178.496 Y139.311 E0.02399
G1 X121.504 Y139.311 E2.68928
G1 X121.504 Y139.82 E0.02399
G1 X178.496 Y139.82 E2.68928
G1 X178.496 Y140.328 E0.02399
G1 X121.504 Y140.328 E2.68928
G1 X121.504 Y140.837 E0.02399
G1 X178.496 Y140.837 E2.68928
G1 X178.496 Y141.345 E0.02399
G1 X121.504 Y141.345 E2.68928
G1 X121.504 Y141.854 E0.02399
G1 X178.496 Y141.854 E2.68928
G1 X178.496 Y142.362 E0.02399
G1 X121.504 Y142.362 E2.68928
G1 X121.504 Y142.871 E0.02399
G1 X178.496 Y142.871 E2.68928
G1 X178.496 Y143.379 E0.02399
G1 X121.504 Y143.379 E2.68928
G1 X121.504 Y143.888 E0.02399
G1 X178.496 Y143.888 E2.68928
G1 X178.496 Y144.396 E0.02399
G1 X121.504 Y144.396 E2.68928
G1 X121.504 Y144.905 E0.02399
G1 X178.496 Y144.905 E2.68928
G1 X178.496 Y145.413 E0.02399
G1 X121.504 Y145.413 E2.68928
G1 X121.504 Y145.922 E0.02399
G1 X178.496 Y145.922 E2.68928
G1 X178.496 Y146.43 E0.02399
G1 X121.504 Y146.43 E2.68928
G1 X121.504 Y146.939 E0.02399
G1 X178.496 Y146.939 E2.68928
M73 P4 R41
G1 X178.496 Y147.447 E0.02399
G1 X121.504 Y147.447 E2.68928
G1 X121.504 Y147.956 E0.02399
G1 X178.496 Y147.956 E2.68928
G1 X178.496 Y148.464 E0.02399
G1 X121.504 Y148.464 E2.68928
G1 X121.504 Y148.973 E0.02399
G1 X178.496 Y148.973 E2.68928
G1 X178.496 Y149.481 E0.02399
G1 X121.504 Y149.481 E2.68928
G1 X121.504 Y149.99 E0.02399
G1 X178.496 Y149.99 E2.68928
G1 X178.496 Y150.498 E0.02399
G1 X121.504 Y150.498 E2.68928
G1 X121.504 Y151.007 E0.02399
G1 X178.496 Y151.007 E2.68928
G1 X178.496 Y151.515 E0.02399
G1 X121.504 Y151.515 E2.68928
G1 X121.504 Y152.024 E0.02399
G1 X178.496 Y152.024 E2.68928
G1 X178.496 Y152.532 E0.02399
G1 X121.504 Y152.532 E2.68928
G1 X121.504 Y153.041 E0.02399
G1 X178.496 Y153.041 E2.68928
G1 X178.496 Y153.549 E0.02399
G1 X121.504 Y153.549 E2.68928
G1 X121.504 Y154.058 E0.02399
G1 X178.496 Y154.058 E2.68928
G1 X178.496 Y154.566 E0.02399
G1 X121.504 Y154.566 E2.68928
M73 P4 R40
G1 X121.504 Y155.075 E0.02399
G1 X178.496 Y155.075 E2.68928
G1 X178.496 Y155.583 E0.02399
G1 X121.504 Y155.583 E2.68928
G1 X121.504 Y156.092 E0.02399
G1 X178.496 Y156.092 E2.68928
G1 X178.496 Y156.6 E0.02399
G1 X121.504 Y156.6 E2.68928
G1 X121.504 Y157.109 E0.02399
G1 X178.496 Y157.109 E2.68928
G1 X178.496 Y157.617 E0.02399
G1 X121.504 Y157.617 E2.68928
G1 X121.504 Y158.126 E0.02399
G1 X178.496 Y158.126 E2.68928
G1 X178.496 Y158.634 E0.02399
G1 X121.504 Y158.634 E2.68928
G1 X121.504 Y159.143 E0.02399
G1 X178.496 Y159.143 E2.68928
G1 X178.496 Y159.651 E0.02399
G1 X121.504 Y159.651 E2.68928
G1 X121.504 Y160.16 E0.02399
G1 X178.496 Y160.16 E2.68928
M73 P5 R40
G1 X178.496 Y160.668 E0.02399
G1 X121.504 Y160.668 E2.68928
G1 X121.504 Y161.177 E0.02399
G1 X178.496 Y161.177 E2.68928
G1 X178.496 Y161.685 E0.02399
G1 X121.504 Y161.685 E2.68928
G1 X121.504 Y162.194 E0.02399
G1 X178.496 Y162.194 E2.68928
G1 X178.496 Y162.702 E0.02399
G1 X121.504 Y162.702 E2.68928
G1 X121.504 Y163.211 E0.02399
G1 X178.496 Y163.211 E2.68928
G1 X178.496 Y163.719 E0.02399
G1 X121.504 Y163.719 E2.68928
G1 X121.504 Y164.228 E0.02399
G1 X178.496 Y164.228 E2.68928
G1 X178.496 Y164.736 E0.02399
G1 X121.504 Y164.736 E2.68928
G1 X121.504 Y165.245 E0.02399
G1 X178.496 Y165.245 E2.68928
G1 X178.496 Y165.753 E0.02399
G1 X121.504 Y165.753 E2.68928
G1 X121.504 Y166.262 E0.02399
G1 X178.496 Y166.262 E2.68928
G1 X178.496 Y166.77 E0.02399
G1 X121.504 Y166.77 E2.68928
G1 X121.504 Y167.279 E0.02399
G1 X178.496 Y167.279 E2.68928
G1 X178.496 Y167.787 E0.02399
G1 X121.504 Y167.787 E2.68928
G1 X121.504 Y168.296 E0.02399
G1 X178.496 Y168.296 E2.68928
G1 X178.496 Y168.804 E0.02399
G1 X121.504 Y168.804 E2.68928
G1 X121.504 Y169.313 E0.02399
G1 X178.496 Y169.313 E2.68928
G1 X178.496 Y169.821 E0.02399
G1 X121.504 Y169.821 E2.68928
G1 X121.504 Y170.33 E0.02399
G1 X178.496 Y170.33 E2.68928
G1 X178.496 Y170.838 E0.02399
G1 X121.504 Y170.838 E2.68928
G1 X121.504 Y171.347 E0.02399
G1 X178.496 Y171.347 E2.68928
G1 X178.496 Y171.855 E0.02399
G1 X121.504 Y171.855 E2.68928
G1 X121.504 Y172.364 E0.02399
G1 X178.496 Y172.364 E2.68928
G1 X178.496 Y172.872 E0.02399
G1 X121.504 Y172.872 E2.68928
G1 X121.504 Y173.381 E0.02399
G1 X178.496 Y173.381 E2.68928
M73 P6 R40
G1 X178.496 Y173.889 E0.02399
G1 X121.504 Y173.889 E2.68928
G1 X121.504 Y174.398 E0.02399
G1 X178.496 Y174.398 E2.68928
G1 X178.496 Y174.906 E0.02399
G1 X121.504 Y174.906 E2.68928
G1 X121.504 Y175.415 E0.02399
G1 X178.496 Y175.415 E2.68928
G1 X178.496 Y175.923 E0.02399
G1 X121.504 Y175.923 E2.68928
G1 X121.504 Y176.432 E0.02399
G1 X178.496 Y176.432 E2.68928
G1 X178.496 Y176.94 E0.02399
G1 X121.504 Y176.94 E2.68928
G1 X121.504 Y177.449 E0.02399
G1 X178.496 Y177.449 E2.68928
G1 X178.496 Y177.957 E0.02399
G1 X121.504 Y177.957 E2.68928
G1 X121.504 Y178.466 E0.02399
G1 X178.715 Y178.466 E2.69959
;LAYER_CHANGE
;Z:0.44
;HEIGHT:0.2
; stop printing object Shape-Box id:0 copy 0
M204 S4000
G1 Z0.44 F27000
G92 E0
M104 S250 ; set temperature
; printing object Shape-Box id:0 copy 0
; acceleration to travel
M204 S10000
G1 X155.197 Y178.725
; decel to extrusion
M204 S2000
G1 X150 Y178.783
; end travel
;TYPE:Internal perimeter
;WIDTH:0.357079
G1 F9000
G1 X121.217 Y178.783 E0.69924
G1 X121.217 Y121.217 E1.39848
G1 X178.783 Y121.217 E1.39848
G1 X178.783 Y178.783 E1.39848
G1 X150 Y178.783 E0.69924
G1 X150 Y179.14 F27000
G1 F9000
G1 X120.86 Y179.14 E0.70791
G1 X120.86 Y120.86 E1.41583
G1 X179.14 Y120.86 E1.41583
G1 X179.14 Y179.14 E1.41583
G1 X150 Y179.14 E0.70791
G1 X150 Y179.497 F27000
G1 F9000
G1 X120.503 Y179.497 E0.71659
G1 X120.503 Y120.503 E1.43318
G1 X179.497 Y120.503 E1.43318
G1 X179.497 Y179.497 E1.43318
G1 X150 Y179.497 E0.71659
M204 S1000
G1 X150 Y179.854 F27000
;TYPE:External perimeter
G1 F4800
M106 S191.25
G1 X120.146 Y179.854 E0.72526
G1 X120.146 Y120.146 E1.45053
G1 X179.854 Y120.146 E1.45053
G1 X179.854 Y179.854 E1.45053
G1 X150 Y179.854 E0.72526
M107
;WIPE_START
M204 S4000
G1 X149.8 Y179.507 F27000
;WIPE_END
; acceleration to travel
M204 S10000
G1 X167.692 Y143.191
; decel to extrusion
M204 S5000
G1 X178.488 Y121.279
; end travel
;TYPE:Solid infill
;WIDTH:0.56076
G1 F12000
G1 X178.488 Y178.499 E2.29107
G1 X177.971 Y178.499 E0.0207
G1 X177.971 Y121.501 E2.28217
G1 X177.454 Y121.501 E0.0207
G1 X177.454 Y178.499 E2.28217
G1 X176.937 Y178.499 E0.0207
G1 X176.937 Y121.501 E2.28217
G1 X176.42 Y121.501 E0.0207
G1 X176.42 Y178.499 E2.28217
G1 X175.903 Y178.499 E0.0207
G1 X175.903 Y121.501 E2.28217
G1 X175.386 Y121.501 E0.0207
G1 X175.386 Y178.499 E2.28217
G1 X174.869 Y178.499 E0.0207
G1 X174.869 Y121.501 E2.28217
G1 X174.352 Y121.501 E0.0207
G1 X174.352 Y178.499 E2.28217
M73 P6 R39
G1 X173.835 Y178.499 E0.0207
G1 X173.835 Y121.501 E2.28217
G1 X173.318 Y121.501 E0.0207
G1 X173.318 Y178.499 E2.28217
G1 X172.8 Y178.499 E0.0207
G1 X172.8 Y121.501 E2.28217
G1 X172.283 Y121.501 E0.0207
G1 X172.283 Y178.499 E2.28217
G1 X171.766 Y178.499 E0.0207
G1 X171.766 Y121.501 E2.28217
G1 X171.249 Y121.501 E0.0207
G1 X171.249 Y178.499 E2.28217
G1 X170.732 Y178.499 E0.0207
G1 X170.732 Y121.501 E2.28217
G1 X170.215 Y121.501 E0.0207
G1 X170.215 Y178.499 E2.28217
G1 X169.698 Y178.499 E0.0207
G1 X169.698 Y121.501 E2.28217
M73 P7 R39
G1 X169.181 Y121.501 E0.0207
G1 X169.181 Y178.499 E2.28217
G1 X168.664 Y178.499 E0.0207
G1 X168.664 Y121.501 E2.28217
G1 X168.147 Y121.501 E0.0207
G1 X168.147 Y178.499 E2.28217
G1 X167.63 Y178.499 E0.0207
G1 X167.63 Y121.501 E2.28217
G1 X167.113 Y121.501 E0.0207
G1 X167.113 Y178.499 E2.28217
G1 X166.595 Y178.499 E0.0207
G1 X166.595 Y121.501 E2.28217
G1 X166.078 Y121.501 E0.0207
G1 X166.078 Y178.499 E2.28217
G1 X165.561 Y178.499 E0.0207
G1 X165.561 Y121.501 E2.28217
G1 X165.044 Y121.501 E0.0207
G1 X165.044 Y178.499 E2.28217
G1 X164.527 Y178.499 E0.0207
G1 X164.527 Y121.501 E2.28217
G1 X164.01 Y121.501 E0.0207
G1 X164.01 Y178.499 E2.28217
G1 X163.493 Y178.499 E0.0207
G1 X163.493 Y121.501 E2.28217
G1 X162.976 Y121.501 E0.0207
G1 X162.976 Y178.499 E2.28217
G1 X162.459 Y178.499 E0.0207
G1 X162.459 Y121.501 E2.28217
G1 X161.942 Y121.501 E0.0207
G1 X161.942 Y178.499 E2.28217
G1 X161.425 Y178.499 E0.0207
G1 X161.425 Y121.501 E2.28217
G1 X160.908 Y121.501 E0.0207
G1 X160.908 Y178.499 E2.28217
G1 X160.391 Y178.499 E0.0207
G1 X160.391 Y121.501 E2.28217
G1 X159.873 Y121.501 E0.0207
G1 X159.873 Y178.499 E2.28217
G1 X159.356 Y178.499 E0.0207
G1 X159.356 Y121.501 E2.28217
G1 X158.839 Y121.501 E0.0207
G1 X158.839 Y178.499 E2.28217
G1 X158.322 Y178.499 E0.0207
G1 X158.322 Y121.501 E2.28217
G1 X157.805 Y121.501 E0.0207
G1 X157.805 Y178.499 E2.28217
G1 X157.288 Y178.499 E0.0207
G1 X157.288 Y121.501 E2.28217
G1 X156.771 Y121.501 E0.0207
G1 X156.771 Y178.499 E2.28217
G1 X156.254 Y178.499 E0.0207
G1 X156.254 Y121.501 E2.28217
G1 X155.737 Y121.501 E0.0207
G1 X155.737 Y178.499 E2.28217
G1 X155.22 Y178.499 E0.0207
G1 X155.22 Y121.501 E2.28217
G1 X154.703 Y121.501 E0.0207
G1 X154.703 Y178.499 E2.28217
G1 X154.186 Y178.499 E0.0207
G1 X154.186 Y121.501 E2.28217
G1 X153.669 Y121.501 E0.0207
G1 X153.669 Y178.499 E2.28217
G1 X153.151 Y178.499 E0.0207
G1 X153.151 Y121.501 E2.28217
G1 X152.634 Y121.501 E0.0207
G1 X152.634 Y178.499 E2.28217
G1 X152.117 Y178.499 E0.0207
G1 X152.117 Y121.501 E2.28217
G1 X151.6 Y121.501 E0.0207
G1 X151.6 Y178.499 E2.28217
G1 X151.083 Y178.499 E0.0207
G1 X151.083 Y121.501 E2.28217
G1 X150.566 Y121.501 E0.0207
G1 X150.566 Y178.499 E2.28217
G1 X150.049 Y178.499 E0.0207
G1 X150.049 Y121.501 E2.28217
G1 X149.532 Y121.501 E0.0207
G1 X149.532 Y178.499 E2.28217
G1 X149.015 Y178.499 E0.0207
G1 X149.015 Y121.501 E2.28217
G1 X148.498 Y121.501 E0.0207
G1 X148.498 Y178.499 E2.28217
G1 X147.981 Y178.499 E0.0207
G1 X147.981 Y121.501 E2.28217
G1 X147.464 Y121.501 E0.0207
G1 X147.464 Y178.499 E2.28217
G1 X146.946 Y178.499 E0.0207
G1 X146.946 Y121.501 E2.28217
G1 X146.429 Y121.501 E0.0207
G1 X146.429 Y178.499 E2.28217
G1 X145.912 Y178.499 E0.0207
G1 X145.912 Y121.501 E2.28217
G1 X145.395 Y121.501 E0.0207
G1 X145.395 Y178.499 E2.28217
G1 X144.878 Y178.499 E0.0207
G1 X144.878 Y121.501 E2.28217
G1 X144.361 Y121.501 E0.0207
G1 X144.361 Y178.499 E2.28217
G1 X143.844 Y178.499 E0.0207
G1 X143.844 Y121.501 E2.28217
G1 X143.327 Y121.501 E0.0207
G1 X143.327 Y178.499 E2.28217
G1 X142.81 Y178.499 E0.0207
G1 X142.81 Y121.501 E2.28217
G1 X142.293 Y121.501 E0.0207
G1 X142.293 Y178.499 E2.28217
G1 X141.776 Y178.499 E0.0207
G1 X141.776 Y121.501 E2.28217
G1 X141.259 Y121.501 E0.0207
G1 X141.259 Y178.499 E2.28217
G1 X140.742 Y178.499 E0.0207
G1 X140.742 Y121.501 E2.28217
G1 X140.224 Y121.501 E0.0207
G1 X140.224 Y178.499 E2.28217
G1 X139.707 Y178.499 E0.0207
G1 X139.707 Y121.501 E2.28217
G1 X139.19 Y121.501 E0.0207
G1 X139.19 Y178.499 E2.28217
G1 X138.673 Y178.499 E0.0207
G1 X138.673 Y121.501 E2.28217
G1 X138.156 Y121.501 E0.0207
G1 X138.156 Y178.499 E2.28217
G1 X137.639 Y178.499 E0.0207
G1 X137.639 Y121.501 E2.28217
G1 X137.122 Y121.501 E0.0207
G1 X137.122 Y178.499 E2.28217
G1 X136.605 Y178.499 E0.0207
G1 X136.605 Y121.501 E2.28217
G1 X136.088 Y121.501 E0.0207
G1 X136.088 Y178.499 E2.28217
G1 X135.571 Y178.499 E0.0207
G1 X135.571 Y121.501 E2.28217
G1 X135.054 Y121.501 E0.0207
G1 X135.054 Y178.499 E2.28217
G1 X134.537 Y178.499 E0.0207
G1 X134.537 Y121.501 E2.28217
G1 X134.02 Y121.501 E0.0207
G1 X134.019 Y178.499 E2.28217
G1 X133.502 Y178.499 E0.0207
G1 X133.502 Y121.501 E2.28217
G1 X132.985 Y121.501 E0.0207
G1 X132.985 Y178.499 E2.28217
G1 X132.468 Y178.499 E0.0207
G1 X132.468 Y121.501 E2.28217
G1 X131.951 Y121.501 E0.0207
G1 X131.951 Y178.499 E2.28217
G1 X131.434 Y178.499 E0.0207
G1 X131.434 Y121.501 E2.28217
G1 X130.917 Y121.501 E0.0207
