; generated by SuperSlicer 2.4 on 2022-06-14 at 20:09:41 UTC


;
;

;
;
; 

; external perimeters extrusion width = 0.40mm
; perimeters extrusion width = 0.48mm
; infill extrusion width = 0.60mm
; solid infill extrusion width = 0.56mm
; top infill extrusion width = 0.40mm
; first layer extrusion width = 0.48mm

; object:{"name":"Shape-Box","id":"Shape-Box id:0 copy 0","object_center":[150.000000,150.000000,0.000000],"boundingbox_center":[150.000000,150.000000,1.500000],"boundingbox_size":[30.000000,30.000000,3.000000]}
; plater:{"center":[150.000000,150.000000,0.000000],"boundingbox_center":[150.000000,150.000000,1.500000],"boundingbox_size":[30.000000,30.000000,3.000000]}

;TYPE:Custom
print_start EXTRUDER=255 BED=110 CHAMBER=50
M107
G21 ; set units to millimeters
G90 ; use absolute coordinates
M83 ; use relative distances for extrusion
; Filament gcode
SET_PRESSURE_ADVANCE ADVANCE=0.045
SET_PRESSURE_ADVANCE EXTRUDER=extruder SMOOTH_TIME=0.04
M104 S255 ; set temperature
M109 S255 ; set temperature and wait for it to be reached
M190 S110 ; set bed temperature and wait for it to be reached
M107
;LAYER_CHANGE
;Z:0.25
;HEIGHT:0.25
;BEFORE_LAYER_CHANGE
;0.25
TIMELAPSE_TAKE_FRAME


G1 Z0.25 F36000
;AFTER_LAYER_CHANGE
;0.25
G92 E0
; INIT printing object Shape-Box id:0 copy 0
G1 E-0.75 F3000
M204 S1500
G1 Z0.65 F36000
; printing object Shape-Box id:0 copy 0
G1 X136.559 Y136.559
G1 Z0.25
G1 E0.75 F1800
;TYPE:Internal perimeter
;WIDTH:0.48
G1 F900
G1 X163.441 Y136.559 E1.09001
G1 X163.441 Y163.441 E1.09001
G1 X136.559 Y163.441 E1.09001
G1 X136.559 Y136.619 E1.08757
G1 X136.132 Y136.132 F36000
G1 F900
G1 X163.868 Y136.132 E1.12458
G1 X163.868 Y163.868 E1.12458
G1 X136.132 Y163.868 E1.12458
G1 X136.132 Y136.192 E1.12215
G1 X135.706 Y135.706 F36000
G1 F900
G1 X164.294 Y135.706 E1.15915
G1 X164.294 Y164.294 E1.15915
G1 X135.706 Y164.294 E1.15915
G1 X135.706 Y135.766 E1.15672
M204 S1000
G1 X135.28 Y135.28 F36000
;TYPE:External perimeter
G1 F900
G1 X164.72 Y135.28 E1.19373
G1 X164.72 Y164.72 E1.19373
G1 X135.28 Y164.72 E1.19373
G1 X135.28 Y135.34 E1.1913
;WIPE_START
M204 S1500
G1 X135.626 Y135.48 F36000
;WIPE_END
G1 X162.515 Y136.623
;TYPE:Solid infill
;WIDTH:0.475046
G1 F1200
G1 X163.194 Y137.301 E0.03851
G1 X163.194 Y137.904 E0.0242
G1 X162.096 Y136.806 E0.06232
G1 X161.493 Y136.806 E0.0242
G1 X163.194 Y138.507 E0.09654
G1 X163.194 Y139.11 E0.0242
G1 X160.89 Y136.806 E0.13076
G1 X160.287 Y136.806 E0.0242
G1 X163.194 Y139.713 E0.16497
G1 X163.194 Y140.316 E0.0242
G1 X159.684 Y136.806 E0.19919
G1 X159.081 Y136.806 E0.0242
G1 X163.194 Y140.919 E0.23341
G1 X163.194 Y141.522 E0.0242
G1 X158.478 Y136.806 E0.26763
G1 X157.875 Y136.806 E0.0242
G1 X163.194 Y142.125 E0.30184
G1 X163.194 Y142.728 E0.0242
G1 X157.272 Y136.806 E0.33606
G1 X156.669 Y136.806 E0.0242
G1 X163.194 Y143.331 E0.37028
G1 X163.194 Y143.934 E0.0242
G1 X156.066 Y136.806 E0.4045
G1 X155.463 Y136.806 E0.0242
G1 X163.194 Y144.537 E0.43872
G1 X163.194 Y145.14 E0.0242
G1 X154.86 Y136.806 E0.47293
G1 X154.257 Y136.806 E0.0242
G1 X163.194 Y145.743 E0.50715
G1 X163.194 Y146.345 E0.0242
G1 X153.655 Y136.806 E0.54137
G1 X153.052 Y136.806 E0.0242
G1 X163.194 Y146.948 E0.57559
G1 X163.194 Y147.551 E0.0242
G1 X152.449 Y136.806 E0.6098
G1 X151.846 Y136.806 E0.0242
G1 X163.194 Y148.154 E0.64402
G1 X163.194 Y148.757 E0.0242
G1 X151.243 Y136.806 E0.67824
G1 X150.64 Y136.806 E0.0242
G1 X163.194 Y149.36 E0.71246
G1 X163.194 Y149.963 E0.0242
G1 X150.037 Y136.806 E0.74667
G1 X149.434 Y136.806 E0.0242
G1 X163.194 Y150.566 E0.78089
G1 X163.194 Y151.169 E0.0242
G1 X148.831 Y136.806 E0.81511
G1 X148.228 Y136.806 E0.0242
G1 X163.194 Y151.772 E0.84933
G1 X163.194 Y152.375 E0.0242
G1 X147.625 Y136.806 E0.88355
G1 X147.022 Y136.806 E0.0242
G1 X163.194 Y152.978 E0.91776
G1 X163.194 Y153.581 E0.0242
G1 X146.419 Y136.806 E0.95198
G1 X145.816 Y136.806 E0.0242
G1 X163.194 Y154.184 E0.9862
G1 X163.194 Y154.787 E0.0242
G1 X145.213 Y136.806 E1.02042
G1 X144.61 Y136.806 E0.0242
G1 X163.194 Y155.39 E1.05463
G1 X163.194 Y155.993 E0.0242
G1 X144.007 Y136.806 E1.08885
G1 X143.404 Y136.806 E0.0242
G1 X163.194 Y156.596 E1.12307
G1 X163.194 Y157.199 E0.0242
G1 X142.801 Y136.806 E1.15729
G1 X142.198 Y136.806 E0.0242
G1 X163.194 Y157.802 E1.1915
G1 X163.194 Y158.404 E0.0242
G1 X141.596 Y136.806 E1.22572
G1 X140.993 Y136.806 E0.0242
G1 X163.194 Y159.007 E1.25994
G1 X163.194 Y159.61 E0.0242
G1 X140.39 Y136.806 E1.29416
G1 X139.787 Y136.806 E0.0242
G1 X163.194 Y160.213 E1.32838
G1 X163.194 Y160.816 E0.0242
G1 X139.184 Y136.806 E1.36259
G1 X138.581 Y136.806 E0.0242
G1 X163.194 Y161.419 E1.39681
G1 X163.194 Y162.022 E0.0242
G1 X137.978 Y136.806 E1.43103
G1 X137.375 Y136.806 E0.0242
G1 X163.194 Y162.625 E1.46525
G1 X163.194 Y163.194 E0.02283
G1 X163.16 Y163.194 E0.00137
G1 X136.806 Y136.84 E1.49559
G1 X136.806 Y137.443 E0.0242
G1 X162.557 Y163.194 E1.46137
G1 X161.954 Y163.194 E0.0242
G1 X136.806 Y138.046 E1.42716
G1 X136.806 Y138.649 E0.0242
G1 X161.351 Y163.194 E1.39294
G1 X160.748 Y163.194 E0.0242
G1 X136.806 Y139.252 E1.35872
G1 X136.806 Y139.855 E0.0242
G1 X160.145 Y163.194 E1.3245
G1 X159.542 Y163.194 E0.0242
G1 X136.806 Y140.458 E1.29029
G1 X136.806 Y141.061 E0.0242
G1 X158.939 Y163.194 E1.25607
G1 X158.336 Y163.194 E0.0242
G1 X136.806 Y141.664 E1.22185
G1 X136.806 Y142.267 E0.0242
G1 X157.733 Y163.194 E1.18763
G1 X157.13 Y163.194 E0.0242
G1 X136.806 Y142.87 E1.15341
G1 X136.806 Y143.473 E0.0242
G1 X156.527 Y163.194 E1.1192
G1 X155.924 Y163.194 E0.0242
G1 X136.806 Y144.076 E1.08498
G1 X136.806 Y144.679 E0.0242
G1 X155.321 Y163.194 E1.05076
G1 X154.719 Y163.194 E0.0242
G1 X136.806 Y145.281 E1.01654
G1 X136.806 Y145.884 E0.0242
G1 X154.116 Y163.194 E0.98233
G1 X153.513 Y163.194 E0.0242
G1 X136.806 Y146.487 E0.94811
G1 X136.806 Y147.09 E0.0242
G1 X152.91 Y163.194 E0.91389
G1 X152.307 Y163.194 E0.0242
G1 X136.806 Y147.693 E0.87967
G1 X136.806 Y148.296 E0.0242
G1 X151.704 Y163.194 E0.84546
G1 X151.101 Y163.194 E0.0242
G1 X136.806 Y148.899 E0.81124
G1 X136.806 Y149.502 E0.0242
G1 X150.498 Y163.194 E0.77702
G1 X149.895 Y163.194 E0.0242
G1 X136.806 Y150.105 E0.7428
G1 X136.806 Y150.708 E0.0242
G1 X149.292 Y163.194 E0.70858
G1 X148.689 Y163.194 E0.0242
G1 X136.806 Y151.311 E0.67437
G1 X136.806 Y151.914 E0.0242
G1 X148.086 Y163.194 E0.64015
G1 X147.483 Y163.194 E0.0242
G1 X136.806 Y152.517 E0.60593
G1 X136.806 Y153.12 E0.0242
G1 X146.88 Y163.194 E0.57171
G1 X146.277 Y163.194 E0.0242
G1 X136.806 Y153.723 E0.5375
G1 X136.806 Y154.326 E0.0242
G1 X145.674 Y163.194 E0.50328
G1 X145.071 Y163.194 E0.0242
G1 X136.806 Y154.929 E0.46906
G1 X136.806 Y155.532 E0.0242
G1 X144.468 Y163.194 E0.43484
G1 X143.865 Y163.194 E0.0242
G1 X136.806 Y156.135 E0.40063
G1 X136.806 Y156.737 E0.0242
G1 X143.263 Y163.194 E0.36641
G1 X142.66 Y163.194 E0.0242
G1 X136.806 Y157.34 E0.33219
G1 X136.806 Y157.943 E0.0242
G1 X142.057 Y163.194 E0.29797
G1 X141.454 Y163.194 E0.0242
G1 X136.806 Y158.546 E0.26375
G1 X136.806 Y159.149 E0.0242
G1 X140.851 Y163.194 E0.22954
G1 X140.248 Y163.194 E0.0242
G1 X136.806 Y159.752 E0.19532
G1 X136.806 Y160.355 E0.0242
G1 X139.645 Y163.194 E0.1611
G1 X139.042 Y163.194 E0.0242
G1 X136.806 Y160.958 E0.12688
G1 X136.806 Y161.561 E0.0242
G1 X138.439 Y163.194 E0.09267
G1 X137.836 Y163.194 E0.0242
G1 X136.806 Y162.164 E0.05845
G1 X136.806 Y162.767 E0.0242
G1 X137.416 Y163.377 E0.03463
; INIT stop printing object Shape-Box id:0 copy 0
;LAYER_CHANGE
;Z:0.45
;HEIGHT:0.2
;BEFORE_LAYER_CHANGE
;0.45
TIMELAPSE_TAKE_FRAME


; stop printing object Shape-Box id:0 copy 0
G1 Z0.45 F36000
;AFTER_LAYER_CHANGE
;0.45
G92 E0
M104 S250 ; set temperature
; INIT printing object Shape-Box id:0 copy 0
; printing object Shape-Box id:0 copy 0
G1 X136.478 Y163.522
;TYPE:Internal perimeter
;WIDTH:0.48
G1 F9000
G1 X136.478 Y136.478 E0.89935
G1 X163.522 Y136.478 E0.89935
G1 X163.522 Y163.522 E0.89935
G1 X136.538 Y163.522 E0.89735
M107
G1 X136.041 Y163.959 F36000
G1 F9000
G1 X136.041 Y136.041 E0.92842
G1 X163.959 Y136.041 E0.92842
G1 X163.959 Y163.959 E0.92842
G1 X136.101 Y163.959 E0.92642
M107
G1 X135.604 Y164.396 F36000
G1 F9000
G1 X135.604 Y135.604 E0.95749
G1 X164.396 Y135.604 E0.95749
G1 X164.396 Y164.396 E0.95749
G1 X135.664 Y164.396 E0.95549
M107
M204 S1000
G1 X135.206 Y164.794 F36000
;TYPE:External perimeter
;WIDTH:0.4
G1 F4800
M106 S191.25
G1 X135.206 Y135.206 E0.80381
G1 X164.794 Y135.206 E0.80381
G1 X164.794 Y164.794 E0.80381
G1 X135.266 Y164.794 E0.80218
M107
;WIPE_START
M204 S1500
G1 X135.406 Y164.447 F36000
;WIPE_END
G1 X162.424 Y163.469
;TYPE:Solid infill
;WIDTH:0.5526
G1 F9995.156
G1 X163.246 Y162.646 E0.04518
G1 X163.246 Y161.915 E0.02839
G1 X161.915 Y163.246 E0.07312
G1 X161.183 Y163.246 E0.02839
G1 X163.246 Y161.183 E0.11327
G1 X163.246 Y160.452 E0.02839
G1 X160.452 Y163.246 E0.15341
G1 X159.721 Y163.246 E0.02839
G1 X163.246 Y159.721 E0.19356
G1 X163.246 Y158.99 E0.02839
G1 X158.99 Y163.246 E0.23371
G1 X158.258 Y163.246 E0.02839
G1 X163.246 Y158.258 E0.27385
G1 X163.246 Y157.527 E0.02839
G1 X157.527 Y163.246 E0.314
G1 X156.796 Y163.246 E0.02839
G1 X163.246 Y156.796 E0.35415
G1 X163.246 Y156.065 E0.02839
G1 X156.065 Y163.246 E0.39429
G1 X155.333 Y163.246 E0.02839
G1 X163.246 Y155.333 E0.43444
G1 X163.246 Y154.602 E0.02839
G1 X154.602 Y163.246 E0.47459
G1 X153.871 Y163.246 E0.02839
G1 X163.246 Y153.871 E0.51473
G1 X163.246 Y153.139 E0.02839
G1 X153.139 Y163.246 E0.55488
G1 X152.408 Y163.246 E0.02839
G1 X163.246 Y152.408 E0.59503
G1 X163.246 Y151.677 E0.02839
G1 X151.677 Y163.246 E0.63518
G1 X150.946 Y163.246 E0.02839
G1 X163.246 Y150.946 E0.67532
G1 X163.246 Y150.214 E0.02839
G1 X150.214 Y163.246 E0.71547
G1 X149.483 Y163.246 E0.02839
G1 X163.246 Y149.483 E0.75562
G1 X163.246 Y148.752 E0.02839
G1 X148.752 Y163.246 E0.79576
G1 X148.021 Y163.246 E0.02839
G1 X163.246 Y148.021 E0.83591
G1 X163.246 Y147.289 E0.02839
G1 X147.289 Y163.246 E0.87606
G1 X146.558 Y163.246 E0.02839
G1 X163.246 Y146.558 E0.9162
G1 X163.246 Y145.827 E0.02839
G1 X145.827 Y163.246 E0.95635
G1 X145.096 Y163.246 E0.02839
G1 X163.246 Y145.096 E0.9965
G1 X163.246 Y144.364 E0.02839
G1 X144.364 Y163.246 E1.03665
G1 X143.633 Y163.246 E0.02839
G1 X163.246 Y143.633 E1.07679
G1 X163.246 Y142.902 E0.02839
G1 X142.902 Y163.246 E1.11694
G1 X142.171 Y163.246 E0.02839
G1 X163.246 Y142.171 E1.15709
G1 X163.246 Y141.439 E0.02839
G1 X141.439 Y163.246 E1.19723
G1 X140.708 Y163.246 E0.02839
G1 X163.246 Y140.708 E1.23738
G1 X163.246 Y139.977 E0.02839
G1 X139.977 Y163.246 E1.27753
G1 X139.246 Y163.246 E0.02839
G1 X163.246 Y139.246 E1.31767
G1 X163.246 Y138.514 E0.02839
G1 X138.514 Y163.246 E1.35782
G1 X137.783 Y163.246 E0.02839
G1 X163.246 Y137.783 E1.39797
G1 X163.246 Y137.052 E0.02839
G1 X137.052 Y163.246 E1.43811
G1 X136.754 Y163.246 E0.01158
G1 X136.754 Y162.813 E0.01681
G1 X162.813 Y136.754 E1.43071
G1 X162.082 Y136.754 E0.02839
G1 X136.754 Y162.082 E1.39057
G1 X136.754 Y161.351 E0.02839
G1 X161.351 Y136.754 E1.35042
G1 X160.62 Y136.754 E0.02839
G1 X136.754 Y160.62 E1.31027
G1 X136.754 Y159.888 E0.02839
G1 X159.888 Y136.754 E1.27012
G1 X159.157 Y136.754 E0.02839
G1 X136.754 Y159.157 E1.22998
G1 X136.754 Y158.426 E0.02839
G1 X158.426 Y136.754 E1.18983
G1 X157.695 Y136.754 E0.02839
G1 X136.754 Y157.695 E1.14968
G1 X136.754 Y156.963 E0.02839
G1 X156.963 Y136.754 E1.10954
G1 X156.232 Y136.754 E0.02839
G1 X136.754 Y156.232 E1.06939
G1 X136.754 Y155.501 E0.02839
G1 X155.501 Y136.754 E1.02924
G1 X154.77 Y136.754 E0.02839
G1 X136.754 Y154.77 E0.9891
G1 X136.754 Y154.038 E0.02839
G1 X154.038 Y136.754 E0.94895
G1 X153.307 Y136.754 E0.02839
G1 X136.754 Y153.307 E0.9088
G1 X136.754 Y152.576 E0.02839
G1 X152.576 Y136.754 E0.86865
G1 X151.844 Y136.754 E0.02839
G1 X136.754 Y151.844 E0.82851
G1 X136.754 Y151.113 E0.02839
G1 X151.113 Y136.754 E0.78836
G1 X150.382 Y136.754 E0.02839
G1 X136.754 Y150.382 E0.74821
G1 X136.754 Y149.651 E0.02839
G1 X149.651 Y136.754 E0.70807
G1 X148.919 Y136.754 E0.02839
G1 X136.754 Y148.919 E0.66792
G1 X136.754 Y148.188 E0.02839
G1 X148.188 Y136.754 E0.62777
G1 X147.457 Y136.754 E0.02839
G1 X136.754 Y147.457 E0.58763
G1 X136.754 Y146.726 E0.02839
G1 X146.726 Y136.754 E0.54748
G1 X145.994 Y136.754 E0.02839
G1 X136.754 Y145.994 E0.50733
G1 X136.754 Y145.263 E0.02839
G1 X145.263 Y136.754 E0.46719
G1 X144.532 Y136.754 E0.02839
G1 X136.754 Y144.532 E0.42704
G1 X136.754 Y143.801 E0.02839
G1 X143.801 Y136.754 E0.38689
G1 X143.069 Y136.754 E0.02839
G1 X136.754 Y143.069 E0.34674
G1 X136.754 Y142.338 E0.02839
G1 X142.338 Y136.754 E0.3066
G1 X141.607 Y136.754 E0.02839
G1 X136.754 Y141.607 E0.26645
G1 X136.754 Y140.876 E0.02839
G1 X140.876 Y136.754 E0.2263
G1 X140.144 Y136.754 E0.02839
G1 X136.754 Y140.144 E0.18616
G1 X136.754 Y139.413 E0.02839
G1 X139.413 Y136.754 E0.14601
G1 X138.682 Y136.754 E0.02839
G1 X136.754 Y138.682 E0.10586
G1 X136.754 Y137.951 E0.02839
G1 X137.951 Y136.754 E0.06572
G1 X137.219 Y136.754 E0.02839
G1 X136.531 Y137.442 E0.03778
M107
; INIT stop printing object Shape-Box id:0 copy 0
;LAYER_CHANGE
;Z:0.65
;HEIGHT:0.2
;BEFORE_LAYER_CHANGE
;0.65
TIMELAPSE_TAKE_FRAME


; stop printing object Shape-Box id:0 copy 0
G1 Z0.65 F36000
;AFTER_LAYER_CHANGE
;0.65
G92 E0
; INIT printing object Shape-Box id:0 copy 0
; printing object Shape-Box id:0 copy 0
G1 X136.444 Y136.444
;TYPE:Internal perimeter
;WIDTH:0.48
G1 F7802
G1 X163.556 Y136.444 E0.90156
G1 X163.556 Y163.556 E0.90156
G1 X136.444 Y163.556 E0.90156
G1 X136.444 Y136.504 E0.89957
M107
G1 X136.007 Y136.007 F36000
G1 F7802
G1 X163.993 Y136.007 E0.93063
G1 X163.993 Y163.993 E0.93063
G1 X136.007 Y163.993 E0.93063
G1 X136.007 Y136.067 E0.92864
M107
G1 X135.57 Y135.57 F36000
G1 F7802
G1 X164.43 Y135.57 E0.9597
G1 X164.43 Y164.43 E0.9597
G1 X135.57 Y164.43 E0.9597
G1 X135.57 Y135.63 E0.95771
M107
M204 S1000
G1 X135.173 Y135.173 F36000
;TYPE:External perimeter
;WIDTH:0.4
G1 F4800
M106 S191.25
G1 X164.827 Y135.173 E0.80562
G1 X164.827 Y164.827 E0.80562
G1 X135.173 Y164.827 E0.80562
G1 X135.173 Y135.233 E0.80399
M107
;WIPE_START
M204 S1500
G1 X135.52 Y135.373 F36000
;WIPE_END
G1 X162.457 Y136.498
;TYPE:Solid infill
;WIDTH:0.55269
G1 F7802
G1 X163.28 Y137.321 E0.04519
G1 X163.28 Y138.052 E0.02839
G1 X161.948 Y136.72 E0.07313
G1 X161.217 Y136.72 E0.02839
G1 X163.28 Y138.783 E0.11328
G1 X163.28 Y139.515 E0.02839
G1 X160.485 Y136.72 E0.15344
G1 X159.754 Y136.72 E0.02839
G1 X163.28 Y140.246 E0.19359
G1 X163.28 Y140.977 E0.02839
G1 X159.023 Y136.72 E0.23374
G1 X158.292 Y136.72 E0.02839
G1 X163.28 Y141.708 E0.2739
G1 X163.28 Y142.44 E0.02839
G1 X157.56 Y136.72 E0.31405
G1 X156.829 Y136.72 E0.02839
G1 X163.28 Y143.171 E0.3542
G1 X163.28 Y143.902 E0.02839
G1 X156.098 Y136.72 E0.39436
G1 X155.367 Y136.72 E0.02839
G1 X163.28 Y144.633 E0.43451
G1 X163.28 Y145.365 E0.02839
G1 X154.635 Y136.72 E0.47466
G1 X153.904 Y136.72 E0.02839
G1 X163.28 Y146.096 E0.51482
G1 X163.28 Y146.827 E0.02839
G1 X153.173 Y136.72 E0.55497
G1 X152.442 Y136.72 E0.02839
G1 X163.28 Y147.558 E0.59513
G1 X163.28 Y148.29 E0.02839
G1 X151.71 Y136.72 E0.63528
G1 X150.979 Y136.72 E0.02839
G1 X163.28 Y149.021 E0.67543
G1 X163.28 Y149.752 E0.02839
G1 X150.248 Y136.72 E0.71559
G1 X149.517 Y136.72 E0.02839
G1 X163.28 Y150.483 E0.75574
G1 X163.28 Y151.215 E0.02839
G1 X148.785 Y136.72 E0.79589
G1 X148.054 Y136.72 E0.02839
G1 X163.28 Y151.946 E0.83605
G1 X163.28 Y152.677 E0.02839
G1 X147.323 Y136.72 E0.8762
G1 X146.591 Y136.72 E0.02839
G1 X163.28 Y153.409 E0.91635
G1 X163.28 Y154.14 E0.02839
G1 X145.86 Y136.72 E0.95651
G1 X145.129 Y136.72 E0.02839
G1 X163.28 Y154.871 E0.99666
G1 X163.28 Y155.602 E0.02839
G1 X144.398 Y136.72 E1.03681
G1 X143.666 Y136.72 E0.02839
G1 X163.28 Y156.334 E1.07697
G1 X163.28 Y157.065 E0.02839
G1 X142.935 Y136.72 E1.11712
G1 X142.204 Y136.72 E0.02839
G1 X163.28 Y157.796 E1.15727
G1 X163.28 Y158.527 E0.02839
G1 X141.473 Y136.72 E1.19743
G1 X140.741 Y136.72 E0.02839
G1 X163.28 Y159.259 E1.23758
G1 X163.28 Y159.99 E0.02839
G1 X140.01 Y136.72 E1.27773
G1 X139.279 Y136.72 E0.02839
G1 X163.28 Y160.721 E1.31789
G1 X163.28 Y161.452 E0.02839
G1 X138.548 Y136.72 E1.35804
G1 X137.816 Y136.72 E0.02839
G1 X163.28 Y162.184 E1.39819
