; generated by SuperSlicer 2.4 on 2022-08-07 at 21:33:08 UTC


;
;

;
;
; 

; external perimeters extrusion width = 0.40mm
; perimeters extrusion width = 0.48mm
; infill extrusion width = 0.72mm
; solid infill extrusion width = 0.56mm
; top infill extrusion width = 0.40mm
; first layer extrusion width = 0.48mm

; object:{"name":"Shape-Box","id":"Shape-Box id:0 copy 0","object_center":[150.000000,150.000000,0.000000],"boundingbox_center":[150.000000,150.000000,15.000000],"boundingbox_size":[30.000000,30.000000,30.000000]}
; plater:{"center":[150.000000,150.000000,0.000000],"boundingbox_center":[150.000000,150.000000,15.000000],"boundingbox_size":[30.000000,30.000000,30.000000]}

;TYPE:Custom
print_start EXTRUDER=250 BED=100 CHAMBER=50
M107
G21 ; set units to millimeters
G90 ; use absolute coordinates
M83 ; use relative distances for extrusion
M104 S250 ; set temperature
M109 S250 ; set temperature and wait for it to be reached
M190 S100 ; set bed temperature and wait for it to be reached
M107
;LAYER_CHANGE
;Z:0.25
;HEIGHT:0.25
;BEFORE_LAYER_CHANGE
;0.25
TIMELAPSE_TAKE_FRAME


G1 Z0.25 F27000
;AFTER_LAYER_CHANGE
;0.25
G92 E0
; INIT printing object Shape-Box id:0 copy 0
G1 E-0.75 F3000
M204 S1500
G1 Z0.65 F27000
; printing object Shape-Box id:0 copy 0
G1 X136.619 Y136.619
G1 Z0.25
G1 E0.75 F1800
;TYPE:Internal perimeter
;WIDTH:0.48
G1 X163.381 Y136.619 E1.18592
G1 X163.381 Y163.381 E1.18592
G1 X136.619 Y163.381 E1.18592
G1 X136.619 Y136.679 E1.18327
G1 X136.193 Y136.193 F27000
G1 F1800
G1 X163.807 Y136.193 E1.22371
G1 X163.807 Y163.807 E1.22371
G1 X136.193 Y163.807 E1.22371
G1 X136.193 Y136.253 E1.22105
G1 X135.766 Y135.766 F27000
G1 F1800
G1 X164.234 Y135.766 E1.2615
G1 X164.234 Y164.234 E1.2615
G1 X135.766 Y164.234 E1.2615
G1 X135.766 Y135.826 E1.25884
M204 S1000
G1 X135.34 Y135.34 F27000
;TYPE:External perimeter
G1 F1800
G1 X164.66 Y135.34 E1.29928
G1 X164.66 Y164.66 E1.29928
G1 X135.34 Y164.66 E1.29928
G1 X135.34 Y135.4 E1.29662
;WIPE_START
M204 S1500
G1 X135.686 Y135.54 F27000
;WIPE_END
G1 X162.455 Y136.683
;TYPE:Solid infill
;WIDTH:0.474989
G1 F3600
G1 X163.134 Y137.362 E0.04208
G1 X163.134 Y137.964 E0.02644
G1 X162.036 Y136.866 E0.0681
G1 X161.433 Y136.866 E0.02644
G1 X163.134 Y138.567 E0.10549
G1 X163.134 Y139.17 E0.02644
G1 X160.83 Y136.866 E0.14289
G1 X160.227 Y136.866 E0.02644
G1 X163.134 Y139.773 E0.18028
G1 X163.134 Y140.376 E0.02644
G1 X159.624 Y136.866 E0.21767
G1 X159.021 Y136.866 E0.02644
G1 X163.134 Y140.979 E0.25506
G1 X163.134 Y141.582 E0.02644
G1 X158.418 Y136.866 E0.29245
G1 X157.815 Y136.866 E0.02644
G1 X163.134 Y142.185 E0.32984
G1 X163.134 Y142.788 E0.02644
G1 X157.212 Y136.866 E0.36724
G1 X156.609 Y136.866 E0.02644
G1 X163.134 Y143.391 E0.40463
G1 X163.134 Y143.994 E0.02644
G1 X156.006 Y136.866 E0.44202
G1 X155.403 Y136.866 E0.02644
G1 X163.134 Y144.597 E0.47941
G1 X163.134 Y145.2 E0.02644
G1 X154.8 Y136.866 E0.5168
G1 X154.197 Y136.866 E0.02644
G1 X163.134 Y145.803 E0.5542
G1 X163.134 Y146.406 E0.02644
G1 X153.594 Y136.866 E0.59159
G1 X152.991 Y136.866 E0.02644
G1 X163.134 Y147.009 E0.62898
G1 X163.134 Y147.612 E0.02644
G1 X152.388 Y136.866 E0.66637
G1 X151.785 Y136.866 E0.02644
G1 X163.134 Y148.215 E0.70376
G1 X163.134 Y148.818 E0.02644
G1 X151.182 Y136.866 E0.74116
G1 X150.58 Y136.866 E0.02644
G1 X163.134 Y149.42 E0.77855
G1 X163.134 Y150.023 E0.02644
G1 X149.977 Y136.866 E0.81594
G1 X149.374 Y136.866 E0.02644
G1 X163.134 Y150.626 E0.85333
G1 X163.134 Y151.229 E0.02644
G1 X148.771 Y136.866 E0.89072
G1 X148.168 Y136.866 E0.02644
G1 X163.134 Y151.832 E0.92811
G1 X163.134 Y152.435 E0.02644
G1 X147.565 Y136.866 E0.96551
G1 X146.962 Y136.866 E0.02644
G1 X163.134 Y153.038 E1.0029
G1 X163.134 Y153.641 E0.02644
G1 X146.359 Y136.866 E1.04029
G1 X145.756 Y136.866 E0.02644
G1 X163.134 Y154.244 E1.07768
G1 X163.134 Y154.847 E0.02644
G1 X145.153 Y136.866 E1.11507
G1 X144.55 Y136.866 E0.02644
G1 X163.134 Y155.45 E1.15247
G1 X163.134 Y156.053 E0.02644
G1 X143.947 Y136.866 E1.18986
G1 X143.344 Y136.866 E0.02644
G1 X163.134 Y156.656 E1.22725
G1 X163.134 Y157.259 E0.02644
G1 X142.741 Y136.866 E1.26464
G1 X142.138 Y136.866 E0.02644
G1 X163.134 Y157.862 E1.30203
G1 X163.134 Y158.465 E0.02644
G1 X141.535 Y136.866 E1.33943
G1 X140.932 Y136.866 E0.02644
G1 X163.134 Y159.068 E1.37682
G1 X163.134 Y159.671 E0.02644
G1 X140.329 Y136.866 E1.41421
G1 X139.726 Y136.866 E0.02644
G1 X163.134 Y160.274 E1.4516
G1 X163.134 Y160.876 E0.02644
G1 X139.124 Y136.866 E1.48899
G1 X138.521 Y136.866 E0.02644
G1 X163.134 Y161.479 E1.52638
G1 X163.134 Y162.082 E0.02644
G1 X137.918 Y136.866 E1.56378
G1 X137.315 Y136.866 E0.02644
G1 X163.134 Y162.685 E1.60117
G1 X163.134 Y163.134 E0.01966
G1 X162.979 Y163.134 E0.00678
G1 X136.866 Y137.021 E1.61939
G1 X136.866 Y137.624 E0.02644
G1 X162.376 Y163.134 E1.58199
G1 X161.773 Y163.134 E0.02644
G1 X136.866 Y138.227 E1.5446
G1 X136.866 Y138.83 E0.02644
G1 X161.17 Y163.134 E1.50721
G1 X160.567 Y163.134 E0.02644
G1 X136.866 Y139.433 E1.46982
G1 X136.866 Y140.036 E0.02644
G1 X159.964 Y163.134 E1.43243
G1 X159.361 Y163.134 E0.02644
G1 X136.866 Y140.639 E1.39503
G1 X136.866 Y141.242 E0.02644
G1 X158.758 Y163.134 E1.35764
G1 X158.156 Y163.134 E0.02644
G1 X136.866 Y141.844 E1.32025
G1 X136.866 Y142.447 E0.02644
G1 X157.553 Y163.134 E1.28286
G1 X156.95 Y163.134 E0.02644
G1 X136.866 Y143.05 E1.24547
G1 X136.866 Y143.653 E0.02644
G1 X156.347 Y163.134 E1.20807
G1 X155.744 Y163.134 E0.02644
G1 X136.866 Y144.256 E1.17068
G1 X136.866 Y144.859 E0.02644
G1 X155.141 Y163.134 E1.13329
G1 X154.538 Y163.134 E0.02644
G1 X136.866 Y145.462 E1.0959
G1 X136.866 Y146.065 E0.02644
G1 X153.935 Y163.134 E1.05851
G1 X153.332 Y163.134 E0.02644
G1 X136.866 Y146.668 E1.02112
G1 X136.866 Y147.271 E0.02644
G1 X152.729 Y163.134 E0.98372
G1 X152.126 Y163.134 E0.02644
G1 X136.866 Y147.874 E0.94633
G1 X136.866 Y148.477 E0.02644
G1 X151.523 Y163.134 E0.90894
G1 X150.92 Y163.134 E0.02644
G1 X136.866 Y149.08 E0.87155
G1 X136.866 Y149.683 E0.02644
G1 X150.317 Y163.134 E0.83416
G1 X149.714 Y163.134 E0.02644
G1 X136.866 Y150.286 E0.79676
G1 X136.866 Y150.889 E0.02644
G1 X149.111 Y163.134 E0.75937
G1 X148.508 Y163.134 E0.02644
G1 X136.866 Y151.492 E0.72198
G1 X136.866 Y152.095 E0.02644
G1 X147.905 Y163.134 E0.68459
G1 X147.302 Y163.134 E0.02644
G1 X136.866 Y152.698 E0.6472
G1 X136.866 Y153.301 E0.02644
G1 X146.699 Y163.134 E0.6098
G1 X146.097 Y163.134 E0.02644
G1 X136.866 Y153.903 E0.57241
G1 X136.866 Y154.506 E0.02644
G1 X145.494 Y163.134 E0.53502
G1 X144.891 Y163.134 E0.02644
G1 X136.866 Y155.109 E0.49763
G1 X136.866 Y155.712 E0.02644
G1 X144.288 Y163.134 E0.46024
G1 X143.685 Y163.134 E0.02644
G1 X136.866 Y156.315 E0.42285
G1 X136.866 Y156.918 E0.02644
G1 X143.082 Y163.134 E0.38545
G1 X142.479 Y163.134 E0.02644
G1 X136.866 Y157.521 E0.34806
G1 X136.866 Y158.124 E0.02644
G1 X141.876 Y163.134 E0.31067
G1 X141.273 Y163.134 E0.02644
G1 X136.866 Y158.727 E0.27328
G1 X136.866 Y159.33 E0.02644
G1 X140.67 Y163.134 E0.23589
G1 X140.067 Y163.134 E0.02644
G1 X136.866 Y159.933 E0.19849
G1 X136.866 Y160.536 E0.02644
G1 X139.464 Y163.134 E0.1611
G1 X138.861 Y163.134 E0.02644
G1 X136.866 Y161.139 E0.12371
G1 X136.866 Y161.742 E0.02644
G1 X138.258 Y163.134 E0.08632
G1 X137.655 Y163.134 E0.02644
G1 X136.866 Y162.345 E0.04893
G1 X136.866 Y162.948 E0.02644
G1 X137.236 Y163.317 E0.0229
; INIT stop printing object Shape-Box id:0 copy 0
;LAYER_CHANGE
;Z:0.45
;HEIGHT:0.2
;BEFORE_LAYER_CHANGE
;0.45
TIMELAPSE_TAKE_FRAME


; stop printing object Shape-Box id:0 copy 0
G1 Z0.45 F27000
;AFTER_LAYER_CHANGE
;0.45
G92 E0
M140 S90 ; set bed temperature
; INIT printing object Shape-Box id:0 copy 0
; printing object Shape-Box id:0 copy 0
G1 X136.538 Y163.462
;TYPE:Internal perimeter
;WIDTH:0.48
G1 F7550.111
G1 X136.538 Y136.538 E0.97851
G1 X163.462 Y136.538 E0.97851
G1 X163.462 Y163.462 E0.97851
G1 X136.598 Y163.462 E0.97633
G1 X136.101 Y163.899 F27000
G1 F7550.111
G1 X136.101 Y136.101 E1.01028
G1 X163.899 Y136.101 E1.01028
G1 X163.899 Y163.899 E1.01028
G1 X136.161 Y163.899 E1.0081
G1 X135.664 Y164.336 F27000
G1 F7550.111
G1 X135.664 Y135.664 E1.04205
G1 X164.336 Y135.664 E1.04205
G1 X164.336 Y164.336 E1.04205
G1 X135.724 Y164.336 E1.03987
M204 S1000
G1 X135.267 Y164.733 F27000
;TYPE:External perimeter
;WIDTH:0.4
G1 F4800
G1 X135.267 Y135.267 E0.8749
G1 X164.733 Y135.267 E0.8749
G1 X164.733 Y164.733 E0.8749
G1 X135.327 Y164.733 E0.87312
;WIPE_START
M204 S1500
G1 X135.467 Y164.387 F27000
;WIPE_END
G1 X162.363 Y163.409
;TYPE:Solid infill
;WIDTH:0.552454
G1 F6469.1686
G1 X163.186 Y162.586 E0.04936
G1 X163.186 Y161.854 E0.03102
G1 X161.854 Y163.186 E0.07989
G1 X161.123 Y163.186 E0.03102
G1 X163.186 Y161.123 E0.12375
G1 X163.186 Y160.392 E0.03102
G1 X160.392 Y163.186 E0.16762
G1 X159.661 Y163.186 E0.03102
G1 X163.186 Y159.661 E0.21148
G1 X163.186 Y158.929 E0.03102
G1 X158.929 Y163.186 E0.25535
G1 X158.198 Y163.186 E0.03102
G1 X163.186 Y158.198 E0.29921
G1 X163.186 Y157.467 E0.03102
G1 X157.467 Y163.186 E0.34308
G1 X156.736 Y163.186 E0.03102
G1 X163.186 Y156.736 E0.38694
G1 X163.186 Y156.004 E0.03102
G1 X156.004 Y163.186 E0.43081
G1 X155.273 Y163.186 E0.03102
G1 X163.186 Y155.273 E0.47467
G1 X163.186 Y154.542 E0.03102
G1 X154.542 Y163.186 E0.51854
G1 X153.811 Y163.186 E0.03102
G1 X163.186 Y153.811 E0.5624
G1 X163.186 Y153.079 E0.03102
G1 X153.079 Y163.186 E0.60627
G1 X152.348 Y163.186 E0.03102
G1 X163.186 Y152.348 E0.65013
G1 X163.186 Y151.617 E0.03102
G1 X151.617 Y163.186 E0.694
G1 X150.885 Y163.186 E0.03102
G1 X163.186 Y150.885 E0.73786
G1 X163.186 Y150.154 E0.03102
G1 X150.154 Y163.186 E0.78173
G1 X149.423 Y163.186 E0.03102
G1 X163.186 Y149.423 E0.82559
G1 X163.186 Y148.692 E0.03102
G1 X148.692 Y163.186 E0.86946
G1 X147.96 Y163.186 E0.03102
G1 X163.186 Y147.96 E0.91332
G1 X163.186 Y147.229 E0.03102
G1 X147.229 Y163.186 E0.95719
G1 X146.498 Y163.186 E0.03102
G1 X163.186 Y146.498 E1.00105
G1 X163.186 Y145.767 E0.03102
G1 X145.767 Y163.186 E1.04492
G1 X145.035 Y163.186 E0.03102
G1 X163.186 Y145.035 E1.08878
G1 X163.186 Y144.304 E0.03102
G1 X144.304 Y163.186 E1.13265
G1 X143.573 Y163.186 E0.03102
G1 X163.186 Y143.573 E1.17651
G1 X163.186 Y142.842 E0.03102
G1 X142.842 Y163.186 E1.22038
G1 X142.11 Y163.186 E0.03102
G1 X163.186 Y142.11 E1.26424
G1 X163.186 Y141.379 E0.03102
G1 X141.379 Y163.186 E1.3081
G1 X140.648 Y163.186 E0.03102
G1 X163.186 Y140.648 E1.35197
G1 X163.186 Y139.917 E0.03102
G1 X139.917 Y163.186 E1.39583
G1 X139.185 Y163.186 E0.03102
G1 X163.186 Y139.185 E1.4397
G1 X163.186 Y138.454 E0.03102
G1 X138.454 Y163.186 E1.48356
G1 X137.723 Y163.186 E0.03102
G1 X163.186 Y137.723 E1.52743
G1 X163.186 Y136.992 E0.03102
G1 X136.992 Y163.186 E1.57129
G1 X136.814 Y163.186 E0.00754
G1 X136.814 Y162.633 E0.02348
G1 X162.633 Y136.814 E1.54875
G1 X161.901 Y136.814 E0.03102
G1 X136.814 Y161.901 E1.50489
G1 X136.814 Y161.17 E0.03102
G1 X161.17 Y136.814 E1.46102
G1 X160.439 Y136.814 E0.03102
G1 X136.814 Y160.439 E1.41716
G1 X136.814 Y159.708 E0.03102
G1 X159.708 Y136.814 E1.37329
G1 X158.976 Y136.814 E0.03102
G1 X136.814 Y158.976 E1.32943
G1 X136.814 Y158.245 E0.03102
G1 X158.245 Y136.814 E1.28556
G1 X157.514 Y136.814 E0.03102
G1 X136.814 Y157.514 E1.2417
G1 X136.814 Y156.783 E0.03102
G1 X156.783 Y136.814 E1.19783
G1 X156.051 Y136.814 E0.03102
G1 X136.814 Y156.051 E1.15397
G1 X136.814 Y155.32 E0.03102
G1 X155.32 Y136.814 E1.1101
G1 X154.589 Y136.814 E0.03102
G1 X136.814 Y154.589 E1.06624
G1 X136.814 Y153.858 E0.03102
G1 X153.858 Y136.814 E1.02237
G1 X153.126 Y136.814 E0.03102
G1 X136.814 Y153.126 E0.97851
G1 X136.814 Y152.395 E0.03102
G1 X152.395 Y136.814 E0.93464
G1 X151.664 Y136.814 E0.03102
G1 X136.814 Y151.664 E0.89078
G1 X136.814 Y150.933 E0.03102
G1 X150.933 Y136.814 E0.84691
G1 X150.201 Y136.814 E0.03102
G1 X136.814 Y150.201 E0.80305
G1 X136.814 Y149.47 E0.03102
G1 X149.47 Y136.814 E0.75918
G1 X148.739 Y136.814 E0.03102
G1 X136.814 Y148.739 E0.71532
G1 X136.814 Y148.007 E0.03102
G1 X148.007 Y136.814 E0.67146
G1 X147.276 Y136.814 E0.03102
G1 X136.814 Y147.276 E0.62759
G1 X136.814 Y146.545 E0.03102
G1 X146.545 Y136.814 E0.58373
G1 X145.814 Y136.814 E0.03102
G1 X136.814 Y145.814 E0.53986
G1 X136.814 Y145.082 E0.03102
G1 X145.082 Y136.814 E0.496
G1 X144.351 Y136.814 E0.03102
G1 X136.814 Y144.351 E0.45213
G1 X136.814 Y143.62 E0.03102
G1 X143.62 Y136.814 E0.40827
G1 X142.889 Y136.814 E0.03102
G1 X136.814 Y142.889 E0.3644
G1 X136.814 Y142.157 E0.03102
G1 X142.157 Y136.814 E0.32054
G1 X141.426 Y136.814 E0.03102
G1 X136.814 Y141.426 E0.27667
G1 X136.814 Y140.695 E0.03102
G1 X140.695 Y136.814 E0.23281
G1 X139.964 Y136.814 E0.03102
G1 X136.814 Y139.964 E0.18894
G1 X136.814 Y139.232 E0.03102
G1 X139.232 Y136.814 E0.14508
G1 X138.501 Y136.814 E0.03102
G1 X136.814 Y138.501 E0.10121
G1 X136.814 Y137.77 E0.03102
G1 X137.77 Y136.814 E0.05735
G1 X137.039 Y136.814 E0.03102
G1 X136.591 Y137.261 E0.02682
; INIT stop printing object Shape-Box id:0 copy 0
;LAYER_CHANGE
;Z:0.65
;HEIGHT:0.2
;BEFORE_LAYER_CHANGE
;0.65
TIMELAPSE_TAKE_FRAME


; stop printing object Shape-Box id:0 copy 0
G1 Z0.65 F27000
;AFTER_LAYER_CHANGE
;0.65
G92 E0
; INIT printing object Shape-Box id:0 copy 0
; printing object Shape-Box id:0 copy 0
G1 X136.505 Y136.505
;TYPE:Internal perimeter
;WIDTH:0.48
G1 F7550.111
G1 X163.495 Y136.505 E0.98094
G1 X163.495 Y163.495 E0.98094
G1 X136.505 Y163.495 E0.98094
G1 X136.505 Y136.565 E0.97876
G1 X136.067 Y136.067 F27000
G1 F7550.111
G1 X163.933 Y136.067 E1.01271
G1 X163.933 Y163.933 E1.01271
G1 X136.067 Y163.933 E1.01271
G1 X136.067 Y136.127 E1.01053
G1 X135.63 Y135.63 F27000
G1 F7550.111
G1 X164.37 Y135.63 E1.04448
G1 X164.37 Y164.37 E1.04448
G1 X135.63 Y164.37 E1.04448
G1 X135.63 Y135.69 E1.0423
M204 S1000
G1 X135.233 Y135.233 F27000
;TYPE:External perimeter
;WIDTH:0.4
G1 F4800
G1 X164.767 Y135.233 E0.87688
G1 X164.767 Y164.767 E0.87688
G1 X135.233 Y164.767 E0.87688
G1 X135.233 Y135.293 E0.8751
;WIPE_START
M204 S1500
G1 X135.58 Y135.433 F27000
;WIPE_END
G1 X162.397 Y136.558
;TYPE:Solid infill
;WIDTH:0.552532
G1 F6468.2488
G1 X163.22 Y137.381 E0.04937
G1 X163.22 Y138.112 E0.03102
G1 X161.888 Y136.78 E0.0799
G1 X161.156 Y136.78 E0.03102
G1 X163.22 Y138.844 E0.12377
G1 X163.22 Y139.575 E0.03102
G1 X160.425 Y136.78 E0.16764
G1 X159.694 Y136.78 E0.03102
G1 X163.22 Y140.306 E0.21151
G1 X163.22 Y141.037 E0.03102
G1 X158.963 Y136.78 E0.25539
G1 X158.231 Y136.78 E0.03102
G1 X163.22 Y141.769 E0.29926
G1 X163.22 Y142.5 E0.03102
G1 X157.5 Y136.78 E0.34313
G1 X156.769 Y136.78 E0.03102
G1 X163.22 Y143.231 E0.387
G1 X163.22 Y143.962 E0.03102
G1 X156.038 Y136.78 E0.43087
G1 X155.306 Y136.78 E0.03102
G1 X163.22 Y144.694 E0.47474
G1 X163.22 Y145.425 E0.03102
G1 X154.575 Y136.78 E0.51861
G1 X153.844 Y136.78 E0.03102
G1 X163.22 Y146.156 E0.56248
G1 X163.22 Y146.887 E0.03102
G1 X153.113 Y136.78 E0.60635
G1 X152.381 Y136.78 E0.03102
G1 X163.22 Y147.619 E0.65022
G1 X163.22 Y148.35 E0.03102
G1 X151.65 Y136.78 E0.6941
G1 X150.919 Y136.78 E0.03102
G1 X163.22 Y149.081 E0.73797
G1 X163.22 Y149.812 E0.03102
G1 X150.188 Y136.78 E0.78184
G1 X149.456 Y136.78 E0.03102
G1 X163.22 Y150.544 E0.82571
G1 X163.22 Y151.275 E0.03102
G1 X148.725 Y136.78 E0.86958
G1 X147.994 Y136.78 E0.03102
G1 X163.22 Y152.006 E0.91345
G1 X163.22 Y152.737 E0.03102
G1 X147.263 Y136.78 E0.95732
G1 X146.531 Y136.78 E0.03102
G1 X163.22 Y153.469 E1.00119
G1 X163.22 Y154.2 E0.03102
G1 X145.8 Y136.78 E1.04506
G1 X145.069 Y136.78 E0.03102
G1 X163.22 Y154.931 E1.08894
G1 X163.22 Y155.663 E0.03102
G1 X144.337 Y136.78 E1.13281
G1 X143.606 Y136.78 E0.03102
G1 X163.22 Y156.394 E1.17668
G1 X163.22 Y157.125 E0.03102
G1 X142.875 Y136.78 E1.22055
G1 X142.144 Y136.78 E0.03102
G1 X163.22 Y157.856 E1.26442
G1 X163.22 Y158.588 E0.03102
G1 X141.412 Y136.78 E1.30829
G1 X140.681 Y136.78 E0.03102
G1 X163.22 Y159.319 E1.35216
G1 X163.22 Y160.05 E0.03102
G1 X139.95 Y136.78 E1.39603
G1 X139.219 Y136.78 E0.03102
G1 X163.22 Y160.781 E1.4399
G1 X163.22 Y161.513 E0.03102
G1 X138.487 Y136.78 E1.48378
G1 X137.756 Y136.78 E0.03102
G1 X163.22 Y162.244 E1.52765
G1 X163.22 Y162.975 E0.03102
G1 X137.025 Y136.78 E1.57152
G1 X136.78 Y136.78 E0.01037
