; generated by SuperSlicer 2.5.59 on 2022-09-02 at 01:38:37 UTC


;
;

;
;
; 

; external perimeters extrusion width = 0.40mm
; perimeters extrusion width = 0.48mm
; infill extrusion width = 0.56mm
; solid infill extrusion width = 0.56mm
; top infill extrusion width = 0.40mm
; first layer extrusion width = 0.48mm

; object:{"name":"Shape-Box","id":"Shape-Box id:0 copy 0","object_center":[150.000000,150.000000,0.000000],"boundingbox_center":[150.000000,150.000000,15.000000],"boundingbox_size":[30.000000,30.000000,30.000000]}
; plater:{"center":[150.000000,150.000000,0.000000],"boundingbox_center":[150.000000,150.000000,15.000000],"boundingbox_size":[30.000000,30.000000,30.000000]}

M73 P0 R14
;TYPE:Custom
; custom gcode: start_gcode
PRINT_START EXTRUDER=250 BED=110
; custom gcode end: start_gcode
M107
G21 ; set units to millimeters
G90 ; use absolute coordinates
M83 ; use relative distances for extrusion
; custom gcode: start_filament_gcode
; Filament gcode
SET_PRESSURE_ADVANCE ADVANCE=0.03
SET_PRESSURE_ADVANCE EXTRUDER=extruder SMOOTH_TIME=0.04
; custom gcode end: start_filament_gcode
;_TOOLCHANGE 0
M109 S250 ; set temperature and wait for it to be reached
M190 S110 ; set bed temperature and wait for it to be reached
;LAYER_CHANGE
;Z:0.24
;HEIGHT:0.24
G1 Z0.24 F42000
G92 E0
M73 P2 R14
G1 E-0.5 F1800
M204 S2000
G1 X132.38 Y131.834 F42000
G1 E0.5 F1800
;TYPE:Skirt
;WIDTH:0.52
G1 X131.269 Y133.269 E0.08483
G1 X130.874 Y135.04 E0.08483
G1 X130.874 Y164.96 E1.39868
G1 X131.007 Y166.005 E0.04923
G1 X131.834 Y167.62 E0.08483
G1 X133.269 Y168.731 E0.08483
G1 X135.04 Y169.126 E0.08483
G1 X164.96 Y169.126 E1.39868
G1 X166.005 Y168.993 E0.04923
G1 X167.62 Y168.166 E0.08483
G1 X168.731 Y166.731 E0.08483
G1 X169.126 Y164.96 E0.08483
G1 X169.126 Y135.04 E1.39868
G1 X168.993 Y133.995 E0.04923
G1 X168.166 Y132.38 E0.08483
G1 X166.731 Y131.269 E0.08483
G1 X164.96 Y130.874 E0.08483
G1 X135.04 Y130.874 E1.39868
G1 X133.995 Y131.007 E0.04923
G1 X132.38 Y131.834 E0.08483
G1 X132.762 Y132.155 F42000
G1 F1800
G1 X131.735 Y133.377 E0.07463
G1 X131.34 Y135.04 E0.07988
G1 X131.34 Y164.96 E1.39868
M73 P3 R14
G1 X132.069 Y167.166 E0.10858
G1 X133.377 Y168.265 E0.07988
G1 X135.04 Y168.66 E0.07988
G1 X164.96 Y168.66 E1.39868
G1 X167.166 Y167.931 E0.10858
G1 X168.265 Y166.623 E0.07988
G1 X168.66 Y164.96 E0.07988
G1 X168.66 Y135.04 E1.39868
G1 X167.931 Y132.834 E0.10858
G1 X166.623 Y131.735 E0.07988
G1 X164.96 Y131.34 E0.07988
G1 X135.04 Y131.34 E1.39868
G1 X132.834 Y132.069 E0.10858
G1 X132.762 Y132.155 E0.00525
G1 X133.127 Y132.494 F42000
G1 F1800
G1 X132.2 Y133.493 E0.06371
G1 X131.807 Y135.04 E0.0746
G1 X131.807 Y164.96 E1.39868
G1 X132.324 Y166.714 E0.08548
G1 X133.493 Y167.8 E0.0746
G1 X135.04 Y168.193 E0.0746
G1 X164.96 Y168.193 E1.39868
G1 X166.714 Y167.676 E0.08548
G1 X167.8 Y166.507 E0.0746
G1 X168.193 Y164.96 E0.0746
G1 X168.193 Y135.04 E1.39868
M73 P3 R13
G1 X167.676 Y133.286 E0.08548
G1 X166.507 Y132.2 E0.0746
G1 X164.96 Y131.807 E0.0746
G1 X135.04 Y131.807 E1.39868
M73 P4 R13
G1 X133.286 Y132.324 E0.08548
G1 X133.127 Y132.494 E0.01089
G1 E-0.5
; printing object Shape-Box id:0 copy 0
G1 X135.708 Y135.708 F42000
G1 E0.5 F1800
;TYPE:Internal perimeter
;WIDTH:0.428495
G1 X164.292 Y135.708 E1.0752
G1 X164.292 Y164.292 E1.0752
G1 X135.708 Y164.292 E1.0752
G1 X135.708 Y135.708 E1.0752
M204 S1000
G1 X135.28 Y135.28 F42000
;TYPE:External perimeter
G1 F1800
G1 X164.72 Y135.28 E1.10744
G1 X164.72 Y164.72 E1.10744
G1 X135.28 Y164.72 E1.10744
G1 X135.28 Y135.28 E1.10744
;WIPE_START
M204 S7000
G1 X135.626 Y135.48 F42000
;WIPE_END
G1 E-0.5 F1800
; acceleration to travel
M204 S10000
G1 X158.73 Y135.724 F42000
; decel to extrusion
M204 S2000
G1 X163.361 Y135.773
; end travel
G1 E0.5 F1800
;TYPE:Solid infill
;WIDTH:0.479685
G1 F2700
G1 X164.043 Y136.454 E0.04121
G1 X164.043 Y137.06 E0.02589
G1 X162.94 Y135.957 E0.06669
G1 X162.334 Y135.957 E0.02589
G1 X164.043 Y137.666 E0.10331
G1 X164.043 Y138.272 E0.02589
G1 X161.728 Y135.957 E0.13992
G1 X161.122 Y135.957 E0.02589
G1 X164.043 Y138.878 E0.17654
M73 P5 R13
G1 X164.043 Y139.484 E0.02589
G1 X160.516 Y135.957 E0.21316
G1 X159.91 Y135.957 E0.02589
G1 X164.043 Y140.09 E0.24978
G1 X164.043 Y140.696 E0.02589
G1 X159.304 Y135.957 E0.28639
G1 X158.698 Y135.957 E0.02589
G1 X164.043 Y141.302 E0.32301
G1 X164.043 Y141.908 E0.02589
G1 X158.092 Y135.957 E0.35963
G1 X157.486 Y135.957 E0.02589
G1 X164.043 Y142.514 E0.39624
G1 X164.043 Y143.12 E0.02589
G1 X156.88 Y135.957 E0.43286
G1 X156.274 Y135.957 E0.02589
G1 X164.043 Y143.726 E0.46948
G1 X164.043 Y144.332 E0.02589
G1 X155.668 Y135.957 E0.50609
G1 X155.062 Y135.957 E0.02589
G1 X164.043 Y144.938 E0.54271
G1 X164.043 Y145.544 E0.02589
G1 X154.456 Y135.957 E0.57933
G1 X153.85 Y135.957 E0.02589
G1 X164.043 Y146.15 E0.61595
G1 X164.043 Y146.756 E0.02589
G1 X153.244 Y135.957 E0.65256
G1 X152.638 Y135.957 E0.02589
G1 X164.043 Y147.362 E0.68918
G1 X164.043 Y147.968 E0.02589
G1 X152.032 Y135.957 E0.7258
G1 X151.426 Y135.957 E0.02589
G1 X164.043 Y148.574 E0.76241
G1 X164.043 Y149.18 E0.02589
G1 X150.82 Y135.957 E0.79903
G1 X150.214 Y135.957 E0.02589
G1 X164.043 Y149.786 E0.83565
G1 X164.043 Y150.392 E0.02589
G1 X149.608 Y135.957 E0.87226
G1 X149.002 Y135.957 E0.02589
G1 X164.043 Y150.998 E0.90888
G1 X164.043 Y151.604 E0.02589
G1 X148.396 Y135.957 E0.9455
G1 X147.79 Y135.957 E0.02589
G1 X164.043 Y152.21 E0.98211
G1 X164.043 Y152.816 E0.02589
G1 X147.184 Y135.957 E1.01873
G1 X146.578 Y135.957 E0.02589
G1 X164.043 Y153.422 E1.05535
M73 P6 R13
G1 X164.043 Y154.028 E0.02589
G1 X145.972 Y135.957 E1.09197
G1 X145.366 Y135.957 E0.02589
G1 X164.043 Y154.634 E1.12858
G1 X164.043 Y155.24 E0.02589
G1 X144.76 Y135.957 E1.1652
G1 X144.154 Y135.957 E0.02589
G1 X164.043 Y155.846 E1.20182
G1 X164.043 Y156.452 E0.02589
G1 X143.548 Y135.957 E1.23843
G1 X142.942 Y135.957 E0.02589
G1 X164.043 Y157.058 E1.27505
G1 X164.043 Y157.664 E0.02589
G1 X142.336 Y135.957 E1.31167
G1 X141.73 Y135.957 E0.02589
G1 X164.043 Y158.27 E1.34828
G1 X164.043 Y158.876 E0.02589
G1 X141.124 Y135.957 E1.3849
G1 X140.518 Y135.957 E0.02589
G1 X164.043 Y159.482 E1.42152
G1 X164.043 Y160.088 E0.02589
G1 X139.912 Y135.957 E1.45814
G1 X139.306 Y135.957 E0.02589
G1 X164.043 Y160.694 E1.49475
G1 X164.043 Y161.3 E0.02589
G1 X138.7 Y135.957 E1.53137
M73 P7 R13
G1 X138.094 Y135.957 E0.02589
G1 X164.043 Y161.906 E1.56799
G1 X164.043 Y162.512 E0.02589
G1 X137.488 Y135.957 E1.6046
G1 X136.882 Y135.957 E0.02589
G1 X164.043 Y163.118 E1.64122
G1 X164.043 Y163.724 E0.02589
G1 X136.276 Y135.957 E1.67784
G1 X135.957 Y135.957 E0.01365
G1 X135.957 Y136.243 E0.01224
G1 X163.757 Y164.043 E1.67984
G1 X163.151 Y164.043 E0.02589
G1 X135.957 Y136.849 E1.64322
G1 X135.957 Y137.455 E0.02589
G1 X162.545 Y164.043 E1.6066
G1 X161.939 Y164.043 E0.02589
G1 X135.957 Y138.061 E1.56999
G1 X135.957 Y138.667 E0.02589
G1 X161.333 Y164.043 E1.53337
G1 X160.727 Y164.043 E0.02589
G1 X135.957 Y139.273 E1.49675
M73 P8 R13
G1 X135.957 Y139.879 E0.02589
G1 X160.121 Y164.043 E1.46013
G1 X159.515 Y164.043 E0.02589
G1 X135.957 Y140.485 E1.42352
G1 X135.957 Y141.091 E0.02589
G1 X158.909 Y164.043 E1.3869
G1 X158.303 Y164.043 E0.02589
G1 X135.957 Y141.697 E1.35028
G1 X135.957 Y142.303 E0.02589
G1 X157.697 Y164.043 E1.31367
G1 X157.091 Y164.043 E0.02589
G1 X135.957 Y142.909 E1.27705
G1 X135.957 Y143.515 E0.02589
G1 X156.485 Y164.043 E1.24043
G1 X155.879 Y164.043 E0.02589
G1 X135.957 Y144.121 E1.20382
G1 X135.957 Y144.727 E0.02589
G1 X155.273 Y164.043 E1.1672
G1 X154.667 Y164.043 E0.02589
G1 X135.957 Y145.333 E1.13058
G1 X135.957 Y145.939 E0.02589
G1 X154.061 Y164.043 E1.09397
G1 X153.455 Y164.043 E0.02589
G1 X135.957 Y146.545 E1.05735
M73 P9 R13
G1 X135.957 Y147.151 E0.02589
G1 X152.849 Y164.043 E1.02073
G1 X152.243 Y164.043 E0.02589
G1 X135.957 Y147.757 E0.98411
G1 X135.957 Y148.363 E0.02589
G1 X151.637 Y164.043 E0.9475
G1 X151.031 Y164.043 E0.02589
G1 X135.957 Y148.969 E0.91088
G1 X135.957 Y149.575 E0.02589
G1 X150.425 Y164.043 E0.87426
G1 X149.819 Y164.043 E0.02589
G1 X135.957 Y150.181 E0.83765
G1 X135.957 Y150.787 E0.02589
G1 X149.213 Y164.043 E0.80103
G1 X148.607 Y164.043 E0.02589
G1 X135.957 Y151.393 E0.76441
G1 X135.957 Y151.999 E0.02589
G1 X148.001 Y164.043 E0.7278
G1 X147.395 Y164.043 E0.02589
G1 X135.957 Y152.605 E0.69118
G1 X135.957 Y153.211 E0.02589
G1 X146.789 Y164.043 E0.65456
G1 X146.183 Y164.043 E0.02589
G1 X135.957 Y153.817 E0.61794
G1 X135.957 Y154.423 E0.02589
G1 X145.577 Y164.043 E0.58133
G1 X144.971 Y164.043 E0.02589
G1 X135.957 Y155.029 E0.54471
G1 X135.957 Y155.635 E0.02589
G1 X144.365 Y164.043 E0.50809
G1 X143.759 Y164.043 E0.02589
G1 X135.957 Y156.241 E0.47148
G1 X135.957 Y156.847 E0.02589
G1 X143.153 Y164.043 E0.43486
G1 X142.547 Y164.043 E0.02589
G1 X135.957 Y157.453 E0.39824
G1 X135.957 Y158.059 E0.02589
G1 X141.941 Y164.043 E0.36163
G1 X141.335 Y164.043 E0.02589
G1 X135.957 Y158.665 E0.32501
G1 X135.957 Y159.271 E0.02589
G1 X140.729 Y164.043 E0.28839
G1 X140.123 Y164.043 E0.02589
G1 X135.957 Y159.877 E0.25177
G1 X135.957 Y160.483 E0.02589
G1 X139.517 Y164.043 E0.21516
G1 X138.911 Y164.043 E0.02589
G1 X135.957 Y161.089 E0.17854
G1 X135.957 Y161.695 E0.02589
M73 P10 R13
G1 X138.305 Y164.043 E0.14192
G1 X137.7 Y164.043 E0.02589
G1 X135.957 Y162.3 E0.10531
G1 X135.957 Y162.906 E0.02589
G1 X137.094 Y164.043 E0.06869
G1 X136.488 Y164.043 E0.02589
G1 X135.773 Y163.328 E0.04321
;LAYER_CHANGE
;Z:0.44
;HEIGHT:0.2
; stop printing object Shape-Box id:0 copy 0
M204 S7000
G1 Z0.44 F42000
G92 E0
; printing object Shape-Box id:0 copy 0
M204 S3000
G1 X135.604 Y164.396
;TYPE:Internal perimeter
;WIDTH:0.437079
G1 F10500
G1 X135.604 Y135.604 E0.94367
G1 X164.396 Y135.604 E0.94367
G1 X164.396 Y164.396 E0.94367
G1 X135.604 Y164.396 E0.94367
M204 S1000
G1 X135.206 Y164.794 F42000
;TYPE:External perimeter
;WIDTH:0.357079
G1 F4800
M106 S191.25
G1 X135.206 Y135.206 E0.77289
G1 X164.794 Y135.206 E0.77289
G1 X164.794 Y164.794 E0.77289
G1 X135.206 Y164.794 E0.77289
M107
;WIPE_START
M204 S7000
G1 X135.406 Y164.447 F42000
;WIPE_END
; acceleration to travel
M204 S10000
G1 X152.989 Y163.739
; decel to extrusion
M204 S6000
G1 X164.327 Y163.282
; end travel
;TYPE:Solid infill
;WIDTH:0.55945
G1 F12000
G1 X163.504 Y164.105 E0.04999
G1 X162.773 Y164.105 E0.03141
G1 X164.105 Y162.773 E0.0809
G1 X164.105 Y162.042 E0.03141
G1 X162.042 Y164.105 E0.12532
G1 X161.31 Y164.105 E0.03141
G1 X164.105 Y161.31 E0.16974
G1 X164.105 Y160.579 E0.03141
G1 X160.579 Y164.105 E0.21416
G1 X159.848 Y164.105 E0.03141
G1 X164.105 Y159.848 E0.25858
G1 X164.105 Y159.116 E0.03141
G1 X159.116 Y164.105 E0.303
G1 X158.385 Y164.105 E0.03141
G1 X164.105 Y158.385 E0.34742
G1 X164.105 Y157.654 E0.03141
G1 X157.654 Y164.105 E0.39184
G1 X156.923 Y164.105 E0.03141
G1 X164.105 Y156.923 E0.43626
G1 X164.105 Y156.191 E0.03141
G1 X156.191 Y164.105 E0.48068
G1 X155.46 Y164.105 E0.03141
G1 X164.105 Y155.46 E0.5251
G1 X164.105 Y154.729 E0.03141
G1 X154.729 Y164.105 E0.56952
G1 X153.998 Y164.105 E0.03141
G1 X164.105 Y153.998 E0.61394
G1 X164.105 Y153.266 E0.03141
G1 X153.266 Y164.105 E0.65837
G1 X152.535 Y164.105 E0.03141
G1 X164.105 Y152.535 E0.70279
G1 X164.105 Y151.804 E0.03141
G1 X151.804 Y164.105 E0.74721
G1 X151.073 Y164.105 E0.03141
G1 X164.105 Y151.073 E0.79163
G1 X164.105 Y150.341 E0.03141
G1 X150.341 Y164.105 E0.83605
G1 X149.61 Y164.105 E0.03141
G1 X164.105 Y149.61 E0.88047
G1 X164.105 Y148.879 E0.03141
G1 X148.879 Y164.105 E0.92489
G1 X148.148 Y164.105 E0.03141
G1 X164.105 Y148.148 E0.96931
G1 X164.105 Y147.416 E0.03141
G1 X147.416 Y164.105 E1.01373
G1 X146.685 Y164.105 E0.03141
G1 X164.105 Y146.685 E1.05815
G1 X164.105 Y145.954 E0.03141
G1 X145.954 Y164.105 E1.10257
G1 X145.223 Y164.105 E0.03141
G1 X164.105 Y145.223 E1.14699
G1 X164.105 Y144.491 E0.03141
G1 X144.491 Y164.105 E1.19141
M73 P10 R12
G1 X143.76 Y164.105 E0.03141
G1 X164.105 Y143.76 E1.23583
G1 X164.105 Y143.029 E0.03141
G1 X143.029 Y164.105 E1.28025
G1 X142.297 Y164.105 E0.03141
G1 X164.105 Y142.297 E1.32467
G1 X164.105 Y141.566 E0.03141
G1 X141.566 Y164.105 E1.36909
G1 X140.835 Y164.105 E0.03141
G1 X164.105 Y140.835 E1.41351
G1 X164.105 Y140.104 E0.03141
G1 X140.104 Y164.105 E1.45793
G1 X139.372 Y164.105 E0.03141
G1 X164.105 Y139.372 E1.50235
G1 X164.105 Y138.641 E0.03141
G1 X138.641 Y164.105 E1.54677
G1 X137.91 Y164.105 E0.03141
G1 X164.105 Y137.91 E1.59119
G1 X164.105 Y137.179 E0.03141
G1 X137.179 Y164.105 E1.63561
G1 X136.447 Y164.105 E0.03141
G1 X164.105 Y136.447 E1.68003
M73 P11 R12
G1 X164.105 Y135.895 E0.02371
G1 X163.925 Y135.895 E0.0077
G1 X135.895 Y163.925 E1.70268
G1 X135.895 Y163.194 E0.03141
G1 X163.194 Y135.895 E1.65826
G1 X162.463 Y135.895 E0.03141
G1 X135.895 Y162.463 E1.61383
G1 X135.895 Y161.732 E0.03141
G1 X161.732 Y135.895 E1.56941
G1 X161 Y135.895 E0.03141
G1 X135.895 Y161 E1.52499
G1 X135.895 Y160.269 E0.03141
G1 X160.269 Y135.895 E1.48057
G1 X159.538 Y135.895 E0.03141
G1 X135.895 Y159.538 E1.43615
G1 X135.895 Y158.807 E0.03141
G1 X158.807 Y135.895 E1.39173
G1 X158.075 Y135.895 E0.03141
G1 X135.895 Y158.075 E1.34731
G1 X135.895 Y157.344 E0.03141
G1 X157.344 Y135.895 E1.30289
G1 X156.613 Y135.895 E0.03141
G1 X135.895 Y156.613 E1.25847
G1 X135.895 Y155.881 E0.03141
G1 X155.881 Y135.895 E1.21405
G1 X155.15 Y135.895 E0.03141
G1 X135.895 Y155.15 E1.16963
G1 X135.895 Y154.419 E0.03141
G1 X154.419 Y135.895 E1.12521
G1 X153.688 Y135.895 E0.03141
G1 X135.895 Y153.688 E1.08079
G1 X135.895 Y152.956 E0.03141
G1 X152.956 Y135.895 E1.03637
G1 X152.225 Y135.895 E0.03141
G1 X135.895 Y152.225 E0.99195
G1 X135.895 Y151.494 E0.03141
G1 X151.494 Y135.895 E0.94753
G1 X150.763 Y135.895 E0.03141
G1 X135.895 Y150.763 E0.90311
G1 X135.895 Y150.031 E0.03141
G1 X150.031 Y135.895 E0.85869
G1 X149.3 Y135.895 E0.03141
G1 X135.895 Y149.3 E0.81427
G1 X135.895 Y148.569 E0.03141
G1 X148.569 Y135.895 E0.76985
G1 X147.838 Y135.895 E0.03141
G1 X135.895 Y147.838 E0.72543
G1 X135.895 Y147.106 E0.03141
G1 X147.106 Y135.895 E0.68101
G1 X146.375 Y135.895 E0.03141
G1 X135.895 Y146.375 E0.63659
G1 X135.895 Y145.644 E0.03141
G1 X145.644 Y135.895 E0.59217
G1 X144.913 Y135.895 E0.03141
G1 X135.895 Y144.913 E0.54775
G1 X135.895 Y144.181 E0.03141
G1 X144.181 Y135.895 E0.50333
G1 X143.45 Y135.895 E0.03141
G1 X135.895 Y143.45 E0.45891
G1 X135.895 Y142.719 E0.03141
G1 X142.719 Y135.895 E0.41449
G1 X141.988 Y135.895 E0.03141
G1 X135.895 Y141.988 E0.37007
G1 X135.895 Y141.256 E0.03141
G1 X141.256 Y135.895 E0.32565
G1 X140.525 Y135.895 E0.03141
G1 X135.895 Y140.525 E0.28123
G1 X135.895 Y139.794 E0.03141
G1 X139.794 Y135.895 E0.23681
G1 X139.063 Y135.895 E0.03141
G1 X135.895 Y139.063 E0.19239
G1 X135.895 Y138.331 E0.03141
G1 X138.331 Y135.895 E0.14797
G1 X137.6 Y135.895 E0.03141
G1 X135.895 Y137.6 E0.10354
G1 X135.895 Y136.869 E0.03141
G1 X136.869 Y135.895 E0.05912
G1 X136.137 Y135.895 E0.03141
G1 X135.673 Y136.36 E0.02821
M107
M106 S153
;LAYER_CHANGE
;Z:0.64
;HEIGHT:0.2
; stop printing object Shape-Box id:0 copy 0
M204 S7000
G1 Z0.64 F42000
G92 E0
; printing object Shape-Box id:0 copy 0
M204 S3000
G1 X135.57 Y135.57
;TYPE:Internal perimeter
;WIDTH:0.437079
G1 F10500
G1 X164.43 Y135.57 E0.94586
G1 X164.43 Y164.43 E0.94586
G1 X135.57 Y164.43 E0.94586
G1 X135.57 Y135.57 E0.94586
M204 S1000
G1 X135.173 Y135.173 F42000
;TYPE:External perimeter
;WIDTH:0.357079
G1 F4800
M106 S191.25
G1 X164.827 Y135.173 E0.77463
G1 X164.827 Y164.827 E0.77463
G1 X135.173 Y164.827 E0.77463
G1 X135.173 Y135.173 E0.77463
M106 S153
;WIPE_START
M204 S7000
G1 X135.52 Y135.373 F42000
;WIPE_END
; acceleration to travel
M204 S10000
G1 X152.419 Y135.535
; decel to extrusion
M204 S6000
G1 X163.315 Y135.64
; end travel
;TYPE:Solid infill
;WIDTH:0.559472
G1 F12000
G1 X164.138 Y136.463 E0.04999
G1 X164.138 Y137.194 E0.03141
G1 X162.806 Y135.862 E0.0809
G1 X162.075 Y135.862 E0.03141
M73 P12 R12
G1 X164.138 Y137.925 E0.12533
G1 X164.138 Y138.656 E0.03141
G1 X161.344 Y135.862 E0.16975
G1 X160.612 Y135.862 E0.03141
G1 X164.138 Y139.388 E0.21417
G1 X164.138 Y140.119 E0.03141
G1 X159.881 Y135.862 E0.25859
G1 X159.15 Y135.862 E0.03141
G1 X164.138 Y140.85 E0.30301
G1 X164.138 Y141.581 E0.03141
