; generated by SuperSlicer 2.5.59 on 2022-09-07 at 03:39:52 UTC


;
;

;
;
; 

; external perimeters extrusion width = 0.50mm
; perimeters extrusion width = 0.50mm
; infill extrusion width = 0.50mm
; solid infill extrusion width = 0.56mm
; top infill extrusion width = 0.40mm

; object:{"name":"Shape-Box","id":"Shape-Box id:0 copy 0","object_center":[150.000000,150.000000,0.000000],"boundingbox_center":[150.000000,150.000000,15.000000],"boundingbox_size":[42.426407,42.426407,30.000000]}
; plater:{"center":[150.000000,150.000000,0.000000],"boundingbox_center":[150.000000,150.000000,15.000000],"boundingbox_size":[42.426407,42.426407,30.000000]}

M73 P0 R41
;TYPE:Custom
; custom gcode: start_gcode
PRINT_START EXTRUDER=260 BED=110 AREA_START=128.779,128.779 AREA_END=171.221,171.221
; custom gcode end: start_gcode
M107
G21 ; set units to millimeters
G90 ; use absolute coordinates
M83 ; use relative distances for extrusion
; custom gcode: start_filament_gcode
; Filament gcode
SET_PRESSURE_ADVANCE ADVANCE=0.065
; custom gcode end: start_filament_gcode
;_TOOLCHANGE 0
M104 S260 ; set temperature
M109 S260 ; set temperature and wait for it to be reached
M190 S110 ; set bed temperature and wait for it to be reached
;LAYER_CHANGE
;Z:0.24
;HEIGHT:0.24
G1 Z0.24 F36000
G92 E0
M73 P0 R40
G1 E-0.5 F1800
; printing object Shape-Box id:0 copy 0
M204 S2000
G1 X150 Y168.965 F36000
G1 E0.5 F1800
;TYPE:Internal perimeter
;WIDTH:0.5
G1 X131.035 Y150 E1.16424
G1 X150 Y131.035 E1.16424
G1 X168.965 Y150 E1.16424
G1 X150 Y168.965 E1.16424
G1 X150 Y169.599 F36000
G1 F1800
G1 X130.401 Y150 E1.20318
M73 P1 R40
G1 X150 Y130.401 E1.20318
G1 X169.599 Y150 E1.20318
G1 X150 Y169.599 E1.20318
G1 X150 Y170.233 F36000
G1 F1800
G1 X129.767 Y150 E1.24211
G1 X150 Y129.767 E1.24211
G1 X170.233 Y150 E1.24211
G1 X150 Y170.233 E1.24211
M204 S1500
G1 X150 Y170.868 F36000
;TYPE:External perimeter
G1 F1800
G1 X129.132 Y150 E1.28105
G1 X150 Y129.132 E1.28105
G1 X170.868 Y150 E1.28105
G1 X150 Y170.868 E1.28105
;WIPE_START
M204 S4000
G1 X149.896 Y170.481 F36000
;WIPE_END
G1 E-0.5 F1800
; acceleration to travel
M204 S10000
G1 X149.378 Y138.324 F36000
; decel to extrusion
M204 S2000
G1 X149.273 Y131.844
; end travel
G1 E0.5 F1800
;TYPE:Solid infill
;WIDTH:0.552375
G1 F3600
G1 X150.418 Y131.844 E0.05556
G1 X150.926 Y132.353 E0.03491
G1 X149.074 Y132.353 E0.08992
G1 X148.565 Y132.861 E0.03491
G1 X151.435 Y132.861 E0.13929
G1 X151.943 Y133.37 E0.03491
G1 X148.057 Y133.37 E0.18866
G1 X147.548 Y133.878 E0.03491
G1 X152.452 Y133.878 E0.23803
G1 X152.96 Y134.387 E0.03491
G1 X147.04 Y134.387 E0.2874
G1 X146.531 Y134.895 E0.03491
G1 X153.469 Y134.895 E0.33677
G1 X153.977 Y135.404 E0.03491
G1 X146.023 Y135.404 E0.38614
G1 X145.514 Y135.912 E0.03491
G1 X154.486 Y135.912 E0.43551
G1 X154.994 Y136.421 E0.03491
G1 X145.006 Y136.421 E0.48488
G1 X144.497 Y136.929 E0.03491
G1 X155.503 Y136.929 E0.53425
G1 X156.011 Y137.438 E0.03491
G1 X143.989 Y137.438 E0.58362
G1 X143.48 Y137.946 E0.03491
G1 X156.52 Y137.946 E0.63299
G1 X157.028 Y138.455 E0.03491
G1 X142.972 Y138.455 E0.68236
G1 X142.463 Y138.963 E0.03491
G1 X157.537 Y138.963 E0.73173
G1 X158.045 Y139.472 E0.03491
G1 X141.955 Y139.472 E0.7811
G1 X141.446 Y139.98 E0.03491
G1 X158.554 Y139.98 E0.83047
G1 X159.062 Y140.489 E0.03491
G1 X140.938 Y140.489 E0.87984
G1 X140.429 Y140.997 E0.03491
G1 X159.571 Y140.997 E0.92921
G1 X160.079 Y141.506 E0.03491
G1 X139.921 Y141.506 E0.97858
G1 X139.412 Y142.014 E0.03491
G1 X160.588 Y142.014 E1.02795
G1 X161.096 Y142.523 E0.03491
G1 X138.904 Y142.523 E1.07733
G1 X138.395 Y143.031 E0.03491
G1 X161.605 Y143.031 E1.1267
G1 X162.113 Y143.54 E0.03491
G1 X137.887 Y143.54 E1.17607
G1 X137.379 Y144.048 E0.03491
G1 X162.621 Y144.048 E1.22544
G1 X163.13 Y144.557 E0.03491
G1 X136.87 Y144.557 E1.27481
G1 X136.362 Y145.065 E0.03491
G1 X163.638 Y145.065 E1.32418
G1 X164.147 Y145.574 E0.03491
G1 X135.853 Y145.574 E1.37355
G1 X135.345 Y146.082 E0.03491
G1 X164.655 Y146.082 E1.42292
G1 X165.164 Y146.591 E0.03491
G1 X134.836 Y146.591 E1.47229
G1 X134.328 Y147.099 E0.03491
G1 X165.672 Y147.099 E1.52166
G1 X166.181 Y147.608 E0.03491
G1 X133.819 Y147.608 E1.57103
G1 X133.311 Y148.116 E0.03491
G1 X166.689 Y148.116 E1.6204
G1 X167.198 Y148.625 E0.03491
G1 X132.802 Y148.625 E1.66977
G1 X132.294 Y149.133 E0.03491
G1 X167.706 Y149.133 E1.71914
G1 X168.215 Y149.642 E0.03491
G1 X131.785 Y149.642 E1.76851
G1 X131.427 Y150 E0.02461
G1 X131.577 Y150.15 E0.0103
G1 X168.423 Y150.15 E1.78874
M73 P2 R40
G1 X167.915 Y150.659 E0.03491
G1 X132.085 Y150.659 E1.73937
G1 X132.594 Y151.167 E0.03491
G1 X167.406 Y151.167 E1.69
G1 X166.898 Y151.676 E0.03491
G1 X133.102 Y151.676 E1.64063
G1 X133.611 Y152.184 E0.03491
G1 X166.389 Y152.184 E1.59126
G1 X165.881 Y152.693 E0.03491
G1 X134.119 Y152.693 E1.54189
G1 X134.628 Y153.201 E0.03491
G1 X165.372 Y153.201 E1.49252
G1 X164.864 Y153.71 E0.03491
G1 X135.136 Y153.71 E1.44315
G1 X135.645 Y154.218 E0.03491
G1 X164.355 Y154.218 E1.39378
G1 X163.847 Y154.727 E0.03491
G1 X136.153 Y154.727 E1.34441
G1 X136.662 Y155.235 E0.03491
G1 X163.338 Y155.235 E1.29503
G1 X162.83 Y155.744 E0.03491
G1 X137.17 Y155.744 E1.24566
G1 X137.679 Y156.252 E0.03491
G1 X162.321 Y156.252 E1.19629
G1 X161.813 Y156.761 E0.03491
G1 X138.187 Y156.761 E1.14692
G1 X138.696 Y157.269 E0.03491
G1 X161.304 Y157.269 E1.09755
G1 X160.796 Y157.778 E0.03491
G1 X139.204 Y157.778 E1.04818
G1 X139.713 Y158.286 E0.03491
G1 X160.287 Y158.286 E0.99881
G1 X159.779 Y158.794 E0.03491
G1 X140.221 Y158.794 E0.94944
G1 X140.73 Y159.303 E0.03491
G1 X159.27 Y159.303 E0.90007
G1 X158.762 Y159.811 E0.03491
G1 X141.238 Y159.811 E0.8507
G1 X141.747 Y160.32 E0.03491
G1 X158.253 Y160.32 E0.80133
G1 X157.745 Y160.828 E0.03491
G1 X142.255 Y160.828 E0.75196
G1 X142.764 Y161.337 E0.03491
G1 X157.236 Y161.337 E0.70259
G1 X156.728 Y161.845 E0.03491
G1 X143.272 Y161.845 E0.65322
G1 X143.781 Y162.354 E0.03491
G1 X156.219 Y162.354 E0.60385
G1 X155.711 Y162.862 E0.03491
G1 X144.289 Y162.862 E0.55448
G1 X144.798 Y163.371 E0.03491
G1 X155.202 Y163.371 E0.50511
G1 X154.694 Y163.879 E0.03491
G1 X145.306 Y163.879 E0.45574
G1 X145.815 Y164.388 E0.03491
G1 X154.185 Y164.388 E0.40637
G1 X153.677 Y164.896 E0.03491
G1 X146.323 Y164.896 E0.357
G1 X146.832 Y165.405 E0.03491
G1 X153.168 Y165.405 E0.30763
G1 X152.66 Y165.913 E0.03491
G1 X147.34 Y165.913 E0.25826
G1 X147.849 Y166.422 E0.03491
G1 X152.151 Y166.422 E0.20889
G1 X151.643 Y166.93 E0.03491
G1 X148.357 Y166.93 E0.15952
G1 X148.866 Y167.439 E0.03491
G1 X151.134 Y167.439 E0.11015
G1 X150.626 Y167.947 E0.03491
G1 X149.374 Y167.947 E0.06077
G1 X149.883 Y168.456 E0.03491
G1 X150.427 Y168.456 E0.02642
M106 S127.5
;LAYER_CHANGE
;Z:0.44
;HEIGHT:0.2
; stop printing object Shape-Box id:0 copy 0
M204 S4000
G1 Z0.44 F36000
G92 E0
M104 S250 ; set temperature
; printing object Shape-Box id:0 copy 0
M204 S2500
G1 X150 Y168.976
;TYPE:Internal perimeter
;WIDTH:0.5
G1 F9600
G1 X131.024 Y150 E0.98933
G1 X150 Y131.024 E0.98933
G1 X168.976 Y150 E0.98933
G1 X150 Y168.976 E0.98933
G1 X150 Y169.622 F36000
G1 F9600
G1 X130.378 Y150 E1.02303
G1 X150 Y130.378 E1.02303
G1 X169.622 Y150 E1.02303
G1 X150 Y169.622 E1.02303
G1 X150 Y170.268 F36000
G1 F9600
G1 X129.732 Y150 E1.05673
G1 X150 Y129.732 E1.05673
G1 X170.268 Y150 E1.05673
M73 P2 R39
G1 X150 Y170.268 E1.05673
M204 S1500
G1 X150 Y170.915 F36000
;TYPE:External perimeter
G1 F4800
G1 X129.085 Y150 E1.09043
G1 X150 Y129.085 E1.09043
G1 X170.915 Y150 E1.09043
G1 X150 Y170.915 E1.09043
;WIPE_START
M204 S4000
G1 X149.896 Y170.529 F36000
;WIPE_END
; acceleration to travel
M204 S10000
G1 X161.251 Y157.3
; decel to extrusion
M204 S5500
G1 X168.152 Y149.261
; end travel
;TYPE:Solid infill
;WIDTH:0.552015
G1 F12000
G1 X168.152 Y150.425 E0.04784
G1 X167.635 Y150.942 E0.03006
G1 X167.635 Y149.058 E0.07743
G1 X167.118 Y148.541 E0.03006
G1 X167.118 Y151.459 E0.11995
G1 X166.601 Y151.976 E0.03006
G1 X166.601 Y148.024 E0.16246
G1 X166.084 Y147.507 E0.03006
G1 X166.084 Y152.493 E0.20498
G1 X165.567 Y153.01 E0.03006
G1 X165.567 Y146.99 E0.24749
G1 X165.05 Y146.473 E0.03006
G1 X165.05 Y153.527 E0.29001
G1 X164.533 Y154.044 E0.03006
G1 X164.533 Y145.956 E0.33252
G1 X164.016 Y145.439 E0.03006
G1 X164.016 Y154.561 E0.37504
G1 X163.499 Y155.078 E0.03006
G1 X163.499 Y144.922 E0.41755
G1 X162.982 Y144.405 E0.03006
G1 X162.982 Y155.595 E0.46007
G1 X162.464 Y156.113 E0.03006
G1 X162.464 Y143.887 E0.50258
G1 X161.947 Y143.37 E0.03006
G1 X161.947 Y156.63 E0.5451
G1 X161.43 Y157.147 E0.03006
G1 X161.43 Y142.853 E0.58761
G1 X160.913 Y142.336 E0.03006
G1 X160.913 Y157.664 E0.63013
G1 X160.396 Y158.181 E0.03006
G1 X160.396 Y141.819 E0.67264
G1 X159.879 Y141.302 E0.03006
G1 X159.879 Y158.698 E0.71516
G1 X159.362 Y159.215 E0.03006
G1 X159.362 Y140.785 E0.75767
G1 X158.845 Y140.268 E0.03006
G1 X158.845 Y159.732 E0.80019
G1 X158.328 Y160.249 E0.03006
G1 X158.328 Y139.751 E0.8427
G1 X157.811 Y139.234 E0.03006
G1 X157.811 Y160.766 E0.88522
G1 X157.294 Y161.283 E0.03006
G1 X157.294 Y138.717 E0.92773
G1 X156.777 Y138.2 E0.03006
G1 X156.777 Y161.8 E0.97025
G1 X156.26 Y162.317 E0.03006
G1 X156.26 Y137.683 E1.01276
G1 X155.742 Y137.165 E0.03006
G1 X155.742 Y162.835 E1.05528
G1 X155.225 Y163.352 E0.03006
G1 X155.225 Y136.648 E1.09779
G1 X154.708 Y136.131 E0.03006
G1 X154.708 Y163.869 E1.14031
G1 X154.191 Y164.386 E0.03006
G1 X154.191 Y135.614 E1.18282
G1 X153.674 Y135.097 E0.03006
G1 X153.674 Y164.903 E1.22534
G1 X153.157 Y165.42 E0.03006
G1 X153.157 Y134.58 E1.26785
G1 X152.64 Y134.063 E0.03006
G1 X152.64 Y165.937 E1.31037
G1 X152.123 Y166.454 E0.03006
G1 X152.123 Y133.546 E1.35288
G1 X151.606 Y133.029 E0.03006
G1 X151.606 Y166.971 E1.3954
G1 X151.089 Y167.488 E0.03006
G1 X151.089 Y132.512 E1.43791
G1 X150.572 Y131.995 E0.03006
G1 X150.572 Y168.005 E1.48043
G1 X150.055 Y168.522 E0.03006
G1 X150.055 Y131.478 E1.52294
G1 X150 Y131.423 E0.00317
G1 X149.538 Y131.885 E0.02689
G1 X149.538 Y168.115 E1.48941
G1 X149.02 Y167.597 E0.03006
G1 X149.02 Y132.403 E1.44689
G1 X148.503 Y132.92 E0.03006
G1 X148.503 Y167.08 E1.40438
G1 X147.986 Y166.563 E0.03006
G1 X147.986 Y133.437 E1.36186
G1 X147.469 Y133.954 E0.03006
G1 X147.469 Y166.046 E1.31935
G1 X146.952 Y165.529 E0.03006
G1 X146.952 Y134.471 E1.27683
G1 X146.435 Y134.988 E0.03006
G1 X146.435 Y165.012 E1.23432
G1 X145.918 Y164.495 E0.03006
G1 X145.918 Y135.505 E1.1918
G1 X145.401 Y136.022 E0.03006
G1 X145.401 Y163.978 E1.14929
M73 P3 R39
G1 X144.884 Y163.461 E0.03006
G1 X144.884 Y136.539 E1.10677
G1 X144.367 Y137.056 E0.03006
G1 X144.367 Y162.944 E1.06426
G1 X143.85 Y162.427 E0.03006
G1 X143.85 Y137.573 E1.02174
G1 X143.333 Y138.09 E0.03006
G1 X143.333 Y161.91 E0.97923
G1 X142.815 Y161.393 E0.03006
G1 X142.815 Y138.607 E0.93671
G1 X142.298 Y139.125 E0.03006
G1 X142.298 Y160.875 E0.8942
G1 X141.781 Y160.358 E0.03006
G1 X141.781 Y139.642 E0.85168
G1 X141.264 Y140.159 E0.03006
G1 X141.264 Y159.841 E0.80917
G1 X140.747 Y159.324 E0.03006
G1 X140.747 Y140.676 E0.76665
G1 X140.23 Y141.193 E0.03006
G1 X140.23 Y158.807 E0.72414
G1 X139.713 Y158.29 E0.03006
G1 X139.713 Y141.71 E0.68162
G1 X139.196 Y142.227 E0.03006
G1 X139.196 Y157.773 E0.63911
G1 X138.679 Y157.256 E0.03006
G1 X138.679 Y142.744 E0.59659
G1 X138.162 Y143.261 E0.03006
G1 X138.162 Y156.739 E0.55408
G1 X137.645 Y156.222 E0.03006
G1 X137.645 Y143.778 E0.51156
G1 X137.128 Y144.295 E0.03006
G1 X137.128 Y155.705 E0.46905
G1 X136.611 Y155.188 E0.03006
G1 X136.611 Y144.812 E0.42653
G1 X136.093 Y145.33 E0.03006
G1 X136.093 Y154.67 E0.38402
G1 X135.576 Y154.153 E0.03006
G1 X135.576 Y145.847 E0.3415
G1 X135.059 Y146.364 E0.03006
G1 X135.059 Y153.636 E0.29899
G1 X134.542 Y153.119 E0.03006
G1 X134.542 Y146.881 E0.25647
G1 X134.025 Y147.398 E0.03006
G1 X134.025 Y152.602 E0.21395
G1 X133.508 Y152.085 E0.03006
G1 X133.508 Y147.915 E0.17144
G1 X132.991 Y148.432 E0.03006
G1 X132.991 Y151.568 E0.12892
G1 X132.474 Y151.051 E0.03006
G1 X132.474 Y148.949 E0.08641
G1 X131.957 Y149.466 E0.03006
G1 X131.957 Y150.534 E0.04389
G1 X131.44 Y150.017 E0.03006
G1 X131.44 Y149.669 E0.01431
;LAYER_CHANGE
;Z:0.64
;HEIGHT:0.2
; stop printing object Shape-Box id:0 copy 0
M204 S4000
G1 Z0.64 F36000
G92 E0
; printing object Shape-Box id:0 copy 0
; acceleration to travel
M204 S10000
G1 X146.417 Y165.287
; decel to extrusion
M204 S2500
G1 X150 Y169.023
; end travel
;TYPE:Internal perimeter
;WIDTH:0.5
G1 F7718
G1 X130.977 Y150 E0.99179
G1 X150 Y130.977 E0.99179
G1 X169.023 Y150 E0.99179
G1 X150 Y169.023 E0.99179
G1 X150 Y169.669 F36000
G1 F7718
G1 X130.331 Y150 E1.02549
G1 X150 Y130.331 E1.02549
G1 X169.669 Y150 E1.02549
G1 X150 Y169.669 E1.02549
G1 X150 Y170.316 F36000
G1 F7718
G1 X129.684 Y150 E1.05919
G1 X150 Y129.684 E1.05919
G1 X170.316 Y150 E1.05919
G1 X150 Y170.316 E1.05919
M204 S1500
G1 X150 Y170.962 F36000
;TYPE:External perimeter
G1 F4800
G1 X129.038 Y150 E1.09289
G1 X150 Y129.038 E1.09289
G1 X170.962 Y150 E1.09289
G1 X150 Y170.962 E1.09289
;WIPE_START
M204 S4000
G1 X149.896 Y170.576 F36000
;WIPE_END
; acceleration to travel
M204 S10000
G1 X150.421 Y146.458
; decel to extrusion
M204 S5500
G1 X150.739 Y131.8
; end travel
;TYPE:Solid infill
;WIDTH:0.552085
G1 F7718
G1 X149.575 Y131.8 E0.04785
G1 X149.058 Y132.318 E0.03007
G1 X150.942 Y132.318 E0.07744
G1 X151.459 Y132.835 E0.03007
G1 X148.541 Y132.835 E0.11996
G1 X148.024 Y133.352 E0.03007
G1 X151.976 Y133.352 E0.16248
G1 X152.493 Y133.869 E0.03007
G1 X147.507 Y133.869 E0.205
G1 X146.99 Y134.386 E0.03007
G1 X153.01 Y134.386 E0.24752
G1 X153.527 Y134.903 E0.03007
G1 X146.473 Y134.903 E0.29004
G1 X145.956 Y135.42 E0.03007
G1 X154.044 Y135.42 E0.33256
G1 X154.561 Y135.937 E0.03007
G1 X145.439 Y135.937 E0.37508
G1 X144.922 Y136.454 E0.03007
G1 X155.078 Y136.454 E0.41761
G1 X155.595 Y136.971 E0.03007
G1 X144.405 Y136.971 E0.46013
G1 X143.887 Y137.488 E0.03007
G1 X156.113 Y137.488 E0.50265
G1 X156.63 Y138.005 E0.03007
G1 X143.37 Y138.005 E0.54517
G1 X142.853 Y138.523 E0.03007
G1 X157.147 Y138.523 E0.58769
G1 X157.664 Y139.04 E0.03007
G1 X142.336 Y139.04 E0.63021
G1 X141.819 Y139.557 E0.03007
G1 X158.181 Y139.557 E0.67273
G1 X158.698 Y140.074 E0.03007
G1 X141.302 Y140.074 E0.71525
G1 X140.785 Y140.591 E0.03007
G1 X159.215 Y140.591 E0.75777
G1 X159.732 Y141.108 E0.03007
G1 X140.268 Y141.108 E0.80029
G1 X139.751 Y141.625 E0.03007
G1 X160.249 Y141.625 E0.84281
G1 X160.766 Y142.142 E0.03007
G1 X139.234 Y142.142 E0.88533
G1 X138.717 Y142.659 E0.03007
G1 X161.283 Y142.659 E0.92785
G1 X161.8 Y143.176 E0.03007
G1 X138.2 Y143.176 E0.97037
G1 X137.683 Y143.693 E0.03007
G1 X162.317 Y143.693 E1.01289
G1 X162.835 Y144.21 E0.03007
G1 X137.165 Y144.21 E1.05541
G1 X136.648 Y144.727 E0.03007
G1 X163.352 Y144.727 E1.09793
G1 X163.869 Y145.245 E0.03007
G1 X136.131 Y145.245 E1.14045
G1 X135.614 Y145.762 E0.03007
G1 X164.386 Y145.762 E1.18297
G1 X164.903 Y146.279 E0.03007
G1 X135.097 Y146.279 E1.22549
G1 X134.58 Y146.796 E0.03007
G1 X165.42 Y146.796 E1.26801
G1 X165.937 Y147.313 E0.03007
G1 X134.063 Y147.313 E1.31053
G1 X133.546 Y147.83 E0.03007
G1 X166.454 Y147.83 E1.35306
G1 X166.971 Y148.347 E0.03007
G1 X133.029 Y148.347 E1.39558
G1 X132.512 Y148.864 E0.03007
G1 X167.488 Y148.864 E1.4381
G1 X168.005 Y149.381 E0.03007
G1 X131.995 Y149.381 E1.48062
G1 X131.478 Y149.898 E0.03007
G1 X168.522 Y149.898 E1.52314
G1 X168.624 Y150 E0.00592
G1 X168.209 Y150.415 E0.02415
G1 X131.791 Y150.415 E1.49735
G1 X132.308 Y150.932 E0.03007
G1 X167.692 Y150.932 E1.45483
G1 X167.175 Y151.45 E0.03007
G1 X132.825 Y151.449 E1.41231
G1 X133.342 Y151.967 E0.03007
G1 X166.658 Y151.967 E1.36979
G1 X166.141 Y152.484 E0.03007
G1 X133.859 Y152.484 E1.32727
G1 X134.377 Y153.001 E0.03007
G1 X165.623 Y153.001 E1.28475
G1 X165.106 Y153.518 E0.03007
G1 X134.894 Y153.518 E1.24223
G1 X135.411 Y154.035 E0.03007
G1 X164.589 Y154.035 E1.19971
G1 X164.072 Y154.552 E0.03007
G1 X135.928 Y154.552 E1.15719
G1 X136.445 Y155.069 E0.03007
G1 X163.555 Y155.069 E1.11466
G1 X163.038 Y155.586 E0.03007
G1 X136.962 Y155.586 E1.07214
G1 X137.479 Y156.103 E0.03007
G1 X162.521 Y156.103 E1.02962
G1 X162.004 Y156.62 E0.03007
G1 X137.996 Y156.62 E0.9871
G1 X138.513 Y157.137 E0.03007
