; generated by SuperSlicer 2.5.59 on 2022-09-09 at 03:02:09 UTC


;
;

;
;
; 

; external perimeters extrusion width = 0.40mm
; perimeters extrusion width = 0.40mm
; infill extrusion width = 0.72mm
; solid infill extrusion width = 0.56mm
; top infill extrusion width = 0.40mm

; object:{"name":"Shape-Box","id":"Shape-Box id:0 copy 0","object_center":[150.000000,150.000000,0.000000],"boundingbox_center":[150.000000,150.000000,0.250000],"boundingbox_size":[106.066017,106.066017,0.500000]}
; plater:{"center":[150.000000,150.000000,0.000000],"boundingbox_center":[150.000000,150.000000,0.250000],"boundingbox_size":[106.066017,106.066017,0.500000]}

M73 P0 R8
;TYPE:Custom
; custom gcode: start_gcode
PRINT_START EXTRUDER=250 BED=110 AREA_START=96.8419,96.8419 AREA_END=203.158,203.158
; custom gcode end: start_gcode
M107
G21 ; set units to millimeters
G90 ; use absolute coordinates
M83 ; use relative distances for extrusion
; custom gcode: start_filament_gcode
; Filament gcode
SET_PRESSURE_ADVANCE ADVANCE=0.03
SET_PRESSURE_ADVANCE EXTRUDER=extruder SMOOTH_TIME=0.04
; custom gcode end: start_filament_gcode
;_TOOLCHANGE 0
M104 S250 ; set temperature
M109 S250 ; set temperature and wait for it to be reached
M190 S110 ; set bed temperature and wait for it to be reached
;LAYER_CHANGE
;Z:0.24
;HEIGHT:0.24
G1 Z0.24 F27000
G92 E0
M73 P3 R8
G1 E-0.5 F1800
; printing object Shape-Box id:0 copy 0
M204 S2000
G1 X150 Y201.397 F27000
M73 P4 R8
G1 E0.5 F1800
;TYPE:Internal perimeter
;WIDTH:0.4
G1 X98.603 Y150 E2.35058
G1 X150 Y98.603 E2.35058
G1 X201.397 Y150 E2.35058
M73 P5 R8
G1 X150 Y201.397 E2.35058
G1 X150 Y201.89 F27000
G1 F1800
G1 X98.11 Y150 E2.37312
M73 P6 R8
G1 X150 Y98.11 E2.37312
G1 X201.89 Y150 E2.37312
M73 P7 R7
G1 X150 Y201.89 E2.37312
G1 X150 Y202.382 F27000
G1 F1800
G1 X97.618 Y150 E2.39566
M73 P8 R7
G1 X150 Y97.618 E2.39566
G1 X202.382 Y150 E2.39566
M73 P9 R7
G1 X150 Y202.382 E2.39566
M204 S1000
G1 X150 Y202.875 F27000
;TYPE:External perimeter
G1 F1800
G1 X97.125 Y150 E2.4182
M73 P10 R7
G1 X150 Y97.125 E2.4182
G1 X202.875 Y150 E2.4182
M73 P11 R7
G1 X150 Y202.875 E2.4182
;WIPE_START
M204 S4000
G1 X149.896 Y202.489 F27000
;WIPE_END
G1 E-0.5 F1800
; acceleration to travel
M204 S10000
G1 X149.378 Y116.751 F27000
; decel to extrusion
M204 S2000
G1 X149.273 Y99.37
; end travel
G1 E0.5 F1800
;TYPE:Solid infill
;WIDTH:0.557779
G1 F3600
G1 X150.418 Y99.37 E0.05379
G1 X150.926 Y99.879 E0.0338
G1 X149.074 Y99.879 E0.08705
G1 X148.565 Y100.387 E0.0338
G1 X151.435 Y100.387 E0.13485
G1 X151.943 Y100.896 E0.0338
G1 X148.057 Y100.896 E0.18265
G1 X147.548 Y101.404 E0.0338
G1 X152.452 Y101.404 E0.23045
G1 X152.96 Y101.913 E0.0338
G1 X147.04 Y101.913 E0.27824
G1 X146.531 Y102.421 E0.0338
G1 X153.469 Y102.421 E0.32604
G1 X153.977 Y102.93 E0.0338
G1 X146.023 Y102.93 E0.37384
G1 X145.514 Y103.438 E0.0338
G1 X154.486 Y103.438 E0.42164
G1 X154.994 Y103.947 E0.0338
G1 X145.006 Y103.947 E0.46943
M73 P12 R7
G1 X144.497 Y104.455 E0.0338
G1 X155.503 Y104.455 E0.51723
G1 X156.011 Y104.964 E0.0338
G1 X143.989 Y104.964 E0.56503
G1 X143.48 Y105.472 E0.0338
G1 X156.52 Y105.472 E0.61283
G1 X157.028 Y105.981 E0.0338
G1 X142.972 Y105.981 E0.66062
G1 X142.463 Y106.489 E0.0338
G1 X157.537 Y106.489 E0.70842
G1 X158.045 Y106.998 E0.0338
G1 X141.955 Y106.998 E0.75622
G1 X141.446 Y107.506 E0.0338
G1 X158.554 Y107.506 E0.80402
G1 X159.062 Y108.015 E0.0338
G1 X140.938 Y108.015 E0.85181
G1 X140.429 Y108.523 E0.0338
G1 X159.571 Y108.523 E0.89961
G1 X160.079 Y109.032 E0.0338
G1 X139.921 Y109.032 E0.94741
G1 X139.412 Y109.54 E0.0338
G1 X160.588 Y109.54 E0.99521
G1 X161.096 Y110.048 E0.0338
G1 X138.904 Y110.048 E1.04301
G1 X138.395 Y110.557 E0.0338
G1 X161.605 Y110.557 E1.0908
G1 X162.113 Y111.065 E0.0338
G1 X137.887 Y111.065 E1.1386
G1 X137.379 Y111.574 E0.0338
G1 X162.621 Y111.574 E1.1864
M73 P13 R7
G1 X163.13 Y112.082 E0.0338
G1 X136.87 Y112.082 E1.2342
G1 X136.362 Y112.591 E0.0338
G1 X163.638 Y112.591 E1.28199
G1 X164.147 Y113.099 E0.0338
G1 X135.853 Y113.099 E1.32979
G1 X135.345 Y113.608 E0.0338
G1 X164.655 Y113.608 E1.37759
G1 X165.164 Y114.116 E0.0338
G1 X134.836 Y114.116 E1.42539
G1 X134.328 Y114.625 E0.0338
G1 X165.672 Y114.625 E1.47318
G1 X166.181 Y115.133 E0.0338
G1 X133.819 Y115.133 E1.52098
G1 X133.311 Y115.642 E0.0338
G1 X166.689 Y115.642 E1.56878
G1 X167.198 Y116.15 E0.0338
G1 X132.802 Y116.15 E1.61658
G1 X132.294 Y116.659 E0.0338
M73 P14 R7
G1 X167.706 Y116.659 E1.66437
G1 X168.215 Y117.167 E0.0338
G1 X131.785 Y117.167 E1.71217
G1 X131.277 Y117.676 E0.0338
G1 X168.723 Y117.676 E1.75997
G1 X169.232 Y118.184 E0.0338
G1 X130.768 Y118.184 E1.80777
G1 X130.26 Y118.693 E0.0338
G1 X169.74 Y118.693 E1.85556
G1 X170.249 Y119.201 E0.0338
G1 X129.751 Y119.201 E1.90336
G1 X129.243 Y119.71 E0.0338
G1 X170.757 Y119.71 E1.95116
G1 X171.266 Y120.218 E0.0338
G1 X128.734 Y120.218 E1.99896
M73 P15 R7
G1 X128.226 Y120.727 E0.0338
G1 X171.774 Y120.727 E2.04675
G1 X172.283 Y121.235 E0.0338
G1 X127.717 Y121.235 E2.09455
G1 X127.209 Y121.744 E0.0338
G1 X172.791 Y121.744 E2.14235
G1 X173.3 Y122.252 E0.0338
G1 X126.7 Y122.252 E2.19015
G1 X126.192 Y122.761 E0.0338
G1 X173.808 Y122.761 E2.23795
G1 X174.317 Y123.269 E0.0338
G1 X125.683 Y123.269 E2.28574
M73 P16 R7
G1 X125.175 Y123.778 E0.0338
G1 X174.825 Y123.778 E2.33354
G1 X175.334 Y124.286 E0.0338
G1 X124.666 Y124.286 E2.38134
G1 X124.158 Y124.795 E0.0338
G1 X175.842 Y124.795 E2.42914
G1 X176.351 Y125.303 E0.0338
G1 X123.649 Y125.303 E2.47693
G1 X123.141 Y125.812 E0.0338
G1 X176.859 Y125.812 E2.52473
G1 X177.368 Y126.32 E0.0338
G1 X122.632 Y126.32 E2.57253
M73 P17 R7
G1 X122.124 Y126.829 E0.0338
G1 X177.876 Y126.829 E2.62033
G1 X178.385 Y127.337 E0.0338
G1 X121.615 Y127.337 E2.66812
G1 X121.107 Y127.846 E0.0338
G1 X178.893 Y127.846 E2.71592
G1 X179.402 Y128.354 E0.0338
G1 X120.598 Y128.354 E2.76372
G1 X120.09 Y128.863 E0.0338
G1 X179.91 Y128.863 E2.81152
M73 P18 R7
G1 X180.419 Y129.371 E0.0338
G1 X119.581 Y129.371 E2.85931
G1 X119.073 Y129.88 E0.0338
G1 X180.927 Y129.88 E2.90711
G1 X181.436 Y130.388 E0.0338
G1 X118.564 Y130.388 E2.95491
G1 X118.056 Y130.897 E0.0338
G1 X181.944 Y130.897 E3.00271
M73 P18 R6
G1 X182.453 Y131.405 E0.0338
G1 X117.547 Y131.405 E3.0505
M73 P19 R6
G1 X117.039 Y131.914 E0.0338
G1 X182.961 Y131.914 E3.0983
G1 X183.47 Y132.422 E0.0338
G1 X116.53 Y132.422 E3.1461
G1 X116.022 Y132.931 E0.0338
G1 X183.978 Y132.931 E3.1939
G1 X184.487 Y133.439 E0.0338
G1 X115.513 Y133.439 E3.2417
M73 P20 R6
G1 X115.005 Y133.948 E0.0338
G1 X184.995 Y133.948 E3.28949
G1 X185.504 Y134.456 E0.0338
G1 X114.496 Y134.456 E3.33729
G1 X113.988 Y134.965 E0.0338
G1 X186.012 Y134.965 E3.38509
G1 X186.521 Y135.473 E0.0338
G1 X113.479 Y135.473 E3.43289
G1 X112.971 Y135.982 E0.0338
G1 X187.029 Y135.982 E3.48068
M73 P21 R6
G1 X187.538 Y136.49 E0.0338
G1 X112.462 Y136.49 E3.52848
G1 X111.954 Y136.999 E0.0338
G1 X188.046 Y136.999 E3.57628
G1 X188.555 Y137.507 E0.0338
G1 X111.445 Y137.507 E3.62408
G1 X110.937 Y138.016 E0.0338
M73 P22 R6
G1 X189.063 Y138.016 E3.67187
G1 X189.572 Y138.524 E0.0338
G1 X110.428 Y138.524 E3.71967
G1 X109.92 Y139.033 E0.0338
G1 X190.08 Y139.033 E3.76747
G1 X190.589 Y139.541 E0.0338
G1 X109.411 Y139.541 E3.81527
M73 P23 R6
G1 X108.903 Y140.05 E0.0338
G1 X191.097 Y140.05 E3.86306
G1 X191.606 Y140.558 E0.0338
G1 X108.394 Y140.558 E3.91086
G1 X107.886 Y141.067 E0.0338
G1 X192.114 Y141.067 E3.95866
G1 X192.623 Y141.575 E0.0338
G1 X107.377 Y141.575 E4.00646
M73 P24 R6
G1 X106.869 Y142.084 E0.0338
G1 X193.131 Y142.084 E4.05425
G1 X193.64 Y142.592 E0.0338
G1 X106.36 Y142.592 E4.10205
G1 X105.852 Y143.101 E0.0338
G1 X194.148 Y143.101 E4.14985
M73 P25 R6
G1 X194.657 Y143.609 E0.0338
G1 X105.343 Y143.609 E4.19765
G1 X104.835 Y144.118 E0.0338
G1 X195.165 Y144.118 E4.24545
G1 X195.674 Y144.626 E0.0338
G1 X104.326 Y144.626 E4.29324
G1 X103.818 Y145.135 E0.0338
G1 X196.182 Y145.135 E4.34104
M73 P26 R6
G1 X196.691 Y145.643 E0.0338
G1 X103.309 Y145.643 E4.38884
G1 X102.801 Y146.152 E0.0338
G1 X197.199 Y146.152 E4.43664
G1 X197.708 Y146.66 E0.0338
G1 X102.292 Y146.66 E4.48443
M73 P27 R6
G1 X101.784 Y147.169 E0.0338
G1 X198.216 Y147.169 E4.53223
G1 X198.725 Y147.677 E0.0338
G1 X101.275 Y147.677 E4.58003
G1 X100.767 Y148.186 E0.0338
G1 X199.233 Y148.186 E4.62783
M73 P28 R6
G1 X199.742 Y148.694 E0.0338
G1 X100.258 Y148.694 E4.67562
G1 X99.75 Y149.203 E0.0338
G1 X200.25 Y149.203 E4.72342
G1 X200.759 Y149.711 E0.0338
G1 X99.241 Y149.711 E4.77122
M73 P29 R6
G1 X98.952 Y150 E0.0192
G1 X99.172 Y150.22 E0.0146
G1 X200.828 Y150.22 E4.77773
G1 X200.319 Y150.728 E0.0338
G1 X99.681 Y150.728 E4.72994
G1 X100.189 Y151.237 E0.0338
G1 X199.811 Y151.237 E4.68214
M73 P30 R6
G1 X199.302 Y151.745 E0.0338
G1 X100.698 Y151.745 E4.63434
M73 P30 R5
G1 X101.206 Y152.254 E0.0338
G1 X198.794 Y152.254 E4.58654
G1 X198.285 Y152.762 E0.0338
G1 X101.715 Y152.762 E4.53875
M73 P31 R5
G1 X102.223 Y153.271 E0.0338
G1 X197.777 Y153.271 E4.49095
G1 X197.268 Y153.779 E0.0338
G1 X102.732 Y153.779 E4.44315
G1 X103.24 Y154.288 E0.0338
G1 X196.76 Y154.288 E4.39535
M73 P32 R5
G1 X196.251 Y154.796 E0.0338
G1 X103.749 Y154.796 E4.34755
G1 X104.257 Y155.305 E0.0338
G1 X195.743 Y155.305 E4.29976
G1 X195.234 Y155.813 E0.0338
G1 X104.766 Y155.813 E4.25196
G1 X105.274 Y156.322 E0.0338
G1 X194.726 Y156.322 E4.20416
M73 P33 R5
G1 X194.217 Y156.83 E0.0338
G1 X105.783 Y156.83 E4.15636
G1 X106.291 Y157.339 E0.0338
G1 X193.709 Y157.339 E4.10857
G1 X193.2 Y157.847 E0.0338
G1 X106.799 Y157.847 E4.06077
M73 P34 R5
G1 X107.308 Y158.356 E0.0338
G1 X192.692 Y158.356 E4.01297
G1 X192.184 Y158.864 E0.0338
G1 X107.816 Y158.864 E3.96517
G1 X108.325 Y159.373 E0.0338
G1 X191.675 Y159.373 E3.91738
M73 P35 R5
G1 X191.167 Y159.881 E0.0338
G1 X108.833 Y159.881 E3.86958
G1 X109.342 Y160.389 E0.0338
G1 X190.658 Y160.389 E3.82178
G1 X190.15 Y160.898 E0.0338
G1 X109.85 Y160.898 E3.77398
G1 X110.359 Y161.406 E0.0338
G1 X189.641 Y161.406 E3.72619
M73 P36 R5
G1 X189.133 Y161.915 E0.0338
G1 X110.867 Y161.915 E3.67839
G1 X111.376 Y162.423 E0.0338
G1 X188.624 Y162.423 E3.63059
G1 X188.116 Y162.932 E0.0338
G1 X111.884 Y162.932 E3.58279
G1 X112.393 Y163.44 E0.0338
G1 X187.607 Y163.44 E3.535
M73 P37 R5
G1 X187.099 Y163.949 E0.0338
G1 X112.901 Y163.949 E3.4872
G1 X113.41 Y164.457 E0.0338
G1 X186.59 Y164.457 E3.4394
G1 X186.082 Y164.966 E0.0338
G1 X113.918 Y164.966 E3.3916
G1 X114.427 Y165.474 E0.0338
G1 X185.573 Y165.474 E3.3438
M73 P38 R5
G1 X185.065 Y165.983 E0.0338
G1 X114.935 Y165.983 E3.29601
G1 X115.444 Y166.491 E0.0338
G1 X184.556 Y166.491 E3.24821
G1 X184.048 Y167 E0.0338
G1 X115.952 Y167 E3.20041
G1 X116.461 Y167.508 E0.0338
G1 X183.539 Y167.508 E3.15261
M73 P39 R5
G1 X183.031 Y168.017 E0.0338
G1 X116.969 Y168.017 E3.10482
G1 X117.478 Y168.525 E0.0338
G1 X182.522 Y168.525 E3.05702
G1 X182.014 Y169.034 E0.0338
G1 X117.986 Y169.034 E3.00922
G1 X118.495 Y169.542 E0.0338
G1 X181.505 Y169.542 E2.96142
G1 X180.997 Y170.051 E0.0338
G1 X119.003 Y170.051 E2.91363
M73 P40 R5
G1 X119.512 Y170.559 E0.0338
G1 X180.488 Y170.559 E2.86583
G1 X179.98 Y171.068 E0.0338
G1 X120.02 Y171.068 E2.81803
G1 X120.529 Y171.576 E0.0338
G1 X179.471 Y171.576 E2.77023
G1 X178.963 Y172.085 E0.0338
G1 X121.037 Y172.085 E2.72244
G1 X121.546 Y172.593 E0.0338
G1 X178.454 Y172.593 E2.67464
M73 P41 R5
G1 X177.946 Y173.102 E0.0338
G1 X122.054 Y173.102 E2.62684
G1 X122.563 Y173.61 E0.0338
G1 X177.437 Y173.61 E2.57904
G1 X176.929 Y174.119 E0.0338
G1 X123.071 Y174.119 E2.53125
G1 X123.58 Y174.627 E0.0338
G1 X176.42 Y174.627 E2.48345
G1 X175.912 Y175.136 E0.0338
G1 X124.088 Y175.136 E2.43565
G1 X124.597 Y175.644 E0.0338
G1 X175.403 Y175.644 E2.38785
M73 P42 R4
G1 X174.895 Y176.153 E0.0338
G1 X125.105 Y176.153 E2.34005
G1 X125.614 Y176.661 E0.0338
G1 X174.386 Y176.661 E2.29226
G1 X173.878 Y177.17 E0.0338
G1 X126.122 Y177.17 E2.24446
G1 X126.631 Y177.678 E0.0338
G1 X173.369 Y177.678 E2.19666
G1 X172.861 Y178.187 E0.0338
G1 X127.139 Y178.187 E2.14886
G1 X127.648 Y178.695 E0.0338
G1 X172.352 Y178.695 E2.10107
M73 P43 R4
G1 X171.844 Y179.204 E0.0338
G1 X128.156 Y179.204 E2.05327
G1 X128.665 Y179.712 E0.0338
G1 X171.335 Y179.712 E2.00547
G1 X170.827 Y180.221 E0.0338
G1 X129.173 Y180.221 E1.95767
G1 X129.682 Y180.729 E0.0338
G1 X170.318 Y180.729 E1.90988
G1 X169.81 Y181.238 E0.0338
G1 X130.19 Y181.238 E1.86208
G1 X130.699 Y181.746 E0.0338
G1 X169.301 Y181.746 E1.81428
G1 X168.793 Y182.255 E0.0338
G1 X131.207 Y182.255 E1.76648
M73 P44 R4
G1 X131.716 Y182.763 E0.0338
G1 X168.284 Y182.763 E1.71869
G1 X167.776 Y183.272 E0.0338
G1 X132.224 Y183.272 E1.67089
G1 X132.733 Y183.78 E0.0338
G1 X167.267 Y183.78 E1.62309
G1 X166.759 Y184.289 E0.0338
G1 X133.241 Y184.289 E1.57529
G1 X133.75 Y184.797 E0.0338
G1 X166.25 Y184.797 E1.5275
G1 X165.742 Y185.306 E0.0338
G1 X134.258 Y185.306 E1.4797
G1 X134.767 Y185.814 E0.0338
G1 X165.233 Y185.814 E1.4319
G1 X164.725 Y186.323 E0.0338
G1 X135.275 Y186.323 E1.3841
M73 P45 R4
G1 X135.784 Y186.831 E0.0338
G1 X164.216 Y186.831 E1.33631
G1 X163.708 Y187.34 E0.0338
G1 X136.292 Y187.34 E1.28851
G1 X136.801 Y187.848 E0.0338
G1 X163.199 Y187.848 E1.24071
G1 X162.691 Y188.357 E0.0338
G1 X137.309 Y188.357 E1.19291
G1 X137.818 Y188.865 E0.0338
G1 X162.182 Y188.865 E1.14511
G1 X161.674 Y189.374 E0.0338
G1 X138.326 Y189.374 E1.09732
G1 X138.835 Y189.882 E0.0338
G1 X161.165 Y189.882 E1.04952
G1 X160.657 Y190.391 E0.0338
G1 X139.343 Y190.391 E1.00172
G1 X139.852 Y190.899 E0.0338
G1 X160.148 Y190.899 E0.95392
G1 X159.64 Y191.408 E0.0338
G1 X140.36 Y191.408 E0.90613
G1 X140.869 Y191.916 E0.0338
G1 X159.131 Y191.916 E0.85833
G1 X158.623 Y192.425 E0.0338
G1 X141.377 Y192.425 E0.81053
M73 P46 R4
G1 X141.886 Y192.933 E0.0338
G1 X158.114 Y192.933 E0.76273
G1 X157.606 Y193.442 E0.0338
G1 X142.394 Y193.442 E0.71494
G1 X142.903 Y193.95 E0.0338
G1 X157.097 Y193.95 E0.66714
G1 X156.589 Y194.459 E0.0338
G1 X143.411 Y194.459 E0.61934
G1 X143.92 Y194.967 E0.0338
G1 X156.08 Y194.967 E0.57154
G1 X155.572 Y195.476 E0.0338
G1 X144.428 Y195.476 E0.52375
G1 X144.937 Y195.984 E0.0338
G1 X155.063 Y195.984 E0.47595
G1 X154.555 Y196.493 E0.0338
G1 X145.445 Y196.493 E0.42815
G1 X145.954 Y197.001 E0.0338
G1 X154.046 Y197.001 E0.38035
G1 X153.538 Y197.51 E0.0338
G1 X146.462 Y197.51 E0.33256
G1 X146.971 Y198.018 E0.0338
G1 X153.029 Y198.018 E0.28476
G1 X152.521 Y198.527 E0.0338
G1 X147.479 Y198.527 E0.23696
G1 X147.988 Y199.035 E0.0338
G1 X152.012 Y199.035 E0.18916
G1 X151.504 Y199.544 E0.0338
G1 X148.496 Y199.544 E0.14136
G1 X149.005 Y200.052 E0.0338
G1 X150.995 Y200.052 E0.09357
G1 X150.487 Y200.561 E0.0338
G1 X149.204 Y200.561 E0.0603
;LAYER_CHANGE
;Z:0.44
;HEIGHT:0.2
; stop printing object Shape-Box id:0 copy 0
M204 S4000
G1 Z0.44 F27000
G92 E0
M104 S245 ; set temperature
G1 E-0.5 F1800
G1 Z0.64 F27000
; printing object Shape-Box id:0 copy 0
M204 S1000
G1 X150 Y202.922
G1 Z0.44
G1 E0.5 F1800
;TYPE:External perimeter
;WIDTH:0.4
G1 F4800
M106 S191.25
G1 X97.078 Y150 E2.06665
G1 X150 Y97.078 E2.06665
M73 P47 R4
G1 X202.922 Y150 E2.06665
G1 X150 Y202.922 E2.06665
M107
;WIPE_START
M204 S4000
G1 X149.896 Y202.536 F27000
;WIPE_END
G1 E-0.5 F1800
G1 Z0.64 F27000
; acceleration to travel
M204 S10000
G1 X193.737 Y158.227
; decel to extrusion
M204 S2000
G1 X202.381 Y149.49
; end travel
G1 Z0.44
G1 E0.5 F1800
;TYPE:Top solid infill
;WIDTH:0.398413
G1 F3600
G1 X202.381 Y150.293 E0.0221
G1 X202.024 Y150.65 E0.01389
G1 X202.024 Y149.35 E0.03577
G1 X201.667 Y148.993 E0.01389
G1 X201.667 Y151.007 E0.05542
G1 X201.31 Y151.365 E0.01389
G1 X201.31 Y148.635 E0.07506
G1 X200.953 Y148.278 E0.01389
G1 X200.953 Y151.722 E0.0947
G1 X200.596 Y152.079 E0.01389
G1 X200.596 Y147.921 E0.11434
G1 X200.239 Y147.564 E0.01389
G1 X200.239 Y152.436 E0.13398
G1 X199.882 Y152.793 E0.01389
G1 X199.882 Y147.207 E0.15362
G1 X199.525 Y146.85 E0.01389
G1 X199.525 Y153.15 E0.17327
G1 X199.168 Y153.507 E0.01389
G1 X199.168 Y146.493 E0.19291
G1 X198.811 Y146.136 E0.01389
G1 X198.811 Y153.864 E0.21255
G1 X198.454 Y154.221 E0.01389
G1 X198.454 Y145.779 E0.23219
G1 X198.097 Y145.422 E0.01389
G1 X198.097 Y154.578 E0.25183
G1 X197.739 Y154.935 E0.01389
G1 X197.739 Y145.065 E0.27147
