; generated by SuperSlicer 2.5.59 on 2022-10-04 at 07:09:59 UTC


;
;

;
;
; 

; external perimeters extrusion width = 0.40mm
; perimeters extrusion width = 0.40mm
; infill extrusion width = 0.50mm
; solid infill extrusion width = 0.56mm
; top infill extrusion width = 0.40mm
; first layer extrusion width = 0.80mm

; object:{"name":"Shape-Box","id":"Shape-Box id:0 copy 0","object_center":[150.000000,150.000000,0.000000],"boundingbox_center":[150.000000,150.000000,0.250000],"boundingbox_size":[141.421356,141.421356,0.500000]}
; plater:{"center":[150.000000,150.000000,0.000000],"boundingbox_center":[150.000000,150.000000,0.250000],"boundingbox_size":[141.421356,141.421356,0.500000]}

M73 P0 R13


; Pre-Processed for Cancel-Object support by preprocess_cancellation v0.2.0
; 1 known objects
EXCLUDE_OBJECT_DEFINE NAME=Shape_Box_id_0_copy_0 CENTER=149.764,150.097 POLYGON=[[150.0,79.204],[79.204,150.0],[150.0,220.796],[220.796,150.0],[150.0,79.204]]
;TYPE:Custom
PRINT_START EXTRUDER=255 BED=110 AREA_START=74.7722,74.7722 AREA_END=225.228,225.228
M107
G21 ; set units to millimeters
G90 ; use absolute coordinates
M83 ; use relative distances for extrusion
; Filament gcode
SET_PRESSURE_ADVANCE ADVANCE=0.02
SET_PRESSURE_ADVANCE EXTRUDER=extruder SMOOTH_TIME=0.04
;_TOOLCHANGE 0
M104 S255 ; set temperature
M109 S255 ; set temperature and wait for it to be reached
M190 S110 ; set bed temperature and wait for it to be reached
M107
;LAYER_CHANGE
;Z:0.24
;HEIGHT:0.24
G1 Z0.24 F36000
G92 E0
M73 P2 R13
G1 E-0.7 F1800
M204 S2000
G1 X111.75 Y111.75 F36000
G1 E0.7 F1800
;TYPE:Skirt
;WIDTH:0.4
G1 X76.235 Y147.266 E1.60683
G1 X75.133 Y149.513 E0.08004
G1 X75.31 Y151.251 E0.05589
G1 X76.235 Y152.734 E0.05589
G1 X147.266 Y223.765 E3.21365
M73 P3 R13
G1 X149.513 Y224.867 E0.08004
G1 X151.251 Y224.69 E0.05589
G1 X152.734 Y223.765 E0.05589
G1 X223.765 Y152.734 E3.21365
G1 X224.867 Y150.487 E0.08004
G1 X224.69 Y148.749 E0.05589
G1 X223.765 Y147.266 E0.05589
G1 X152.734 Y76.235 E3.21365
G1 X150.487 Y75.133 E0.08004
G1 X148.749 Y75.31 E0.05589
G1 X147.266 Y76.235 E0.05589
G1 X111.75 Y111.75 E1.60683
M73 P4 R13
G1 X111.995 Y111.995 F36000
G1 F1800
G1 X76.479 Y147.511 E1.60683
G1 X75.5 Y149.403 E0.06816
G1 X75.614 Y151.065 E0.0533
G1 X76.479 Y152.489 E0.0533
G1 X147.511 Y223.521 E3.21365
G1 X149.403 Y224.5 E0.06816
G1 X151.065 Y224.386 E0.0533
G1 X152.489 Y223.521 E0.0533
G1 X223.521 Y152.489 E3.21365
M73 P5 R13
G1 X224.5 Y150.597 E0.06816
G1 X224.386 Y148.935 E0.0533
G1 X223.521 Y147.511 E0.0533
G1 X152.489 Y76.479 E3.21365
G1 X150.597 Y75.5 E0.06816
G1 X148.935 Y75.614 E0.0533
G1 X147.511 Y76.479 E0.0533
G1 X111.995 Y111.995 E1.60683
G1 X112.24 Y112.24 F36000
G1 F1800
G1 X76.724 Y147.756 E1.60683
M73 P6 R13
G1 X75.872 Y149.303 E0.05649
G1 X75.92 Y150.883 E0.05057
G1 X76.724 Y152.244 E0.05057
G1 X147.756 Y223.276 E3.21365
G1 X149.303 Y224.128 E0.05649
G1 X150.883 Y224.08 E0.05057
G1 X152.244 Y223.276 E0.05057
G1 X223.276 Y152.244 E3.21365
G1 X224.128 Y150.697 E0.05649
G1 X224.08 Y149.117 E0.05057
G1 X223.276 Y147.756 E0.05057
G1 X152.244 Y76.724 E3.21365
M73 P7 R12
G1 X150.697 Y75.872 E0.05649
G1 X149.117 Y75.92 E0.05057
G1 X147.756 Y76.724 E0.05057
G1 X112.24 Y112.24 E1.60683
G1 E-0.7
; printing object Shape-Box id:0 copy 0
EXCLUDE_OBJECT_START NAME=Shape_Box_id_0_copy_0
G1 X115.296 Y115.296 F36000
G1 E0.7 F1800
;TYPE:Internal perimeter
;WIDTH:0.8
G1 X150 Y80.592 E3.37221
G1 X219.408 Y150 E6.74442
M73 P8 R12
G1 X150 Y219.408 E6.74442
G1 X80.592 Y150 E6.74442
G1 X115.296 Y115.296 E3.37221
M73 P9 R12
G1 X114.767 Y114.767 F36000
;TYPE:External perimeter
G1 F1800
G1 X150 Y79.534 E3.42364
G1 X220.466 Y150 E6.84728
G1 X150 Y220.466 E6.84728
M73 P10 R12
G1 X79.534 Y150 E6.84728
G1 X114.767 Y114.767 E3.42364
;WIPE_START
M204 S5500
G1 X115.153 Y114.87 F36000
;WIPE_END
G1 E-0.7 F1800
; acceleration to travel
M204 S10000
G1 X143.28 Y87.35 F36000
; decel to extrusion
M204 S2000
G1 X148.93 Y81.821
; end travel
G1 E0.7 F1800
;TYPE:Solid infill
;WIDTH:0.79336
G1 F3000
G1 X150.615 Y81.821 E0.11479
G1 X151.363 Y82.569 E0.07213
G1 X148.637 Y82.569 E0.18578
G1 X147.888 Y83.318 E0.07213
G1 X152.112 Y83.318 E0.28778
G1 X152.86 Y84.066 E0.07213
G1 X147.14 Y84.066 E0.38979
G1 X146.391 Y84.815 E0.07213
G1 X153.609 Y84.815 E0.49179
G1 X154.357 Y85.563 E0.07213
G1 X145.643 Y85.563 E0.5938
G1 X144.894 Y86.312 E0.07213
G1 X155.106 Y86.312 E0.6958
G1 X155.854 Y87.06 E0.07213
G1 X144.146 Y87.06 E0.79781
G1 X143.397 Y87.809 E0.07213
G1 X156.603 Y87.809 E0.89981
G1 X157.351 Y88.557 E0.07213
G1 X142.649 Y88.557 E1.00182
G1 X141.9 Y89.306 E0.07213
G1 X158.1 Y89.306 E1.10382
M73 P11 R12
G1 X158.848 Y90.054 E0.07213
G1 X141.152 Y90.054 E1.20583
G1 X140.403 Y90.803 E0.07213
G1 X159.597 Y90.803 E1.30783
G1 X160.345 Y91.551 E0.07213
G1 X139.655 Y91.551 E1.40984
G1 X138.906 Y92.3 E0.07213
G1 X161.094 Y92.3 E1.51184
G1 X161.842 Y93.048 E0.07213
G1 X138.158 Y93.048 E1.61385
G1 X137.409 Y93.797 E0.07213
G1 X162.591 Y93.797 E1.71585
G1 X163.339 Y94.545 E0.07213
G1 X136.661 Y94.545 E1.81786
G1 X135.912 Y95.294 E0.07213
G1 X164.088 Y95.294 E1.91986
G1 X164.836 Y96.042 E0.07213
G1 X135.164 Y96.042 E2.02187
G1 X134.415 Y96.791 E0.07213
G1 X165.585 Y96.791 E2.12387
G1 X166.333 Y97.539 E0.07213
G1 X133.667 Y97.539 E2.22588
G1 X132.918 Y98.288 E0.07213
G1 X167.082 Y98.288 E2.32788
G1 X167.83 Y99.036 E0.07213
G1 X132.17 Y99.036 E2.42989
G1 X131.421 Y99.785 E0.07213
G1 X168.579 Y99.785 E2.53189
M73 P12 R12
G1 X169.327 Y100.533 E0.07213
G1 X130.673 Y100.533 E2.6339
G1 X129.924 Y101.282 E0.07213
G1 X170.076 Y101.282 E2.7359
G1 X170.824 Y102.03 E0.07213
G1 X129.176 Y102.03 E2.83791
G1 X128.427 Y102.779 E0.07213
G1 X171.573 Y102.779 E2.93991
G1 X172.321 Y103.527 E0.07213
G1 X127.679 Y103.527 E3.04192
G1 X126.93 Y104.276 E0.07213
G1 X173.07 Y104.276 E3.14392
G1 X173.818 Y105.024 E0.07213
G1 X126.182 Y105.024 E3.24593
G1 X125.433 Y105.773 E0.07213
G1 X174.567 Y105.773 E3.34793
G1 X175.315 Y106.521 E0.07213
G1 X124.685 Y106.521 E3.44994
M73 P13 R12
G1 X123.936 Y107.27 E0.07213
G1 X176.064 Y107.27 E3.55194
G1 X176.812 Y108.018 E0.07213
G1 X123.188 Y108.018 E3.65395
G1 X122.439 Y108.767 E0.07213
G1 X177.561 Y108.767 E3.75595
G1 X178.309 Y109.515 E0.07213
G1 X121.691 Y109.515 E3.85796
G1 X120.942 Y110.264 E0.07213
G1 X179.058 Y110.264 E3.95996
G1 X179.806 Y111.012 E0.07213
G1 X120.194 Y111.012 E4.06197
G1 X119.446 Y111.761 E0.07213
G1 X180.554 Y111.761 E4.16397
M73 P14 R12
G1 X181.303 Y112.509 E0.07213
G1 X118.697 Y112.509 E4.26598
M73 P14 R11
G1 X117.949 Y113.258 E0.07213
G1 X182.051 Y113.258 E4.36798
G1 X182.8 Y114.006 E0.07213
G1 X117.2 Y114.006 E4.46999
G1 X116.452 Y114.755 E0.07213
G1 X183.548 Y114.755 E4.57199
G1 X184.297 Y115.503 E0.07213
G1 X115.703 Y115.503 E4.674
G1 X114.955 Y116.252 E0.07213
G1 X185.045 Y116.252 E4.776
M73 P15 R11
G1 X185.794 Y117 E0.07213
G1 X114.206 Y117 E4.87801
G1 X113.458 Y117.749 E0.07213
G1 X186.542 Y117.749 E4.98001
G1 X187.291 Y118.497 E0.07213
G1 X112.709 Y118.497 E5.08202
G1 X111.961 Y119.246 E0.07213
G1 X188.039 Y119.246 E5.18402
G1 X188.788 Y119.994 E0.07213
G1 X111.212 Y119.994 E5.28603
G1 X110.464 Y120.743 E0.07213
G1 X189.536 Y120.743 E5.38803
M73 P16 R11
G1 X190.285 Y121.491 E0.07213
G1 X109.715 Y121.491 E5.49004
G1 X108.967 Y122.24 E0.07213
G1 X191.033 Y122.24 E5.59204
G1 X191.782 Y122.988 E0.07213
G1 X108.218 Y122.988 E5.69405
G1 X107.47 Y123.737 E0.07213
G1 X192.53 Y123.737 E5.79605
G1 X193.279 Y124.485 E0.07213
G1 X106.721 Y124.485 E5.89806
M73 P17 R11
G1 X105.973 Y125.234 E0.07213
G1 X194.027 Y125.234 E6.00006
G1 X194.776 Y125.982 E0.07213
G1 X105.224 Y125.982 E6.10207
G1 X104.476 Y126.731 E0.07213
G1 X195.524 Y126.731 E6.20407
G1 X196.273 Y127.479 E0.07213
G1 X103.727 Y127.479 E6.30608
M73 P18 R11
G1 X102.979 Y128.228 E0.07213
G1 X197.021 Y128.228 E6.40808
G1 X197.77 Y128.976 E0.07213
G1 X102.23 Y128.976 E6.51009
G1 X101.482 Y129.725 E0.07213
G1 X198.518 Y129.725 E6.61209
G1 X199.267 Y130.473 E0.07213
G1 X100.733 Y130.473 E6.7141
G1 X99.985 Y131.222 E0.07213
M73 P19 R11
G1 X200.015 Y131.222 E6.8161
G1 X200.764 Y131.97 E0.07213
G1 X99.236 Y131.97 E6.91811
G1 X98.488 Y132.719 E0.07213
G1 X201.512 Y132.719 E7.02011
G1 X202.261 Y133.467 E0.07213
G1 X97.739 Y133.467 E7.12212
M73 P20 R11
G1 X96.991 Y134.216 E0.07213
G1 X203.009 Y134.216 E7.22412
G1 X203.758 Y134.964 E0.07213
G1 X96.242 Y134.964 E7.32613
G1 X95.494 Y135.713 E0.07213
G1 X204.506 Y135.713 E7.42813
G1 X205.255 Y136.461 E0.07213
G1 X94.745 Y136.461 E7.53014
M73 P21 R11
G1 X93.997 Y137.21 E0.07213
G1 X206.003 Y137.21 E7.63214
M73 P21 R10
G1 X206.752 Y137.958 E0.07213
G1 X93.248 Y137.958 E7.73415
G1 X92.5 Y138.707 E0.07213
G1 X207.5 Y138.707 E7.83615
G1 X208.249 Y139.455 E0.07213
G1 X91.751 Y139.455 E7.93816
M73 P22 R10
G1 X91.003 Y140.204 E0.07213
G1 X208.997 Y140.204 E8.04016
G1 X209.746 Y140.952 E0.07213
G1 X90.254 Y140.952 E8.14217
G1 X89.506 Y141.701 E0.07213
G1 X210.494 Y141.701 E8.24417
M73 P23 R10
G1 X211.243 Y142.449 E0.07213
G1 X88.757 Y142.449 E8.34618
G1 X88.009 Y143.198 E0.07213
G1 X211.991 Y143.198 E8.44818
G1 X212.74 Y143.946 E0.07213
G1 X87.26 Y143.946 E8.55019
G1 X86.512 Y144.695 E0.07213
G1 X213.488 Y144.695 E8.65219
M73 P24 R10
G1 X214.237 Y145.443 E0.07213
G1 X85.763 Y145.443 E8.7542
G1 X85.015 Y146.192 E0.07213
G1 X214.985 Y146.192 E8.8562
G1 X215.734 Y146.94 E0.07213
G1 X84.266 Y146.94 E8.95821
M73 P25 R10
G1 X83.518 Y147.689 E0.07213
G1 X216.482 Y147.689 E9.06021
G1 X217.231 Y148.437 E0.07213
G1 X82.769 Y148.437 E9.16222
G1 X82.021 Y149.186 E0.07213
G1 X217.979 Y149.186 E9.26422
M73 P26 R10
G1 X218.728 Y149.934 E0.07213
G1 X81.272 Y149.934 E9.36623
G1 X81.206 Y150 E0.00636
G1 X81.889 Y150.682 E0.06577
G1 X218.111 Y150.683 E9.28221
G1 X217.363 Y151.431 E0.07213
G1 X82.637 Y151.431 E9.1802
M73 P27 R10
G1 X83.386 Y152.179 E0.07213
G1 X216.614 Y152.179 E9.0782
G1 X215.866 Y152.928 E0.07213
G1 X84.134 Y152.928 E8.97619
G1 X84.883 Y153.676 E0.07213
G1 X215.117 Y153.676 E8.87419
M73 P28 R10
G1 X214.369 Y154.425 E0.07213
G1 X85.631 Y154.425 E8.77218
M73 P28 R9
G1 X86.38 Y155.173 E0.07213
G1 X213.62 Y155.173 E8.67018
G1 X212.872 Y155.922 E0.07213
G1 X87.128 Y155.922 E8.56817
M73 P29 R9
G1 X87.877 Y156.67 E0.07213
G1 X212.123 Y156.67 E8.46617
G1 X211.375 Y157.419 E0.07213
G1 X88.625 Y157.419 E8.36416
G1 X89.374 Y158.167 E0.07213
G1 X210.626 Y158.167 E8.26216
G1 X209.878 Y158.916 E0.07213
G1 X90.122 Y158.916 E8.16015
M73 P30 R9
G1 X90.871 Y159.664 E0.07213
G1 X209.129 Y159.664 E8.05815
G1 X208.381 Y160.413 E0.07213
G1 X91.619 Y160.413 E7.95614
G1 X92.368 Y161.161 E0.07213
G1 X207.632 Y161.161 E7.85414
M73 P31 R9
G1 X206.884 Y161.91 E0.07213
G1 X93.116 Y161.91 E7.75213
G1 X93.865 Y162.658 E0.07213
G1 X206.135 Y162.658 E7.65013
G1 X205.387 Y163.407 E0.07213
G1 X94.613 Y163.407 E7.54812
G1 X95.362 Y164.155 E0.07213
G1 X204.638 Y164.155 E7.44612
M73 P32 R9
G1 X203.89 Y164.904 E0.07213
G1 X96.11 Y164.904 E7.34411
G1 X96.859 Y165.652 E0.07213
G1 X203.141 Y165.652 E7.24211
G1 X202.393 Y166.401 E0.07213
G1 X97.607 Y166.401 E7.1401
G1 X98.356 Y167.149 E0.07213
G1 X201.644 Y167.149 E7.0381
M73 P33 R9
G1 X200.896 Y167.898 E0.07213
G1 X99.104 Y167.898 E6.93609
G1 X99.853 Y168.646 E0.07213
G1 X200.147 Y168.646 E6.83409
G1 X199.399 Y169.395 E0.07213
G1 X100.601 Y169.395 E6.73208
G1 X101.35 Y170.143 E0.07213
G1 X198.65 Y170.143 E6.63008
M73 P34 R9
G1 X197.902 Y170.892 E0.07213
G1 X102.098 Y170.892 E6.52807
G1 X102.847 Y171.64 E0.07213
G1 X197.153 Y171.64 E6.42607
G1 X196.405 Y172.389 E0.07213
G1 X103.595 Y172.389 E6.32406
G1 X104.344 Y173.137 E0.07213
G1 X195.656 Y173.137 E6.22206
M73 P35 R9
G1 X194.908 Y173.886 E0.07213
G1 X105.092 Y173.886 E6.12005
G1 X105.841 Y174.634 E0.07213
G1 X194.159 Y174.634 E6.01805
G1 X193.411 Y175.383 E0.07213
G1 X106.589 Y175.383 E5.91604
M73 P35 R8
G1 X107.338 Y176.131 E0.07213
G1 X192.662 Y176.131 E5.81404
G1 X191.914 Y176.88 E0.07213
G1 X108.086 Y176.88 E5.71203
M73 P36 R8
G1 X108.835 Y177.628 E0.07213
G1 X191.165 Y177.628 E5.61003
G1 X190.417 Y178.377 E0.07213
G1 X109.583 Y178.377 E5.50802
G1 X110.332 Y179.125 E0.07213
G1 X189.668 Y179.125 E5.40602
G1 X188.92 Y179.874 E0.07213
G1 X111.08 Y179.874 E5.30401
G1 X111.829 Y180.622 E0.07213
G1 X188.171 Y180.622 E5.20201
M73 P37 R8
G1 X187.423 Y181.371 E0.07213
G1 X112.577 Y181.371 E5.1
G1 X113.326 Y182.119 E0.07213
G1 X186.674 Y182.119 E4.998
G1 X185.926 Y182.868 E0.07213
G1 X114.074 Y182.868 E4.89599
G1 X114.823 Y183.616 E0.07213
G1 X185.177 Y183.616 E4.79399
G1 X184.429 Y184.365 E0.07213
G1 X115.571 Y184.365 E4.69198
M73 P38 R8
G1 X116.32 Y185.113 E0.07213
G1 X183.68 Y185.113 E4.58998
G1 X182.932 Y185.862 E0.07213
G1 X117.068 Y185.862 E4.48797
G1 X117.817 Y186.61 E0.07213
G1 X182.183 Y186.61 E4.38597
G1 X181.435 Y187.359 E0.07213
G1 X118.565 Y187.359 E4.28396
G1 X119.314 Y188.107 E0.07213
G1 X180.686 Y188.107 E4.18196
G1 X179.938 Y188.856 E0.07213
G1 X120.062 Y188.856 E4.07995
M73 P39 R8
G1 X120.81 Y189.604 E0.07213
G1 X179.19 Y189.604 E3.97795
G1 X178.441 Y190.353 E0.07213
G1 X121.559 Y190.353 E3.87594
G1 X122.307 Y191.101 E0.07213
G1 X177.693 Y191.101 E3.77394
G1 X176.944 Y191.85 E0.07213
G1 X123.056 Y191.85 E3.67193
G1 X123.804 Y192.598 E0.07213
G1 X176.196 Y192.598 E3.56993
G1 X175.447 Y193.347 E0.07213
G1 X124.553 Y193.347 E3.46792
G1 X125.301 Y194.095 E0.07213
G1 X174.699 Y194.095 E3.36592
G1 X173.95 Y194.844 E0.07213
G1 X126.05 Y194.844 E3.26391
M73 P40 R8
G1 X126.798 Y195.592 E0.07213
G1 X173.202 Y195.592 E3.16191
G1 X172.453 Y196.341 E0.07213
G1 X127.547 Y196.341 E3.0599
G1 X128.295 Y197.089 E0.07213
G1 X171.705 Y197.089 E2.9579
G1 X170.956 Y197.838 E0.07213
G1 X129.044 Y197.838 E2.85589
G1 X129.792 Y198.586 E0.07213
G1 X170.208 Y198.586 E2.75389
G1 X169.459 Y199.335 E0.07213
G1 X130.541 Y199.335 E2.65188
G1 X131.289 Y200.083 E0.07213
G1 X168.711 Y200.083 E2.54988
G1 X167.962 Y200.832 E0.07213
G1 X132.038 Y200.832 E2.44787
G1 X132.786 Y201.58 E0.07213
G1 X167.214 Y201.58 E2.34587
G1 X166.465 Y202.329 E0.07213
M73 P41 R8
G1 X133.535 Y202.329 E2.24386
G1 X134.283 Y203.077 E0.07213
G1 X165.717 Y203.077 E2.14186
G1 X164.968 Y203.826 E0.07213
G1 X135.032 Y203.826 E2.03985
G1 X135.78 Y204.574 E0.07213
G1 X164.22 Y204.574 E1.93785
G1 X163.471 Y205.323 E0.07213
G1 X136.529 Y205.323 E1.83584
G1 X137.277 Y206.071 E0.07213
G1 X162.723 Y206.071 E1.73384
G1 X161.974 Y206.82 E0.07213
G1 X138.026 Y206.82 E1.63183
G1 X138.774 Y207.568 E0.07213
G1 X161.226 Y207.568 E1.52983
G1 X160.477 Y208.317 E0.07213
G1 X139.523 Y208.317 E1.42782
G1 X140.271 Y209.065 E0.07213
G1 X159.729 Y209.065 E1.32582
G1 X158.98 Y209.814 E0.07213
G1 X141.02 Y209.814 E1.22381
G1 X141.768 Y210.562 E0.07213
G1 X158.232 Y210.562 E1.12181
G1 X157.483 Y211.311 E0.07213
G1 X142.517 Y211.311 E1.0198
G1 X143.265 Y212.059 E0.07213
G1 X156.735 Y212.059 E0.9178
G1 X155.986 Y212.808 E0.07213
G1 X144.014 Y212.808 E0.81579
G1 X144.762 Y213.556 E0.07213
G1 X155.238 Y213.556 E0.71379
G1 X154.489 Y214.305 E0.07213
G1 X145.511 Y214.305 E0.61178
G1 X146.259 Y215.053 E0.07213
G1 X153.741 Y215.053 E0.50978
G1 X152.992 Y215.802 E0.07213
G1 X147.008 Y215.802 E0.40777
G1 X147.756 Y216.55 E0.07213
G1 X152.244 Y216.55 E0.30577
M73 P42 R8
G1 X151.495 Y217.299 E0.07213
G1 X148.505 Y217.299 E0.20376
G1 X149.253 Y218.047 E0.07213
G1 X151.202 Y218.047 E0.13277
M106 S127.5
;LAYER_CHANGE
;Z:0.44
;HEIGHT:0.2
; stop printing object Shape-Box id:0 copy 0
EXCLUDE_OBJECT_END NAME=Shape_Box_id_0_copy_0
M204 S5500
G1 Z0.44 F36000
G92 E0
M104 S250 ; set temperature
M140 S105 ; set bed temperature
; printing object Shape-Box id:0 copy 0
EXCLUDE_OBJECT_START NAME=Shape_Box_id_0_copy_0
M204 S5000
G1 X151.975 Y218.821
;TYPE:External perimeter
;WIDTH:0.4
G1 F6000
G1 X150 Y220.796 E0.07631
G1 X79.204 Y150 E2.7349
G1 X150 Y79.204 E2.7349
G1 X220.796 Y150 E2.7349
G1 X151.975 Y218.821 E2.65859
;WIPE_START
M204 S5500
G1 X151.589 Y218.717 F36000
;WIPE_END
G1 E-0.7 F1800
G1 Z0.64 F36000
; acceleration to travel
M204 S10000
G1 X208.983 Y160.854
; decel to extrusion
M204 S2000
G1 X220.255 Y149.49
; end travel
G1 Z0.44
G1 E0.7 F1800
;TYPE:Top solid infill
;WIDTH:0.398812
G1 F3600
