; generated by SuperSlicer 2.4 on 2022-06-22 at 05:36:28 UTC


;
;

;
;
; 

; external perimeters extrusion width = 0.40mm
; perimeters extrusion width = 0.48mm
; infill extrusion width = 0.60mm
; solid infill extrusion width = 0.56mm
; top infill extrusion width = 0.40mm
; first layer extrusion width = 0.48mm

; object:{"name":"slot_cover_10","id":"slot_cover_10.5.stl id:0 copy 0","object_center":[150.000000,150.000000,0.000000],"boundingbox_center":[150.000000,150.000000,1.600000],"boundingbox_size":[289.666277,290.867011,3.200000]}
; plater:{"center":[150.000000,150.000000,0.000000],"boundingbox_center":[150.000000,150.000000,1.600000],"boundingbox_size":[289.666277,290.867011,3.200000]}

;TYPE:Custom
print_start EXTRUDER=255 BED=110 CHAMBER=50
M107
G21 ; set units to millimeters
G90 ; use absolute coordinates
M83 ; use relative distances for extrusion
; Filament gcode
SET_PRESSURE_ADVANCE ADVANCE=0.045
SET_PRESSURE_ADVANCE EXTRUDER=extruder SMOOTH_TIME=0.04
M104 S255 ; set temperature
M109 S255 ; set temperature and wait for it to be reached
M190 S110 ; set bed temperature and wait for it to be reached
M107
;LAYER_CHANGE
;Z:0.25
;HEIGHT:0.25
;BEFORE_LAYER_CHANGE
;0.25
TIMELAPSE_TAKE_FRAME


G1 Z0.25 F36000
;AFTER_LAYER_CHANGE
;0.25
G92 E0
; INIT printing object slot_cover_10.5.stl id:0 copy 0
G1 E-0.75 F3000
M204 S1500
G1 Z0.65 F36000
; printing object slot_cover_10.5.stl id:0 copy 0
G1 X11.696 Y6.625
G1 Z0.25
G1 E0.75 F1800
;TYPE:Internal perimeter
;WIDTH:0.48
G1 F900
G1 X292.77 Y288.928 E16.15272
G1 X288.304 Y293.375 E0.25555
G1 X7.23 Y11.072 E16.15272
G1 X11.654 Y6.668 E0.25312
G1 X11.697 Y6.022 F36000
G1 F900
G1 X293.373 Y288.929 E16.1873
G1 X288.303 Y293.978 E0.29013
G1 X6.627 Y11.071 E16.1873
G1 X11.655 Y6.065 E0.28769
G1 X11.699 Y5.419 F36000
G1 F900
G1 X293.976 Y288.93 E16.22187
G1 X288.301 Y294.58 E0.3247
G1 X6.024 Y11.07 E16.22187
G1 X11.656 Y5.462 E0.32227
M204 S1000
G1 X11.813 Y4.93 F36000
;TYPE:External perimeter
G1 F900
G1 X153.196 Y146.931 E8.12499
G1 X294.579 Y288.932 E8.12499
G1 X288.3 Y295.183 E0.35928
G1 X5.421 Y11.068 E16.25645
G1 X11.7 Y4.817 E0.35927
G1 X11.77 Y4.887 E0.00403
;WIPE_START
M204 S1500
G1 X11.708 Y5.316 F36000
;WIPE_END
G1 X11.56 Y6.851
;TYPE:Solid infill
;WIDTH:0.471878
G1 F1200
G1 X14.327 Y9.618 E0.156
G1 X152.33 Y148.224 E7.79653
G1 X11.387 Y7.282 E7.94524
G1 X11.085 Y7.582 E0.01699
G1 X290.333 Y286.83 E15.74179
G1 X292.421 Y288.927 E0.11793
G1 X292.123 Y289.223 E0.01674
G1 X10.783 Y7.883 E15.85972
G1 X10.481 Y8.184 E0.01699
G1 X291.821 Y289.524 E15.85972
G1 X291.519 Y289.825 E0.01699
G1 X10.179 Y8.485 E15.85972
G1 X9.877 Y8.786 E0.01699
G1 X291.217 Y290.126 E15.85972
G1 X290.915 Y290.426 E0.01699
G1 X9.575 Y9.087 E15.85972
G1 X9.272 Y9.387 E0.01699
G1 X290.612 Y290.727 E15.85972
G1 X290.31 Y291.028 E0.01699
G1 X8.97 Y9.688 E15.85972
G1 X8.668 Y9.989 E0.01699
G1 X290.008 Y291.329 E15.85972
G1 X289.706 Y291.63 E0.01699
G1 X8.366 Y10.29 E15.85972
G1 X8.064 Y10.591 E0.01699
G1 X289.404 Y291.931 E15.85972
G1 X289.102 Y292.231 E0.01699
G1 X7.762 Y10.891 E15.85972
G1 X7.579 Y11.073 E0.01026
G1 X62.279 Y66.012 E3.09029
G1 X288.8 Y292.532 E12.76942
G1 X288.498 Y292.833 E0.01699
G1 X140.81 Y145.145 E8.32547
G1 X152.413 Y148.437 F36000
;TYPE:Gap fill
;WIDTH:0.304373
G1 F900
G1 X152.502 Y148.526 E0.00299
G1 X162.52 Y158.566 E0.3382
;WIDTH:0.265589
G1 X172.538 Y168.606 E0.28588
;WIDTH:0.226943
G1 X182.557 Y178.646 E0.23375
;WIDTH:0.188297
G1 X192.575 Y188.687 E0.18162
;WIDTH:0.14965
G1 X202.593 Y198.727 E0.12949
; INIT stop printing object slot_cover_10.5.stl id:0 copy 0
;LAYER_CHANGE
;Z:0.45
;HEIGHT:0.2
;BEFORE_LAYER_CHANGE
;0.45
TIMELAPSE_TAKE_FRAME


; stop printing object slot_cover_10.5.stl id:0 copy 0
G1 Z0.45 F36000
;AFTER_LAYER_CHANGE
;0.45
G92 E0
M104 S250 ; set temperature
; INIT printing object slot_cover_10.5.stl id:0 copy 0
; printing object slot_cover_10.5.stl id:0 copy 0
G1 X293.053 Y288.761
;TYPE:Internal perimeter
;WIDTH:0.48
G1 F9000
G1 X288.136 Y293.657 E0.23076
G1 X6.947 Y11.239 E13.25279
G1 X11.864 Y6.343 E0.23076
G1 X293.011 Y288.718 E13.2508
M107
G1 X293.671 Y288.762 F36000
G1 F9000
G1 X288.134 Y294.275 E0.25983
G1 X6.329 Y11.238 E13.28186
G1 X11.866 Y5.725 E0.25983
G1 X293.629 Y288.719 E13.27987
M107
G1 X294.289 Y288.763 F36000
G1 F9000
G1 X288.133 Y294.893 E0.2889
G1 X5.711 Y11.237 E13.31093
G1 X11.867 Y5.107 E0.2889
G1 X294.247 Y288.721 E13.30894
M107
M204 S1000
G1 X294.851 Y288.765 F36000
;TYPE:External perimeter
;WIDTH:0.4
G1 F4800
M106 S191.25
G1 X288.132 Y295.454 E0.2576
G1 X5.149 Y11.235 E10.89617
G1 X11.868 Y4.545 E0.2576
G1 X12.033 Y4.71 E0.00633
G1 X294.809 Y288.722 E10.88821
M107
;WIPE_START
M204 S1500
G1 X294.464 Y288.867 F36000
;WIPE_END
G1 X287.982 Y293.427
;TYPE:Solid infill
;WIDTH:0.544983
G1 F10134.868
G1 X292.656 Y288.753 E0.25306
G1 X292.291 Y288.386 E0.0198
G1 X287.775 Y292.903 E0.24455
G1 X287.41 Y292.537 E0.0198
G1 X291.926 Y288.02 E0.24455
G1 X291.562 Y287.653 E0.0198
G1 X287.045 Y292.17 E0.24455
G1 X286.68 Y291.804 E0.0198
G1 X291.197 Y287.287 E0.24455
G1 X290.832 Y286.921 E0.0198
G1 X286.315 Y291.437 E0.24455
G1 X285.95 Y291.071 E0.0198
G1 X290.467 Y286.554 E0.24455
G1 X290.102 Y286.188 E0.0198
G1 X285.586 Y290.704 E0.24455
G1 X285.221 Y290.338 E0.0198
G1 X289.737 Y285.821 E0.24455
G1 X289.373 Y285.455 E0.0198
G1 X284.856 Y289.972 E0.24455
G1 X284.491 Y289.605 E0.0198
G1 X289.008 Y285.088 E0.24455
G1 X288.643 Y284.722 E0.0198
G1 X284.126 Y289.239 E0.24455
G1 X283.761 Y288.872 E0.0198
G1 X288.278 Y284.356 E0.24455
G1 X287.913 Y283.989 E0.0198
G1 X283.397 Y288.506 E0.24455
G1 X283.032 Y288.139 E0.0198
G1 X287.548 Y283.623 E0.24455
G1 X287.184 Y283.256 E0.0198
G1 X282.667 Y287.773 E0.24455
G1 X282.302 Y287.407 E0.0198
G1 X286.819 Y282.89 E0.24455
G1 X286.454 Y282.523 E0.0198
G1 X281.937 Y287.04 E0.24455
G1 X281.572 Y286.674 E0.0198
G1 X286.089 Y282.157 E0.24455
G1 X285.724 Y281.791 E0.0198
G1 X281.208 Y286.307 E0.24455
G1 X280.843 Y285.941 E0.0198
G1 X285.359 Y281.424 E0.24455
G1 X284.995 Y281.058 E0.0198
G1 X280.478 Y285.574 E0.24455
G1 X280.113 Y285.208 E0.0198
G1 X284.63 Y280.691 E0.24455
G1 X284.265 Y280.325 E0.0198
G1 X279.748 Y284.842 E0.24455
G1 X279.383 Y284.475 E0.0198
G1 X283.9 Y279.959 E0.24455
G1 X283.535 Y279.592 E0.0198
G1 X279.019 Y284.109 E0.24455
G1 X278.654 Y283.742 E0.0198
G1 X283.17 Y279.226 E0.24455
G1 X282.806 Y278.859 E0.0198
G1 X278.289 Y283.376 E0.24455
G1 X277.924 Y283.009 E0.0198
G1 X282.441 Y278.493 E0.24455
G1 X282.076 Y278.126 E0.0198
G1 X277.559 Y282.643 E0.24455
G1 X277.194 Y282.277 E0.0198
G1 X281.711 Y277.76 E0.24455
G1 X281.346 Y277.394 E0.0198
G1 X276.83 Y281.91 E0.24455
G1 X276.465 Y281.544 E0.0198
G1 X280.981 Y277.027 E0.24455
G1 X280.617 Y276.661 E0.0198
G1 X276.1 Y281.177 E0.24455
G1 X275.735 Y280.811 E0.0198
G1 X280.252 Y276.294 E0.24455
G1 X279.887 Y275.928 E0.0198
G1 X275.37 Y280.444 E0.24455
G1 X275.005 Y280.078 E0.0198
G1 X279.522 Y275.561 E0.24455
G1 X279.157 Y275.195 E0.0198
G1 X274.641 Y279.712 E0.24455
G1 X274.276 Y279.345 E0.0198
G1 X278.792 Y274.829 E0.24455
G1 X278.428 Y274.462 E0.0198
G1 X273.911 Y278.979 E0.24455
G1 X273.546 Y278.612 E0.0198
G1 X278.063 Y274.096 E0.24455
G1 X277.698 Y273.729 E0.0198
G1 X273.181 Y278.246 E0.24455
G1 X272.816 Y277.879 E0.0198
G1 X277.333 Y273.363 E0.24455
G1 X276.968 Y272.996 E0.0198
G1 X272.452 Y277.513 E0.24455
G1 X272.087 Y277.147 E0.0198
G1 X276.603 Y272.63 E0.24455
G1 X276.239 Y272.264 E0.0198
G1 X271.722 Y276.78 E0.24455
G1 X271.357 Y276.414 E0.0198
G1 X275.874 Y271.897 E0.24455
G1 X275.509 Y271.531 E0.0198
G1 X270.992 Y276.047 E0.24455
G1 X270.627 Y275.681 E0.0198
G1 X275.144 Y271.164 E0.24455
G1 X274.779 Y270.798 E0.0198
G1 X270.263 Y275.314 E0.24455
G1 X269.898 Y274.948 E0.0198
G1 X274.414 Y270.431 E0.24455
G1 X274.05 Y270.065 E0.0198
G1 X269.533 Y274.582 E0.24455
G1 X269.168 Y274.215 E0.0198
G1 X273.685 Y269.699 E0.24455
G1 X273.32 Y269.332 E0.0198
G1 X268.803 Y273.849 E0.24455
G1 X268.438 Y273.482 E0.0198
G1 X272.955 Y268.966 E0.24455
G1 X272.59 Y268.599 E0.0198
G1 X268.074 Y273.116 E0.24455
G1 X267.709 Y272.749 E0.0198
G1 X272.225 Y268.233 E0.24455
G1 X271.861 Y267.866 E0.0198
G1 X267.344 Y272.383 E0.24455
G1 X266.979 Y272.017 E0.0198
G1 X271.496 Y267.5 E0.24455
G1 X271.131 Y267.134 E0.0198
G1 X266.614 Y271.65 E0.24455
G1 X266.249 Y271.284 E0.0198
G1 X270.766 Y266.767 E0.24455
G1 X270.401 Y266.401 E0.0198
G1 X265.885 Y270.917 E0.24455
G1 X265.52 Y270.551 E0.0198
G1 X270.036 Y266.034 E0.24455
G1 X269.672 Y265.668 E0.0198
G1 X265.155 Y270.184 E0.24455
G1 X264.79 Y269.818 E0.0198
G1 X269.307 Y265.301 E0.24455
G1 X268.942 Y264.935 E0.0198
G1 X264.425 Y269.452 E0.24455
G1 X264.06 Y269.085 E0.0198
G1 X268.577 Y264.569 E0.24455
G1 X268.212 Y264.202 E0.0198
G1 X263.696 Y268.719 E0.24455
G1 X263.331 Y268.352 E0.0198
G1 X267.847 Y263.836 E0.24455
G1 X267.483 Y263.469 E0.0198
G1 X262.966 Y267.986 E0.24455
G1 X262.601 Y267.619 E0.0198
G1 X267.118 Y263.103 E0.24455
G1 X266.753 Y262.736 E0.0198
G1 X262.236 Y267.253 E0.24455
G1 X261.871 Y266.887 E0.0198
G1 X266.388 Y262.37 E0.24455
G1 X266.023 Y262.004 E0.0198
G1 X261.507 Y266.52 E0.24455
G1 X261.142 Y266.154 E0.0198
G1 X265.658 Y261.637 E0.24455
G1 X265.294 Y261.271 E0.0198
G1 X260.777 Y265.787 E0.24455
G1 X260.412 Y265.421 E0.0198
G1 X264.929 Y260.904 E0.24455
G1 X264.564 Y260.538 E0.0198
G1 X260.047 Y265.054 E0.24455
G1 X259.682 Y264.688 E0.0198
G1 X264.199 Y260.171 E0.24455
G1 X263.834 Y259.805 E0.0198
G1 X259.318 Y264.322 E0.24455
G1 X258.953 Y263.955 E0.0198
G1 X263.469 Y259.439 E0.24455
G1 X263.105 Y259.072 E0.0198
G1 X258.588 Y263.589 E0.24455
G1 X258.223 Y263.222 E0.0198
G1 X262.74 Y258.706 E0.24455
G1 X262.375 Y258.339 E0.0198
G1 X257.858 Y262.856 E0.24455
G1 X257.493 Y262.49 E0.0198
G1 X262.01 Y257.973 E0.24455
G1 X261.645 Y257.606 E0.0198
G1 X257.129 Y262.123 E0.24455
G1 X256.764 Y261.757 E0.0198
G1 X261.28 Y257.24 E0.24455
G1 X260.916 Y256.874 E0.0198
G1 X256.399 Y261.39 E0.24455
G1 X256.034 Y261.024 E0.0198
G1 X260.551 Y256.507 E0.24455
G1 X260.186 Y256.141 E0.0198
G1 X255.669 Y260.657 E0.24455
G1 X255.304 Y260.291 E0.0198
G1 X259.821 Y255.774 E0.24455
G1 X259.456 Y255.408 E0.0198
G1 X254.94 Y259.925 E0.24455
G1 X254.575 Y259.558 E0.0198
G1 X259.091 Y255.041 E0.24455
G1 X258.727 Y254.675 E0.0198
G1 X254.21 Y259.192 E0.24455
G1 X253.845 Y258.825 E0.0198
G1 X258.362 Y254.309 E0.24455
G1 X257.997 Y253.942 E0.0198
G1 X253.48 Y258.459 E0.24455
G1 X253.115 Y258.092 E0.0198
G1 X257.632 Y253.576 E0.24455
G1 X257.267 Y253.209 E0.0198
G1 X252.751 Y257.726 E0.24455
G1 X252.386 Y257.36 E0.0198
G1 X256.902 Y252.843 E0.24455
G1 X256.538 Y252.476 E0.0198
G1 X252.021 Y256.993 E0.24455
G1 X251.656 Y256.627 E0.0198
G1 X256.173 Y252.11 E0.24455
G1 X255.808 Y251.744 E0.0198
G1 X251.291 Y256.26 E0.24455
G1 X250.926 Y255.894 E0.0198
G1 X255.443 Y251.377 E0.24455
G1 X255.078 Y251.011 E0.0198
G1 X250.562 Y255.527 E0.24455
G1 X250.197 Y255.161 E0.0198
G1 X254.713 Y250.644 E0.24455
G1 X254.349 Y250.278 E0.0198
G1 X249.832 Y254.795 E0.24455
G1 X249.467 Y254.428 E0.0198
G1 X253.984 Y249.911 E0.24455
G1 X253.619 Y249.545 E0.0198
G1 X249.102 Y254.062 E0.24455
G1 X248.737 Y253.695 E0.0198
G1 X253.254 Y249.179 E0.24455
G1 X252.889 Y248.812 E0.0198
G1 X248.373 Y253.329 E0.24455
G1 X248.008 Y252.962 E0.0198
G1 X252.524 Y248.446 E0.24455
G1 X252.16 Y248.079 E0.0198
G1 X247.643 Y252.596 E0.24455
G1 X247.278 Y252.23 E0.0198
G1 X251.795 Y247.713 E0.24455
G1 X251.43 Y247.346 E0.0198
G1 X246.913 Y251.863 E0.24455
G1 X246.548 Y251.497 E0.0198
G1 X251.065 Y246.98 E0.24455
G1 X250.7 Y246.614 E0.0198
G1 X246.184 Y251.13 E0.24455
G1 X245.819 Y250.764 E0.0198
G1 X250.335 Y246.247 E0.24455
G1 X249.971 Y245.881 E0.0198
G1 X245.454 Y250.397 E0.24455
G1 X245.089 Y250.031 E0.0198
G1 X249.606 Y245.514 E0.24455
G1 X249.241 Y245.148 E0.0198
G1 X244.724 Y249.665 E0.24455
G1 X244.359 Y249.298 E0.0198
G1 X248.876 Y244.782 E0.24455
G1 X248.511 Y244.415 E0.0198
G1 X243.995 Y248.932 E0.24455
G1 X243.63 Y248.565 E0.0198
G1 X248.146 Y244.049 E0.24455
G1 X247.782 Y243.682 E0.0198
G1 X243.265 Y248.199 E0.24455
G1 X242.9 Y247.832 E0.0198
G1 X247.417 Y243.316 E0.24455
G1 X247.052 Y242.949 E0.0198
G1 X242.535 Y247.466 E0.24455
G1 X242.17 Y247.1 E0.0198
G1 X246.687 Y242.583 E0.24455
G1 X246.322 Y242.217 E0.0198
G1 X241.806 Y246.733 E0.24455
G1 X241.441 Y246.367 E0.0198
G1 X245.957 Y241.85 E0.24455
G1 X245.593 Y241.484 E0.0198
G1 X241.076 Y246 E0.24455
G1 X240.711 Y245.634 E0.0198
G1 X245.228 Y241.117 E0.24455
G1 X244.863 Y240.751 E0.0198
G1 X240.346 Y245.267 E0.24455
G1 X239.981 Y244.901 E0.0198
G1 X244.498 Y240.384 E0.24455
G1 X244.133 Y240.018 E0.0198
G1 X239.617 Y244.535 E0.24455
G1 X239.252 Y244.168 E0.0198
G1 X243.768 Y239.652 E0.24455
G1 X243.404 Y239.285 E0.0198
G1 X238.887 Y243.802 E0.24455
G1 X238.522 Y243.435 E0.0198
G1 X243.039 Y238.919 E0.24455
G1 X242.674 Y238.552 E0.0198
G1 X238.157 Y243.069 E0.24455
G1 X237.792 Y242.702 E0.0198
G1 X242.309 Y238.186 E0.24455
G1 X241.944 Y237.819 E0.0198
G1 X237.428 Y242.336 E0.24455
G1 X237.063 Y241.97 E0.0198
G1 X241.579 Y237.453 E0.24455
G1 X241.215 Y237.087 E0.0198
G1 X236.698 Y241.603 E0.24455
G1 X236.333 Y241.237 E0.0198
G1 X240.85 Y236.72 E0.24455
G1 X240.485 Y236.354 E0.0198
G1 X235.968 Y240.87 E0.24455
G1 X235.603 Y240.504 E0.0198
G1 X240.12 Y235.987 E0.24455
G1 X239.755 Y235.621 E0.0198
G1 X235.239 Y240.137 E0.24455
G1 X234.874 Y239.771 E0.0198
G1 X239.39 Y235.254 E0.24455
G1 X239.026 Y234.888 E0.0198
G1 X234.509 Y239.405 E0.24455
G1 X234.144 Y239.038 E0.0198
G1 X238.661 Y234.522 E0.24455
G1 X238.296 Y234.155 E0.0198
G1 X233.779 Y238.672 E0.24455
G1 X233.414 Y238.305 E0.0198
G1 X237.931 Y233.789 E0.24455
G1 X237.566 Y233.422 E0.0198
G1 X233.05 Y237.939 E0.24455
G1 X232.685 Y237.572 E0.0198
G1 X237.201 Y233.056 E0.24455
G1 X236.837 Y232.689 E0.0198
G1 X232.32 Y237.206 E0.24455
G1 X231.955 Y236.84 E0.0198
G1 X236.472 Y232.323 E0.24455
G1 X236.107 Y231.957 E0.0198
G1 X231.59 Y236.473 E0.24455
G1 X231.225 Y236.107 E0.0198
G1 X235.742 Y231.59 E0.24455
G1 X235.377 Y231.224 E0.0198
G1 X230.861 Y235.74 E0.24455
G1 X230.496 Y235.374 E0.0198
G1 X235.012 Y230.857 E0.24455
G1 X234.648 Y230.491 E0.0198
G1 X230.131 Y235.007 E0.24455
G1 X229.766 Y234.641 E0.0198
G1 X234.283 Y230.124 E0.24455
G1 X233.918 Y229.758 E0.0198
G1 X229.401 Y234.275 E0.24455
G1 X229.036 Y233.908 E0.0198
G1 X233.553 Y229.392 E0.24455
G1 X233.188 Y229.025 E0.0198
G1 X228.672 Y233.542 E0.24455
G1 X228.307 Y233.175 E0.0198
G1 X232.823 Y228.659 E0.24455
G1 X232.459 Y228.292 E0.0198
G1 X227.942 Y232.809 E0.24455
G1 X227.577 Y232.442 E0.0198
G1 X232.094 Y227.926 E0.24455
G1 X231.729 Y227.559 E0.0198
G1 X227.212 Y232.076 E0.24455
G1 X226.847 Y231.71 E0.0198
G1 X231.364 Y227.193 E0.24455
G1 X230.999 Y226.827 E0.0198
G1 X226.483 Y231.343 E0.24455
G1 X226.118 Y230.977 E0.0198
G1 X230.634 Y226.46 E0.24455
G1 X230.27 Y226.094 E0.0198
G1 X225.753 Y230.61 E0.24455
G1 X225.388 Y230.244 E0.0198
G1 X229.905 Y225.727 E0.24455
G1 X229.54 Y225.361 E0.0198
G1 X225.023 Y229.878 E0.24455
G1 X224.658 Y229.511 E0.0198
G1 X229.175 Y224.994 E0.24455
G1 X228.81 Y224.628 E0.0198
G1 X224.294 Y229.145 E0.24455
G1 X223.929 Y228.778 E0.0198
G1 X228.445 Y224.262 E0.24455
G1 X228.081 Y223.895 E0.0198
G1 X223.564 Y228.412 E0.24455
G1 X223.199 Y228.045 E0.0198
G1 X227.716 Y223.529 E0.24455
G1 X227.351 Y223.162 E0.0198
G1 X222.834 Y227.679 E0.24455
G1 X222.469 Y227.313 E0.0198
G1 X226.986 Y222.796 E0.24455
G1 X226.621 Y222.429 E0.0198
G1 X222.105 Y226.946 E0.24455
G1 X221.74 Y226.58 E0.0198
G1 X226.256 Y222.063 E0.24455
G1 X225.892 Y221.697 E0.0198
G1 X221.375 Y226.213 E0.24455
G1 X221.01 Y225.847 E0.0198
G1 X225.527 Y221.33 E0.24455
G1 X225.162 Y220.964 E0.0198
G1 X220.645 Y225.48 E0.24455
G1 X220.28 Y225.114 E0.0198
G1 X224.797 Y220.597 E0.24455
G1 X224.432 Y220.231 E0.0198
G1 X219.916 Y224.748 E0.24455
G1 X219.551 Y224.381 E0.0198
G1 X224.067 Y219.864 E0.24455
G1 X223.703 Y219.498 E0.0198
G1 X219.186 Y224.015 E0.24455
G1 X218.821 Y223.648 E0.0198
G1 X223.338 Y219.132 E0.24455
G1 X222.973 Y218.765 E0.0198
G1 X218.456 Y223.282 E0.24455
