; generated by SuperSlicer 2.5.59 on 2022-09-20 at 07:55:50 UTC


;
;

;
;
; 

; external perimeters extrusion width = 0.40mm
; perimeters extrusion width = 0.40mm
; infill extrusion width = 0.50mm
; solid infill extrusion width = 0.56mm
; top infill extrusion width = 0.40mm
; first layer extrusion width = 0.80mm

; object:{"name":"square_tower","id":"square_tower.stl id:0 copy 0","object_center":[150.000000,150.000000,0.000000],"boundingbox_center":[150.000000,150.000000,25.000000],"boundingbox_size":[89.182263,89.182263,50.000000]}
; plater:{"center":[150.000000,150.000000,0.000000],"boundingbox_center":[150.000000,150.000000,25.000000],"boundingbox_size":[89.182263,89.182263,50.000000]}

M73 P0 R22


; Pre-Processed for Cancel-Object support by preprocess_cancellation v0.2.0
; 1 known objects
EXCLUDE_OBJECT_DEFINE NAME=square_tower_stl_id_0_copy_0 CENTER=149.624,150.285 POLYGON=[[150.251,105.61],[149.249,105.662],[148.28,105.922],[147.386,106.377],[146.607,107.009],[107.009,146.607],[106.377,147.386],[105.922,148.28],[105.662,149.249],[105.61,150.251],[105.767,151.242],[106.126,152.179],[106.673,153.02],[146.98,193.327],[147.821,193.874],[148.758,194.233],[149.749,194.39],[150.751,194.338],[151.72,194.078],[152.614,193.623],[153.393,192.991],[192.991,153.393],[193.623,152.614],[194.078,151.72],[194.338,150.751],[194.39,149.749],[194.233,148.758],[193.874,147.821],[193.327,146.98],[153.02,106.673],[152.179,106.126],[151.242,105.767],[150.251,105.61]]
;TYPE:Custom
; custom gcode: start_gcode
PRINT_START EXTRUDER=225 BED=70 AREA_START=101.303,101.303 AREA_END=198.697,198.697
; custom gcode end: start_gcode
M107
G21 ; set units to millimeters
G90 ; use absolute coordinates
M83 ; use relative distances for extrusion
;_TOOLCHANGE 0
M104 S225 ; set temperature
M109 S225 ; set temperature and wait for it to be reached
M190 S70 ; set bed temperature and wait for it to be reached
;LAYER_CHANGE
;Z:0.24
;HEIGHT:0.24
G1 Z0.24 F36000
G92 E0
M73 P1 R21
G1 E-0.7 F1800
M204 S2000
G1 X124.003 Y124.003 F36000
G1 E0.7 F1800
;TYPE:Skirt
;WIDTH:0.4
G1 X104.204 Y143.802 E0.97365
G1 X103.289 Y144.899 E0.04967
G1 X102.848 Y145.577 E0.02811
G1 X102.383 Y146.489 E0.03562
G1 X102.094 Y147.244 E0.02811
G1 X101.829 Y148.233 E0.03562
G1 X101.702 Y149.031 E0.0281
G1 X101.649 Y150.054 E0.03562
G1 X101.691 Y150.861 E0.0281
G1 X101.851 Y151.873 E0.03562
G1 X102.06 Y152.653 E0.0281
G1 X102.427 Y153.61 E0.03562
G1 X102.794 Y154.33 E0.02811
G1 X103.352 Y155.189 E0.03562
G1 X103.861 Y155.817 E0.0281
G1 X143.459 Y195.415 E1.94729
G1 X144.183 Y196.139 E0.03561
G1 X144.811 Y196.648 E0.0281
G1 X145.67 Y197.206 E0.03562
G1 X146.39 Y197.573 E0.02811
G1 X147.347 Y197.94 E0.03562
G1 X148.127 Y198.149 E0.02809
G1 X149.139 Y198.309 E0.03562
G1 X149.946 Y198.351 E0.02811
G1 X150.969 Y198.298 E0.03562
G1 X151.767 Y198.171 E0.0281
G1 X152.756 Y197.906 E0.03561
G1 X153.511 Y197.616 E0.0281
G1 X154.423 Y197.152 E0.03562
G1 X155.101 Y196.711 E0.0281
G1 X156.198 Y195.796 E0.04968
G1 X195.796 Y156.198 E1.94729
G1 X196.711 Y155.101 E0.04968
G1 X197.151 Y154.423 E0.0281
G1 X197.616 Y153.511 E0.03562
G1 X197.906 Y152.756 E0.0281
G1 X198.171 Y151.767 E0.03562
G1 X198.298 Y150.969 E0.02811
G1 X198.351 Y149.946 E0.03562
G1 X198.309 Y149.139 E0.02811
M73 P2 R21
G1 X198.149 Y148.127 E0.03562
G1 X197.94 Y147.347 E0.0281
G1 X197.573 Y146.39 E0.03562
G1 X197.206 Y145.67 E0.02811
G1 X196.648 Y144.811 E0.03562
G1 X196.139 Y144.183 E0.0281
G1 X155.817 Y103.861 E1.98291
G1 X155.189 Y103.352 E0.0281
G1 X154.33 Y102.794 E0.03562
G1 X153.61 Y102.427 E0.0281
G1 X152.653 Y102.06 E0.03562
G1 X151.873 Y101.851 E0.0281
G1 X150.861 Y101.691 E0.03562
G1 X150.054 Y101.649 E0.0281
G1 X149.031 Y101.702 E0.03562
G1 X148.233 Y101.829 E0.0281
G1 X147.244 Y102.094 E0.03562
G1 X146.489 Y102.383 E0.0281
G1 X145.576 Y102.848 E0.03562
G1 X144.899 Y103.289 E0.0281
G1 X143.802 Y104.204 E0.04967
G1 X124.003 Y124.003 E0.97364
G1 X124.248 Y124.248 F36000
G1 F1800
G1 X104.449 Y144.047 E0.97365
G1 X103.558 Y145.117 E0.04841
G1 X103.157 Y145.734 E0.02559
G1 X102.692 Y146.646 E0.03562
G1 X102.428 Y147.333 E0.02559
G1 X102.163 Y148.323 E0.03562
G1 X102.048 Y149.049 E0.02558
G1 X101.995 Y150.072 E0.03562
G1 X102.033 Y150.807 E0.02559
G1 X102.193 Y151.819 E0.03562
G1 X102.384 Y152.529 E0.02558
G1 X102.751 Y153.485 E0.03562
G1 X103.085 Y154.141 E0.02559
G1 X103.643 Y155 E0.03562
G1 X104.106 Y155.572 E0.02558
G1 X143.704 Y195.17 E1.94729
G1 X144.428 Y195.894 E0.03561
G1 X145 Y196.357 E0.02558
G1 X145.859 Y196.915 E0.03562
G1 X146.515 Y197.249 E0.0256
G1 X147.471 Y197.616 E0.03562
G1 X148.181 Y197.807 E0.02558
G1 X149.193 Y197.967 E0.03562
G1 X149.928 Y198.005 E0.02559
G1 X150.951 Y197.952 E0.03562
G1 X151.677 Y197.837 E0.02558
G1 X152.667 Y197.572 E0.03561
G1 X153.354 Y197.308 E0.02558
G1 X154.266 Y196.843 E0.03562
G1 X154.883 Y196.442 E0.02558
G1 X155.953 Y195.551 E0.04842
G1 X195.551 Y155.953 E1.94729
G1 X196.442 Y154.883 E0.04842
G1 X196.843 Y154.266 E0.02558
G1 X197.308 Y153.354 E0.03562
G1 X197.572 Y152.667 E0.02558
G1 X197.837 Y151.677 E0.03562
G1 X197.952 Y150.951 E0.02559
G1 X198.005 Y149.928 E0.03562
G1 X197.967 Y149.193 E0.02559
G1 X197.807 Y148.181 E0.03562
G1 X197.616 Y147.471 E0.02558
G1 X197.249 Y146.514 E0.03562
G1 X196.915 Y145.859 E0.02559
G1 X196.357 Y145 E0.03562
G1 X195.894 Y144.428 E0.02558
G1 X155.572 Y104.106 E1.98291
G1 X155 Y103.643 E0.02559
G1 X154.141 Y103.085 E0.03562
G1 X153.486 Y102.751 E0.02559
G1 X152.529 Y102.384 E0.03562
G1 X151.819 Y102.193 E0.02559
G1 X150.807 Y102.033 E0.03562
G1 X150.072 Y101.995 E0.02558
G1 X149.049 Y102.048 E0.03562
G1 X148.323 Y102.163 E0.02558
G1 X147.333 Y102.428 E0.03562
G1 X146.646 Y102.692 E0.02559
G1 X145.734 Y103.157 E0.03562
G1 X145.117 Y103.558 E0.02559
G1 X144.047 Y104.449 E0.04841
G1 X124.248 Y124.248 E0.97364
G1 X124.493 Y124.493 F36000
G1 F1800
G1 X104.694 Y144.292 E0.97365
M73 P3 R21
G1 X103.827 Y145.335 E0.04715
G1 X103.466 Y145.891 E0.02307
G1 X103.001 Y146.804 E0.03562
G1 X102.763 Y147.423 E0.02307
G1 X102.498 Y148.412 E0.03562
G1 X102.394 Y149.067 E0.02306
G1 X102.34 Y150.09 E0.03562
G1 X102.375 Y150.753 E0.02307
G1 X102.535 Y151.764 E0.03562
G1 X102.707 Y152.405 E0.02306
G1 X103.074 Y153.361 E0.03562
G1 X103.375 Y153.953 E0.02307
G1 X103.933 Y154.812 E0.03562
G1 X104.351 Y155.327 E0.02306
G1 X143.949 Y194.925 E1.94729
G1 X144.673 Y195.649 E0.03561
G1 X145.188 Y196.067 E0.02306
G1 X146.047 Y196.625 E0.03562
G1 X146.639 Y196.926 E0.02308
G1 X147.595 Y197.293 E0.03562
G1 X148.235 Y197.465 E0.02306
G1 X149.247 Y197.625 E0.03562
G1 X149.91 Y197.66 E0.02307
G1 X150.933 Y197.606 E0.03562
G1 X151.588 Y197.502 E0.02307
G1 X152.577 Y197.237 E0.03561
G1 X153.196 Y196.999 E0.02307
G1 X154.109 Y196.534 E0.03562
G1 X154.665 Y196.173 E0.02306
G1 X155.708 Y195.306 E0.04716
G1 X195.306 Y155.708 E1.94729
G1 X196.173 Y154.665 E0.04716
G1 X196.534 Y154.109 E0.02306
G1 X196.999 Y153.196 E0.03562
G1 X197.237 Y152.577 E0.02306
G1 X197.502 Y151.588 E0.03562
G1 X197.606 Y150.933 E0.02307
G1 X197.66 Y149.91 E0.03562
G1 X197.625 Y149.247 E0.02307
G1 X197.465 Y148.235 E0.03562
G1 X197.293 Y147.595 E0.02306
G1 X196.926 Y146.639 E0.03562
G1 X196.625 Y146.047 E0.02307
G1 X196.067 Y145.188 E0.03562
G1 X195.649 Y144.673 E0.02307
G1 X155.327 Y104.351 E1.98291
G1 X154.812 Y103.933 E0.02307
G1 X153.953 Y103.375 E0.03562
G1 X153.361 Y103.074 E0.02307
G1 X152.405 Y102.707 E0.03562
G1 X151.764 Y102.535 E0.02307
G1 X150.753 Y102.375 E0.03562
G1 X150.09 Y102.34 E0.02307
G1 X149.067 Y102.394 E0.03562
G1 X148.412 Y102.498 E0.02307
G1 X147.423 Y102.763 E0.03562
G1 X146.804 Y103.001 E0.02307
G1 X145.891 Y103.466 E0.03562
G1 X145.335 Y103.827 E0.02307
G1 X144.292 Y104.694 E0.04715
G1 X124.493 Y124.493 E0.97364
G1 E-0.7
; printing object square_tower.stl id:0 copy 0
EXCLUDE_OBJECT_START NAME=square_tower_stl_id_0_copy_0
G1 X129.14 Y129.14 F36000
G1 E0.7 F1800
;TYPE:External perimeter
;WIDTH:0.748495
G1 X145.778 Y112.503 E1.63634
G1 X145.884 Y112.289 E0.01659
G1 X145.863 Y112.104 E0.01296
G1 X145.656 Y111.566 E0.04009
G1 X145.509 Y110.637 E0.06539
G1 X145.558 Y109.698 E0.06539
G1 X145.801 Y108.79 E0.06539
G1 X146.228 Y107.953 E0.06539
G1 X146.82 Y107.222 E0.06539
G1 X147.551 Y106.63 E0.06539
G1 X148.388 Y106.203 E0.06539
G1 X149.296 Y105.96 E0.06539
G1 X150.235 Y105.911 E0.06539
G1 X151.164 Y106.058 E0.06539
G1 X152.042 Y106.395 E0.06539
G1 X152.83 Y106.907 E0.06539
G1 X153.495 Y107.572 E0.06539
G1 X154.007 Y108.36 E0.06539
G1 X154.344 Y109.238 E0.06539
G1 X154.491 Y110.167 E0.06539
G1 X154.442 Y111.104 E0.06527
G1 X154.337 Y111.487 E0.02762
G1 X154.14 Y112.309 E0.05878
G1 X154.247 Y112.527 E0.01691
G1 X187.473 Y145.753 E3.2679
G1 X187.691 Y145.86 E0.01691
G1 X187.837 Y145.85 E0.01014
G1 X188.896 Y145.558 E0.07642
G1 X189.833 Y145.509 E0.06526
G1 X190.762 Y145.656 E0.06539
G1 X191.64 Y145.993 E0.06538
G1 X192.428 Y146.505 E0.06539
G1 X193.093 Y147.17 E0.06538
G1 X193.605 Y147.958 E0.06539
G1 X193.942 Y148.836 E0.06539
G1 X194.089 Y149.765 E0.06539
G1 X194.067 Y150.193 E0.02985
G1 X194.04 Y150.704 E0.03554
G1 X193.796 Y151.612 E0.06538
G1 X193.37 Y152.449 E0.06539
G1 X192.778 Y153.18 E0.06539
G1 X192.047 Y153.772 E0.06539
G1 X191.21 Y154.199 E0.06539
G1 X190.301 Y154.442 E0.06538
G1 X189.363 Y154.491 E0.06538
G1 X188.434 Y154.344 E0.06539
G1 X187.896 Y154.137 E0.04009
G1 X187.711 Y154.116 E0.01296
G1 X187.497 Y154.222 E0.01659
G1 X154.222 Y187.497 E3.27269
M73 P4 R21
G1 X154.116 Y187.711 E0.01659
G1 X154.137 Y187.896 E0.01296
G1 X154.344 Y188.434 E0.04009
G1 X154.491 Y189.363 E0.06539
G1 X154.442 Y190.302 E0.06538
G1 X154.199 Y191.21 E0.06538
G1 X153.772 Y192.047 E0.06538
G1 X153.18 Y192.778 E0.06539
G1 X152.449 Y193.37 E0.06539
G1 X151.612 Y193.796 E0.06538
G1 X150.704 Y194.04 E0.06538
G1 X149.765 Y194.089 E0.06538
G1 X148.836 Y193.942 E0.06539
G1 X147.958 Y193.605 E0.06539
G1 X147.17 Y193.093 E0.06539
G1 X146.505 Y192.428 E0.06538
G1 X145.993 Y191.64 E0.06539
G1 X145.656 Y190.762 E0.06539
G1 X145.509 Y189.833 E0.06539
G1 X145.558 Y188.896 E0.06526
G1 X145.663 Y188.513 E0.02762
G1 X145.86 Y187.691 E0.05878
G1 X145.753 Y187.473 E0.01691
G1 X112.527 Y154.247 E3.26789
G1 X112.309 Y154.14 E0.01691
G1 X112.163 Y154.15 E0.01014
G1 X111.104 Y154.442 E0.07642
G1 X110.167 Y154.491 E0.06527
G1 X109.238 Y154.344 E0.06539
G1 X108.36 Y154.007 E0.06539
G1 X107.572 Y153.495 E0.06538
G1 X106.907 Y152.83 E0.06539
G1 X106.395 Y152.042 E0.06538
G1 X106.058 Y151.164 E0.06539
G1 X105.911 Y150.235 E0.06539
G1 X105.96 Y149.296 E0.06539
G1 X106.203 Y148.388 E0.06538
G1 X106.63 Y147.551 E0.06538
G1 X107.222 Y146.82 E0.06539
G1 X107.953 Y146.228 E0.06539
G1 X108.79 Y145.801 E0.06538
G1 X109.698 Y145.558 E0.06538
G1 X110.637 Y145.509 E0.06539
G1 X111.566 Y145.656 E0.06538
G1 X112.104 Y145.863 E0.04009
G1 X112.289 Y145.884 E0.01296
G1 X112.503 Y145.778 E0.01659
G1 X129.14 Y129.14 E1.63635
;WIPE_START
M204 S5500
G1 X129.527 Y129.244 F36000
;WIPE_END
G1 E-0.7 F1800
M204 S2000
G1 X132.11 Y131.827 F36000
G1 E0.7 F1800
G1 X114.767 Y149.171 E1.70578
G1 X114.137 Y149.824 E0.06309
G1 X114.096 Y150.05 E0.01603
G1 X114.202 Y150.265 E0.01663
G1 X130.908 Y166.971 E1.64308
G1 X130.819 Y167.059 E0.00875
G1 X130.712 Y167.371 E0.02287
G1 X130.819 Y167.589 E0.01689
G1 X132.411 Y169.181 E0.15658
G1 X132.629 Y169.288 E0.01689
G1 X132.94 Y169.181 E0.02287
G1 X133.029 Y169.092 E0.00875
G1 X149.735 Y185.798 E1.64308
G1 X149.857 Y185.879 E0.01014
G1 X150.045 Y185.905 E0.01323
G1 X150.265 Y185.798 E0.01698
G1 X166.971 Y169.092 E1.64308
G1 X167.059 Y169.181 E0.00875
G1 X167.371 Y169.288 E0.02287
G1 X167.589 Y169.181 E0.01689
G1 X169.181 Y167.589 E0.15658
G1 X169.287 Y167.371 E0.01689
G1 X169.181 Y167.059 E0.02287
G1 X169.092 Y166.971 E0.00875
G1 X185.233 Y150.829 E1.58755
G1 X185.863 Y150.176 E0.06309
G1 X185.904 Y149.95 E0.01603
G1 X185.798 Y149.735 E0.01663
G1 X169.092 Y133.029 E1.64308
G1 X169.181 Y132.941 E0.00875
G1 X169.287 Y132.629 E0.02287
G1 X169.181 Y132.411 E0.01689
G1 X167.589 Y130.819 E0.15658
G1 X167.371 Y130.712 E0.01689
G1 X167.059 Y130.819 E0.02287
G1 X166.971 Y130.908 E0.00875
G1 X150.265 Y114.202 E1.64308
G1 X150.143 Y114.121 E0.01014
G1 X149.955 Y114.095 E0.01323
G1 X149.735 Y114.202 E0.01698
G1 X135.858 Y128.08 E1.36489
G1 X135.769 Y127.991 E0.00875
G1 X135.458 Y127.884 E0.02287
G1 X135.24 Y127.991 E0.01689
G1 X133.648 Y129.583 E0.15658
G1 X133.541 Y129.801 E0.01689
G1 X133.648 Y130.112 E0.02287
G1 X133.737 Y130.201 E0.00875
G1 X132.11 Y131.827 E0.15995
;WIPE_START
M204 S5500
G1 X132.214 Y132.214 F36000
;WIPE_END
G1 E-0.7 F1800
; acceleration to travel
M204 S10000
G1 X145.632 Y110.685 F36000
; decel to extrusion
M204 S2000
G1 X148.328 Y106.36
; end travel
G1 E0.7 F1800
;TYPE:Solid infill
;WIDTH:0.793818
G1 F3000
G1 X150.298 Y106.36 E0.14602
G1 X150.591 Y106.407 E0.022
G1 X151.051 Y106.48 E0.0345
G1 X151.844 Y106.784 E0.06291
G1 X152.344 Y107.109 E0.04422
G1 X147.649 Y107.109 E0.3479
G1 X147.129 Y107.531 E0.04967
G1 X146.864 Y107.857 E0.03116
G1 X153.163 Y107.857 E0.46679
G1 X153.618 Y108.558 E0.06195
G1 X153.636 Y108.606 E0.00376
G1 X146.383 Y108.606 E0.53756
G1 X146.209 Y108.947 E0.02835
G1 X146.1 Y109.354 E0.03127
G1 X153.923 Y109.354 E0.57976
G1 X154.041 Y110.103 E0.05616
G1 X145.972 Y110.103 E0.59804
G1 X145.945 Y110.615 E0.03797
G1 X145.982 Y110.851 E0.01777
G1 X154.02 Y110.851 E0.59569
G1 X154.011 Y111.034 E0.01358
G1 X153.861 Y111.6 E0.04336
G1 X146.134 Y111.6 E0.57263
G1 X146.269 Y111.951 E0.02791
G1 X146.312 Y112.112 E0.01235
G1 X146.315 Y112.348 E0.01749
G1 X153.708 Y112.348 E0.54794
G1 X153.709 Y112.364 E0.00115
G1 X153.781 Y112.611 E0.01911
G1 X153.936 Y112.831 E0.0199
G1 X154.202 Y113.097 E0.0279
M73 P5 R21
G1 X145.798 Y113.097 E0.62284
G1 X145.049 Y113.845 E0.07845
G1 X154.951 Y113.845 E0.73377
G1 X155.699 Y114.594 E0.07845
G1 X151.27 Y114.594 E0.32823
G1 X152.019 Y115.342 E0.07845
G1 X156.448 Y115.342 E0.32823
M73 P5 R20
G1 X157.196 Y116.091 E0.07845
G1 X152.767 Y116.091 E0.32823
G1 X153.516 Y116.839 E0.07845
G1 X157.945 Y116.839 E0.32823
G1 X158.693 Y117.588 E0.07845
G1 X154.264 Y117.588 E0.32823
G1 X155.013 Y118.336 E0.07845
G1 X159.442 Y118.336 E0.32823
G1 X160.19 Y119.085 E0.07845
G1 X155.761 Y119.085 E0.32823
G1 X156.51 Y119.833 E0.07845
G1 X160.939 Y119.833 E0.32823
G1 X161.687 Y120.582 E0.07845
G1 X157.258 Y120.582 E0.32823
G1 X158.007 Y121.33 E0.07845
G1 X162.436 Y121.33 E0.32823
G1 X163.184 Y122.079 E0.07845
G1 X158.755 Y122.079 E0.32823
G1 X159.504 Y122.827 E0.07845
G1 X163.933 Y122.827 E0.32823
G1 X164.681 Y123.576 E0.07845
G1 X160.252 Y123.576 E0.32823
G1 X161.001 Y124.324 E0.07845
G1 X165.43 Y124.324 E0.32823
G1 X166.178 Y125.073 E0.07845
G1 X161.749 Y125.073 E0.32823
G1 X162.498 Y125.821 E0.07845
G1 X166.927 Y125.821 E0.32823
G1 X167.675 Y126.57 E0.07845
G1 X163.246 Y126.57 E0.32823
G1 X163.995 Y127.318 E0.07845
G1 X168.424 Y127.318 E0.32823
G1 X169.172 Y128.067 E0.07845
G1 X164.743 Y128.067 E0.32823
G1 X165.492 Y128.815 E0.07845
G1 X169.921 Y128.815 E0.32823
G1 X170.669 Y129.564 E0.07845
G1 X166.24 Y129.564 E0.32823
G1 X166.989 Y130.312 E0.07845
G1 X171.418 Y130.312 E0.32823
G1 X172.166 Y131.061 E0.07845
G1 X168.444 Y131.061 E0.27582
G1 X169.193 Y131.809 E0.07845
G1 X172.915 Y131.809 E0.27582
G1 X173.663 Y132.558 E0.07845
G1 X169.714 Y132.558 E0.29267
G1 X169.722 Y132.584 E0.00206
G1 X169.604 Y132.928 E0.02689
G1 X169.983 Y133.306 E0.03968
G1 X174.412 Y133.306 E0.32823
G1 X175.16 Y134.055 E0.07845
G1 X170.731 Y134.055 E0.32823
G1 X171.48 Y134.803 E0.07845
G1 X175.909 Y134.803 E0.32823
G1 X176.657 Y135.552 E0.07845
G1 X172.228 Y135.552 E0.32823
G1 X172.977 Y136.3 E0.07845
G1 X177.406 Y136.3 E0.32823
G1 X178.154 Y137.049 E0.07845
G1 X173.725 Y137.049 E0.32823
G1 X174.474 Y137.797 E0.07845
G1 X178.903 Y137.797 E0.32823
G1 X179.651 Y138.546 E0.07845
G1 X175.222 Y138.546 E0.32823
G1 X175.971 Y139.294 E0.07845
G1 X180.4 Y139.294 E0.32823
G1 X181.148 Y140.043 E0.07845
G1 X176.719 Y140.043 E0.32823
G1 X177.467 Y140.791 E0.07845
G1 X181.897 Y140.791 E0.32823
G1 X182.645 Y141.54 E0.07845
G1 X178.216 Y141.54 E0.32823
G1 X178.964 Y142.288 E0.07845
G1 X183.393 Y142.288 E0.32823
