; generated by SuperSlicer 2.5.59 on 2022-08-16 at 05:15:24 UTC


;
;

;
;
; 

; external perimeters extrusion width = 0.40mm
; perimeters extrusion width = 0.48mm
; infill extrusion width = 0.72mm
; solid infill extrusion width = 0.56mm
; top infill extrusion width = 0.40mm
; first layer extrusion width = 0.48mm

; object:{"name":"smart_compact_temp_calibration","id":"smart_compact_temp_calibration id:0 copy 0","object_center":[150.000000,149.900000,0.000000],"boundingbox_center":[150.000000,149.900000,25.000000],"boundingbox_size":[44.487499,5.200000,50.000000]}
; plater:{"center":[150.000000,149.900000,0.000000],"boundingbox_center":[150.000000,149.900000,25.000000],"boundingbox_size":[44.487499,5.200000,50.000000]}

;TYPE:Custom
print_start EXTRUDER=250 BED=110 CHAMBER=50
M107
G21 ; set units to millimeters
G90 ; use absolute coordinates
M83 ; use relative distances for extrusion
; Filament gcode
SET_PRESSURE_ADVANCE ADVANCE=0.02
SET_PRESSURE_ADVANCE EXTRUDER=extruder SMOOTH_TIME=0.04
;_TOOLCHANGE 0
M104 S250 ; set temperature
M109 S250 ; set temperature and wait for it to be reached
M190 S110 ; set bed temperature and wait for it to be reached
M107
;LAYER_CHANGE
;Z:0.25
;HEIGHT:0.25
;BEFORE_LAYER_CHANGE
;0.25
TIMELAPSE_TAKE_FRAME


G1 Z0.25 F42000
;AFTER_LAYER_CHANGE
;0.25
G92 E0
G1 E-1.2 F3000
M204 S1500
G1 Z0.65 F42000
G1 X129.747 Y145.591
G1 Z0.25
G1 E1.2 F1800
;TYPE:Skirt
;WIDTH:0.48
G1 X131.025 Y145.003 E0.06232
G1 X132.12 Y144.957 E0.04857
G1 X162.988 Y144.974 E1.3679
G1 X163.921 Y145.308 E0.04389
G1 X164.725 Y146.007 E0.04721
G1 X165.276 Y147.257 E0.06056
G1 X165.266 Y152.793 E0.24532
G1 X164.917 Y153.712 E0.04355
G1 X164.247 Y154.473 E0.04495
G1 X163.171 Y154.989 E0.05285
G1 X132.097 Y155.043 E1.37705
G1 X131.053 Y154.999 E0.04631
G1 X130.126 Y154.672 E0.04353
G1 X129.306 Y153.954 E0.04832
G1 X128.798 Y152.882 E0.05257
G1 X128.788 Y147.155 E0.25377
G1 X129.151 Y146.27 E0.04239
G1 X129.708 Y145.636 E0.03741
G1 X130.028 Y145.917 F42000
G1 F1800
G1 X130.038 Y145.906 E0.00066
G1 X131.084 Y145.427 E0.05098
G1 X132.124 Y145.383 E0.04613
G1 X162.95 Y145.4 E1.36601
G1 X163.734 Y145.693 E0.0371
G1 X164.407 Y146.294 E0.03997
G1 X164.85 Y147.302 E0.04877
G1 X164.854 Y152.678 E0.23824
G1 X164.532 Y153.523 E0.04006
G1 X163.959 Y154.155 E0.0378
G1 X163.034 Y154.583 E0.04517
G1 X132.101 Y154.617 E1.37079
G1 X131.103 Y154.574 E0.04424
G1 X130.311 Y154.286 E0.03739
G1 X129.624 Y153.667 E0.04098
G1 X129.205 Y152.747 E0.0448
G1 X129.199 Y147.274 E0.2425
G1 X129.496 Y146.524 E0.03576
G1 X129.989 Y145.962 E0.03313
G1 X130.303 Y146.248 F42000
G1 F1800
G1 X130.324 Y146.224 E0.00139
G1 X131.143 Y145.851 E0.03987
G1 X132.129 Y145.81 E0.0437
G1 X162.91 Y145.826 E1.36402
G1 X163.541 Y146.075 E0.03007
G1 X164.085 Y146.578 E0.03283
G1 X164.424 Y147.347 E0.03724
G1 X164.44 Y152.568 E0.23139
G1 X164.189 Y153.267 E0.03291
G1 X163.674 Y153.835 E0.03396
G1 X162.903 Y154.175 E0.03732
G1 X132.105 Y154.191 E1.36478
G1 X131.156 Y154.15 E0.04211
G1 X130.501 Y153.902 E0.03105
G1 X129.947 Y153.385 E0.03357
G1 X129.613 Y152.617 E0.0371
G1 X129.611 Y147.394 E0.23147
G1 X129.878 Y146.716 E0.03226
G1 X130.263 Y146.292 E0.02539
G1 X130.579 Y146.579 F42000
G1 F1800
G1 X130.611 Y146.543 E0.00211
G1 X131.202 Y146.276 E0.02877
G1 X132.133 Y146.236 E0.04128
G1 X162.867 Y146.253 E1.36192
G1 X163.339 Y146.453 E0.02272
G1 X163.759 Y146.855 E0.02577
G1 X164.014 Y147.471 E0.02956
G1 X164.014 Y152.529 E0.22415
G1 X163.805 Y153.076 E0.02592
G1 X163.395 Y153.509 E0.02645
G1 X162.779 Y153.765 E0.02956
G1 X132.11 Y153.764 E1.35906
G1 X131.207 Y153.725 E0.04004
G1 X130.76 Y153.561 E0.0211
G1 X130.271 Y153.105 E0.02963
G1 X130.024 Y152.495 E0.02918
G1 X130.024 Y147.506 E0.22107
G1 X130.221 Y146.973 E0.02521
G1 X130.538 Y146.623 E0.02092
G1 X130.844 Y146.916 F42000
G1 F1800
G1 X130.89 Y146.868 E0.00296
G1 X131.261 Y146.7 E0.01803
G1 X132.137 Y146.663 E0.03886
G1 X162.819 Y146.679 E1.35963
G1 X163.123 Y146.823 E0.01491
G1 X163.427 Y147.127 E0.01906
G1 X163.588 Y147.513 E0.01854
G1 X163.588 Y152.487 E0.22043
G1 X163.427 Y152.874 E0.01854
G1 X163.123 Y153.178 E0.01906
G1 X162.737 Y153.338 E0.01854
G1 X132.124 Y153.338 E1.35659
G1 X131.261 Y153.301 E0.03825
G1 X130.957 Y153.18 E0.0145
G1 X130.602 Y152.831 E0.02207
G1 X130.45 Y152.454 E0.01803
G1 X130.45 Y147.547 E0.21745
G1 X130.602 Y147.169 E0.01803
G1 X130.803 Y146.959 E0.01289
G1 X131.111 Y147.254 F42000
G1 F1800
G1 X131.17 Y147.192 E0.00381
G1 X131.32 Y147.124 E0.0073
G1 X132.142 Y147.089 E0.03644
G1 X162.695 Y147.089 E1.35392
G1 X162.851 Y147.154 E0.00752
G1 X163.096 Y147.399 E0.01534
G1 X163.161 Y147.555 E0.00752
G1 X163.161 Y152.446 E0.2167
G1 X163.096 Y152.602 E0.00752
G1 X162.851 Y152.847 E0.01534
G1 X162.695 Y152.912 E0.00752
G1 X132.137 Y152.912 E1.35412
G1 X131.32 Y152.877 E0.03624
G1 X131.17 Y152.809 E0.0073
G1 X130.938 Y152.566 E0.01489
G1 X130.876 Y152.413 E0.0073
G1 X130.876 Y147.588 E0.21383
G1 X130.938 Y147.435 E0.0073
G1 X131.069 Y147.297 E0.00842
G1 X131.377 Y147.592 F42000
G1 F1800
G1 X131.421 Y147.546 E0.00282
G1 X132.144 Y147.515 E0.03207
G1 X162.61 Y147.515 E1.35006
G1 X162.735 Y147.64 E0.00783
G1 X162.735 Y152.361 E0.20919
G1 X162.61 Y152.486 E0.00783
G1 X132.144 Y152.486 E1.35006
G1 X131.421 Y152.454 E0.03207
G1 X131.303 Y152.331 E0.00759
G1 X131.303 Y147.67 E0.20653
G1 X131.336 Y147.636 E0.00211
M104 S260 ; set temperature
; printing object smart_compact_temp_calibration id:0 copy 0
M204 S1000
G1 X131.756 Y147.986 F42000
;TYPE:External perimeter
;WIDTH:0.426349
G1 F1800
G1 X132.152 Y147.968 E0.01535
G1 X162.282 Y147.968 E1.16716
G1 X162.282 Y152.032 E0.15743
G1 X132.16 Y152.032 E1.16682
G1 X131.756 Y152.015 E0.01569
G1 X131.756 Y148.046 E0.15378
;WIPE_START
M204 S1500
G1 X132.108 Y148.175 F42000
;WIPE_END
G1 E-1.2 F3000
G1 Z0.65 F42000
G1 X162.218 Y148.894
G1 Z0.25
G1 E1.2 F1800
;TYPE:Solid infill
;WIDTH:0.479155
G1 F3600
G1 X161.539 Y148.216 E0.04245
G1 X160.936 Y148.216 E0.02667
G1 X162.034 Y149.314 E0.0687
G1 X162.034 Y149.917 E0.02667
G1 X160.333 Y148.216 E0.10642
G1 X159.73 Y148.216 E0.02667
G1 X162.034 Y150.52 E0.14414
G1 X162.034 Y151.123 E0.02667
G1 X159.127 Y148.216 E0.18186
G1 X158.524 Y148.216 E0.02667
G1 X162.034 Y151.726 E0.21958
G1 X162.034 Y151.785 E0.00263
G1 X161.491 Y151.785 E0.02405
G1 X157.921 Y148.216 E0.22329
G1 X157.319 Y148.216 E0.02667
G1 X160.888 Y151.785 E0.22328
G1 X160.285 Y151.785 E0.02668
G1 X156.716 Y148.216 E0.22327
G1 X156.113 Y148.216 E0.02667
G1 X159.681 Y151.784 E0.22326
G1 X159.078 Y151.784 E0.02668
G1 X155.51 Y148.216 E0.22325
G1 X154.907 Y148.216 E0.02667
G1 X158.475 Y151.784 E0.22324
G1 X157.872 Y151.784 E0.02668
G1 X154.304 Y148.216 E0.22323
G1 X153.701 Y148.216 E0.02667
G1 X157.269 Y151.784 E0.22322
G1 X156.666 Y151.784 E0.02668
G1 X153.098 Y148.216 E0.22321
G1 X152.495 Y148.216 E0.02667
G1 X156.063 Y151.784 E0.2232
G1 X155.46 Y151.783 E0.02668
G1 X151.892 Y148.216 E0.22319
G1 X151.289 Y148.216 E0.02667
G1 X154.857 Y151.783 E0.22318
G1 X154.253 Y151.783 E0.02668
G1 X150.686 Y148.216 E0.22317
G1 X150.083 Y148.216 E0.02667
G1 X153.65 Y151.783 E0.22316
G1 X153.047 Y151.783 E0.02668
G1 X149.48 Y148.216 E0.22315
G1 X148.877 Y148.216 E0.02667
G1 X152.444 Y151.783 E0.22314
G1 X151.841 Y151.782 E0.02668
G1 X148.274 Y148.216 E0.22313
G1 X147.671 Y148.216 E0.02667
G1 X151.238 Y151.782 E0.22312
G1 X150.635 Y151.782 E0.02668
G1 X147.068 Y148.216 E0.22311
G1 X146.465 Y148.216 E0.02667
G1 X150.032 Y151.782 E0.2231
G1 X149.429 Y151.782 E0.02668
G1 X145.863 Y148.216 E0.22309
G1 X145.26 Y148.216 E0.02667
G1 X148.825 Y151.782 E0.22308
G1 X148.222 Y151.781 E0.02668
G1 X144.657 Y148.216 E0.22307
G1 X144.054 Y148.216 E0.02667
G1 X147.619 Y151.781 E0.22306
G1 X147.016 Y151.781 E0.02668
G1 X143.451 Y148.216 E0.22305
G1 X142.848 Y148.216 E0.02667
G1 X146.413 Y151.781 E0.22304
G1 X145.81 Y151.781 E0.02668
G1 X142.245 Y148.216 E0.22303
G1 X141.642 Y148.216 E0.02667
G1 X145.207 Y151.781 E0.22302
G1 X144.604 Y151.78 E0.02668
G1 X141.039 Y148.216 E0.22301
G1 X140.436 Y148.216 E0.02667
G1 X144.001 Y151.78 E0.223
G1 X143.397 Y151.78 E0.02668
G1 X139.833 Y148.216 E0.22299
G1 X139.23 Y148.216 E0.02667
G1 X142.794 Y151.78 E0.22298
G1 X142.191 Y151.78 E0.02668
G1 X138.627 Y148.216 E0.22297
G1 X138.024 Y148.216 E0.02667
G1 X141.588 Y151.78 E0.22296
G1 X140.985 Y151.779 E0.02668
G1 X137.421 Y148.216 E0.22295
G1 X136.818 Y148.216 E0.02667
G1 X140.382 Y151.779 E0.22294
G1 X139.779 Y151.779 E0.02668
G1 X136.215 Y148.216 E0.22293
G1 X135.612 Y148.216 E0.02667
G1 X139.176 Y151.779 E0.22292
G1 X138.573 Y151.779 E0.02668
G1 X135.009 Y148.216 E0.22291
G1 X134.407 Y148.216 E0.02667
G1 X137.969 Y151.779 E0.22289
G1 X137.366 Y151.778 E0.02668
G1 X133.804 Y148.216 E0.22288
G1 X133.203 Y148.218 E0.02656
G1 X136.763 Y151.778 E0.22271
G1 X136.16 Y151.778 E0.02668
G1 X132.603 Y148.221 E0.22253
G1 X132.003 Y148.224 E0.02653
G1 X135.557 Y151.778 E0.22233
G1 X134.954 Y151.778 E0.02668
G1 X132.003 Y148.827 E0.1846
G1 X132.003 Y149.43 E0.02667
G1 X134.351 Y151.778 E0.14687
G1 X133.748 Y151.777 E0.02668
G1 X132.003 Y150.033 E0.10914
G1 X132.003 Y150.636 E0.02667
G1 X133.145 Y151.777 E0.07141
G1 X132.541 Y151.777 E0.02668
G1 X131.82 Y151.056 E0.04515
M106 S175.95
;LAYER_CHANGE
;Z:0.45
;HEIGHT:0.2
;BEFORE_LAYER_CHANGE
;0.45
TIMELAPSE_TAKE_FRAME


; stop printing object smart_compact_temp_calibration id:0 copy 0
G1 Z0.45 F42000
;AFTER_LAYER_CHANGE
;0.45
G92 E0
M104 S245 ; set temperature
M104 S260 ; set temperature
; printing object smart_compact_temp_calibration id:0 copy 0
M204 S1000
G1 X131.386 Y152.176
;TYPE:External perimeter
;WIDTH:0.357079
G1 F4800
M106 S191.25
G1 X131.386 Y147.825 E0.11364
G1 X132.151 Y147.782 E0.02003
G1 X162.742 Y147.782 E0.79911
G1 X162.742 Y152.219 E0.11589
G1 X132.151 Y152.219 E0.79911
G1 X131.445 Y152.179 E0.01846
M106 S175.95
;WIPE_START
M204 S1500
G1 X131.592 Y151.833 F42000
;WIPE_END
G1 X132.297 Y151.707
;TYPE:Bridge infill
;WIDTH:0.368782
;HEIGHT:0.368782
M106 S255
G1 F8400
G1 X131.598 Y151.667 E0.0311
G1 X131.598 Y150.929 E0.03281
G1 X132.139 Y150.959 E0.02405
G1 X132.139 Y150.468 E0.02178
G1 X132.139 Y150.22 E0.01102
G1 X131.598 Y150.19 E0.02405
G1 X131.598 Y149.451 E0.03281
G1 X132.139 Y149.482 E0.02405
G1 X132.139 Y149.064 E0.01853
G1 X132.139 Y148.743 E0.01427
G1 X131.598 Y148.712 E0.02405
G1 X131.598 Y148.026 E0.03047
G1 X132.066 Y148 E0.02079
G1 X132.297 Y148.013 E0.0103
M106 S175.95
G1 X132.989 Y147.844 F42000
;TYPE:Solid infill
;WIDTH:0.558408
;HEIGHT:0.2
G1 F9309.3616
G1 X132.564 Y148.268 E0.02574
G1 X132.564 Y148.596 E0.01406
G1 X132.564 Y148.999 E0.01729
G1 X133.497 Y148.066 E0.05659
G1 X134.229 Y148.066 E0.03135
G1 X132.564 Y149.731 E0.10093
G1 X132.564 Y150.462 E0.03135
G1 X134.96 Y148.066 E0.14527
G1 X135.691 Y148.066 E0.03135
G1 X132.564 Y151.193 E0.18961
G1 X132.564 Y151.405 E0.00907
G1 X132.564 Y151.924 E0.02229
G1 X136.423 Y148.066 E0.23394
G1 X137.154 Y148.066 E0.03135
G1 X133.285 Y151.935 E0.23457
G1 X134.016 Y151.935 E0.03135
G1 X137.885 Y148.066 E0.23457
G1 X138.616 Y148.066 E0.03135
G1 X134.748 Y151.935 E0.23457
G1 X135.479 Y151.935 E0.03135
G1 X139.348 Y148.066 E0.23457
G1 X140.079 Y148.066 E0.03135
G1 X136.21 Y151.935 E0.23457
G1 X136.941 Y151.935 E0.03135
G1 X140.81 Y148.066 E0.23457
G1 X141.541 Y148.066 E0.03135
G1 X137.673 Y151.935 E0.23457
G1 X138.404 Y151.935 E0.03135
G1 X142.273 Y148.066 E0.23457
G1 X143.004 Y148.066 E0.03135
G1 X139.135 Y151.935 E0.23457
G1 X139.866 Y151.935 E0.03135
G1 X143.735 Y148.066 E0.23457
G1 X144.466 Y148.066 E0.03135
G1 X140.598 Y151.935 E0.23457
G1 X141.329 Y151.935 E0.03135
G1 X145.198 Y148.066 E0.23457
G1 X145.929 Y148.066 E0.03135
G1 X142.06 Y151.935 E0.23457
G1 X142.791 Y151.935 E0.03135
G1 X146.66 Y148.066 E0.23457
G1 X147.391 Y148.066 E0.03135
G1 X143.523 Y151.935 E0.23457
G1 X144.254 Y151.935 E0.03135
G1 X148.123 Y148.066 E0.23457
G1 X148.854 Y148.066 E0.03135
G1 X144.985 Y151.935 E0.23457
G1 X145.716 Y151.935 E0.03135
G1 X149.585 Y148.066 E0.23457
G1 X150.316 Y148.066 E0.03135
G1 X146.448 Y151.935 E0.23457
G1 X147.179 Y151.935 E0.03135
G1 X151.048 Y148.066 E0.23457
G1 X151.779 Y148.066 E0.03135
G1 X147.91 Y151.935 E0.23457
G1 X148.641 Y151.935 E0.03135
G1 X152.51 Y148.066 E0.23457
G1 X153.241 Y148.066 E0.03135
G1 X149.373 Y151.935 E0.23457
G1 X150.104 Y151.935 E0.03135
G1 X153.973 Y148.066 E0.23457
G1 X154.704 Y148.066 E0.03135
G1 X150.835 Y151.935 E0.23457
G1 X151.567 Y151.935 E0.03135
G1 X155.435 Y148.066 E0.23457
G1 X156.167 Y148.066 E0.03135
G1 X152.298 Y151.935 E0.23457
G1 X153.029 Y151.935 E0.03135
G1 X156.898 Y148.066 E0.23457
G1 X157.629 Y148.066 E0.03135
G1 X153.76 Y151.935 E0.23457
G1 X154.492 Y151.935 E0.03135
G1 X158.36 Y148.066 E0.23457
G1 X159.092 Y148.066 E0.03135
G1 X155.223 Y151.935 E0.23457
G1 X155.954 Y151.935 E0.03135
G1 X159.823 Y148.066 E0.23457
G1 X160.554 Y148.066 E0.03135
G1 X156.685 Y151.935 E0.23457
G1 X157.417 Y151.935 E0.03135
G1 X161.285 Y148.066 E0.23457
G1 X161.673 Y148.066 E0.01664
G1 X161.673 Y148.409 E0.01471
G1 X158.148 Y151.935 E0.21376
G1 X158.879 Y151.935 E0.03135
G1 X161.673 Y149.14 E0.16943
G1 X161.673 Y149.872 E0.03135
G1 X159.61 Y151.935 E0.12509
G1 X160.342 Y151.935 E0.03135
G1 X161.673 Y150.603 E0.08075
G1 X161.673 Y151.334 E0.03135
G1 X160.851 Y152.157 E0.04989
M106 S175.95
M106 S153
;LAYER_CHANGE
;Z:0.65
;HEIGHT:0.2
;BEFORE_LAYER_CHANGE
;0.65
TIMELAPSE_TAKE_FRAME


; stop printing object smart_compact_temp_calibration id:0 copy 0
G1 Z0.65 F42000
;AFTER_LAYER_CHANGE
;0.65
G92 E0
; printing object smart_compact_temp_calibration id:0 copy 0
M204 S1000
G1 X162.891 Y152.277
;TYPE:External perimeter
;WIDTH:0.357079
G1 F4165
M106 S191.25
G1 X132.166 Y152.277 E0.80261
G1 X132.13 Y152.276 E0.00095
G1 X131.247 Y152.23 E0.0231
G1 X131.243 Y147.778 E0.11629
G1 X132.15 Y147.724 E0.02374
G1 X138.262 Y147.724 E0.15967
G1 X138.332 Y147.71 E0.00185
G1 X138.441 Y147.523 E0.00565
G1 X153.012 Y147.523 E0.38064
G1 X153.144 Y147.71 E0.00597
G1 X153.213 Y147.724 E0.00185
G1 X162.891 Y147.724 E0.25282
G1 X162.891 Y152.217 E0.11738
M106 S153
;WIPE_START
M204 S1500
G1 X162.545 Y152.077 F42000
;WIPE_END
G1 X162.83 Y148.83
;TYPE:Solid infill
;WIDTH:0.558316
G1 F4165
G1 X162.007 Y148.008 E0.04989
G1 X161.276 Y148.008 E0.03135
G1 X162.607 Y149.339 E0.08074
G1 X162.607 Y150.071 E0.03135
G1 X160.544 Y148.008 E0.12507
G1 X159.813 Y148.008 E0.03135
G1 X162.607 Y150.802 E0.1694
G1 X162.607 Y151.533 E0.03135
G1 X159.082 Y148.008 E0.21373
G1 X158.351 Y148.008 E0.03135
G1 X162.336 Y151.993 E0.24162
G1 X161.605 Y151.993 E0.03135
G1 X157.619 Y148.008 E0.24162
G1 X156.888 Y148.008 E0.03135
G1 X160.874 Y151.993 E0.24162
G1 X160.142 Y151.993 E0.03135
G1 X156.157 Y148.008 E0.24162
G1 X155.426 Y148.008 E0.03135
G1 X159.411 Y151.993 E0.24162
G1 X158.68 Y151.993 E0.03135
G1 X154.694 Y148.008 E0.24162
G1 X153.963 Y148.008 E0.03135
G1 X157.949 Y151.993 E0.24162
G1 X157.217 Y151.993 E0.03135
G1 X153.232 Y148.008 E0.24162
G1 X153.011 Y147.969 E0.00963
G1 X152.919 Y147.83 E0.00712
G1 X152.323 Y147.83 E0.02552
G1 X156.486 Y151.993 E0.25236
G1 X155.755 Y151.993 E0.03135
G1 X151.592 Y147.83 E0.25236
G1 X150.861 Y147.83 E0.03135
G1 X155.024 Y151.993 E0.25236
G1 X154.292 Y151.993 E0.03135
G1 X150.129 Y147.83 E0.25236
G1 X149.398 Y147.83 E0.03135
G1 X153.561 Y151.993 E0.25236
G1 X152.83 Y151.993 E0.03135
G1 X148.667 Y147.83 E0.25236
G1 X147.936 Y147.83 E0.03135
G1 X152.099 Y151.993 E0.25236
G1 X151.367 Y151.993 E0.03135
G1 X147.204 Y147.83 E0.25236
G1 X146.473 Y147.83 E0.03135
G1 X150.636 Y151.993 E0.25236
G1 X149.905 Y151.993 E0.03135
G1 X145.742 Y147.83 E0.25236
G1 X145.011 Y147.83 E0.03135
G1 X149.173 Y151.993 E0.25236
G1 X148.442 Y151.993 E0.03135
G1 X144.279 Y147.83 E0.25236
G1 X143.548 Y147.83 E0.03135
G1 X147.711 Y151.993 E0.25236
G1 X146.98 Y151.993 E0.03135
G1 X142.817 Y147.83 E0.25236
G1 X142.086 Y147.83 E0.03135
G1 X146.248 Y151.993 E0.25236
G1 X145.517 Y151.993 E0.03135
G1 X141.354 Y147.83 E0.25236
G1 X140.623 Y147.83 E0.03135
G1 X144.786 Y151.993 E0.25236
G1 X144.055 Y151.993 E0.03135
G1 X139.892 Y147.83 E0.25236
G1 X139.161 Y147.83 E0.03135
G1 X143.323 Y151.993 E0.25236
