; generated by SuperSlicer 2.3.57 on 2022-05-21 at 20:26:31 UTC


;
;

;
;
; TODO: check the size of the extruder and the y-bar clearance. Optimize & test supports.

; external perimeters extrusion width = 0.40mm
; perimeters extrusion width = 0.40mm
; infill extrusion width = 0.44mm
; solid infill extrusion width = 0.46mm
; top infill extrusion width = 0.44mm

; object:{"name":"smart_compact_temp_calibration","id":"smart_compact_temp_calibration id:0 copy 0","object_center":[150.000000,149.800000,0.000000],"boundingbox_center":[150.000000,149.800000,35.000000],"boundingbox_size":[44.487499,5.400000,70.000000]}
; plater:{"center":[150.000000,149.800000,0.000000],"boundingbox_center":[150.000000,149.800000,35.000000],"boundingbox_size":[44.487499,5.400000,70.000000]}

;TYPE:Custom
print_start EXTRUDER=245 BED=110 CHAMBER=50
M107
G21 ; set units to millimeters
G90 ; use absolute coordinates
M83 ; use relative distances for extrusion
M104 S245 ; set temperature
M109 S245 ; set temperature and wait for it to be reached
M190 S110 ; set bed temperature and wait for it to be reached
;LAYER_CHANGE
;Z:0.2
;HEIGHT:0.2
;BEFORE_LAYER_CHANGE
;0.2


G1 Z0.2 F18000
;AFTER_LAYER_CHANGE
;0.2
G1 E-0.75 F3000
G1 Z0.6 F18000
M204 S1500
G1 X125.909 Y141.335
G1 Z0.2
G1 E0.75 F1800
;TYPE:Skirt
;WIDTH:0.52
G1 X125.126 Y142.1 E0.04342
G1 X124.57 Y143.037 E0.04322
G1 X124.273 Y144.091 E0.04342
G1 X124.231 Y155.394 E0.44838
G1 X124.315 Y156.147 E0.03006
G1 X124.533 Y156.873 E0.03006
G1 X125.122 Y157.895 E0.0468
G1 X125.977 Y158.715 E0.047
G1 X127.023 Y159.261 E0.0468
G1 X128.179 Y159.495 E0.0468
G1 X132.141 Y159.643 E0.15727
G1 X165.643 Y159.643 E1.32898
G1 X166.432 Y159.565 E0.03146
G1 X167.192 Y159.34 E0.03146
G1 X168.121 Y158.821 E0.04223
G1 X168.887 Y158.088 E0.04203
G1 X169.446 Y157.182 E0.04223
G1 X169.759 Y156.165 E0.04223
G1 X169.821 Y155.465 E0.02786
G1 X169.806 Y144.207 E0.44661
G1 X169.671 Y143.441 E0.03086
G1 X169.397 Y142.713 E0.03086
G1 X168.989 Y142.044 E0.03106
G1 X168.469 Y141.466 E0.03086
G1 X167.85 Y140.995 E0.03086
G1 X167.155 Y140.645 E0.03086
G1 X166.407 Y140.43 E0.03086
G1 X165.633 Y140.357 E0.03086
G1 X132.11 Y140.358 E1.32984
G1 X128.07 Y140.513 E0.16038
G1 X126.859 Y140.801 E0.04938
G1 X125.962 Y141.306 E0.04084
G1 X126.088 Y141.504 F18000
M204 S1000
G1 X126.215 Y141.703
G1 F1800
G1 X125.505 Y142.39 E0.03918
G1 X125.004 Y143.235 E0.03899
G1 X124.742 Y144.187 E0.03918
G1 X124.708 Y155.372 E0.44369
G1 X124.777 Y156.025 E0.02604
G1 X124.96 Y156.655 E0.02604
G1 X125.483 Y157.581 E0.04217
G1 X126.246 Y158.32 E0.04217
G1 X127.183 Y158.812 E0.04198
G1 X128.226 Y159.02 E0.04217
G1 X132.142 Y159.166 E0.15545
G1 X165.64 Y159.166 E1.32885
G1 X166.317 Y159.101 E0.02698
G1 X166.975 Y158.913 E0.02716
G1 X167.821 Y158.449 E0.03824
G1 X168.516 Y157.788 E0.03805
G1 X169.02 Y156.966 E0.03824
G1 X169.296 Y156.043 E0.03824
G1 X169.333 Y144.276 E0.46678
G1 X169.218 Y143.591 E0.02754
G1 X168.977 Y142.94 E0.02754
G1 X168.619 Y142.345 E0.02754
G1 X168.156 Y141.828 E0.02754
G1 X167.606 Y141.405 E0.02754
G1 X166.986 Y141.092 E0.02754
G1 X166.324 Y140.9 E0.02735
G1 X165.633 Y140.834 E0.02754
G1 X132.116 Y140.835 E1.32957
G1 X128.135 Y140.986 E0.15806
G1 X127.075 Y141.228 E0.04311
G1 X126.267 Y141.674 E0.03661
M204 S1500
G1 X126.391 Y141.874 F18000
M204 S1000
G1 X126.514 Y142.075
G1 F1800
G1 X125.882 Y142.683 E0.03481
G1 X125.438 Y143.435 E0.03464
G1 X125.211 Y144.278 E0.03464
G1 X125.185 Y155.357 E0.43949
G1 X125.391 Y156.448 E0.04405
G1 X125.843 Y157.267 E0.03708
G1 X126.513 Y157.925 E0.03726
G1 X127.344 Y158.363 E0.03726
G1 X128.266 Y158.544 E0.03726
G1 X132.143 Y158.689 E0.15392
G1 X165.633 Y158.689 E1.32854
G1 X166.769 Y158.481 E0.04579
G1 X167.522 Y158.076 E0.03394
G1 X168.147 Y157.485 E0.03411
G1 X168.594 Y156.75 E0.03411
G1 X168.832 Y155.924 E0.03411
G1 X168.859 Y144.336 E0.4597
G1 X168.762 Y143.735 E0.02413
G1 X168.555 Y143.164 E0.02413
G1 X168.244 Y142.641 E0.02413
G1 X167.844 Y142.189 E0.02395
G1 X167.363 Y141.816 E0.02413
G1 X166.822 Y141.54 E0.02413
G1 X166.238 Y141.369 E0.02413
G1 X165.632 Y141.311 E0.02413
G1 X132.128 Y141.312 E1.32911
G1 X128.191 Y141.46 E0.15627
G1 X127.282 Y141.66 E0.03691
G1 X126.567 Y142.046 E0.03226
G1 E-0.75 F3000
M204 S1500
G1 Z0.6 F18000
G1 X128.324 Y143.78
M204 S1000
G1 X130.08 Y145.513
G1 Z0.2
G1 E0.75 F1800
;WIDTH:0.4
G1 X130.966 Y145.117 E0.0288
G1 X132.141 Y145.073 E0.03492
G1 X132.188 Y145.072 E0.0014
G1 X162.999 Y145.072 E0.91482
G1 X163.918 Y145.452 E0.02952
G1 X164.725 Y146.26 E0.03392
G1 X165.106 Y147.179 E0.02952
G1 X165.106 Y152.821 E0.16753
G1 X164.725 Y153.74 E0.02952
G1 X163.918 Y154.548 E0.03392
G1 X162.999 Y154.928 E0.02952
G1 X132.191 Y154.928 E0.91472
G1 X132.144 Y154.927 E0.00139
G1 X130.966 Y154.883 E0.03502
G1 X130.08 Y154.487 E0.0288
G1 X129.308 Y153.684 E0.03308
G1 X128.945 Y152.785 E0.0288
G1 X128.945 Y147.215 E0.16536
G1 X129.308 Y146.316 E0.0288
G1 X130.039 Y145.557 E0.03129
M204 S1500
G1 X130.164 Y145.684 F18000
M204 S1000
G1 X130.29 Y145.811
G1 F1800
G1 X131.048 Y145.471 E0.02468
G1 X132.151 Y145.43 E0.03276
G1 X132.191 Y145.429 E0.0012
G1 X162.928 Y145.429 E0.91261
G1 X163.715 Y145.755 E0.02531
G1 X164.423 Y146.462 E0.0297
G1 X164.749 Y147.25 E0.02531
G1 X164.749 Y152.75 E0.16331
G1 X164.423 Y153.538 E0.02531
G1 X163.715 Y154.245 E0.0297
G1 X162.928 Y154.571 E0.02531
G1 X132.195 Y154.571 E0.91251
G1 X132.155 Y154.57 E0.0012
G1 X131.048 Y154.529 E0.03286
G1 X130.29 Y154.189 E0.02469
G1 X129.613 Y153.486 E0.02896
G1 X129.302 Y152.715 E0.02468
G1 X129.302 Y147.285 E0.16124
G1 X129.613 Y146.514 E0.02468
G1 X130.248 Y145.854 E0.02718
M204 S1500
G1 X130.373 Y145.981 F18000
M204 S1000
G1 X130.499 Y146.109
G1 F1800
G1 X131.131 Y145.826 E0.02057
G1 X132.161 Y145.787 E0.03061
G1 X132.195 Y145.786 E0.001
G1 X162.857 Y145.786 E0.9104
G1 X163.513 Y146.058 E0.02109
G1 X164.12 Y146.665 E0.02548
G1 X164.392 Y147.321 E0.02109
G1 X164.392 Y152.679 E0.15909
G1 X164.12 Y153.335 E0.02109
G1 X163.513 Y153.942 E0.02548
G1 X162.857 Y154.214 E0.02109
G1 X132.198 Y154.214 E0.9103
G1 X132.165 Y154.213 E0.001
G1 X131.131 Y154.174 E0.03071
G1 X130.499 Y153.891 E0.02057
G1 X129.918 Y153.289 E0.02485
G1 X129.659 Y152.646 E0.02057
G1 X129.659 Y147.354 E0.15713
G1 X129.918 Y146.711 E0.02057
G1 X130.457 Y146.152 E0.02306
M204 S1500
G1 X130.582 Y146.279 F18000
M204 S1000
G1 X130.708 Y146.406
G1 F1800
G1 X131.214 Y146.18 E0.01646
G1 X132.171 Y146.144 E0.02845
G1 X132.198 Y146.143 E0.0008
G1 X162.786 Y146.143 E0.90819
G1 X163.311 Y146.361 E0.01687
G1 X163.817 Y146.867 E0.02126
G1 X164.035 Y147.392 E0.01687
G1 X164.035 Y152.608 E0.15487
G1 X163.817 Y153.133 E0.01687
G1 X163.311 Y153.639 E0.02126
G1 X162.786 Y153.857 E0.01687
G1 X132.201 Y153.857 E0.90809
G1 X132.175 Y153.856 E0.0008
G1 X131.214 Y153.82 E0.02855
G1 X130.708 Y153.594 E0.01646
G1 X130.223 Y153.091 E0.02073
G1 X130.016 Y152.577 E0.01646
G1 X130.016 Y147.423 E0.15301
G1 X130.223 Y146.909 E0.01646
G1 X130.666 Y146.449 E0.01895
M204 S1500
G1 X130.792 Y146.577 F18000
M204 S1000
G1 X130.917 Y146.704
G1 F1800
G1 X131.296 Y146.534 E0.01234
G1 X132.181 Y146.501 E0.02629
G1 X132.201 Y146.5 E0.0006
G1 X162.715 Y146.5 E0.90598
G1 X163.109 Y146.663 E0.01265
G1 X163.515 Y147.069 E0.01704
G1 X163.678 Y147.463 E0.01265
G1 X163.678 Y152.537 E0.15066
G1 X163.515 Y152.931 E0.01265
G1 X163.109 Y153.337 E0.01704
G1 X162.715 Y153.5 E0.01265
G1 X132.205 Y153.5 E0.90588
G1 X132.185 Y153.499 E0.0006
G1 X131.296 Y153.466 E0.02639
G1 X130.917 Y153.296 E0.01234
G1 X130.529 Y152.893 E0.01662
G1 X130.373 Y152.507 E0.01234
G1 X130.373 Y147.493 E0.1489
G1 X130.529 Y147.107 E0.01234
G1 X130.875 Y146.747 E0.01484
M204 S1500
G1 X131.001 Y146.874 F18000
M204 S1000
G1 X131.126 Y147.001
G1 F1800
G1 X131.379 Y146.888 E0.00823
G1 X132.205 Y146.857 E0.02454
G1 X162.644 Y146.857 E0.90378
G1 X162.906 Y146.966 E0.00844
G1 X163.212 Y147.271 E0.01283
G1 X163.321 Y147.534 E0.00844
G1 X163.321 Y152.466 E0.14644
G1 X163.212 Y152.728 E0.00844
G1 X162.906 Y153.034 E0.01283
G1 X162.644 Y153.143 E0.00844
G1 X132.208 Y153.143 E0.90367
G1 X131.379 Y153.112 E0.02463
G1 X131.126 Y152.999 E0.00823
G1 X130.834 Y152.695 E0.0125
G1 X130.73 Y152.438 E0.00823
G1 X130.73 Y147.562 E0.14479
G1 X130.834 Y147.305 E0.00823
G1 X131.084 Y147.045 E0.01072
M204 S1500
G1 X131.21 Y147.172 F18000
M204 S1000
G1 X131.335 Y147.299
G1 F1800
G1 X131.462 Y147.242 E0.00411
G1 X132.213 Y147.214 E0.02233
G1 X162.573 Y147.214 E0.90142
G1 X162.704 Y147.269 E0.00422
G1 X162.909 Y147.474 E0.00861
G1 X162.963 Y147.605 E0.00422
G1 X162.963 Y152.395 E0.14222
G1 X162.909 Y152.526 E0.00422
G1 X162.704 Y152.731 E0.00861
G1 X162.573 Y152.786 E0.00422
G1 X132.213 Y152.786 E0.90142
G1 X131.462 Y152.758 E0.02233
G1 X131.335 Y152.701 E0.00411
G1 X131.139 Y152.497 E0.00839
G1 X131.087 Y152.369 E0.00411
G1 X131.087 Y147.631 E0.14067
G1 X131.139 Y147.503 E0.00411
G1 X131.294 Y147.342 E0.00661
M204 S1500
G1 X131.419 Y147.469 F18000
M204 S1000
G1 X131.544 Y147.597
G1 F1800
G1 X132.215 Y147.571 E0.01992
G1 X162.502 Y147.571 E0.89926
G1 X162.606 Y147.676 E0.00439
G1 X162.606 Y152.324 E0.138
G1 X162.502 Y152.429 E0.00439
G1 X132.215 Y152.429 E0.89926
G1 X131.544 Y152.403 E0.01992
G1 X131.445 Y152.3 E0.00428
G1 X131.445 Y147.7 E0.13656
G1 X131.503 Y147.64 E0.00249
; INIT printing object smart_compact_temp_calibration id:0 copy 0
M104 S255 ; set temperature
; printing object smart_compact_temp_calibration id:0 copy 0
M204 S1500
G1 X131.663 Y147.802 F18000
M204 S1000
G1 X131.823 Y147.965
;TYPE:External perimeter
G1 F1800
G1 X132.22 Y147.95 E0.0118
G1 X162.228 Y147.95 E0.89096
G1 X162.228 Y152.05 E0.12173
G1 X132.22 Y152.05 E0.89096
G1 X131.823 Y152.035 E0.0118
G1 X131.823 Y148.025 E0.11906
;WIPE_START
M204 S1500
G1 X132.172 Y148.155 F18000
;WIPE_END
G1 X146.714 Y148.113
M204 S1000
G1 X161.255 Y148.072
;TYPE:Solid infill
;WIDTH:0.470191
G1 F1800
G1 X161.925 Y148.742 E0.03363
G1 X161.925 Y149.337 E0.02113
G1 X160.84 Y148.253 E0.05442
G1 X160.245 Y148.253 E0.02113
G1 X161.925 Y149.933 E0.0843
G1 X161.925 Y150.528 E0.02113
G1 X159.649 Y148.253 E0.11418
G1 X159.054 Y148.253 E0.02113
G1 X161.925 Y151.124 E0.14406
G1 X161.925 Y151.719 E0.02113
G1 X158.458 Y148.253 E0.17394
G1 X157.863 Y148.253 E0.02113
G1 X161.357 Y151.747 E0.17533
G1 X160.762 Y151.747 E0.02113
G1 X157.267 Y148.253 E0.17533
G1 X156.672 Y148.253 E0.02113
G1 X160.166 Y151.747 E0.17533
G1 X159.571 Y151.747 E0.02113
G1 X156.076 Y148.253 E0.17533
G1 X155.481 Y148.253 E0.02113
G1 X158.975 Y151.747 E0.17533
G1 X158.38 Y151.747 E0.02113
G1 X154.886 Y148.253 E0.17533
G1 X154.29 Y148.253 E0.02113
G1 X157.784 Y151.747 E0.17533
G1 X157.189 Y151.747 E0.02113
G1 X153.695 Y148.253 E0.17533
G1 X153.099 Y148.253 E0.02113
G1 X156.593 Y151.747 E0.17533
G1 X155.998 Y151.747 E0.02113
G1 X152.504 Y148.253 E0.17533
G1 X151.908 Y148.253 E0.02113
G1 X155.402 Y151.747 E0.17533
G1 X154.807 Y151.747 E0.02113
G1 X151.313 Y148.253 E0.17533
G1 X150.717 Y148.253 E0.02113
G1 X154.211 Y151.747 E0.17533
G1 X153.616 Y151.747 E0.02113
G1 X150.122 Y148.253 E0.17533
G1 X149.526 Y148.253 E0.02113
G1 X153.02 Y151.747 E0.17533
G1 X152.425 Y151.747 E0.02113
G1 X148.931 Y148.253 E0.17533
G1 X148.335 Y148.253 E0.02113
G1 X151.829 Y151.747 E0.17533
G1 X151.234 Y151.747 E0.02113
G1 X147.74 Y148.253 E0.17533
G1 X147.144 Y148.253 E0.02113
G1 X150.638 Y151.747 E0.17533
G1 X150.043 Y151.747 E0.02113
G1 X146.549 Y148.253 E0.17533
G1 X145.953 Y148.253 E0.02113
G1 X149.447 Y151.747 E0.17533
G1 X148.852 Y151.747 E0.02113
G1 X145.358 Y148.253 E0.17533
G1 X144.762 Y148.253 E0.02113
G1 X148.256 Y151.747 E0.17533
G1 X147.661 Y151.747 E0.02113
G1 X144.167 Y148.253 E0.17533
G1 X143.571 Y148.253 E0.02113
G1 X147.065 Y151.747 E0.17533
G1 X146.47 Y151.747 E0.02113
G1 X142.976 Y148.253 E0.17533
G1 X142.38 Y148.253 E0.02113
G1 X145.874 Y151.747 E0.17533
G1 X145.279 Y151.747 E0.02113
G1 X141.785 Y148.253 E0.17533
G1 X141.189 Y148.253 E0.02113
G1 X144.683 Y151.747 E0.17533
G1 X144.088 Y151.747 E0.02113
G1 X140.594 Y148.253 E0.17533
G1 X139.998 Y148.253 E0.02113
G1 X143.492 Y151.747 E0.17533
G1 X142.897 Y151.747 E0.02113
G1 X139.403 Y148.253 E0.17533
G1 X138.807 Y148.253 E0.02113
G1 X142.301 Y151.747 E0.17533
G1 X141.706 Y151.747 E0.02113
G1 X138.212 Y148.253 E0.17533
G1 X137.616 Y148.253 E0.02113
G1 X141.11 Y151.747 E0.17533
G1 X140.515 Y151.747 E0.02113
G1 X137.021 Y148.253 E0.17533
G1 X136.425 Y148.253 E0.02113
G1 X139.919 Y151.747 E0.17533
G1 X139.324 Y151.747 E0.02113
G1 X135.83 Y148.253 E0.17533
G1 X135.234 Y148.253 E0.02113
G1 X138.729 Y151.747 E0.17533
G1 X138.133 Y151.747 E0.02113
G1 X134.639 Y148.253 E0.17533
G1 X134.043 Y148.253 E0.02113
G1 X137.538 Y151.747 E0.17533
G1 X136.942 Y151.747 E0.02113
G1 X133.448 Y148.253 E0.17533
G1 X132.852 Y148.253 E0.02113
G1 X136.347 Y151.747 E0.17533
G1 X135.751 Y151.747 E0.02113
G1 X132.257 Y148.253 E0.17533
G1 X132.126 Y148.253 E0.00464
G1 X132.126 Y148.718 E0.01649
G1 X135.156 Y151.747 E0.15202
G1 X134.56 Y151.747 E0.02113
G1 X132.126 Y149.313 E0.12214
G1 X132.126 Y149.909 E0.02113
G1 X133.965 Y151.747 E0.09226
G1 X133.369 Y151.747 E0.02113
G1 X132.126 Y150.504 E0.06238
G1 X132.126 Y151.1 E0.02113
G1 X132.774 Y151.747 E0.0325
G1 X132.178 Y151.747 E0.02113
G1 X131.945 Y151.514 E0.0117
; INIT stop printing object smart_compact_temp_calibration id:0 copy 0
;LAYER_CHANGE
;Z:0.4
;HEIGHT:0.2
;BEFORE_LAYER_CHANGE
;0.4


; stop printing object smart_compact_temp_calibration id:0 copy 0
M204 S1500
G1 Z0.4 F18000
;AFTER_LAYER_CHANGE
;0.4
M104 S240 ; set temperature
M140 S105 ; set bed temperature
; INIT printing object smart_compact_temp_calibration id:0 copy 0
M104 S255 ; set temperature
; printing object smart_compact_temp_calibration id:0 copy 0
G1 X131.817 Y151.871
;TYPE:Internal perimeter
;WIDTH:0.4
G1 F6000
G1 X131.817 Y148.129 E0.11109
G1 X132.23 Y148.107 E0.01228
G1 X162.317 Y148.107 E0.89333
G1 X162.317 Y151.893 E0.11241
G1 X132.23 Y151.893 E0.89333
G1 X131.877 Y151.874 E0.01049
G1 X131.625 Y152.218 F18000
;TYPE:Overhang perimeter
G1 F3600
G1 X131.593 Y152.216 E0.00095
G1 X131.46 Y152.209 E0.00395
G1 X131.46 Y147.791 E0.13119
G1 X131.593 Y147.784 E0.00395
G1 X131.625 Y147.782 E0.00095
G1 X132.104 Y147.756 E0.01425
G1 X132.22 Y147.75 E0.00345
G1 X162.663 Y147.75 E0.90389
;WIDTH:0.357771
;HEIGHT:0.357771

G1 X162.674 Y147.75 E0.00045
G1 X162.674 Y152.25 E0.18808
G1 X162.663 Y152.25 E0.00045
;WIDTH:0.4
;HEIGHT:0.2

G1 X132.22 Y152.25 E0.90389
G1 X132.104 Y152.244 E0.00345
G1 X131.685 Y152.221 E0.01247
G1 X161.344 Y151.771 F18000
;TYPE:Solid infill
;WIDTH:0.471465
G1 F7200
G1 X162.014 Y151.101 E0.03372
G1 X162.014 Y150.506 E0.02119
G1 X160.93 Y151.59 E0.05457
G1 X160.334 Y151.59 E0.02119
G1 X162.014 Y149.91 E0.08453
G1 X162.014 Y149.315 E0.02119
G1 X159.739 Y151.59 E0.11449
G1 X159.143 Y151.59 E0.02119
G1 X162.014 Y148.719 E0.14445
G1 X162.014 Y148.41 E0.011
G1 X161.728 Y148.41 E0.01019
G1 X158.548 Y151.59 E0.16
G1 X157.952 Y151.59 E0.02119
G1 X161.132 Y148.41 E0.16
G1 X160.537 Y148.41 E0.02119
G1 X157.357 Y151.59 E0.16
G1 X156.761 Y151.59 E0.02119
G1 X159.941 Y148.41 E0.16
G1 X159.346 Y148.41 E0.02119
G1 X156.166 Y151.59 E0.16
G1 X155.57 Y151.59 E0.02119
G1 X158.75 Y148.41 E0.16
G1 X158.155 Y148.41 E0.02119
G1 X154.975 Y151.59 E0.16
G1 X154.379 Y151.59 E0.02119
G1 X157.56 Y148.41 E0.16
G1 X156.964 Y148.41 E0.02119
G1 X153.784 Y151.59 E0.16
G1 X153.188 Y151.59 E0.02119
G1 X156.369 Y148.41 E0.16
G1 X155.773 Y148.41 E0.02119
G1 X152.593 Y151.59 E0.16
G1 X151.997 Y151.59 E0.02119
G1 X155.178 Y148.41 E0.16
G1 X154.582 Y148.41 E0.02119
G1 X151.402 Y151.59 E0.16
G1 X150.806 Y151.59 E0.02119
G1 X153.987 Y148.41 E0.16
G1 X153.391 Y148.41 E0.02119
G1 X150.211 Y151.59 E0.16
G1 X149.615 Y151.59 E0.02119
G1 X152.796 Y148.41 E0.16
G1 X152.2 Y148.41 E0.02119
G1 X149.02 Y151.59 E0.16
G1 X148.424 Y151.59 E0.02119
G1 X151.605 Y148.41 E0.16
G1 X151.009 Y148.41 E0.02119
G1 X147.829 Y151.59 E0.16
G1 X147.233 Y151.59 E0.02119
G1 X150.414 Y148.41 E0.16
G1 X149.818 Y148.41 E0.02119
G1 X146.638 Y151.59 E0.16
G1 X146.042 Y151.59 E0.02119
G1 X149.223 Y148.41 E0.16
G1 X148.627 Y148.41 E0.02119
G1 X145.447 Y151.59 E0.16
