; generated by SuperSlicer 2.4 on 2022-05-29 at 08:08:01 UTC


;
;

;
;
; 

; external perimeters extrusion width = 0.40mm
; perimeters extrusion width = 0.45mm
; infill extrusion width = 0.72mm
; solid infill extrusion width = 0.56mm
; top infill extrusion width = 0.40mm
; support material extrusion width = 0.42mm
; first layer extrusion width = 0.48mm

; object:{"name":"tridento camera mounty thingy v6","id":"tridento camera mounty thingy v6.stl id:0 copy 0","object_center":[150.000000,150.000000,0.000000],"boundingbox_center":[150.000000,150.000000,25.200000],"boundingbox_size":[78.540453,82.065985,50.399999]}
; plater:{"center":[150.000000,150.000000,0.000000],"boundingbox_center":[150.000000,150.000000,25.200000],"boundingbox_size":[78.540453,82.065985,50.399999]}

;TYPE:Custom
print_start EXTRUDER=250 BED=110 CHAMBER=50
M107
G21 ; set units to millimeters
G90 ; use absolute coordinates
M83 ; use relative distances for extrusion
; Filament gcode
SET_PRESSURE_ADVANCE ADVANCE=0.03465
M104 S250 ; set temperature
M109 S250 ; set temperature and wait for it to be reached
M190 S110 ; set bed temperature and wait for it to be reached
M107
;LAYER_CHANGE
;Z:0.25
;HEIGHT:0.25
;BEFORE_LAYER_CHANGE
;0.25
TIMELAPSE_TAKE_FRAME


G1 Z0.25 F27000
;AFTER_LAYER_CHANGE
;0.25
G92 E0
; INIT printing object tridento camera mounty thingy v6.stl id:0 copy 0
G1 E-0.75 F3000
M204 S1500
G1 Z0.65 F27000
; printing object tridento camera mounty thingy v6.stl id:0 copy 0
G1 X166.91 Y136.516
G1 Z0.25
G1 E0.75 F1800
;TYPE:Support material interface
;WIDTH:0.48
G1 F900
G1 X170.238 Y136.516 E0.13626
G1 X170.238 Y163.484 E1.10421
G1 X166.91 Y163.484 E0.13626
G1 X166.91 Y162.576 E0.03717
G1 X167.105 Y162.538 E0.00812
G1 X167.162 Y162.527 E0.0024
G1 X167.179 Y162.523 E0.00072
G1 X167.197 Y162.519 E0.00074
G1 X167.471 Y162.446 E0.01162
G1 X167.548 Y162.425 E0.00324
G1 X167.624 Y162.405 E0.00324
G1 X167.744 Y162.249 E0.00808
G1 X167.837 Y162.128 E0.00621
G1 X167.837 Y137.882 E0.99279
G1 X167.624 Y137.605 E0.01429
G1 X167.471 Y137.565 E0.00648
G1 X167.179 Y137.487 E0.01236
G1 X167.162 Y137.483 E0.00072
G1 X166.91 Y137.434 E0.01052
G1 X166.91 Y136.576 E0.03513
G1 E-0.75 F3000
G1 Z0.65 F27000
G1 X170.131 Y137.21
G1 Z0.25
G1 E0.75 F1800
G1 F900
G1 X167.264 Y137.21 E0.1174
G1 X167.546 Y137.284 E0.01193
G1 X167.794 Y137.35 E0.01051
G1 X168.05 Y137.683 E0.01719
G1 X169.948 Y137.683 E0.07772
G1 X169.948 Y138.157 E0.0194
G1 X168.127 Y138.157 E0.07457
G1 X168.127 Y138.631 E0.0194
G1 X169.948 Y138.631 E0.07457
G1 X169.948 Y139.104 E0.0194
G1 X168.127 Y139.104 E0.07457
G1 X168.127 Y139.578 E0.0194
G1 X169.948 Y139.578 E0.07457
G1 X169.948 Y140.052 E0.0194
G1 X168.127 Y140.052 E0.07457
G1 X168.127 Y140.526 E0.0194
G1 X169.948 Y140.526 E0.07457
G1 X169.948 Y140.999 E0.0194
G1 X168.127 Y140.999 E0.07457
G1 X168.127 Y141.473 E0.0194
G1 X169.948 Y141.473 E0.07457
G1 X169.948 Y141.947 E0.0194
G1 X168.127 Y141.947 E0.07457
G1 X168.127 Y142.42 E0.0194
G1 X169.948 Y142.42 E0.07457
G1 X169.948 Y142.894 E0.0194
G1 X168.127 Y142.894 E0.07457
G1 X168.127 Y143.368 E0.0194
G1 X169.948 Y143.368 E0.07457
G1 X169.948 Y143.842 E0.0194
G1 X168.127 Y143.842 E0.07457
G1 X168.127 Y144.315 E0.0194
G1 X169.948 Y144.315 E0.07457
G1 X169.948 Y144.789 E0.0194
G1 X168.127 Y144.789 E0.07457
G1 X168.127 Y145.263 E0.0194
G1 X169.948 Y145.263 E0.07457
G1 X169.948 Y145.737 E0.0194
G1 X168.127 Y145.737 E0.07457
G1 X168.127 Y146.21 E0.0194
G1 X169.948 Y146.21 E0.07457
G1 X169.948 Y146.684 E0.0194
G1 X168.127 Y146.684 E0.07457
G1 X168.127 Y147.158 E0.0194
G1 X169.948 Y147.158 E0.07457
G1 X169.948 Y147.631 E0.0194
G1 X168.127 Y147.631 E0.07457
G1 X168.127 Y148.105 E0.0194
G1 X169.948 Y148.105 E0.07457
G1 X169.948 Y148.579 E0.0194
G1 X168.127 Y148.579 E0.07457
G1 X168.127 Y149.053 E0.0194
G1 X169.948 Y149.053 E0.07457
G1 X169.948 Y149.526 E0.0194
G1 X168.127 Y149.526 E0.07457
G1 X168.127 Y150 E0.0194
G1 X169.948 Y150 E0.07457
G1 X169.948 Y150.474 E0.0194
G1 X168.127 Y150.474 E0.07457
G1 X168.127 Y150.947 E0.0194
G1 X169.948 Y150.947 E0.07457
G1 X169.948 Y151.421 E0.0194
G1 X168.127 Y151.421 E0.07457
G1 X168.127 Y151.895 E0.0194
G1 X169.948 Y151.895 E0.07457
G1 X169.948 Y152.369 E0.0194
G1 X168.127 Y152.369 E0.07457
G1 X168.127 Y152.842 E0.0194
G1 X169.948 Y152.842 E0.07457
G1 X169.948 Y153.316 E0.0194
G1 X168.127 Y153.316 E0.07457
G1 X168.127 Y153.79 E0.0194
G1 X169.948 Y153.79 E0.07457
G1 X169.948 Y154.263 E0.0194
G1 X168.127 Y154.263 E0.07457
G1 X168.127 Y154.737 E0.0194
G1 X169.948 Y154.737 E0.07457
G1 X169.948 Y155.211 E0.0194
G1 X168.127 Y155.211 E0.07457
G1 X168.127 Y155.685 E0.0194
G1 X169.948 Y155.685 E0.07457
G1 X169.948 Y156.158 E0.0194
G1 X168.127 Y156.158 E0.07457
G1 X168.127 Y156.632 E0.0194
G1 X169.948 Y156.632 E0.07457
G1 X169.948 Y157.106 E0.0194
G1 X168.127 Y157.106 E0.07457
G1 X168.127 Y157.58 E0.0194
G1 X169.948 Y157.58 E0.07457
G1 X169.948 Y158.053 E0.0194
G1 X168.127 Y158.053 E0.07457
G1 X168.127 Y158.527 E0.0194
G1 X169.948 Y158.527 E0.07457
G1 X169.948 Y159.001 E0.0194
G1 X168.127 Y159.001 E0.07457
G1 X168.127 Y159.474 E0.0194
G1 X169.948 Y159.474 E0.07457
G1 X169.948 Y159.948 E0.0194
G1 X168.127 Y159.948 E0.07457
G1 X168.127 Y160.422 E0.0194
G1 X169.948 Y160.422 E0.07457
G1 X169.948 Y160.896 E0.0194
G1 X168.127 Y160.896 E0.07457
G1 X168.127 Y161.369 E0.0194
G1 X169.948 Y161.369 E0.07457
G1 X169.948 Y161.843 E0.0194
G1 X168.127 Y161.843 E0.07457
G1 X168.127 Y162.227 E0.01572
G1 X168.058 Y162.317 E0.00464
G1 X169.948 Y162.317 E0.0774
G1 X169.948 Y162.79 E0.0194
G1 X167.017 Y162.79 E0.12003
G1 X166.244 Y162.79 F27000
;TYPE:Support material
G1 F900
G1 X166.244 Y164.15 E0.05567
G1 X170.904 Y164.15 E0.19084
G1 X170.904 Y161.15 E0.12284
G1 X172.998 Y161.15 E0.08571
G1 X172.998 Y164.15 E0.12283
G1 X176.375 Y164.15 E0.13828
G1 X176.375 Y167.527 E0.13828
G1 X181.035 Y167.527 E0.19084
G1 X181.035 Y156.112 E0.46739
G1 X170.904 Y156.112 E0.41483
G1 X170.904 Y143.888 E0.50055
G1 X181.035 Y143.888 E0.41483
G1 X181.035 Y132.473 E0.46739
G1 X176.375 Y132.473 E0.19084
G1 X176.375 Y135.85 E0.13828
G1 X172.998 Y135.85 E0.13828
G1 X172.998 Y138.85 E0.12284
G1 X170.904 Y138.85 E0.08571
G1 X170.904 Y135.85 E0.12284
G1 X166.244 Y135.85 E0.19084
G1 X166.244 Y137.234 E0.05667
G1 X166.034 Y137.21 E0.00863
G1 X165.553 Y137.156 E0.01982
G1 X165.525 Y137.154 E0.00114
G1 X164.817 Y137.127 E0.02903
G1 X160.773 Y137.127 E0.16558
G1 X160.773 Y123.625 E0.55285
G1 X164.15 Y123.625 E0.13828
G1 X164.15 Y120.248 E0.13828
G1 X167.527 Y120.248 E0.13828
G1 X167.527 Y116.871 E0.13828
G1 X170.904 Y116.871 E0.13828
G1 X170.904 Y106.74 E0.41483
G1 X174.281 Y106.74 E0.13828
G1 X174.281 Y103.363 E0.13828
G1 X183.129 Y103.363 E0.36227
G1 X183.129 Y106.74 E0.13828
G1 X186.506 Y106.74 E0.13828
G1 X186.506 Y116.871 E0.41483
G1 X189.883 Y116.871 E0.13828
G1 X189.883 Y123.625 E0.27656
G1 X193.26 Y123.625 E0.13828
G1 X193.26 Y176.375 E2.15988
G1 X189.883 Y176.375 E0.13828
G1 X189.883 Y183.129 E0.27656
G1 X186.506 Y183.129 E0.13828
G1 X186.506 Y193.26 E0.41483
G1 X183.129 Y193.26 E0.13828
G1 X183.129 Y196.637 E0.13828
G1 X174.281 Y196.637 E0.36227
G1 X174.281 Y193.26 E0.13828
G1 X170.904 Y193.26 E0.13828
G1 X170.904 Y183.129 E0.41483
G1 X167.527 Y183.129 E0.13828
G1 X167.527 Y179.752 E0.13828
G1 X164.15 Y179.752 E0.13828
G1 X164.15 Y176.375 E0.13828
G1 X160.773 Y176.375 E0.13828
G1 X160.773 Y162.783 E0.55651
G1 X164.815 Y162.783 E0.16552
G1 X165.203 Y162.768 E0.01589
G1 X165.597 Y162.753 E0.01612
G1 X165.626 Y162.75 E0.00123
G1 X165.868 Y162.722 E0.00995
G1 X166.244 Y162.677 E0.0155
G1 X166.244 Y162.73 E0.00219
G1 E-0.75 F3000
G1 Z0.65 F27000
G1 X192.635 Y176.268
G1 Z0.25
G1 E0.75 F1800
G1 F900
G1 X192.635 Y123.915 E2.14365
G1 X192.161 Y123.915 E0.0194
G1 X192.161 Y176.085 E2.13614
G1 X191.687 Y176.085 E0.0194
G1 X191.687 Y123.915 E2.13614
G1 X191.214 Y123.915 E0.0194
G1 X191.214 Y176.085 E2.13614
G1 X190.74 Y176.085 E0.0194
G1 X190.74 Y123.915 E2.13614
G1 X190.266 Y123.915 E0.0194
G1 X190.266 Y176.085 E2.13614
G1 X189.793 Y176.085 E0.0194
G1 X189.793 Y123.915 E2.13614
G1 X189.593 Y123.915 E0.00817
G1 X189.593 Y117.161 E0.27656
G1 X189.319 Y117.161 E0.01123
G1 X189.319 Y182.839 E2.68925
G1 X188.845 Y182.839 E0.0194
G1 X188.845 Y117.161 E2.68925
G1 X188.371 Y117.161 E0.0194
G1 X188.371 Y182.839 E2.68925
G1 X187.898 Y182.839 E0.0194
G1 X187.898 Y117.161 E2.68925
G1 X187.424 Y117.161 E0.0194
G1 X187.424 Y182.839 E2.68925
G1 X186.95 Y182.839 E0.0194
G1 X186.95 Y117.161 E2.68925
G1 X186.477 Y117.161 E0.0194
G1 X186.477 Y182.839 E2.68925
G1 X186.216 Y182.839 E0.01067
G1 X186.216 Y192.97 E0.41483
G1 X186.003 Y192.97 E0.00873
G1 X186.003 Y107.03 E3.51892
G1 X185.529 Y107.03 E0.0194
G1 X185.529 Y192.97 E3.51892
G1 X185.055 Y192.97 E0.0194
G1 X185.055 Y107.03 E3.51892
G1 X184.582 Y107.03 E0.0194
G1 X184.582 Y192.97 E3.51892
G1 X184.108 Y192.97 E0.0194
G1 X184.108 Y107.03 E3.51892
G1 X183.634 Y107.03 E0.0194
G1 X183.634 Y192.97 E3.51892
G1 X183.16 Y192.97 E0.0194
G1 X183.16 Y107.03 E3.51892
G1 X182.839 Y107.03 E0.01317
G1 X182.839 Y103.653 E0.13828
G1 X182.687 Y103.653 E0.00623
G1 X182.687 Y196.347 E3.79547
G1 X182.213 Y196.347 E0.0194
G1 X182.213 Y103.653 E3.79547
G1 X181.739 Y103.653 E0.0194
G1 X181.739 Y196.347 E3.79547
G1 X181.266 Y196.347 E0.0194
G1 X181.266 Y103.653 E3.79547
G1 X180.792 Y103.653 E0.0194
G1 X180.792 Y132.183 E1.1682
G1 X180.318 Y132.183 E0.0194
G1 X180.318 Y103.653 E1.1682
G1 X179.844 Y103.653 E0.0194
G1 X179.844 Y132.183 E1.1682
G1 X179.371 Y132.183 E0.0194
G1 X179.371 Y103.653 E1.1682
G1 X178.897 Y103.653 E0.0194
G1 X178.897 Y132.183 E1.1682
G1 X178.423 Y132.183 E0.0194
G1 X178.423 Y103.653 E1.1682
G1 X177.95 Y103.653 E0.0194
G1 X177.95 Y132.183 E1.1682
G1 X177.476 Y132.183 E0.0194
G1 X177.476 Y103.653 E1.1682
G1 X177.002 Y103.653 E0.0194
G1 X177.002 Y132.183 E1.1682
G1 X176.528 Y132.183 E0.0194
G1 X176.528 Y103.653 E1.1682
G1 X176.055 Y103.653 E0.0194
G1 X176.055 Y135.56 E1.30648
G1 X175.581 Y135.56 E0.0194
G1 X175.581 Y103.653 E1.30648
G1 X175.107 Y103.653 E0.0194
G1 X175.107 Y135.56 E1.30648
G1 X174.633 Y135.56 E0.0194
G1 X174.633 Y103.653 E1.30648
G1 X174.571 Y103.653 E0.00255
G1 X174.571 Y107.03 E0.13828
G1 X174.16 Y107.03 E0.01684
G1 X174.16 Y135.56 E1.1682
G1 X173.686 Y135.56 E0.0194
G1 X173.686 Y107.03 E1.1682
G1 X173.212 Y107.03 E0.0194
G1 X173.212 Y135.56 E1.1682
G1 X172.739 Y135.56 E0.0194
G1 X172.739 Y107.03 E1.1682
G1 X172.265 Y107.03 E0.0194
G1 X172.265 Y138.56 E1.29104
G1 X171.791 Y138.56 E0.0194
G1 X171.791 Y107.03 E1.29104
G1 X171.317 Y107.03 E0.0194
G1 X171.317 Y138.56 E1.29104
G1 X171.194 Y138.56 E0.00505
G1 X171.194 Y135.56 E0.12284
G1 X170.844 Y135.56 E0.01435
G1 X170.844 Y117.161 E0.75337
G1 X170.37 Y117.161 E0.0194
G1 X170.37 Y135.56 E0.75337
G1 X169.896 Y135.56 E0.0194
G1 X169.896 Y117.161 E0.75337
G1 X169.423 Y117.161 E0.0194
G1 X169.423 Y135.56 E0.75337
G1 X168.949 Y135.56 E0.0194
G1 X168.949 Y117.161 E0.75337
G1 X168.475 Y117.161 E0.0194
G1 X168.475 Y135.56 E0.75337
G1 X168.001 Y135.56 E0.0194
G1 X168.001 Y117.161 E0.75337
G1 X167.817 Y117.161 E0.00755
G1 X167.817 Y120.538 E0.13828
G1 X167.528 Y120.538 E0.01185
G1 X167.528 Y135.56 E0.61509
G1 X167.054 Y135.56 E0.0194
G1 X167.054 Y120.538 E0.61509
G1 X166.58 Y120.538 E0.0194
G1 X166.58 Y135.56 E0.61509
G1 X166.107 Y135.56 E0.0194
G1 X166.107 Y120.538 E0.61509
G1 X165.633 Y120.538 E0.0194
G1 X165.633 Y136.874 E0.66888
G1 X165.58 Y136.868 E0.00217
G1 X165.542 Y136.865 E0.00158
G1 X165.159 Y136.85 E0.01568
G1 X165.159 Y120.538 E0.66792
G1 X164.685 Y120.538 E0.0194
G1 X164.685 Y136.837 E0.66738
G1 X164.212 Y136.837 E0.0194
G1 X164.212 Y123.915 E0.5291
G1 X163.738 Y123.915 E0.0194
G1 X163.738 Y136.837 E0.5291
G1 X163.264 Y136.837 E0.0194
G1 X163.264 Y123.915 E0.5291
G1 X162.79 Y123.915 E0.0194
G1 X162.79 Y136.837 E0.5291
G1 X162.317 Y136.837 E0.0194
G1 X162.317 Y123.915 E0.5291
G1 X161.843 Y123.915 E0.0194
G1 X161.843 Y136.837 E0.5291
G1 X161.369 Y136.837 E0.0194
G1 X161.369 Y123.732 E0.53661
G1 E-0.75 F3000
G1 Z0.65 F27000
G1 X180.792 Y196.531
G1 Z0.25
G1 E0.75 F1800
G1 F900
G1 X180.792 Y167.817 E1.17571
G1 X180.318 Y167.817 E0.0194
G1 X180.318 Y196.347 E1.1682
G1 X179.844 Y196.347 E0.0194
G1 X179.844 Y167.817 E1.1682
G1 X179.371 Y167.817 E0.0194
G1 X179.371 Y196.347 E1.1682
G1 X178.897 Y196.347 E0.0194
G1 X178.897 Y167.817 E1.1682
G1 X178.423 Y167.817 E0.0194
G1 X178.423 Y196.347 E1.1682
G1 X177.95 Y196.347 E0.0194
G1 X177.95 Y167.817 E1.1682
G1 X177.476 Y167.817 E0.0194
G1 X177.476 Y196.347 E1.1682
G1 X177.002 Y196.347 E0.0194
G1 X177.002 Y167.817 E1.1682
G1 X176.528 Y167.817 E0.0194
G1 X176.528 Y196.347 E1.1682
G1 X176.055 Y196.347 E0.0194
G1 X176.055 Y164.44 E1.30648
G1 X175.581 Y164.44 E0.0194
G1 X175.581 Y196.347 E1.30648
G1 X175.107 Y196.347 E0.0194
G1 X175.107 Y164.44 E1.30648
G1 X174.633 Y164.44 E0.0194
G1 X174.633 Y196.347 E1.30648
G1 X174.571 Y196.347 E0.00255
G1 X174.571 Y192.97 E0.13828
G1 X174.16 Y192.97 E0.01684
G1 X174.16 Y164.44 E1.1682
G1 X173.686 Y164.44 E0.0194
G1 X173.686 Y192.97 E1.1682
G1 X173.212 Y192.97 E0.0194
G1 X173.212 Y164.44 E1.1682
G1 X172.739 Y164.44 E0.0194
G1 X172.739 Y192.97 E1.1682
G1 X172.265 Y192.97 E0.0194
G1 X172.265 Y161.44 E1.29103
G1 X171.791 Y161.44 E0.0194
G1 X171.791 Y192.97 E1.29103
G1 X171.317 Y192.97 E0.0194
G1 X171.317 Y161.44 E1.29103
G1 X171.194 Y161.44 E0.00505
G1 X171.194 Y164.44 E0.12284
G1 X170.844 Y164.44 E0.01435
G1 X170.844 Y182.839 E0.75336
G1 X170.37 Y182.839 E0.0194
G1 X170.37 Y164.44 E0.75336
G1 X169.896 Y164.44 E0.0194
G1 X169.896 Y182.839 E0.75336
G1 X169.423 Y182.839 E0.0194
G1 X169.423 Y164.44 E0.75336
G1 X168.949 Y164.44 E0.0194
G1 X168.949 Y182.839 E0.75336
G1 X168.475 Y182.839 E0.0194
G1 X168.475 Y164.44 E0.75336
G1 X168.001 Y164.44 E0.0194
G1 X168.001 Y182.839 E0.75336
G1 X167.817 Y182.839 E0.00755
G1 X167.817 Y179.462 E0.13828
G1 X167.528 Y179.462 E0.01185
G1 X167.528 Y164.44 E0.61508
G1 X167.054 Y164.44 E0.0194
G1 X167.054 Y179.462 E0.61508
G1 X166.58 Y179.462 E0.0194
G1 X166.58 Y164.44 E0.61508
G1 X166.107 Y164.44 E0.0194
G1 X166.107 Y179.462 E0.61508
G1 X165.633 Y179.462 E0.0194
G1 X165.633 Y163.041 E0.67238
G1 X165.614 Y163.042 E0.00079
G1 X165.214 Y163.058 E0.01636
G1 X165.159 Y163.06 E0.00226
G1 X165.159 Y179.462 E0.6716
G1 X164.685 Y179.462 E0.0194
G1 X164.685 Y163.073 E0.67105
G1 X164.212 Y163.073 E0.0194
G1 X164.212 Y176.085 E0.53277
G1 X163.738 Y176.085 E0.0194
G1 X163.738 Y163.073 E0.53277
G1 X163.264 Y163.073 E0.0194
G1 X163.264 Y176.085 E0.53277
G1 X162.79 Y176.085 E0.0194
G1 X162.79 Y163.073 E0.53277
G1 X162.317 Y163.073 E0.0194
G1 X162.317 Y176.085 E0.53277
G1 X161.843 Y176.085 E0.0194
G1 X161.843 Y163.073 E0.53277
G1 X161.369 Y163.073 E0.0194
G1 X161.369 Y176.268 E0.54028
G1 E-0.75 F3000
G1 Z0.65 F27000
G1 X180.792 Y156.006
G1 Z0.25
G1 E0.75 F1800
G1 F900
G1 X180.792 Y144.177 E0.48432
G1 X180.318 Y144.177 E0.0194
G1 X180.318 Y155.822 E0.47681
G1 X179.844 Y155.822 E0.0194
G1 X179.844 Y144.177 E0.47681
G1 X179.371 Y144.177 E0.0194
G1 X179.371 Y155.822 E0.47681
G1 X178.897 Y155.822 E0.0194
G1 X178.897 Y144.177 E0.47681
G1 X178.423 Y144.177 E0.0194
G1 X178.423 Y155.822 E0.47681
G1 X177.95 Y155.822 E0.0194
G1 X177.95 Y144.177 E0.47681
G1 X177.476 Y144.177 E0.0194
G1 X177.476 Y155.822 E0.47681
G1 X177.002 Y155.822 E0.0194
G1 X177.002 Y144.177 E0.47681
G1 X176.528 Y144.177 E0.0194
G1 X176.528 Y155.822 E0.47681
G1 X176.055 Y155.822 E0.0194
G1 X176.055 Y144.177 E0.47681
G1 X175.581 Y144.177 E0.0194
G1 X175.581 Y155.822 E0.47681
G1 X175.107 Y155.822 E0.0194
G1 X175.107 Y144.177 E0.47681
G1 X174.633 Y144.177 E0.0194
G1 X174.633 Y155.822 E0.47681
G1 X174.16 Y155.822 E0.0194
G1 X174.16 Y144.177 E0.47681
G1 X173.686 Y144.177 E0.0194
G1 X173.686 Y155.822 E0.47681
G1 X173.212 Y155.822 E0.0194
G1 X173.212 Y144.177 E0.47681
G1 X172.739 Y144.177 E0.0194
G1 X172.739 Y155.822 E0.47681
G1 X172.265 Y155.822 E0.0194
G1 X172.265 Y144.177 E0.47681
G1 X171.791 Y144.177 E0.0194
G1 X171.791 Y155.822 E0.47681
G1 X171.317 Y155.822 E0.0194
G1 X171.317 Y143.994 E0.48432
G1 E-0.75 F3000
G1 Z0.65 F27000
G1 X111.577 Y150.642
G1 Z0.25
G1 E0.75 F1800
G1 F900
