; generated by SuperSlicer 2.4 on 2022-06-05 at 18:51:44 UTC


;
;

;
;
; 

; external perimeters extrusion width = 0.40mm
; perimeters extrusion width = 0.48mm
; infill extrusion width = 0.60mm
; solid infill extrusion width = 0.56mm
; top infill extrusion width = 0.40mm
; first layer extrusion width = 0.44mm

; object:{"name":"trident_extension_bracket (1)","id":"trident_extension_bracket (1).stl id:0 copy 0","object_center":[149.998207,150.000000,0.000000],"boundingbox_center":[149.998207,150.000000,11.500014],"boundingbox_size":[81.625595,126.000000,23.000029]}
; plater:{"center":[149.998207,150.000000,0.000000],"boundingbox_center":[149.998207,150.000000,11.500014],"boundingbox_size":[81.625595,126.000000,23.000029]}

;TYPE:Custom
print_start EXTRUDER=255 BED=110 CHAMBER=50
M107
G21 ; set units to millimeters
G90 ; use absolute coordinates
M83 ; use relative distances for extrusion
; Filament gcode
SET_PRESSURE_ADVANCE ADVANCE=0.055
M104 S255 ; set temperature
M109 S255 ; set temperature and wait for it to be reached
M190 S110 ; set bed temperature and wait for it to be reached
M107
;LAYER_CHANGE
;Z:0.25
;HEIGHT:0.25
;BEFORE_LAYER_CHANGE
;0.25
TIMELAPSE_TAKE_FRAME


G1 Z0.25 F36000
;AFTER_LAYER_CHANGE
;0.25
G92 E0
; INIT printing object trident_extension_bracket (1).stl id:0 copy 0
G1 E-0.75 F3000
M204 S1500
G1 Z0.65 F36000
; printing object trident_extension_bracket (1).stl id:0 copy 0
G1 X111.505 Y90.109
G1 Z0.25
G1 E0.75 F1800
;TYPE:Internal perimeter
;WIDTH:0.44
G1 F900
G1 X116.799 Y90.109 E0.19579
G1 X116.835 Y90.898 E0.02921
G1 X117.023 Y93.098 E0.08166
G1 X117.302 Y95.29 E0.08174
G1 X117.649 Y97.358 E0.07754
G1 X117.998 Y99.027 E0.06307
G1 X118.419 Y100.712 E0.06423
G1 X118.839 Y102.174 E0.05626
G1 X119.39 Y103.839 E0.06485
G1 X120.035 Y105.534 E0.06709
G1 X120.707 Y107.088 E0.06262
G1 X121.524 Y108.762 E0.06891
G1 X122.37 Y110.301 E0.06494
G1 X123.439 Y112.033 E0.07525
G1 X124.444 Y113.485 E0.06531
G1 X126.009 Y115.495 E0.09423
G1 X127.598 Y117.275 E0.08825
G1 X129.606 Y119.254 E0.10427
G1 X131.668 Y121.019 E0.10036
G1 X132.942 Y122.013 E0.05976
G1 X134.288 Y122.989 E0.06151
G1 X135.62 Y123.889 E0.05944
G1 X137.031 Y124.773 E0.06159
G1 X138.941 Y125.885 E0.08173
G1 X140.959 Y126.97 E0.08474
G1 X143.043 Y128.005 E0.08605
G1 X145.033 Y128.917 E0.08097
G1 X147.186 Y129.838 E0.08662
G1 X149.465 Y130.76 E0.09091
G1 X151.795 Y131.662 E0.09239
G1 X156.314 Y133.185 E0.17639
G1 X161.068 Y134.73 E0.18487
G1 X164.855 Y136.082 E0.14871
G1 X168.585 Y137.528 E0.14796
G1 X169.842 Y138.035 E0.05011
G1 X172.399 Y139.122 E0.10279
G1 X174.374 Y139.987 E0.07973
G1 X177.352 Y141.405 E0.12198
G1 X179.177 Y142.489 E0.07851
G1 X180.93 Y143.708 E0.07897
G1 X181.842 Y144.431 E0.04304
G1 X182.682 Y145.182 E0.04166
G1 X183.502 Y146.004 E0.04295
G1 X184.246 Y146.851 E0.04167
G1 X185.19 Y148.144 E0.05923
G1 X186.032 Y149.604 E0.06232
G1 X186.401 Y150.423 E0.03322
G1 X186.725 Y151.267 E0.03345
G1 X187.027 Y152.245 E0.03786
G1 X187.255 Y153.201 E0.03635
G1 X187.403 Y154.081 E0.03302
G1 X187.523 Y155.06 E0.03646
G1 X187.592 Y156.039 E0.03628
G1 X187.613 Y157.044 E0.03719
G1 X187.613 Y209.89 E1.95444
G1 X177.017 Y209.89 E0.39189
G1 X177.017 Y165.01 E1.65983
G1 X176.924 Y163.59 E0.05261
G1 X176.628 Y162.093 E0.05644
G1 X176.152 Y160.697 E0.05456
G1 X175.501 Y159.373 E0.05457
G1 X174.653 Y158.108 E0.05632
G1 X173.717 Y157.038 E0.05259
G1 X172.536 Y156 E0.05814
G1 X171.308 Y155.181 E0.05461
G1 X170.034 Y154.553 E0.05251
G1 X168.591 Y154.056 E0.05644
G1 X167.092 Y153.757 E0.05652
G1 X165.672 Y153.665 E0.05265
G1 X111.505 Y153.665 E2.00332
G1 X111.505 Y90.169 E2.34834
G1 X111.118 Y89.722 F36000
G1 F900
G1 X117.168 Y89.722 E0.22373
G1 X117.22 Y90.872 E0.04258
G1 X117.408 Y93.057 E0.08109
G1 X117.684 Y95.234 E0.08117
G1 X118.029 Y97.286 E0.07697
G1 X118.374 Y98.941 E0.06251
G1 X118.792 Y100.612 E0.06369
G1 X119.208 Y102.06 E0.05572
G1 X119.754 Y103.709 E0.06425
G1 X120.393 Y105.388 E0.06645
G1 X121.058 Y106.927 E0.06198
G1 X121.867 Y108.585 E0.06823
G1 X122.704 Y110.107 E0.06423
G1 X123.762 Y111.821 E0.07452
G1 X124.755 Y113.256 E0.06454
G1 X126.305 Y115.248 E0.09335
G1 X127.878 Y117.009 E0.08731
G1 X129.868 Y118.969 E0.10332
G1 X131.912 Y120.72 E0.09954
G1 X133.174 Y121.704 E0.05918
G1 X134.509 Y122.673 E0.06102
G1 X135.831 Y123.565 E0.05896
G1 X137.231 Y124.442 E0.06111
G1 X139.13 Y125.548 E0.08126
G1 X141.136 Y126.627 E0.08426
G1 X143.209 Y127.657 E0.08559
G1 X145.189 Y128.564 E0.08056
G1 X147.335 Y129.481 E0.0863
G1 X149.607 Y130.401 E0.09067
G1 X151.926 Y131.299 E0.09196
G1 X156.435 Y132.819 E0.17599
G1 X161.193 Y134.364 E0.185
G1 X164.99 Y135.72 E0.14911
G1 X168.727 Y137.169 E0.14825
G1 X169.99 Y137.678 E0.05034
G1 X172.552 Y138.768 E0.103
G1 X174.535 Y139.635 E0.08004
G1 X177.534 Y141.064 E0.12286
G1 X179.387 Y142.164 E0.07968
G1 X181.161 Y143.398 E0.07993
G1 X182.091 Y144.136 E0.04391
G1 X182.948 Y144.901 E0.04249
G1 X183.785 Y145.74 E0.04382
G1 X184.547 Y146.609 E0.04277
G1 X185.514 Y147.933 E0.06063
G1 X186.376 Y149.427 E0.0638
G1 X186.757 Y150.274 E0.03433
G1 X187.091 Y151.14 E0.03433
G1 X187.4 Y152.143 E0.03882
G1 X187.633 Y153.124 E0.03729
G1 X187.785 Y154.026 E0.03382
G1 X187.907 Y155.023 E0.03715
G1 X187.978 Y156.021 E0.037
G1 X188 Y157.04 E0.0377
G1 X188 Y210.276 E1.96888
G1 X176.631 Y210.276 E0.42046
G1 X176.631 Y165.023 E1.67365
G1 X176.541 Y163.641 E0.05122
G1 X176.254 Y162.194 E0.05455
G1 X175.794 Y160.846 E0.05269
G1 X175.165 Y159.567 E0.0527
G1 X174.345 Y158.344 E0.05445
G1 X173.443 Y157.311 E0.05073
G1 X172.301 Y156.307 E0.05624
G1 X171.114 Y155.516 E0.05273
G1 X169.885 Y154.91 E0.05068
G1 X168.49 Y154.43 E0.05457
G1 X167.042 Y154.141 E0.05462
G1 X165.659 Y154.051 E0.05124
G1 X111.118 Y154.051 E2.01714
G1 X111.118 Y89.782 E2.37692
G1 X110.732 Y89.336 F36000
G1 F900
G1 X117.537 Y89.336 E0.25167
G1 X117.606 Y90.847 E0.05594
G1 X117.792 Y93.016 E0.08051
G1 X118.067 Y95.177 E0.08059
G1 X118.409 Y97.215 E0.0764
G1 X118.751 Y98.855 E0.06195
G1 X119.165 Y100.512 E0.06316
G1 X119.577 Y101.946 E0.05519
G1 X120.118 Y103.58 E0.06366
G1 X120.751 Y105.243 E0.06582
G1 X121.409 Y106.765 E0.06133
G1 X122.211 Y108.407 E0.06756
G1 X123.038 Y109.912 E0.06353
G1 X124.086 Y111.61 E0.07378
G1 X125.067 Y113.027 E0.06376
G1 X126.602 Y115 E0.09247
G1 X128.158 Y116.742 E0.08637
G1 X130.13 Y118.685 E0.10236
G1 X132.157 Y120.421 E0.09871
G1 X133.407 Y121.395 E0.05861
G1 X134.731 Y122.356 E0.06053
G1 X136.041 Y123.241 E0.05847
G1 X137.431 Y124.112 E0.06064
G1 X139.319 Y125.211 E0.08079
G1 X141.314 Y126.284 E0.08379
G1 X143.375 Y127.308 E0.08513
G1 X145.346 Y128.211 E0.08016
G1 X147.483 Y129.124 E0.08597
G1 X149.75 Y130.041 E0.09042
G1 X152.058 Y130.935 E0.09154
G1 X156.557 Y132.452 E0.17559
G1 X161.318 Y133.998 E0.18513
G1 X165.124 Y135.358 E0.14951
G1 X168.869 Y136.809 E0.14853
G1 X170.137 Y137.321 E0.05057
G1 X172.705 Y138.413 E0.10321
G1 X174.696 Y139.284 E0.08034
G1 X177.716 Y140.723 E0.12374
G1 X179.596 Y141.839 E0.08085
G1 X181.391 Y143.088 E0.08089
G1 X182.34 Y143.84 E0.04477
G1 X183.213 Y144.62 E0.04332
G1 X184.067 Y145.475 E0.04469
G1 X184.849 Y146.367 E0.04387
G1 X185.838 Y147.722 E0.06204
G1 X186.72 Y149.251 E0.06528
G1 X187.114 Y150.125 E0.03545
G1 X187.456 Y151.014 E0.03522
G1 X187.773 Y152.041 E0.03977
G1 X188.012 Y153.047 E0.03824
G1 X188.168 Y153.97 E0.03461
G1 X188.292 Y154.986 E0.03784
G1 X188.364 Y156.003 E0.03771
G1 X188.386 Y157.036 E0.0382
G1 X188.386 Y210.662 E1.98333
G1 X176.245 Y210.662 E0.44904
G1 X176.245 Y165.035 E1.68747
G1 X176.157 Y163.691 E0.04982
G1 X175.88 Y162.294 E0.05267
G1 X175.436 Y160.994 E0.05081
G1 X174.83 Y159.76 E0.05083
G1 X174.038 Y158.58 E0.05258
G1 X173.169 Y157.584 E0.04888
G1 X172.065 Y156.614 E0.05435
G1 X170.921 Y155.852 E0.05085
G1 X169.736 Y155.267 E0.04884
G1 X168.389 Y154.804 E0.0527
G1 X166.991 Y154.525 E0.05271
G1 X165.647 Y154.437 E0.04984
G1 X110.732 Y154.437 E2.03097
G1 X110.732 Y89.396 E2.40549
M204 S1000
G1 X110.346 Y88.95 F36000
;TYPE:External perimeter
G1 F900
G1 X117.906 Y88.95 E0.27961
G1 X117.991 Y90.822 E0.06931
G1 X118.176 Y92.975 E0.07994
G1 X118.449 Y95.121 E0.08001
G1 X118.789 Y97.143 E0.07584
G1 X119.128 Y98.768 E0.06139
G1 X119.538 Y100.411 E0.06263
G1 X119.679 Y100.902 E0.01887
G1 X119.947 Y101.831 E0.03579
G1 X120.482 Y103.45 E0.06306
G1 X121.109 Y105.098 E0.06518
G1 X121.76 Y106.604 E0.06068
G1 X122.046 Y107.189 E0.02408
G1 X122.554 Y108.229 E0.0428
G1 X123.372 Y109.717 E0.06282
G1 X124.409 Y111.398 E0.07304
G1 X125.378 Y112.798 E0.06299
G1 X126.899 Y114.753 E0.09158
G1 X128.438 Y116.476 E0.08543
G1 X130.305 Y118.315 E0.09692
G1 X130.391 Y118.4 E0.00449
G1 X132.401 Y120.121 E0.09788
G1 X133.639 Y121.086 E0.05804
G1 X134.338 Y121.594 E0.03197
G1 X134.953 Y122.04 E0.02807
G1 X135.423 Y122.357 E0.02097
G1 X136.252 Y122.917 E0.03701
G1 X137.631 Y123.781 E0.06016
G1 X139.507 Y124.874 E0.08032
G1 X140.086 Y125.185 E0.02432
G1 X141.491 Y125.941 E0.059
G1 X143.542 Y126.959 E0.08468
G1 X145.502 Y127.857 E0.07975
G1 X147.632 Y128.768 E0.08565
G1 X149.892 Y129.682 E0.09017
G1 X152.031 Y130.511 E0.08484
G1 X152.189 Y130.572 E0.00628
G1 X156.678 Y132.085 E0.17519
G1 X161.442 Y133.632 E0.18526
G1 X165.259 Y134.996 E0.14991
G1 X166.621 Y135.524 E0.05403
G1 X169.011 Y136.45 E0.09479
G1 X170.285 Y136.964 E0.0508
G1 X172.858 Y138.058 E0.10342
G1 X174.856 Y138.932 E0.08065
G1 X177.898 Y140.381 E0.12462
G1 X179.319 Y141.225 E0.06111
G1 X179.805 Y141.514 E0.0209
G1 X181.622 Y142.778 E0.08185
G1 X182.091 Y143.149 E0.02213
G1 X182.589 Y143.544 E0.0235
G1 X183.182 Y144.074 E0.02943
G1 X183.479 Y144.339 E0.01472
G1 X184.349 Y145.211 E0.04556
G1 X185.151 Y146.125 E0.04498
G1 X186.162 Y147.511 E0.06345
G1 X186.737 Y148.499 E0.04226
G1 X186.97 Y148.901 E0.01718
G1 X187.065 Y149.075 E0.00732
G1 X187.471 Y149.976 E0.03657
G1 X187.821 Y150.887 E0.03611
G1 X188.146 Y151.94 E0.04072
G1 X188.391 Y152.97 E0.03919
G1 X188.55 Y153.915 E0.03541
G1 X188.677 Y154.949 E0.03853
G1 X188.75 Y155.985 E0.03843
G1 X188.772 Y157.032 E0.03871
G1 X188.772 Y211.049 E1.99777
G1 X175.858 Y211.049 E0.47762
G1 X175.858 Y165.048 E1.70129
G1 X175.773 Y163.741 E0.04843
G1 X175.506 Y162.394 E0.05078
G1 X175.079 Y161.142 E0.04894
G1 X174.495 Y159.954 E0.04895
G1 X173.731 Y158.815 E0.05071
G1 X172.894 Y157.858 E0.04703
G1 X171.829 Y156.921 E0.05246
G1 X170.727 Y156.187 E0.04897
G1 X170.319 Y155.985 E0.01686
G1 X169.587 Y155.625 E0.03014
G1 X169.14 Y155.471 E0.0175
G1 X168.288 Y155.177 E0.03333
G1 X166.941 Y154.909 E0.05081
G1 X165.634 Y154.824 E0.04843
G1 X110.346 Y154.824 E2.04479
G1 X110.346 Y89.01 E2.43407
;WIPE_START
M204 S1500
G1 X110.692 Y89.15 F36000
;WIPE_END
G1 E-0.75 F3000
G1 Z0.65 F36000
G1 X184.055 Y146.973
G1 Z0.25
G1 E0.75 F1800
;TYPE:Solid infill
;WIDTH:0.4368
G1 F1200
G1 X181.664 Y144.582 E0.12416
G1 X179.988 Y143.452 E0.07421
G1 X185.158 Y148.622 E0.26843
G1 X185.601 Y149.612 E0.03982
G1 X178.312 Y142.322 E0.37848
G1 X177.244 Y141.603 E0.04728
G1 X176.899 Y141.456 E0.01378
G1 X186.045 Y150.602 E0.47488
G1 X186.488 Y151.591 E0.03982
G1 X175.947 Y141.05 E0.54732
G1 X174.996 Y140.645 E0.03798
G1 X186.836 Y152.485 E0.61479
G1 X186.932 Y153.127 E0.02383
G1 X174.044 Y140.24 E0.66917
G1 X173.092 Y139.834 E0.03798
G1 X187.027 Y153.769 E0.72355
G1 X187.123 Y154.411 E0.02383
G1 X172.14 Y139.429 E0.77793
G1 X171.189 Y139.024 E0.03798
G1 X187.218 Y155.053 E0.83231
G1 X187.314 Y155.695 E0.02383
G1 X170.237 Y138.618 E0.88669
G1 X169.285 Y138.213 E0.03798
G1 X187.368 Y156.295 E0.9389
G1 X187.368 Y156.842 E0.02007
G1 X168.334 Y137.808 E0.98832
G1 X167.382 Y137.402 E0.03798
G1 X187.368 Y157.389 E1.03775
G1 X187.368 Y157.935 E0.02007
G1 X166.43 Y136.997 E1.08718
G1 X165.478 Y136.591 E0.03798
G1 X187.369 Y158.482 E1.13661
G1 X187.369 Y159.028 E0.02007
G1 X164.559 Y136.219 E1.18433
G1 X163.734 Y135.939 E0.03201
G1 X187.369 Y159.575 E1.22723
G1 X187.369 Y160.122 E0.02007
G1 X162.908 Y135.66 E1.27012
G1 X162.082 Y135.38 E0.03201
G1 X187.37 Y160.668 E1.31302
G1 X187.37 Y161.215 E0.02007
G1 X161.256 Y135.101 E1.35591
G1 X160.43 Y134.821 E0.03201
G1 X187.37 Y161.761 E1.39881
G1 X187.37 Y162.308 E0.02007
G1 X159.604 Y134.542 E1.4417
G1 X158.778 Y134.262 E0.03201
G1 X187.37 Y162.855 E1.4846
G1 X187.371 Y163.401 E0.02007
G1 X157.952 Y133.983 E1.52749
G1 X157.126 Y133.703 E0.03201
G1 X187.371 Y163.948 E1.57039
G1 X187.371 Y164.494 E0.02007
G1 X156.3 Y133.424 E1.61328
G1 X155.474 Y133.144 E0.03201
G1 X187.371 Y165.041 E1.65618
G1 X187.372 Y165.588 E0.02007
G1 X154.649 Y132.865 E1.69907
G1 X153.823 Y132.585 E0.03201
G1 X187.372 Y166.134 E1.74197
G1 X187.372 Y166.681 E0.02007
G1 X152.997 Y132.306 E1.78486
G1 X152.171 Y132.026 E0.03201
G1 X187.372 Y167.227 E1.82776
G1 X187.372 Y167.774 E0.02007
G1 X151.303 Y131.704 E1.87285
G1 X150.383 Y131.331 E0.03645
G1 X187.373 Y168.321 E1.92061
G1 X187.373 Y168.867 E0.02007
G1 X149.463 Y130.957 E1.96838
G1 X148.543 Y130.584 E0.03645
G1 X187.373 Y169.414 E2.01615
G1 X187.373 Y169.96 E0.02007
G1 X147.624 Y130.211 E2.06392
G1 X146.704 Y129.837 E0.03645
G1 X187.373 Y170.507 E2.11169
G1 X187.374 Y171.054 E0.02007
G1 X175.76 Y159.439 E0.60304
G1 X176.038 Y160.264 E0.03196
G1 X187.374 Y171.6 E0.58859
G1 X187.374 Y172.147 E0.02007
G1 X176.317 Y161.089 E0.57414
G1 X176.595 Y161.914 E0.03196
G1 X187.374 Y172.693 E0.5597
G1 X187.375 Y173.24 E0.02007
G1 X176.873 Y162.739 E0.54525
G1 X177.148 Y163.56 E0.0318
G1 X187.375 Y173.787 E0.53098
G1 X187.375 Y174.333 E0.02007
G1 X177.15 Y164.108 E0.53094
G1 X177.151 Y164.655 E0.0201
G1 X187.375 Y174.88 E0.53089
G1 X187.375 Y175.426 E0.02007
G1 X177.152 Y165.203 E0.53085
G1 X177.153 Y165.75 E0.0201
G1 X187.376 Y175.973 E0.5308
G1 X187.376 Y176.52 E0.02007
G1 X177.154 Y166.298 E0.53075
G1 X177.155 Y166.845 E0.0201
G1 X187.376 Y177.066 E0.53071
G1 X187.376 Y177.613 E0.02007
G1 X177.156 Y167.393 E0.53066
G1 X177.157 Y167.94 E0.0201
G1 X187.377 Y178.159 E0.53062
G1 X187.377 Y178.706 E0.02007
G1 X177.158 Y168.487 E0.53057
G1 X177.159 Y169.035 E0.0201
G1 X187.377 Y179.253 E0.53053
G1 X187.377 Y179.799 E0.02007
G1 X177.161 Y169.582 E0.53048
G1 X177.162 Y170.13 E0.0201
G1 X187.377 Y180.346 E0.53044
G1 X187.378 Y180.892 E0.02007
G1 X177.163 Y170.677 E0.53039
G1 X177.164 Y171.225 E0.0201
G1 X187.378 Y181.439 E0.53034
G1 X187.378 Y181.986 E0.02007
G1 X177.165 Y171.772 E0.5303
G1 X177.166 Y172.32 E0.0201
G1 X187.378 Y182.532 E0.53025
G1 X187.379 Y183.079 E0.02007
G1 X177.167 Y172.867 E0.53021
G1 X177.168 Y173.415 E0.0201
G1 X187.379 Y183.625 E0.53016
G1 X187.379 Y184.172 E0.02007
G1 X177.169 Y173.962 E0.53012
G1 X177.17 Y174.51 E0.0201
G1 X187.379 Y184.719 E0.53007
G1 X187.379 Y185.265 E0.02007
G1 X177.171 Y175.057 E0.53003
G1 X177.173 Y175.605 E0.0201
G1 X187.38 Y185.812 E0.52998
G1 X187.38 Y186.358 E0.02007
G1 X177.174 Y176.152 E0.52993
G1 X177.175 Y176.7 E0.0201
G1 X187.38 Y186.905 E0.52989
G1 X187.38 Y187.452 E0.02007
G1 X177.176 Y177.247 E0.52984
G1 X177.177 Y177.795 E0.0201
G1 X187.38 Y187.998 E0.5298
G1 X187.381 Y188.545 E0.02007
G1 X177.178 Y178.342 E0.52975
G1 X177.179 Y178.89 E0.0201
G1 X187.381 Y189.091 E0.52971
G1 X187.381 Y189.638 E0.02007
G1 X177.18 Y179.437 E0.52966
G1 X177.181 Y179.985 E0.0201
G1 X187.381 Y190.185 E0.52961
G1 X187.382 Y190.731 E0.02007
G1 X177.182 Y180.532 E0.52957
G1 X177.184 Y181.079 E0.0201
G1 X187.382 Y191.278 E0.52952
G1 X187.382 Y191.824 E0.02007
G1 X177.185 Y181.627 E0.52948
G1 X177.186 Y182.174 E0.0201
G1 X187.382 Y192.371 E0.52943
G1 X187.382 Y192.918 E0.02007
G1 X177.187 Y182.722 E0.52939
G1 X177.188 Y183.269 E0.0201
G1 X187.383 Y193.464 E0.52934
G1 X187.383 Y194.011 E0.02007
G1 X177.189 Y183.817 E0.5293
G1 X177.19 Y184.364 E0.0201
G1 X187.383 Y194.557 E0.52925
G1 X187.383 Y195.104 E0.02007
G1 X177.191 Y184.912 E0.5292
G1 X177.192 Y185.459 E0.0201
G1 X187.384 Y195.651 E0.52916
G1 X187.384 Y196.197 E0.02007
G1 X177.193 Y186.007 E0.52911
G1 X177.195 Y186.554 E0.0201
G1 X187.384 Y196.744 E0.52907
G1 X187.384 Y197.29 E0.02007
G1 X177.196 Y187.102 E0.52902
G1 X177.197 Y187.649 E0.0201
G1 X187.384 Y197.837 E0.52898
G1 X187.385 Y198.384 E0.02007
G1 X177.198 Y188.197 E0.52893
G1 X177.199 Y188.744 E0.0201
G1 X187.385 Y198.93 E0.52889
