; generated by SuperSlicer 2.4 on 2022-06-19 at 07:54:28 UTC


;
;

;
;
; 

; external perimeters extrusion width = 0.40mm
; perimeters extrusion width = 0.48mm
; infill extrusion width = 0.60mm
; solid infill extrusion width = 0.56mm
; top infill extrusion width = 0.40mm
; first layer extrusion width = 0.48mm

; object:{"name":"Trident_Internal_Spool___middle_Section_","id":"Trident_Internal_Spool___middle_Section_.stl id:0 copy 0","object_center":[149.999996,150.000008,0.000000],"boundingbox_center":[149.999996,150.000008,4.950000],"boundingbox_size":[121.622372,121.622372,9.900000]}
; plater:{"center":[149.999996,150.000008,0.000000],"boundingbox_center":[149.999996,150.000008,4.950000],"boundingbox_size":[121.622372,121.622372,9.900000]}

;TYPE:Custom
print_start EXTRUDER=255 BED=110 CHAMBER=50
M107
G21 ; set units to millimeters
G90 ; use absolute coordinates
M83 ; use relative distances for extrusion
; Filament gcode
SET_PRESSURE_ADVANCE ADVANCE=0.045
SET_PRESSURE_ADVANCE EXTRUDER=extruder SMOOTH_TIME=0.04
M104 S255 ; set temperature
M109 S255 ; set temperature and wait for it to be reached
M190 S110 ; set bed temperature and wait for it to be reached
M107
;LAYER_CHANGE
;Z:0.25
;HEIGHT:0.25
;BEFORE_LAYER_CHANGE
;0.25
TIMELAPSE_TAKE_FRAME


G1 Z0.25 F36000
;AFTER_LAYER_CHANGE
;0.25
G92 E0
; INIT printing object Trident_Internal_Spool___middle_Section_.stl id:0 copy 0
G1 E-0.75 F3000
M204 S1500
G1 Z0.65 F36000
; printing object Trident_Internal_Spool___middle_Section_.stl id:0 copy 0
G1 X134.434 Y146.751
G1 Z0.25
G1 E0.75 F1800
;TYPE:Internal perimeter
;WIDTH:0.48
G1 F900
G1 X138.56 Y162.15 E0.64639
G1 X154.672 Y166.467 E0.67633
G1 X166.467 Y154.672 E0.67633
G1 X162.15 Y138.56 E0.67633
G1 X146.038 Y134.243 E0.67633
G1 X145.028 Y135.253 E0.05792
G1 X134.243 Y146.038 E0.61841
G1 X134.419 Y146.693 E0.02751
G1 X134.846 Y146.641 F36000
G1 F900
G1 X138.909 Y161.801 E0.63641
G1 X154.545 Y165.991 E0.65637
G1 X165.991 Y154.545 E0.65637
G1 X161.801 Y138.908 E0.65637
G1 X146.165 Y134.719 E0.65637
G1 X145.329 Y135.555 E0.04794
G1 X134.719 Y146.165 E0.60843
G1 X134.831 Y146.583 E0.01753
G1 X135.258 Y146.53 F36000
G1 F900
G1 X139.257 Y161.453 E0.62643
G1 X154.417 Y165.516 E0.63641
G1 X165.516 Y154.417 E0.63641
G1 X161.453 Y139.257 E0.63641
G1 X146.293 Y135.194 E0.63641
G1 X145.631 Y135.856 E0.03796
G1 X135.194 Y146.293 E0.59845
G1 X135.243 Y146.472 E0.00755
M204 S1000
G1 X135.67 Y146.42 F36000
;TYPE:External perimeter
G1 F900
G1 X139.605 Y161.105 E0.61644
G1 X154.29 Y165.04 E0.61644
G1 X165.04 Y154.29 E0.61644
G1 X164.356 Y151.738 E0.1071
G1 X161.105 Y139.605 E0.50934
G1 X152.089 Y137.189 E0.37847
G1 X146.42 Y135.67 E0.23797
G1 X145.932 Y136.158 E0.02798
G1 X135.712 Y146.378 E0.58603
;WIPE_START
M204 S1500
G1 X135.307 Y146.589 F36000
;WIPE_END
G1 X134.71 Y142.928
;TYPE:Internal perimeter
G1 F900
G1 X135.423 Y143.119 E0.02994
G1 X143.119 Y135.423 E0.44129
G1 X140.302 Y124.911 E0.44129
G1 X129.789 Y122.094 E0.44129
G1 X129.111 Y122.772 E0.0389
G1 X122.094 Y129.789 E0.40239
G1 X124.911 Y140.302 E0.44129
G1 X134.652 Y142.912 E0.40891
G1 X134.82 Y142.516 F36000
G1 F900
G1 X135.296 Y142.643 E0.01996
G1 X142.643 Y135.296 E0.42133
G1 X139.954 Y125.259 E0.42133
G1 X129.917 Y122.569 E0.42133
G1 X129.413 Y123.074 E0.02891
G1 X122.569 Y129.917 E0.39241
G1 X125.259 Y139.954 E0.42133
G1 X134.762 Y142.5 E0.39893
G1 X134.931 Y142.104 F36000
G1 F900
G1 X135.168 Y142.168 E0.00998
G1 X142.168 Y135.168 E0.40137
G1 X139.606 Y125.607 E0.40137
G1 X130.044 Y123.045 E0.40137
G1 X129.714 Y123.375 E0.01893
G1 X123.045 Y130.044 E0.38243
G1 X125.607 Y139.606 E0.40137
G1 X134.873 Y142.089 E0.38895
M204 S1000
G1 X135.041 Y141.692 F36000
;TYPE:External perimeter
G1 F900
G1 X141.692 Y135.041 E0.38141
G1 X139.258 Y125.955 E0.38141
G1 X131.942 Y123.995 E0.30711
G1 X130.172 Y123.52 E0.0743
G1 X130.016 Y123.677 E0.00895
G1 X129.697 Y123.995 E0.01824
G1 X123.52 Y130.172 E0.35421
G1 X125.955 Y139.258 E0.38141
G1 X134.983 Y141.677 E0.37897
;WIPE_START
M204 S1500
G1 X135.369 Y141.922 F36000
;WIPE_END
G1 E-0.75 F3000
G1 Z0.65 F36000
G1 X146.006 Y121.865
G1 Z0.25
G1 E0.75 F1800
;TYPE:Internal perimeter
G1 F900
G1 X153.156 Y114.667 E0.41135
G1 X150.305 Y104.164 E0.44129
G1 X139.783 Y101.382 E0.44129
G1 X138.79 Y102.382 E0.05714
G1 X132.113 Y109.103 E0.38415
G1 X134.964 Y119.606 E0.44129
G1 X145.486 Y122.388 E0.44129
G1 X145.964 Y121.907 E0.02751
G1 X145.704 Y121.564 F36000
G1 F900
G1 X152.68 Y114.542 E0.40137
G1 X149.958 Y104.514 E0.42133
G1 X139.912 Y101.857 E0.42133
G1 X139.092 Y102.682 E0.04716
G1 X132.588 Y109.229 E0.37417
G1 X135.311 Y119.257 E0.42133
G1 X145.357 Y121.913 E0.42133
G1 X145.662 Y121.607 E0.01753
G1 X145.401 Y121.264 F36000
G1 F900
G1 X152.204 Y114.416 E0.39139
G1 X149.611 Y104.863 E0.40137
G1 X140.041 Y102.332 E0.40137
G1 X139.395 Y102.983 E0.03718
G1 X133.064 Y109.355 E0.36419
G1 X135.658 Y118.908 E0.40137
G1 X145.228 Y121.438 E0.40137
G1 X145.359 Y121.306 E0.00755
M204 S1000
G1 X145.099 Y120.963 F36000
;TYPE:External perimeter
G1 F900
G1 X151.728 Y114.29 E0.38141
G1 X149.264 Y105.212 E0.38141
G1 X140.17 Y102.807 E0.38141
G1 X139.697 Y103.283 E0.0272
G1 X137.781 Y105.212 E0.11023
G1 X133.54 Y109.481 E0.24398
G1 X134.773 Y114.02 E0.1907
G1 X136.005 Y118.559 E0.1907
G1 X137.578 Y118.974 E0.06596
G1 X145.041 Y120.948 E0.31301
;WIPE_START
M204 S1500
G1 X145.427 Y121.192 F36000
;WIPE_END
G1 X146.884 Y122.744
;TYPE:Internal perimeter
G1 F900
G1 X146.333 Y123.296 E0.03164
G1 X149.163 Y133.805 E0.44129
G1 X159.679 Y136.609 E0.44129
G1 X167.365 Y128.904 E0.44129
G1 X164.535 Y118.395 E0.44129
G1 X154.019 Y115.591 E0.44129
G1 X153.024 Y116.588 E0.05714
G1 X146.926 Y122.701 E0.35008
G1 X147.186 Y123.045 F36000
G1 F900
G1 X146.808 Y123.423 E0.02166
G1 X149.51 Y133.457 E0.42133
G1 X159.551 Y136.133 E0.42133
G1 X166.889 Y128.777 E0.42133
G1 X164.187 Y118.743 E0.42133
G1 X154.147 Y116.066 E0.42133
G1 X153.326 Y116.89 E0.04716
G1 X147.228 Y123.002 E0.35008
G1 X147.487 Y123.346 F36000
G1 F900
G1 X147.284 Y123.55 E0.01167
G1 X149.858 Y133.108 E0.40137
G1 X159.423 Y135.658 E0.40137
G1 X166.413 Y128.65 E0.40137
G1 X163.84 Y119.092 E0.40137
G1 X154.275 Y116.542 E0.40137
G1 X153.627 Y117.191 E0.03718
G1 X147.53 Y123.303 E0.35008
M204 S1000
G1 X147.789 Y123.647 F36000
;TYPE:External perimeter
G1 F900
G1 X147.76 Y123.677 E0.00169
G1 X150.206 Y132.759 E0.38141
G1 X159.295 Y135.183 E0.38141
G1 X165.938 Y128.523 E0.38141
G1 X163.492 Y119.44 E0.38141
G1 X154.403 Y117.017 E0.38141
G1 X153.929 Y117.492 E0.0272
G1 X147.832 Y123.604 E0.35008
;WIPE_START
M204 S1500
G1 X147.749 Y123.636 F36000
;WIPE_END
G1 E-0.75 F3000
G1 Z0.65 F36000
G1 X164.654 Y140.47
G1 Z0.25
G1 E0.75 F1800
;TYPE:Internal perimeter
G1 F900
G1 X164.081 Y141.045 E0.0329
G1 X166.911 Y151.554 E0.44129
G1 X177.427 Y154.358 E0.44129
G1 X185.113 Y146.652 E0.44129
G1 X182.284 Y136.143 E0.44129
G1 X171.768 Y133.339 E0.44129
G1 X170.772 Y134.337 E0.05714
G1 X164.697 Y140.428 E0.34882
G1 X164.956 Y140.771 F36000
G1 F900
G1 X164.557 Y141.172 E0.02292
G1 X167.259 Y151.205 E0.42133
G1 X177.299 Y153.882 E0.42133
G1 X184.638 Y146.525 E0.42133
G1 X181.936 Y136.492 E0.42133
G1 X171.896 Y133.815 E0.42133
G1 X171.074 Y134.638 E0.04716
G1 X164.999 Y140.729 E0.34882
G1 X165.258 Y141.073 F36000
G1 F900
G1 X165.033 Y141.298 E0.01293
G1 X167.607 Y150.857 E0.40137
G1 X177.171 Y153.407 E0.40137
G1 X184.162 Y146.399 E0.40137
G1 X181.588 Y136.84 E0.40137
G1 X172.024 Y134.29 E0.40137
G1 X171.376 Y134.939 E0.03718
G1 X165.3 Y141.03 E0.34882
M204 S1000
G1 X165.56 Y141.374 F36000
;TYPE:External perimeter
G1 F900
G1 X165.508 Y141.425 E0.00295
G1 X167.63 Y149.304 E0.33084
G1 X167.954 Y150.508 E0.05057
G1 X177.043 Y152.931 E0.38141
G1 X183.686 Y146.272 E0.38141
G1 X181.241 Y137.189 E0.38141
G1 X172.152 Y134.766 E0.38141
G1 X171.678 Y135.24 E0.0272
G1 X165.602 Y141.331 E0.34882
;WIPE_START
M204 S1500
G1 X165.49 Y141.355 F36000
;WIPE_END
G1 E-0.75 F3000
G1 Z0.65 F36000
G1 X178.893 Y154.611
G1 Z0.25
G1 E0.75 F1800
;TYPE:Internal perimeter
G1 F900
G1 X178.257 Y155.251 E0.0366
G1 X181.111 Y165.754 E0.44129
G1 X191.634 Y168.532 E0.44129
G1 X199.302 Y160.809 E0.44129
G1 X196.447 Y150.307 E0.44129
G1 X185.925 Y147.528 E0.44129
G1 X184.932 Y148.528 E0.05714
G1 X178.935 Y154.568 E0.34512
G1 X179.195 Y154.911 F36000
G1 F900
G1 X178.733 Y155.377 E0.02662
G1 X181.458 Y165.404 E0.42133
G1 X191.505 Y168.057 E0.42133
G1 X198.826 Y160.683 E0.42133
G1 X196.1 Y150.656 E0.42133
G1 X186.054 Y148.003 E0.42133
G1 X185.234 Y148.828 E0.04716
G1 X179.237 Y154.868 E0.34512
G1 X179.498 Y155.211 F36000
G1 F900
G1 X179.209 Y155.503 E0.01664
G1 X181.805 Y165.055 E0.40137
G1 X191.376 Y167.582 E0.40137
G1 X198.35 Y160.558 E0.40137
G1 X195.753 Y151.006 E0.40137
G1 X186.183 Y148.478 E0.40137
G1 X185.537 Y149.129 E0.03718
G1 X179.54 Y155.169 E0.34512
M204 S1000
G1 X179.8 Y155.512 F36000
;TYPE:External perimeter
G1 F900
G1 X179.685 Y155.628 E0.00666
G1 X182.152 Y164.705 E0.38141
G1 X191.246 Y167.107 E0.38141
G1 X197.874 Y160.432 E0.38141
G1 X195.511 Y151.738 E0.36529
G1 X195.407 Y151.355 E0.01612
G1 X186.312 Y148.953 E0.3814
G1 X185.839 Y149.429 E0.0272
G1 X179.843 Y155.469 E0.34512
;WIPE_START
M204 S1500
G1 X179.641 Y155.47 F36000
;WIPE_END
G1 X175.086 Y160.217
;TYPE:Internal perimeter
G1 F900
G1 X165.287 Y157.591 E0.41135
G1 X164.29 Y158.588 E0.05714
G1 X157.591 Y165.287 E0.38415
G1 X160.408 Y175.799 E0.44129
G1 X170.92 Y178.616 E0.44129
G1 X178.616 Y170.92 E0.44129
G1 X175.799 Y160.408 E0.44129
G1 X175.144 Y160.232 E0.02751
G1 X174.976 Y160.629 F36000
G1 F900
G1 X165.414 Y158.067 E0.40137
G1 X164.592 Y158.889 E0.04716
G1 X158.067 Y165.414 E0.37417
G1 X160.756 Y175.451 E0.42133
G1 X170.793 Y178.141 E0.42133
G1 X178.141 Y170.793 E0.42133
G1 X175.451 Y160.756 E0.42133
G1 X175.034 Y160.644 E0.01753
G1 X174.865 Y161.04 F36000
G1 F900
G1 X165.542 Y158.542 E0.39139
G1 X164.893 Y159.19 E0.03718
G1 X158.542 Y165.542 E0.36419
G1 X161.104 Y175.103 E0.40137
G1 X170.666 Y177.665 E0.40137
G1 X177.665 Y170.666 E0.40137
G1 X175.103 Y161.104 E0.40137
G1 X174.923 Y161.056 E0.00755
M204 S1000
G1 X174.755 Y161.452 F36000
;TYPE:External perimeter
G1 F900
G1 X165.669 Y159.018 E0.38141
G1 X165.195 Y159.492 E0.0272
G1 X159.018 Y165.669 E0.35421
G1 X161.452 Y174.755 E0.38141
G1 X170.538 Y177.19 E0.3814
G1 X177.19 Y170.538 E0.38141
G1 X174.771 Y161.51 E0.37897
;WIPE_START
M204 S1500
G1 X174.79 Y161.054 F36000
;WIPE_END
G1 E-0.75 F3000
G1 Z0.65 F36000
G1 X165.04 Y180.912
G1 Z0.25
G1 E0.75 F1800
;TYPE:Internal perimeter
G1 F900
G1 X155.241 Y178.287 E0.41135
G1 X154.244 Y179.283 E0.05714
G1 X147.545 Y185.982 E0.38415
G1 X150.362 Y196.495 E0.44129
G1 X160.874 Y199.312 E0.44129
G1 X168.57 Y191.616 E0.44129
G1 X165.753 Y181.103 E0.44129
G1 X165.098 Y180.928 E0.02751
G1 X164.93 Y181.324 F36000
G1 F900
G1 X155.368 Y178.762 E0.40137
G1 X154.546 Y179.584 E0.04716
G1 X148.02 Y186.11 E0.37417
G1 X150.71 Y196.147 E0.42133
G1 X160.747 Y198.836 E0.42133
G1 X168.094 Y191.488 E0.42133
G1 X165.405 Y181.451 E0.42133
G1 X164.987 Y181.34 E0.01753
G1 X164.819 Y181.736 F36000
G1 F900
G1 X155.495 Y179.238 E0.39139
G1 X154.847 Y179.886 E0.03718
G1 X148.496 Y186.237 E0.36419
G1 X151.058 Y195.798 E0.40137
G1 X160.619 Y198.36 E0.40137
G1 X167.619 Y191.361 E0.40137
G1 X165.057 Y181.8 E0.40137
G1 X164.877 Y181.751 E0.00755
M204 S1000
G1 X164.709 Y182.148 F36000
;TYPE:External perimeter
G1 F900
G1 X155.623 Y179.713 E0.38141
G1 X155.149 Y180.187 E0.0272
G1 X148.972 Y186.364 E0.35421
G1 X151.406 Y195.45 E0.3814
G1 X160.492 Y197.885 E0.38141
G1 X167.143 Y191.234 E0.3814
G1 X165.121 Y183.686 E0.31683
G1 X164.724 Y182.206 E0.06214
;WIPE_START
M204 S1500
G1 X164.744 Y181.749 F36000
;WIPE_END
G1 X153.849 Y177.939
;TYPE:Internal perimeter
G1 F900
G1 X154.371 Y177.417 E0.02994
G1 X151.554 Y166.904 E0.44129
G1 X141.042 Y164.088 E0.44129
G1 X140.045 Y165.084 E0.05714
G1 X133.346 Y171.783 E0.38415
G1 X136.163 Y182.296 E0.44129
G1 X146.675 Y185.113 E0.44129
G1 X153.806 Y177.982 E0.40891
G1 X153.768 Y176.814 F36000
G1 F900
G1 X151.206 Y167.252 E0.40137
G1 X141.169 Y164.563 E0.42133
G1 X140.347 Y165.385 E0.04716
G1 X133.822 Y171.911 E0.37417
G1 X136.511 Y181.948 E0.42133
G1 X146.548 Y184.637 E0.42133
G1 X153.895 Y177.289 E0.42133
G1 X153.784 Y176.872 E0.01753
G1 X153.356 Y176.924 F36000
G1 F900
G1 X150.858 Y167.601 E0.39139
G1 X141.297 Y165.039 E0.40137
G1 X140.648 Y165.687 E0.03718
G1 X134.297 Y172.038 E0.36419
G1 X136.859 Y181.6 E0.40137
G1 X146.42 Y184.162 E0.40137
G1 X153.42 Y177.162 E0.40137
G1 X153.372 Y176.982 E0.00755
M204 S1000
G1 X152.944 Y177.035 F36000
;TYPE:External perimeter
G1 F900
G1 X151.204 Y170.538 E0.27271
G1 X150.51 Y167.949 E0.1087
G1 X145.43 Y166.588 E0.21323
G1 X141.424 Y165.514 E0.16817
G1 X140.95 Y165.988 E0.0272
G1 X134.773 Y172.166 E0.35421
G1 X137.207 Y181.251 E0.38141
G1 X146.293 Y183.686 E0.38141
G1 X152.902 Y177.077 E0.37897
;WIPE_START
M204 S1500
G1 X153.307 Y176.866 F36000
;WIPE_END
G1 E-0.75 F3000
G1 Z0.65 F36000
G1 X136.1 Y160.19
G1 Z0.25
G1 E0.75 F1800
;TYPE:Internal perimeter
G1 F900
G1 X136.622 Y159.668 E0.02994
G1 X133.806 Y149.156 E0.44129
G1 X123.293 Y146.339 E0.44129
G1 X120.955 Y148.677 E0.13408
G1 X115.597 Y154.035 E0.30721
G1 X118.414 Y164.547 E0.44129
G1 X128.927 Y167.364 E0.44129
G1 X136.058 Y160.233 E0.40891
G1 X135.799 Y159.889 F36000
G1 F900
G1 X136.147 Y159.541 E0.01996
G1 X133.457 Y149.504 E0.42133
G1 X123.42 Y146.814 E0.42133
G1 X121.256 Y148.979 E0.1241
G1 X116.073 Y154.162 E0.29723
G1 X118.762 Y164.199 E0.42133
G1 X128.799 Y166.888 E0.42133
G1 X135.756 Y159.931 E0.39893
G1 X135.608 Y159.176 F36000
G1 F900
G1 X133.109 Y149.852 E0.39139
G1 X123.548 Y147.29 E0.40137
G1 X121.558 Y149.28 E0.11412
G1 X116.548 Y154.289 E0.28725
G1 X119.11 Y163.851 E0.40137
G1 X128.672 Y166.413 E0.40137
G1 X135.671 Y159.413 E0.40137
G1 X135.623 Y159.234 E0.00755
M204 S1000
G1 X135.196 Y159.286 F36000
;TYPE:External perimeter
G1 F900
G1 X133.857 Y154.29 E0.20973
G1 X132.761 Y150.2 E0.17168
G1 X128.107 Y148.953 E0.19536
G1 X123.675 Y147.766 E0.18604
G1 X121.859 Y149.582 E0.10414
G1 X117.024 Y154.417 E0.27727
G1 X119.458 Y163.503 E0.38141
G1 X128.544 Y165.937 E0.38141
G1 X135.153 Y159.328 E0.37897
;WIPE_START
M204 S1500
G1 X135.558 Y159.117 F36000
;WIPE_END
G1 E-0.75 F3000
G1 Z0.65 F36000
G1 X121.901 Y145.991
G1 Z0.25
G1 E0.75 F1800
;TYPE:Internal perimeter
G1 F900
G1 X122.423 Y145.469 E0.02994
G1 X119.607 Y134.957 E0.44129
G1 X109.094 Y132.14 E0.44129
G1 X108.098 Y133.136 E0.05714
G1 X101.398 Y139.836 E0.38415
G1 X104.215 Y150.348 E0.44129
G1 X114.728 Y153.165 E0.44129
G1 X121.859 Y146.034 E0.40891
G1 X121.6 Y145.69 F36000
G1 F900
G1 X121.948 Y145.342 E0.01996
G1 X119.259 Y135.305 E0.42133
G1 X109.222 Y132.616 E0.42133
G1 X108.399 Y133.438 E0.04716
G1 X101.874 Y139.963 E0.37417
G1 X104.563 Y150 E0.42133
G1 X114.6 Y152.689 E0.42133
G1 X121.557 Y145.732 E0.39893
G1 X121.409 Y144.977 F36000
G1 F900
G1 X118.91 Y135.653 E0.39139
G1 X109.349 Y133.091 E0.40137
G1 X108.701 Y133.739 E0.03718
G1 X102.349 Y140.091 E0.36419
G1 X104.911 Y149.652 E0.40137
G1 X114.473 Y152.214 E0.40137
G1 X121.472 Y145.214 E0.40137
G1 X121.424 Y145.035 E0.00755
M204 S1000
G1 X120.997 Y145.087 F36000
;TYPE:External perimeter
G1 F900
G1 X119.435 Y139.258 E0.2447
G1 X118.562 Y136.001 E0.1367
G1 X109.476 Y133.567 E0.38141
G1 X109.002 Y134.041 E0.0272
G1 X102.825 Y140.218 E0.35421
G1 X103.22 Y141.692 E0.06189
G1 X105.26 Y149.304 E0.31952
G1 X108.585 Y150.195 E0.1396
G1 X114.345 Y151.738 E0.2418
G1 X120.954 Y145.129 E0.37897
;WIPE_START
M204 S1500
G1 X121.359 Y144.918 F36000
;WIPE_END
G1 E-0.75 F3000
G1 Z0.65 F36000
G1 X91.27 Y145.456
G1 Z0.25
G1 E0.75 F1800
;TYPE:Internal perimeter
G1 F900
G1 X145.406 Y91.32 E3.10431
G1 X148.945 Y94.859 E0.20291
G1 X208.68 Y154.594 E3.42536
G1 X154.544 Y208.73 E3.10431
G1 X91.312 Y145.499 E3.62584
G1 X90.667 Y145.456 F36000
G1 F900
G1 X145.406 Y90.717 E3.13888
G1 X149.246 Y94.557 E0.2202
G1 X209.283 Y154.594 E3.44265
G1 X154.544 Y209.333 E3.13888
G1 X90.709 Y145.499 E3.66042
G1 X90.064 Y145.456 F36000
G1 F900
G1 X145.406 Y90.114 E3.17346
G1 X149.548 Y94.256 E0.23749
G1 X209.886 Y154.594 E3.45994
