; generated by SuperSlicer 2.4 on 2022-06-25 at 04:52:01 UTC


;
;

;
;
; 

; external perimeters extrusion width = 0.40mm
; perimeters extrusion width = 0.48mm
; infill extrusion width = 0.60mm
; solid infill extrusion width = 0.56mm
; top infill extrusion width = 0.40mm
; first layer extrusion width = 0.48mm

; external perimeters extrusion width = 0.40mm
; perimeters extrusion width = 0.48mm
; infill extrusion width = 0.60mm
; solid infill extrusion width = 0.56mm
; top infill extrusion width = 0.40mm
; first layer extrusion width = 0.48mm

; object:{"name":"Unklicky_Shapedpin_body_v2","id":"Unklicky_Shapedpin_body_v2.stl id:0 copy 0","object_center":[150.000000,141.500000,0.000000],"boundingbox_center":[150.000000,141.500000,5.351267],"boundingbox_size":[27.033997,17.225006,10.702535]}
; object:{"name":"Shapedpin_point_v2 (1)","id":"Shapedpin_point_v2 (1).stl id:1 copy 0","object_center":[150.000000,161.612503,0.000000],"boundingbox_center":[150.000000,161.612503,2.793365],"boundingbox_size":[6.108673,11.000000,5.586730]}
; plater:{"center":[150.000000,150.000000,0.000000],"boundingbox_center":[150.000000,150.000000,5.351267],"boundingbox_size":[27.033997,34.225006,10.702535]}

;TYPE:Custom
print_start EXTRUDER=255 BED=110 CHAMBER=50
M107
G21 ; set units to millimeters
G90 ; use absolute coordinates
M83 ; use relative distances for extrusion
; Filament gcode
SET_PRESSURE_ADVANCE ADVANCE=0.045
SET_PRESSURE_ADVANCE EXTRUDER=extruder SMOOTH_TIME=0.04
M104 S255 ; set temperature
M109 S255 ; set temperature and wait for it to be reached
M190 S110 ; set bed temperature and wait for it to be reached
M107
;LAYER_CHANGE
;Z:0.25
;HEIGHT:0.25
;BEFORE_LAYER_CHANGE
;0.25
TIMELAPSE_TAKE_FRAME


G1 Z0.25 F36000
;AFTER_LAYER_CHANGE
;0.25
G92 E0
; INIT printing object Unklicky_Shapedpin_body_v2.stl id:0 copy 0
G1 E-0.75 F3000
M204 S1500
G1 Z0.65 F36000
; printing object Unklicky_Shapedpin_body_v2.stl id:0 copy 0
G1 X145.072 Y142.001
G1 Z0.25
G1 E0.75 F1800
;TYPE:Internal perimeter
;WIDTH:0.48
G1 F900
G1 X144.705 Y141.636 E0.02099
G1 X144.619 Y141.567 E0.00447
G1 X144.619 Y140.425 E0.04628
G1 X145.07 Y140.865 E0.02551
G1 X145.072 Y141.941 E0.04363
G1 X145.501 Y142.964 F36000
G1 F900
G1 X145.253 Y143.035 E0.01046
G1 X144.936 Y142.522 E0.02442
G1 X144.661 Y142.193 E0.01741
G1 X144.421 Y141.954 E0.01372
G1 X144.193 Y141.772 E0.01184
G1 X144.193 Y139.484 E0.09274
G1 X144.441 Y139.414 E0.01046
G1 X144.672 Y139.789 E0.01786
G1 X144.994 Y140.195 E0.02102
G1 X145.371 Y140.563 E0.02133
G1 X145.495 Y140.655 E0.0063
G1 X145.501 Y142.904 E0.09117
G1 X143.102 Y137.763 F36000
G1 F900
G1 X142.684 Y137.683 E0.01727
G1 X141.996 Y137.617 E0.02801
G1 X141.293 Y137.617 E0.02852
G1 X140.605 Y137.683 E0.02802
G1 X139.922 Y137.813 E0.0282
G1 X138.324 Y138.268 E0.06737
G1 X138.324 Y134.748 E0.14271
G1 X143.884 Y134.748 E0.22545
G1 X143.686 Y135.079 E0.01563
G1 X143.462 Y135.545 E0.02096
G1 X143.316 Y135.948 E0.0174
G1 X143.185 Y136.448 E0.02096
G1 X143.119 Y136.873 E0.01741
G1 X143.083 Y137.401 E0.02147
G1 X143.099 Y137.703 E0.01226
G1 X143.605 Y138.324 F36000
G1 F900
G1 X143.269 Y138.229 E0.01417
G1 X142.624 Y138.105 E0.02662
G1 X141.976 Y138.044 E0.02638
G1 X141.313 Y138.044 E0.02688
G1 X140.665 Y138.105 E0.02638
G1 X140.021 Y138.229 E0.02662
G1 X138.67 Y138.613 E0.05694
G1 X138.67 Y141.559 E0.11949
G1 X138.342 Y141.876 E0.01848
G1 X137.898 Y142.388 E0.02749
G1 X137.898 Y134.322 E0.32707
G1 X144.723 Y134.322 E0.27676
G1 X144.262 Y134.947 E0.03153
G1 X144.061 Y135.281 E0.01577
G1 X143.856 Y135.71 E0.01929
G1 X143.724 Y136.076 E0.01576
G1 X143.603 Y136.536 E0.01929
G1 X143.543 Y136.92 E0.01577
G1 X143.51 Y137.404 E0.01967
G1 X143.541 Y137.976 E0.02322
G1 X143.594 Y138.265 E0.01193
G1 X144.219 Y138.942 F36000
G1 F900
G1 X143.17 Y138.644 E0.04423
G1 X142.563 Y138.528 E0.02504
G1 X141.956 Y138.47 E0.02474
G1 X141.333 Y138.47 E0.02524
G1 X140.726 Y138.528 E0.02474
G1 X140.119 Y138.644 E0.02504
G1 X139.096 Y138.935 E0.04313
G1 X139.096 Y141.769 E0.11491
G1 X138.973 Y141.859 E0.00621
G1 X138.651 Y142.169 E0.01811
G1 X138.415 Y142.442 E0.01465
G1 X138.037 Y143.015 E0.0278
G1 X137.74 Y143.673 E0.02926
G1 X137.471 Y143.615 E0.01117
G1 X137.471 Y133.895 E0.3941
G1 X145.552 Y133.895 E0.32766
G1 X145.63 Y134.129 E0.00996
G1 X145.427 Y134.281 E0.01028
G1 X145.108 Y134.576 E0.01763
G1 X144.875 Y134.835 E0.01413
G1 X144.617 Y135.184 E0.01762
G1 X144.437 Y135.483 E0.01413
G1 X144.25 Y135.875 E0.01762
G1 X144.131 Y136.203 E0.01413
G1 X144.021 Y136.623 E0.01762
G1 X143.967 Y136.967 E0.01413
G1 X143.937 Y137.407 E0.01786
G1 X143.965 Y137.926 E0.02107
G1 X144.059 Y138.439 E0.02116
G1 X144.201 Y138.885 E0.01898
G1 E-0.75 F3000
G1 Z0.65 F36000
G1 X154.954 Y139.25
G1 Z0.25
G1 E0.75 F1800
G1 F900
G1 X154.954 Y141.384 E0.08653
G1 X154.795 Y141.526 E0.00866
G1 X154.515 Y141.842 E0.0171
G1 X154.216 Y142.246 E0.02039
G1 X154.074 Y142.491 E0.01146
G1 X151.439 Y142.492 E0.10683
G1 X151.443 Y141.045 E0.05867
G1 X151.727 Y140.768 E0.0161
G1 X152.114 Y140.279 E0.02527
G1 X152.403 Y139.81 E0.02233
G1 X152.665 Y139.247 E0.02521
G1 X152.856 Y138.646 E0.02557
G1 X152.97 Y138.026 E0.02557
G1 X153.003 Y137.401 E0.02537
G1 X152.968 Y136.872 E0.02148
G1 X152.901 Y136.448 E0.0174
G1 X152.77 Y135.948 E0.02096
G1 X152.621 Y135.538 E0.0177
G1 X152.235 Y134.749 E0.03564
G1 X161.676 Y134.75 E0.38281
G1 X161.676 Y138.268 E0.14264
G1 X160.078 Y137.813 E0.06737
G1 X159.395 Y137.683 E0.0282
G1 X158.706 Y137.617 E0.02806
G1 X158.005 Y137.617 E0.02842
G1 X157.335 Y137.681 E0.02728
G1 X156.939 Y137.747 E0.0163
G1 X154.954 Y138.26 E0.0831
G1 X154.954 Y139.19 E0.03773
G1 X155.381 Y139.25 F36000
G1 F900
G1 X155.381 Y141.576 E0.09429
G1 X155.097 Y141.828 E0.0154
G1 X154.846 Y142.11 E0.01531
G1 X154.573 Y142.48 E0.01865
G1 X154.32 Y142.917 E0.02045
G1 X151.012 Y142.919 E0.13414
G1 X151.017 Y140.865 E0.08327
G1 X151.409 Y140.482 E0.02225
G1 X151.764 Y140.034 E0.02314
G1 X152.027 Y139.608 E0.0203
G1 X152.267 Y139.091 E0.0231
G1 X152.442 Y138.542 E0.02336
G1 X152.545 Y137.976 E0.02336
G1 X152.576 Y137.404 E0.02322
G1 X152.543 Y136.92 E0.01967
G1 X152.484 Y136.536 E0.01576
G1 X152.363 Y136.076 E0.01929
G1 X152.228 Y135.705 E0.01598
G1 X151.983 Y135.203 E0.02264
G1 X151.718 Y134.793 E0.0198
G1 X151.346 Y134.322 E0.02433
G1 X162.102 Y134.323 E0.43614
G1 X162.102 Y142.369 E0.32622
G1 X161.512 Y141.723 E0.03548
G1 X161.33 Y141.574 E0.00953
G1 X161.33 Y138.613 E0.12007
G1 X159.979 Y138.229 E0.05694
G1 X159.335 Y138.105 E0.02662
G1 X158.686 Y138.044 E0.02643
G1 X158.025 Y138.044 E0.02678
G1 X157.39 Y138.104 E0.02585
G1 X157.027 Y138.164 E0.01494
G1 X155.381 Y138.59 E0.06895
G1 X155.381 Y139.19 E0.02435
G1 X155.807 Y139.25 F36000
G1 F900
G1 X155.807 Y141.767 E0.10205
G1 X155.706 Y141.841 E0.00509
G1 X155.399 Y142.13 E0.01708
G1 X155.178 Y142.379 E0.01352
G1 X154.93 Y142.714 E0.01691
G1 X154.679 Y143.148 E0.0203
G1 X154.601 Y143.343 E0.00853
G1 X150.585 Y143.345 E0.16284
G1 X150.591 Y140.655 E0.10907
G1 X150.716 Y140.563 E0.0063
G1 X151.092 Y140.195 E0.02133
G1 X151.414 Y139.789 E0.02102
G1 X151.65 Y139.406 E0.01827
G1 X151.869 Y138.936 E0.02099
G1 X152.027 Y138.439 E0.02116
G1 X152.121 Y137.926 E0.02116
G1 X152.149 Y137.407 E0.02107
G1 X152.119 Y136.967 E0.01787
G1 X152.066 Y136.623 E0.01412
G1 X151.955 Y136.203 E0.01762
G1 X151.835 Y135.872 E0.01427
G1 X151.611 Y135.413 E0.0207
G1 X151.371 Y135.041 E0.01795
G1 X151.155 Y134.768 E0.01413
G1 X150.855 Y134.454 E0.01762
G1 X150.59 Y134.227 E0.01413
G1 X150.459 Y134.133 E0.00654
G1 X150.535 Y133.896 E0.0101
G1 X162.529 Y133.897 E0.48633
G1 X162.529 Y143.626 E0.39446
G1 X162.244 Y143.673 E0.01171
G1 X162.178 Y143.482 E0.00819
G1 X161.996 Y143.079 E0.01795
G1 X161.732 Y142.641 E0.02072
G1 X161.519 Y142.363 E0.01422
G1 X161.218 Y142.033 E0.0181
G1 X160.904 Y141.775 E0.01647
G1 X160.904 Y138.935 E0.11518
G1 X159.881 Y138.644 E0.04313
G1 X159.274 Y138.528 E0.02504
G1 X158.666 Y138.47 E0.02479
G1 X158.045 Y138.47 E0.02515
G1 X157.446 Y138.527 E0.02442
G1 X157.116 Y138.582 E0.01357
G1 X155.807 Y138.92 E0.05481
G1 X155.807 Y139.19 E0.01096
G1 E-0.75 F3000
G1 Z0.65 F36000
G1 X161.873 Y147.83
G1 Z0.25
G1 E0.75 F1800
G1 F900
G1 X162.102 Y147.909 E0.00986
G1 X162.102 Y148.678 E0.03118
G1 X161.035 Y148.678 E0.0433
G1 X161.78 Y147.948 E0.04233
G1 X161.836 Y147.877 E0.00363
G1 X162.261 Y146.278 F36000
G1 F900
G1 X162.529 Y146.337 E0.01114
G1 X162.529 Y149.105 E0.11222
G1 X159.828 Y149.105 E0.10953
G1 X159.773 Y148.83 E0.01134
G1 X160.093 Y148.697 E0.01405
G1 X160.487 Y148.487 E0.01813
G1 X160.973 Y148.141 E0.02418
G1 X161.462 Y147.663 E0.02773
G1 X161.684 Y147.38 E0.01458
G1 X161.929 Y147.001 E0.01829
G1 X162.236 Y146.333 E0.02982
G1 E-0.75 F3000
G1 Z0.65 F36000
G1 X150.159 Y148.119
G1 Z0.25
G1 E0.75 F1800
G1 F900
G1 X155.729 Y148.119 E0.22587
G1 X156.094 Y148.406 E0.01881
G1 X156.554 Y148.668 E0.02149
G1 X156.947 Y148.83 E0.01723
G1 X156.893 Y149.105 E0.01136
G1 X143.111 Y149.105 E0.55882
G1 X143.057 Y148.83 E0.01137
G1 X143.415 Y148.682 E0.0157
G1 X143.874 Y148.427 E0.02131
G1 X144.269 Y148.119 E0.02032
G1 X150.099 Y148.119 E0.23636
G1 X138.981 Y148.678 F36000
G1 F900
G1 X137.898 Y148.678 E0.04395
G1 X137.898 Y147.892 E0.03186
G1 X138.126 Y147.813 E0.00981
G1 X138.347 Y148.089 E0.01436
G1 X138.937 Y148.637 E0.03268
G1 X140.23 Y148.819 F36000
G1 F900
G1 X140.183 Y149.105 E0.01174
G1 X137.471 Y149.105 E0.10996
G1 X137.471 Y146.329 E0.11253
G1 X137.745 Y146.274 E0.01133
G1 X137.964 Y146.799 E0.02305
G1 X138.23 Y147.26 E0.02157
G1 X138.66 Y147.799 E0.02795
G1 X139.05 Y148.16 E0.02157
G1 X139.48 Y148.467 E0.02141
G1 X140.013 Y148.746 E0.02441
G1 X140.173 Y148.8 E0.00684
G1 E-0.75 F3000
G1 Z0.65 F36000
M204 S1000
G1 X145.928 Y143.168
G1 Z0.25
G1 E0.75 F1800
;TYPE:External perimeter
G1 F900
G1 X146.635 Y143.344 E0.02954
G1 X147.209 Y143.408 E0.02344
G1 X147.763 Y143.435 E0.02249
G1 X148.099 Y143.435 E0.01363
G1 X148.323 Y143.435 E0.00908
G1 X148.877 Y143.408 E0.02249
G1 X149.452 Y143.344 E0.02343
G1 X149.944 Y143.221 E0.02058
G1 X150.159 Y143.168 E0.00897
G1 X150.165 Y140.439 E0.11063
G1 X150.439 Y140.237 E0.01381
G1 X150.455 Y140.222 E0.00088
G1 X150.775 Y139.909 E0.01815
G1 X151.064 Y139.544 E0.01889
G1 X151.169 Y139.374 E0.00812
G1 X151.274 Y139.203 E0.00812
G1 X151.471 Y138.781 E0.01888
G1 X151.613 Y138.335 E0.01896
G1 X151.654 Y138.108 E0.00939
G1 X151.697 Y137.876 E0.00957
G1 X151.7 Y137.813 E0.00256
G1 X151.722 Y137.41 E0.01636
G1 X151.695 Y137.014 E0.01606
G1 X151.648 Y136.71 E0.01248
G1 X151.548 Y136.33 E0.01595
G1 X151.442 Y136.039 E0.01255
G1 X151.239 Y135.623 E0.01875
G1 X151.024 Y135.29 E0.0161
G1 X150.833 Y135.048 E0.01249
G1 X150.819 Y135.034 E0.00081
G1 X150.561 Y134.763 E0.01514
G1 X150.327 Y134.563 E0.01249
G1 X150.005 Y134.333 E0.01605
G1 X149.657 Y134.143 E0.01606
G1 X149.372 Y134.02 E0.01262
G1 X148.988 Y133.909 E0.0162
G1 X148.682 Y133.861 E0.01254
G1 X148.297 Y133.836 E0.01566
G1 X148.236 Y133.837 E0.00244
G1 X147.635 Y133.843 E0.0244
G1 X147.468 Y133.858 E0.0068
G1 X147.331 Y133.869 E0.00555
G1 X146.941 Y133.948 E0.01615
G1 X146.645 Y134.049 E0.01267
G1 X146.284 Y134.215 E0.01612
G1 X145.947 Y134.424 E0.01607
G1 X145.701 Y134.609 E0.0125
G1 X145.412 Y134.876 E0.01595
G1 X145.205 Y135.104 E0.01249
G1 X144.972 Y135.421 E0.01595
G1 X144.85 Y135.623 E0.00956
G1 X144.813 Y135.685 E0.00293
G1 X144.643 Y136.04 E0.01595
G1 X144.539 Y136.33 E0.01249
G1 X144.439 Y136.71 E0.01595
G1 X144.391 Y137.015 E0.01249
G1 X144.364 Y137.41 E0.01606
G1 X144.389 Y137.876 E0.01892
G1 X144.474 Y138.335 E0.01896
G1 X144.615 Y138.781 E0.01896
G1 X144.812 Y139.203 E0.01888
G1 X144.845 Y139.257 E0.00255
G1 X145.022 Y139.544 E0.01369
G1 X145.311 Y139.909 E0.01889
G1 X145.647 Y140.237 E0.01903
G1 X145.921 Y140.439 E0.01381
G1 X145.926 Y142.636 E0.08908
G1 X145.928 Y143.108 E0.01912
;WIPE_START
M204 S1500
G1 X145.863 Y143.563 F36000
;WIPE_END
M204 S1000
G1 X143.767 Y139.257
G1 F900
G1 X143.071 Y139.059 E0.02931
G1 X142.503 Y138.95 E0.02347
G1 X141.936 Y138.896 E0.02311
G1 X141.353 Y138.896 E0.02361
G1 X140.786 Y138.95 E0.02311
G1 X140.218 Y139.059 E0.02347
G1 X139.868 Y139.159 E0.01476
G1 X139.522 Y139.257 E0.01455
G1 X139.522 Y141.984 E0.11058
G1 X139.249 Y142.186 E0.0138
G1 X138.961 Y142.463 E0.0162
G1 X138.945 Y142.481 E0.00096
G1 X138.755 Y142.7 E0.01177
G1 X138.592 Y142.949 E0.01205
G1 X138.412 Y143.221 E0.01324
G1 X138.316 Y143.435 E0.00949
G1 X138.189 Y143.716 E0.01253
G1 X138.025 Y144.318 E0.02529
G1 X137.983 Y144.63 E0.01274
G1 X137.966 Y145.027 E0.01613
G1 X137.988 Y145.318 E0.01184
G1 X138.002 Y145.492 E0.00709
G1 X138.08 Y145.882 E0.01612
G1 X138.149 Y146.117 E0.00992
G1 X138.168 Y146.18 E0.00266
G1 X138.329 Y146.566 E0.01698
G1 X138.347 Y146.609 E0.00191
G1 X138.549 Y146.958 E0.01632
G1 X138.584 Y147.019 E0.00285
G1 X138.674 Y147.132 E0.00587
G1 X138.974 Y147.508 E0.01949
G1 X139.32 Y147.829 E0.01917
G1 X139.703 Y148.103 E0.0191
G1 X140.181 Y148.352 E0.02186
G1 X140.775 Y148.553 E0.0254
G1 X141.241 Y148.635 E0.01918
G1 X141.708 Y148.656 E0.01896
G1 X141.936 Y148.639 E0.00928
G1 X142.105 Y148.627 E0.00686
G1 X142.411 Y148.576 E0.01259
G1 X142.857 Y148.451 E0.01879
G1 X143.229 Y148.298 E0.0163
G1 X143.638 Y148.07 E0.01895
G1 X144.012 Y147.794 E0.01885
G1 X144.123 Y147.692 E0.00611
G1 X148.026 Y147.692 E0.15824
G1 X155.831 Y147.692 E0.31648
G1 X155.91 Y147.719 E0.0034
G1 X156.332 Y148.051 E0.02177
G1 X156.742 Y148.284 E0.0191
G1 X156.908 Y148.352 E0.00728
G1 X157.174 Y148.462 E0.01167
G1 X157.625 Y148.584 E0.01895
G1 X157.835 Y148.612 E0.00857
G1 X158.088 Y148.647 E0.01039
G1 X158.556 Y148.651 E0.01895
G1 X159.024 Y148.596 E0.01911
G1 X159.622 Y148.432 E0.02514
G1 X159.91 Y148.311 E0.01268
G1 X160.263 Y148.124 E0.01619
G1 X160.564 Y147.91 E0.01497
G1 X160.699 Y147.813 E0.00674
G1 X161.011 Y147.508 E0.01771
G1 X161.144 Y147.378 E0.00751
G1 X161.23 Y147.268 E0.00568
G1 X161.336 Y147.132 E0.00699
G1 X161.554 Y146.795 E0.01626
G1 X161.814 Y146.228 E0.0253
G1 X161.96 Y145.713 E0.02171
G1 X162.018 Y145.318 E0.01619
G1 X162.034 Y145.006 E0.01267
G1 X161.987 Y144.387 E0.02516
G1 X161.98 Y144.357 E0.00127
G1 X161.882 Y143.932 E0.01768
G1 X161.782 Y143.64 E0.01253
G1 X161.618 Y143.278 E0.01611
G1 X161.379 Y142.882 E0.01876
G1 X161.191 Y142.636 E0.01251
G1 X161.049 Y142.481 E0.00853
G1 X160.923 Y142.343 E0.00757
G1 X160.572 Y142.042 E0.01876
G1 X160.478 Y141.977 E0.00467
G1 X160.478 Y139.257 E0.11029
G1 X160.278 Y139.2 E0.00842
G1 X159.782 Y139.059 E0.02089
G1 X159.658 Y139.035 E0.00513
G1 X159.214 Y138.95 E0.01834
G1 X158.645 Y138.896 E0.02316
G1 X158.065 Y138.896 E0.02351
G1 X157.501 Y138.95 E0.02299
G1 X157.452 Y138.958 E0.00203
G1 X157.204 Y138.999 E0.01017
G1 X156.719 Y139.125 E0.02033
G1 X156.233 Y139.25 E0.02033
G1 X156.233 Y141.983 E0.11081
G1 X155.979 Y142.17 E0.01279
G1 X155.87 Y142.272 E0.00609
G1 X155.705 Y142.427 E0.00915
G1 X155.509 Y142.648 E0.01197
G1 X155.287 Y142.949 E0.01516
G1 X155.063 Y143.335 E0.0181
G1 X154.889 Y143.769 E0.01898
G1 X150.151 Y143.772 E0.19212
G1 X150.078 Y143.775 E0.00296
G1 X148.706 Y143.845 E0.05568
G1 X147.757 Y143.861 E0.03848
G1 X147.223 Y143.831 E0.02171
G1 X146.318 Y143.781 E0.03674
G1 X145.158 Y143.771 E0.04702
G1 X145.115 Y143.771 E0.00174
G1 X145.085 Y143.677 E0.00399
G1 X144.933 Y143.328 E0.01544
G1 X144.657 Y142.882 E0.02128
G1 X144.589 Y142.772 E0.00521
G1 X144.346 Y142.481 E0.01539
G1 X144.136 Y142.272 E0.01199
G1 X144.026 Y142.18 E0.00583
G1 X143.852 Y142.035 E0.00921
G1 X143.767 Y141.976 E0.00418
G1 X143.767 Y139.317 E0.10784
;WIPE_START
M204 S1500
G1 X143.84 Y138.863 F36000
;WIPE_END
M204 S1000
G1 X137.087 Y133.542
G1 F900
G1 X137.136 Y133.5 E0.00262
G1 X137.176 Y133.482 E0.00177
G1 X137.258 Y133.469 E0.00338
G1 X146.086 Y133.469 E0.35793
G1 X146.158 Y133.467 E0.00295
G1 X148.048 Y133.406 E0.07668
G1 X148.529 Y133.422 E0.0195
G1 X149.022 Y133.451 E0.02004
G1 X149.681 Y133.463 E0.02672
G1 X150.013 Y133.469 E0.01345
G1 X162.757 Y133.471 E0.51672
G1 X162.858 Y133.499 E0.00429
G1 X162.906 Y133.538 E0.00247
G1 X162.938 Y133.593 E0.0026
G1 X162.955 Y133.686 E0.00385
G1 X162.955 Y149.121 E0.62582
G1 X162.939 Y149.241 E0.0049
