; generated by SuperSlicer 2.5.59 on 2022-09-09 at 04:40:03 UTC


;
;

;
;
; 

; external perimeters extrusion width = 0.40mm
; perimeters extrusion width = 0.40mm
; infill extrusion width = 0.72mm
; solid infill extrusion width = 0.56mm
; top infill extrusion width = 0.40mm

; object:{"name":"Voron_Design_Cube_v7","id":"Voron_Design_Cube_v7.stl id:0 copy 0","object_center":[150.000000,150.000000,0.000000],"boundingbox_center":[150.000000,150.000000,15.000000],"boundingbox_size":[42.426407,42.426407,30.000000]}
; plater:{"center":[150.000000,150.000000,0.000000],"boundingbox_center":[150.000000,150.000000,15.000000],"boundingbox_size":[42.426407,42.426407,30.000000]}

M73 P0 R44
;TYPE:Custom
; custom gcode: start_gcode
PRINT_START EXTRUDER=250 BED=110 AREA_START=133.012,133.012 AREA_END=166.988,166.988
; custom gcode end: start_gcode
M107
G21 ; set units to millimeters
G90 ; use absolute coordinates
M83 ; use relative distances for extrusion
; custom gcode: start_filament_gcode
; Filament gcode
SET_PRESSURE_ADVANCE ADVANCE=0.02
SET_PRESSURE_ADVANCE EXTRUDER=extruder SMOOTH_TIME=0.04
; custom gcode end: start_filament_gcode
;_TOOLCHANGE 0
M104 S250 ; set temperature
M109 S250 ; set temperature and wait for it to be reached
M190 S110 ; set bed temperature and wait for it to be reached
;LAYER_CHANGE
;Z:0.24
;HEIGHT:0.24
G1 Z0.24 F27000
G92 E0
M73 P0 R43
G1 E-0.5 F1800
; printing object Voron_Design_Cube_v7.stl id:0 copy 0
M204 S2000
G1 X150 Y165.742 F27000
G1 E0.5 F1800
;TYPE:Internal perimeter
;WIDTH:0.348495
G1 X146.439 Y165.742 E0.09814
G1 X134.258 Y153.561 E0.47477
G1 X134.258 Y146.439 E0.19628
G1 X146.439 Y134.258 E0.47477
G1 X153.561 Y134.258 E0.19628
G1 X165.742 Y146.439 E0.47477
G1 X165.742 Y153.561 E0.19628
G1 X153.561 Y165.742 E0.47477
G1 X150 Y165.742 E0.09814
G1 X150 Y166.091 F27000
G1 F1800
G1 X146.295 Y166.091 E0.10212
G1 X133.909 Y153.705 E0.48273
G1 X133.909 Y146.295 E0.20423
G1 X146.295 Y133.909 E0.48273
G1 X153.705 Y133.909 E0.20423
G1 X166.091 Y146.295 E0.48273
M73 P1 R43
G1 X166.091 Y153.705 E0.20423
G1 X153.705 Y166.091 E0.48273
G1 X150 Y166.091 E0.10212
G1 X150 Y166.439 F27000
G1 F1800
G1 X146.15 Y166.439 E0.10609
G1 X133.561 Y153.85 E0.49068
G1 X133.561 Y146.15 E0.21219
G1 X146.15 Y133.561 E0.49068
G1 X153.85 Y133.561 E0.21219
G1 X166.439 Y146.15 E0.49068
G1 X166.439 Y153.85 E0.21219
G1 X153.85 Y166.439 E0.49068
G1 X150 Y166.439 E0.10609
M204 S1000
G1 X150 Y166.788 F27000
;TYPE:External perimeter
G1 F1800
G1 X146.006 Y166.788 E0.11007
G1 X133.212 Y153.994 E0.49864
G1 X133.212 Y146.006 E0.22015
G1 X146.006 Y133.212 E0.49864
G1 X153.994 Y133.212 E0.22015
G1 X166.788 Y146.006 E0.49864
G1 X166.788 Y153.994 E0.22015
G1 X153.994 Y166.788 E0.49864
G1 X150 Y166.788 E0.11007
;WIPE_START
M204 S4000
G1 X149.8 Y166.441 F27000
;WIPE_END
G1 E-0.5 F1800
; acceleration to travel
M204 S10000
G1 X150.121 Y160.329 F27000
; decel to extrusion
M204 S2000
G1 X150.186 Y159.106
; end travel
G1 E0.5 F1800
;TYPE:Internal perimeter
G1 X150.286 Y159.108 E0.00278
G1 X151.101 Y159.046 E0.02251
G1 X151.537 Y158.973 E0.0122
G1 X152.152 Y158.855 E0.01726
G1 X153.056 Y158.585 E0.02598
G1 X153.926 Y158.223 E0.02598
G1 X154.755 Y157.774 E0.02598
G1 X155.533 Y157.241 E0.02598
G1 X156.237 Y156.644 E0.02544
G1 X156.717 Y156.158 E0.01882
G1 X157.317 Y155.432 E0.02596
G1 X157.839 Y154.647 E0.02598
G1 X158.272 Y153.824 E0.02563
G1 X158.557 Y153.135 E0.02054
G1 X158.767 Y152.485 E0.01882
G1 X158.977 Y151.567 E0.02596
G1 X159.091 Y150.631 E0.02598
G1 X159.107 Y149.689 E0.02598
G1 X159.043 Y148.874 E0.02251
G1 X158.975 Y148.471 E0.01126
G1 X158.849 Y147.823 E0.0182
G1 X158.581 Y146.931 E0.02567
G1 X158.302 Y146.243 E0.02047
G1 X157.997 Y145.631 E0.01885
G1 X157.503 Y144.828 E0.02596
G1 X156.929 Y144.081 E0.02598
G1 X156.28 Y143.397 E0.02598
G1 X155.564 Y142.783 E0.02598
G1 X154.789 Y142.247 E0.02598
G1 X153.962 Y141.793 E0.02598
G1 X153.093 Y141.428 E0.02598
G1 X152.191 Y141.154 E0.02599
G1 X151.265 Y140.975 E0.02598
G1 X150.335 Y140.893 E0.02572
G1 X149.597 Y140.897 E0.02036
G1 X148.913 Y140.952 E0.01891
G1 X147.984 Y141.113 E0.02596
G1 X147.077 Y141.368 E0.02598
G1 X146.201 Y141.717 E0.02598
G1 X145.365 Y142.154 E0.02598
G1 X144.579 Y142.674 E0.02599
G1 X143.851 Y143.274 E0.02598
G1 X143.189 Y143.945 E0.02598
G1 X142.6 Y144.681 E0.02598
G1 X142.09 Y145.474 E0.02599
G1 X141.67 Y146.302 E0.02558
G1 X141.426 Y146.916 E0.0182
G1 X141.195 Y147.649 E0.0212
G1 X141 Y148.571 E0.02597
G1 X140.9 Y149.509 E0.02599
G1 X140.898 Y150.452 E0.02598
G1 X141.011 Y151.478 E0.02845
G1 X141.185 Y152.313 E0.02351
G1 X141.465 Y153.196 E0.02554
G1 X141.722 Y153.808 E0.01827
G1 X142.071 Y154.492 E0.02117
G1 X142.577 Y155.287 E0.02597
G1 X143.163 Y156.025 E0.02598
G1 X143.822 Y156.7 E0.02598
G1 X144.548 Y157.302 E0.02598
G1 X145.331 Y157.826 E0.02598
G1 X146.149 Y158.26 E0.0255
G1 X146.762 Y158.518 E0.01834
G1 X147.49 Y158.76 E0.02114
G1 X148.408 Y158.973 E0.02597
G1 X149.344 Y159.089 E0.02598
G1 X150.186 Y159.106 E0.02321
G1 X150.191 Y158.759 F27000
G1 F1800
G1 X150.26 Y158.761 E0.00189
G1 X151.074 Y158.698 E0.02251
G1 X151.475 Y158.63 E0.01121
G1 X152.055 Y158.52 E0.01627
G1 X152.924 Y158.262 E0.02499
G1 X153.762 Y157.916 E0.02499
G1 X154.56 Y157.485 E0.02499
G1 X155.309 Y156.973 E0.02499
G1 X155.991 Y156.398 E0.02459
G1 X156.45 Y155.934 E0.01797
G1 X157.028 Y155.237 E0.02496
G1 X157.531 Y154.483 E0.02499
G1 X157.951 Y153.689 E0.02474
G1 X158.226 Y153.025 E0.01981
G1 X158.428 Y152.405 E0.01797
G1 X158.631 Y151.523 E0.02497
G1 X158.742 Y150.623 E0.02499
G1 X158.76 Y149.716 E0.02499
G1 X158.633 Y148.535 E0.03275
G1 X158.515 Y147.922 E0.0172
G1 X158.257 Y147.061 E0.02476
G1 X157.989 Y146.396 E0.01976
G1 X157.699 Y145.811 E0.01799
G1 X157.226 Y145.039 E0.02497
G1 X156.674 Y144.319 E0.02499
G1 X156.052 Y143.66 E0.02499
G1 X155.364 Y143.068 E0.02499
G1 X154.619 Y142.551 E0.02499
G1 X153.825 Y142.114 E0.02499
G1 X152.989 Y141.761 E0.02499
G1 X152.122 Y141.496 E0.02499
G1 X151.232 Y141.322 E0.02499
G1 X150.336 Y141.241 E0.0248
G1 X149.622 Y141.245 E0.01968
G1 X148.97 Y141.296 E0.01803
G1 X148.077 Y141.449 E0.02497
G1 X147.203 Y141.693 E0.02499
G1 X146.36 Y142.027 E0.02499
G1 X145.556 Y142.445 E0.02499
G1 X144.799 Y142.945 E0.02499
G1 X144.098 Y143.52 E0.02499
G1 X143.46 Y144.165 E0.02499
G1 X142.892 Y144.872 E0.02499
G1 X142.4 Y145.634 E0.02499
G1 X141.994 Y146.432 E0.02469
G1 X141.758 Y147.023 E0.01753
G1 X141.536 Y147.724 E0.02027
G1 X141.346 Y148.61 E0.02498
G1 X141.249 Y149.512 E0.02499
G1 X141.245 Y150.419 E0.02499
G1 X141.353 Y151.409 E0.02746
G1 X141.518 Y152.209 E0.02252
G1 X141.787 Y153.063 E0.02467
G1 X142.033 Y153.651 E0.01758
G1 X142.366 Y154.307 E0.02026
G1 X142.852 Y155.072 E0.02498
G1 X143.414 Y155.783 E0.02499
G1 X144.047 Y156.433 E0.02499
G1 X144.744 Y157.014 E0.02499
G1 X145.496 Y157.519 E0.02499
G1 X146.286 Y157.939 E0.02464
G1 X146.875 Y158.188 E0.01763
G1 X147.571 Y158.421 E0.02023
G1 X148.454 Y158.627 E0.02498
G1 X149.353 Y158.741 E0.02499
G1 X150.191 Y158.759 E0.0231
G1 X150.198 Y158.412 F27000
G1 F1800
G1 X150.233 Y158.413 E0.00096
G1 X151.048 Y158.351 E0.02251
G1 X151.413 Y158.287 E0.01021
G1 X151.958 Y158.186 E0.01527
G1 X152.793 Y157.94 E0.024
G1 X153.598 Y157.608 E0.024
G1 X154.365 Y157.196 E0.024
G1 X155.085 Y156.706 E0.024
G1 X155.744 Y156.151 E0.02375
G1 X156.182 Y155.711 E0.01713
G1 X156.739 Y155.042 E0.02397
G1 X157.224 Y154.319 E0.024
G1 X157.629 Y153.555 E0.02384
G1 X157.895 Y152.916 E0.01907
G1 X158.089 Y152.326 E0.01712
G1 X158.286 Y151.478 E0.02397
G1 X158.394 Y150.614 E0.024
G1 X158.413 Y149.744 E0.024
G1 X158.29 Y148.598 E0.03176
G1 X158.18 Y148.02 E0.01621
G1 X157.934 Y147.19 E0.02385
G1 X157.676 Y146.549 E0.01904
G1 X157.401 Y145.992 E0.01713
G1 X156.948 Y145.249 E0.02398
G1 X156.42 Y144.557 E0.024
G1 X155.823 Y143.923 E0.024
G1 X155.164 Y143.353 E0.024
G1 X154.449 Y142.856 E0.024
G1 X153.687 Y142.434 E0.024
G1 X152.886 Y142.093 E0.024
G1 X152.054 Y141.838 E0.024
G1 X151.199 Y141.669 E0.024
G1 X150.336 Y141.59 E0.02388
G1 X149.647 Y141.592 E0.01899
G1 X149.027 Y141.64 E0.01715
G1 X148.169 Y141.785 E0.02398
G1 X147.33 Y142.018 E0.024
G1 X146.519 Y142.337 E0.024
G1 X145.746 Y142.737 E0.024
G1 X145.019 Y143.216 E0.024
G1 X144.344 Y143.767 E0.024
G1 X143.73 Y144.384 E0.024
G1 X143.184 Y145.062 E0.024
G1 X142.71 Y145.793 E0.024
G1 X142.317 Y146.562 E0.02381
G1 X142.09 Y147.13 E0.01685
G1 X141.876 Y147.799 E0.01935
G1 X141.692 Y148.65 E0.02399
G1 X141.597 Y149.515 E0.024
G1 X141.592 Y150.386 E0.024
G1 X141.695 Y151.341 E0.02646
G1 X141.851 Y152.106 E0.02152
G1 X142.109 Y152.93 E0.0238
G1 X142.345 Y153.495 E0.01688
G1 X142.661 Y154.122 E0.01934
G1 X143.126 Y154.857 E0.02399
G1 X143.665 Y155.542 E0.024
G1 X144.272 Y156.166 E0.024
G1 X144.939 Y156.725 E0.024
G1 X145.661 Y157.212 E0.024
G1 X146.422 Y157.619 E0.02378
G1 X146.987 Y157.858 E0.01691
G1 X147.652 Y158.082 E0.01933
G1 X148.499 Y158.282 E0.02398
G1 X149.363 Y158.392 E0.024
G1 X150.198 Y158.412 E0.02304
M204 S1000
G1 X150.207 Y158.066 F27000
;TYPE:External perimeter
G1 F1800
G1 X151.35 Y157.945 E0.0317
G1 X151.86 Y157.851 E0.01428
G1 X152.661 Y157.617 E0.02301
G1 X153.434 Y157.301 E0.02301
G1 X154.17 Y156.907 E0.02301
G1 X154.861 Y156.439 E0.02301
G1 X155.498 Y155.905 E0.0229
G1 X155.915 Y155.487 E0.01628
G1 X156.45 Y154.847 E0.02298
G1 X156.916 Y154.155 E0.02301
G1 X157.308 Y153.42 E0.02294
G1 X157.564 Y152.806 E0.01834
G1 X157.75 Y152.246 E0.01627
G1 X157.94 Y151.434 E0.02298
G1 X158.046 Y150.606 E0.02301
G1 X158.065 Y149.771 E0.02301
G1 X157.947 Y148.661 E0.03076
G1 X157.846 Y148.118 E0.01522
G1 X157.61 Y147.32 E0.02295
G1 X157.363 Y146.702 E0.01833
G1 X157.103 Y146.172 E0.01627
G1 X156.67 Y145.46 E0.02298
G1 X156.165 Y144.795 E0.02301
G1 X155.594 Y144.186 E0.02301
G1 X154.964 Y143.639 E0.02301
G1 X154.28 Y143.16 E0.02301
G1 X153.55 Y142.754 E0.02301
G1 X152.783 Y142.426 E0.02301
G1 X151.985 Y142.179 E0.02301
G1 X151.166 Y142.016 E0.02301
G1 X150.337 Y141.938 E0.02296
G1 X149.673 Y141.94 E0.01831
G1 X149.084 Y141.983 E0.01627
G1 X148.261 Y142.121 E0.02299
G1 X147.456 Y142.343 E0.02301
G1 X146.679 Y142.646 E0.02301
G1 X145.937 Y143.029 E0.02301
G1 X145.238 Y143.486 E0.02301
G1 X144.591 Y144.013 E0.02301
G1 X144.001 Y144.604 E0.02301
G1 X143.476 Y145.253 E0.02301
G1 X143.02 Y145.952 E0.02301
G1 X142.64 Y146.693 E0.02293
G1 X142.421 Y147.237 E0.01618
G1 X142.216 Y147.874 E0.01842
G1 X142.038 Y148.689 E0.02299
G1 X141.946 Y149.518 E0.02301
G1 X141.939 Y150.353 E0.02301
G1 X142.036 Y151.272 E0.02547
G1 X142.184 Y152.003 E0.02053
G1 X142.431 Y152.797 E0.02292
G1 X142.656 Y153.339 E0.01618
G1 X142.957 Y153.936 E0.01843
G1 X143.401 Y154.643 E0.02299
G1 X143.916 Y155.3 E0.02301
G1 X144.496 Y155.9 E0.02301
G1 X145.135 Y156.437 E0.02301
G1 X145.826 Y156.905 E0.02301
G1 X146.559 Y157.298 E0.02292
G1 X147.1 Y157.528 E0.0162
G1 X147.733 Y157.743 E0.01842
G1 X148.544 Y157.936 E0.02299
G1 X149.372 Y158.044 E0.02301
G1 X150.207 Y158.066 E0.02301
;WIPE_START
M204 S4000
G1 X150.385 Y157.708 F27000
;WIPE_END
G1 E-0.5 F1800
; acceleration to travel
M204 S10000
G1 X146.935 Y138.451 F27000
; decel to extrusion
M204 S2000
G1 X146.235 Y134.547
; end travel
G1 E0.5 F1800
;TYPE:Solid infill
;WIDTH:0.560625
G1 F3600
G1 X153.456 Y134.547 E0.34109
G1 X153.964 Y135.055 E0.03397
G1 X146.036 Y135.055 E0.37452
G1 X145.527 Y135.564 E0.03397
G1 X154.473 Y135.564 E0.42256
G1 X154.981 Y136.072 E0.03397
G1 X145.019 Y136.072 E0.47061
G1 X144.51 Y136.581 E0.03397
G1 X155.49 Y136.581 E0.51865
G1 X155.998 Y137.089 E0.03397
G1 X144.002 Y137.089 E0.56669
G1 X143.493 Y137.598 E0.03397
G1 X156.507 Y137.598 E0.61473
G1 X157.015 Y138.106 E0.03397
G1 X142.985 Y138.106 E0.66277
G1 X142.476 Y138.615 E0.03397
G1 X157.524 Y138.615 E0.71081
G1 X158.032 Y139.123 E0.03397
G1 X141.968 Y139.123 E0.75886
G1 X141.459 Y139.632 E0.03397
G1 X158.541 Y139.632 E0.8069
G1 X159.049 Y140.14 E0.03397
G1 X140.951 Y140.14 E0.85494
G1 X140.442 Y140.649 E0.03397
G1 X159.558 Y140.649 E0.90298
G1 X160.066 Y141.157 E0.03397
G1 X153.161 Y141.157 E0.32617
G1 X154.076 Y141.539 E0.04683
G1 X154.308 Y141.666 E0.01249
G1 X160.575 Y141.666 E0.29602
G1 X161.083 Y142.174 E0.03397
G1 X155.173 Y142.174 E0.27917
G1 X155.728 Y142.557 E0.03187
G1 X155.874 Y142.683 E0.00906
G1 X161.592 Y142.683 E0.27011
G1 X162.1 Y143.191 E0.03397
G1 X156.463 Y143.191 E0.26628
G1 X156.538 Y143.256 E0.00468
G1 X156.954 Y143.7 E0.02873
G1 X162.609 Y143.7 E0.26712
G1 X163.117 Y144.208 E0.03397
G1 X157.378 Y144.208 E0.27111
G1 X157.728 Y144.664 E0.02715
G1 X157.761 Y144.717 E0.00294
G1 X163.626 Y144.717 E0.27703
G1 X164.134 Y145.225 E0.03397
G1 X158.075 Y145.225 E0.28624
G1 X158.238 Y145.49 E0.01468
G1 X158.358 Y145.734 E0.01285
G1 X164.643 Y145.734 E0.29688
G1 X165.151 Y146.242 E0.03397
G1 X158.606 Y146.242 E0.3092
G1 X158.804 Y146.751 E0.02579
G1 X165.463 Y146.751 E0.31457
G1 X165.463 Y147.259 E0.02402
G1 X158.971 Y147.259 E0.30668
G1 X159.117 Y147.768 E0.02498
G1 X165.463 Y147.768 E0.29982
G1 X165.463 Y148.276 E0.02402
G1 X159.22 Y148.276 E0.29494
G1 X159.31 Y148.785 E0.02439
G1 X165.463 Y148.785 E0.2907
G1 X165.463 Y149.293 E0.02402
G1 X159.354 Y149.293 E0.28861
G1 X159.39 Y149.802 E0.02408
G1 X165.463 Y149.802 E0.28691
G1 X165.463 Y150.31 E0.02402
G1 X159.378 Y150.31 E0.28749
G1 X159.37 Y150.643 E0.01574
G1 X159.348 Y150.819 E0.00835
G1 X165.463 Y150.819 E0.28888
G1 X165.463 Y151.327 E0.02402
G1 X159.286 Y151.327 E0.29181
G1 X159.246 Y151.652 E0.01546
G1 X159.204 Y151.836 E0.0089
G1 X165.463 Y151.836 E0.29569
G1 X165.463 Y152.344 E0.02402
G1 X159.086 Y152.344 E0.30126
G1 X159.038 Y152.554 E0.01016
G1 X158.939 Y152.853 E0.01487
G1 X165.463 Y152.853 E0.30821
G1 X165.463 Y153.361 E0.02402
G1 X158.768 Y153.361 E0.31629
G1 X158.55 Y153.87 E0.02613
G1 X165.039 Y153.87 E0.30653
G1 X164.531 Y154.378 E0.03397
G1 X158.295 Y154.378 E0.29456
G1 X158.019 Y154.887 E0.02734
G1 X164.022 Y154.887 E0.28361
G1 X163.514 Y155.395 E0.03397
G1 X157.678 Y155.395 E0.27569
G1 X157.531 Y155.613 E0.01242
G1 X157.29 Y155.904 E0.01783
G1 X163.005 Y155.904 E0.26999
G1 X162.497 Y156.412 E0.03397
G1 X156.856 Y156.412 E0.26645
G1 X156.348 Y156.921 E0.03397
G1 X161.988 Y156.921 E0.26645
G1 X161.48 Y157.429 E0.03397
G1 X155.733 Y157.429 E0.27149
G1 X155.592 Y157.545 E0.00862
G1 X155.001 Y157.938 E0.03352
G1 X160.971 Y157.938 E0.28204
G1 X160.463 Y158.446 E0.03397
G1 X153.55 Y158.446 E0.32654
G1 E-0.5 F1800
; acceleration to travel
M204 S10000
G1 X148.596 Y144.039 F27000
; decel to extrusion
M204 S2000
G1 X147.605 Y141.157
; end travel
G1 E0.5 F1800
G1 F3600
G1 X139.934 Y141.157 E0.36239
G1 X139.425 Y141.666 E0.03397
G1 X145.697 Y141.666 E0.29626
G1 X145.217 Y141.917 E0.02563
G1 X144.83 Y142.174 E0.02192
G1 X138.917 Y142.174 E0.27932
G1 X138.408 Y142.683 E0.03397
G1 X144.131 Y142.683 E0.27032
G1 X143.657 Y143.073 E0.029
G1 X143.541 Y143.191 E0.00782
G1 X137.9 Y143.191 E0.26649
G1 X137.391 Y143.7 E0.03397
G1 X143.041 Y143.7 E0.26686
G1 X142.976 Y143.766 E0.00436
G1 X142.619 Y144.208 E0.02685
G1 X136.883 Y144.208 E0.27097
G1 X136.374 Y144.717 E0.03397
G1 X142.244 Y144.717 E0.27729
G1 X141.913 Y145.225 E0.02868
G1 X135.866 Y145.225 E0.28565
G1 X135.357 Y145.734 E0.03397
G1 X141.647 Y145.734 E0.29709
G1 X141.467 Y146.076 E0.01827
G1 X141.4 Y146.242 E0.00846
G1 X134.849 Y146.242 E0.30944
G1 X134.537 Y146.555 E0.02087
G1 X134.537 Y146.751 E0.00926
G1 X141.193 Y146.751 E0.31444
G1 X141.162 Y146.827 E0.00388
G1 X141.026 Y147.259 E0.02141
G1 X134.537 Y147.259 E0.30657
M73 P2 R43
G1 X134.537 Y147.768 E0.02402
G1 X140.884 Y147.768 E0.29984
G1 X140.773 Y148.276 E0.02459
G1 X134.537 Y148.276 E0.29459
G1 X134.537 Y148.785 E0.02402
G1 X140.7 Y148.785 E0.29115
G1 X140.644 Y149.293 E0.02416
G1 X134.537 Y149.293 E0.28852
G1 X134.537 Y149.802 E0.02402
G1 X140.621 Y149.802 E0.28742
G1 X140.62 Y150.31 E0.02402
G1 X134.537 Y150.31 E0.28739
G1 X134.537 Y150.819 E0.02402
G1 X140.654 Y150.819 E0.289
G1 X140.705 Y151.327 E0.02414
G1 X134.537 Y151.327 E0.29139
G1 X134.537 Y151.836 E0.02402
G1 X140.799 Y151.836 E0.29582
G1 X140.882 Y152.25 E0.01998
G1 X140.91 Y152.344 E0.00462
G1 X134.537 Y152.344 E0.30108
