; generated by SuperSlicer 2.5.59 on 2022-09-05 at 21:22:26 UTC


;
;

;
;
; 

; external perimeters extrusion width = 0.50mm
; perimeters extrusion width = 0.50mm
; infill extrusion width = 0.50mm
; solid infill extrusion width = 0.56mm
; top infill extrusion width = 0.40mm

; object:{"name":"y_rod_holder","id":"y_rod_holder.stl id:0 copy 0","object_center":[150.000000,150.000000,0.000000],"boundingbox_center":[150.000000,150.000000,15.000000],"boundingbox_size":[34.536092,34.536092,30.000000]}
; plater:{"center":[150.000000,150.000000,0.000000],"boundingbox_center":[150.000000,150.000000,15.000000],"boundingbox_size":[34.536092,34.536092,30.000000]}

M73 P0 R36
;TYPE:Custom
; custom gcode: start_gcode
PRINT_START EXTRUDER=250 BED=110 AREA_START=130.679,134.578 AREA_END=165.445,169.324
; custom gcode end: start_gcode
M107
G21 ; set units to millimeters
G90 ; use absolute coordinates
M83 ; use relative distances for extrusion
; custom gcode: start_filament_gcode
; Filament gcode
SET_PRESSURE_ADVANCE ADVANCE=0.03
SET_PRESSURE_ADVANCE EXTRUDER=extruder SMOOTH_TIME=0.04
; custom gcode end: start_filament_gcode
;_TOOLCHANGE 0
M109 S250 ; set temperature and wait for it to be reached
M190 S110 ; set bed temperature and wait for it to be reached
;LAYER_CHANGE
;Z:0.24
;HEIGHT:0.24
G1 Z0.24 F36000
G92 E0
M73 P0 R35
G1 E-0.5 F1800
M204 S2000
G1 X133.112 Y139.296 F36000
G1 E0.5 F1800
;TYPE:Skirt
;WIDTH:0.5
;HEIGHT:0.25
G1 X134.376 Y138.489 E0.06958
G1 X146.94 Y135.067 E0.60409
G1 X148.518 Y134.802 E0.07425
G1 X150.118 Y134.805 E0.07425
G1 X151.579 Y135.111 E0.06924
G1 X152.893 Y135.864 E0.07025
G1 X155.633 Y138.619 E0.18026
G1 X156.288 Y139.604 E0.05488
G1 X156.743 Y140.854 E0.06171
G1 X156.834 Y142.612 E0.08165
G1 X156.619 Y143.376 E0.03684
G1 X157.311 Y143.174 E0.03343
G1 X158.94 Y143.218 E0.0756
M73 P1 R35
G1 X160.463 Y143.746 E0.0748
G1 X161.583 Y144.536 E0.06358
G1 X164.1 Y147.052 E0.16512
G1 X165.106 Y149.115 E0.10645
G1 X165.221 Y150.298 E0.05516
G1 X165.204 Y151.421 E0.05208
G1 X164.949 Y152.99 E0.07375
G1 X161.665 Y165.26 E0.58928
G1 X160.762 Y166.822 E0.0837
G1 X159.46 Y168.125 E0.08546
G1 X157.503 Y169.053 E0.10048
G1 X155.923 Y169.101 E0.07331
G1 X155.44 Y169.032 E0.02264
G1 X153.591 Y168.145 E0.09518
G1 X131.871 Y146.425 E1.425
G1 X130.925 Y144.372 E0.10489
G1 X130.903 Y142.767 E0.07447
G1 X131.444 Y141.187 E0.07746
G1 X133.112 Y139.296 E0.11699
G1 X133.424 Y139.617 F36000
G1 F1800
G1 X134.586 Y138.884 E0.06373
G1 X147.046 Y135.5 E0.59899
G1 X148.537 Y135.248 E0.07015
G1 X150.05 Y135.247 E0.07018
G1 X151.453 Y135.54 E0.0665
G1 X152.643 Y136.235 E0.06392
G1 X155.274 Y138.886 E0.17329
G1 X155.879 Y139.785 E0.05026
G1 X156.299 Y140.911 E0.05577
G1 X156.387 Y142.597 E0.07829
G1 X155.977 Y143.966 E0.06632
G1 X155.901 Y144.098 E0.00708
G1 X156.015 Y144.031 E0.00613
G1 X157.336 Y143.621 E0.06416
G1 X158.893 Y143.663 E0.0723
G1 X160.232 Y144.129 E0.06576
G1 X161.281 Y144.865 E0.05946
G1 X163.759 Y147.342 E0.1625
G1 X164.665 Y149.198 E0.09584
G1 X164.776 Y150.329 E0.05271
G1 X164.758 Y151.397 E0.04955
G1 X164.51 Y152.906 E0.07097
G1 X161.241 Y165.116 E0.58639
G1 X160.426 Y166.527 E0.0756
G1 X159.171 Y167.782 E0.08234
G1 X157.443 Y168.608 E0.08885
G1 X155.93 Y168.654 E0.07023
G1 X155.539 Y168.595 E0.01833
G1 X153.879 Y167.802 E0.08535
G1 X132.214 Y146.137 E1.42142
G1 X131.37 Y144.318 E0.09302
G1 X131.35 Y142.8 E0.07046
G1 X131.85 Y141.376 E0.07001
G1 X133.424 Y139.617 E0.10952
G1 X133.734 Y139.94 F36000
G1 F1800
G1 X134.794 Y139.28 E0.05794
G1 X147.152 Y135.934 E0.59397
G1 X148.593 Y135.691 E0.06776
G1 X150.026 Y135.693 E0.06649
G1 X151.324 Y135.969 E0.06158
G1 X152.39 Y136.604 E0.05755
G1 X154.942 Y139.185 E0.16837
G1 X155.493 Y140.012 E0.04612
G1 X155.855 Y140.969 E0.04748
G1 X155.939 Y142.58 E0.07486
G1 X155.56 Y143.804 E0.05942
G1 X155.074 Y144.541 E0.04096
G1 X154.45 Y145.131 E0.03984
G1 X153.66 Y145.568 E0.04188
G1 X153.453 Y145.72 E0.01192
G1 X153.356 Y145.843 E0.0073
G1 X153.303 Y145.965 E0.00616
G1 X153.277 Y146.177 E0.00989
G1 X153.305 Y146.323 E0.0069
G1 X153.457 Y146.563 E0.0132
G1 X153.708 Y146.705 E0.01336
G1 X153.853 Y146.724 E0.00678
G1 X154.111 Y146.671 E0.01223
G1 X154.221 Y146.604 E0.00599
G1 X154.434 Y146.336 E0.01585
G1 X154.825 Y145.611 E0.03822
G1 X155.369 Y145.004 E0.0378
G1 X156.182 Y144.446 E0.04573
G1 X157.361 Y144.069 E0.05745
G1 X158.847 Y144.109 E0.06894
G1 X160.002 Y144.513 E0.05677
G1 X160.98 Y145.195 E0.05532
G1 X163.417 Y147.631 E0.15987
G1 X164.225 Y149.281 E0.08524
G1 X164.331 Y150.36 E0.05026
G1 X164.312 Y151.372 E0.047
G1 X164.072 Y152.822 E0.06819
G1 X160.817 Y164.972 E0.58353
G1 X160.09 Y166.232 E0.0675
G1 X158.882 Y167.44 E0.07924
G1 X157.383 Y168.163 E0.07723
G1 X155.938 Y168.207 E0.06707
G1 X155.641 Y168.16 E0.01392
G1 X154.168 Y167.459 E0.07568
G1 X132.558 Y145.849 E1.41784
G1 X131.816 Y144.262 E0.08129
G1 X131.784 Y142.91 E0.06273
G1 X132.256 Y141.567 E0.06606
G1 X133.734 Y139.94 E0.10194
G1 X134.041 Y140.265 F36000
G1 F1800
G1 X135 Y139.678 E0.05219
G1 X147.258 Y136.368 E0.58906
G1 X148.612 Y136.138 E0.0637
G1 X149.959 Y136.135 E0.0625
G1 X151.13 Y136.373 E0.05543
G1 X152.093 Y136.939 E0.05183
G1 X154.582 Y139.45 E0.16404
G1 X155.108 Y140.238 E0.04391
G1 X155.425 Y141.092 E0.04227
G1 X155.491 Y142.561 E0.06822
G1 X155.145 Y143.637 E0.05246
G1 X154.718 Y144.27 E0.03542
G1 X154.166 Y144.786 E0.03503
G1 X153.421 Y145.19 E0.03934
G1 X153.14 Y145.396 E0.01617
G1 X152.968 Y145.613 E0.01285
G1 X152.868 Y145.848 E0.01182
G1 X152.825 Y146.191 E0.01607
G1 X152.877 Y146.463 E0.01284
G1 X152.987 Y146.694 E0.01184
G1 X153.146 Y146.887 E0.01163
G1 X153.346 Y147.038 E0.01161
G1 X153.591 Y147.139 E0.01232
G1 X153.846 Y147.174 E0.01194
G1 X154.087 Y147.148 E0.01122
G1 X154.3 Y147.079 E0.01038
G1 X154.522 Y146.943 E0.01209
G1 X154.809 Y146.581 E0.02143
G1 X155.175 Y145.889 E0.03635
G1 X155.684 Y145.322 E0.03532
G1 X156.353 Y144.86 E0.03771
G1 X157.39 Y144.516 E0.05072
G1 X158.735 Y144.542 E0.06239
G1 X159.773 Y144.897 E0.05089
G1 X160.678 Y145.525 E0.05111
G1 X163.075 Y147.921 E0.15724
G1 X163.785 Y149.365 E0.07463
G1 X163.885 Y150.39 E0.04779
G1 X163.867 Y151.347 E0.04442
G1 X163.633 Y152.738 E0.06542
G1 X160.394 Y164.828 E0.58069
G1 X159.754 Y165.937 E0.05941
G1 X158.593 Y167.098 E0.07617
G1 X157.322 Y167.719 E0.06561
G1 X155.947 Y167.76 E0.06381
G1 X155.748 Y167.725 E0.00938
G1 X154.456 Y167.116 E0.06624
G1 X132.9 Y145.561 E1.41426
G1 X132.261 Y144.205 E0.06956
G1 X132.231 Y142.941 E0.05863
G1 X132.661 Y141.761 E0.05826
G1 X134.041 Y140.265 E0.09441
G1 X134.345 Y140.593 F36000
G1 F1800
G1 X135.204 Y140.076 E0.0465
G1 X147.364 Y136.801 E0.58425
G1 X148.668 Y136.581 E0.06134
G1 X149.937 Y136.582 E0.05889
G1 X150.939 Y136.778 E0.04734
G1 X151.798 Y137.274 E0.04602
G1 X154.224 Y139.718 E0.15977
G1 X154.699 Y140.418 E0.03924
G1 X154.994 Y141.214 E0.03938
G1 X155.044 Y142.537 E0.06143
G1 X154.732 Y143.465 E0.04543
G1 X154.365 Y143.996 E0.02993
G1 X153.885 Y144.438 E0.03027
G1 X153.183 Y144.81 E0.03687
G1 X152.827 Y145.072 E0.0205
G1 X152.581 Y145.384 E0.0184
G1 X152.433 Y145.73 E0.01747
G1 X152.374 Y146.206 E0.02225
G1 X152.449 Y146.603 E0.01878
G1 X152.608 Y146.935 E0.01704
G1 X152.835 Y147.212 E0.01662
G1 X153.123 Y147.429 E0.01673
G1 X153.474 Y147.574 E0.01765
G1 X153.84 Y147.623 E0.0171
G1 X154.18 Y147.587 E0.01589
G1 X154.488 Y147.487 E0.01502
G1 X154.79 Y147.302 E0.01643
G1 X154.919 Y147.186 E0.00805
G1 X155.189 Y146.817 E0.0212
G1 X155.528 Y146.164 E0.03415
G1 X155.963 Y145.672 E0.03046
G1 X156.528 Y145.272 E0.03214
G1 X157.424 Y144.962 E0.04395
G1 X158.624 Y144.976 E0.05569
G1 X159.599 Y145.309 E0.04778
G1 X160.376 Y145.854 E0.04406
G1 X162.734 Y148.211 E0.15464
G1 X163.344 Y149.449 E0.06403
G1 X163.44 Y150.42 E0.04531
G1 X163.421 Y151.322 E0.04182
G1 X163.199 Y152.633 E0.06168
G1 X159.97 Y164.685 E0.57884
G1 X159.417 Y165.643 E0.05131
G1 X158.303 Y166.757 E0.07312
G1 X157.26 Y167.274 E0.05399
G1 X155.96 Y167.313 E0.06036
G1 X155.864 Y167.293 E0.00454
G1 X154.744 Y166.773 E0.05727
G1 X133.243 Y145.272 E1.41067
G1 X132.705 Y144.143 E0.05804
G1 X132.665 Y143.053 E0.05058
G1 X133.065 Y141.956 E0.05416
G1 X134.345 Y140.593 E0.08675
G1 X134.646 Y140.924 F36000
G1 F1800
G1 X135.405 Y140.476 E0.04087
G1 X147.47 Y137.235 E0.57957
G1 X148.688 Y137.027 E0.05731
G1 X149.877 Y137.024 E0.05518
G1 X150.751 Y137.185 E0.04123
G1 X151.503 Y137.611 E0.04007
G1 X153.868 Y139.987 E0.15557
G1 X154.29 Y140.599 E0.03447
G1 X154.563 Y141.335 E0.0364
G1 X154.596 Y142.51 E0.05453
G1 X154.347 Y143.237 E0.03565
G1 X154.012 Y143.721 E0.02731
G1 X153.607 Y144.088 E0.02538
G1 X152.947 Y144.43 E0.03449
G1 X152.513 Y144.748 E0.02493
G1 X152.194 Y145.154 E0.02396
G1 X152.003 Y145.601 E0.02254
G1 X151.93 Y146.002 E0.01893
G1 X151.927 Y146.245 E0.01127
G1 X152.022 Y146.744 E0.02354
G1 X152.228 Y147.176 E0.02223
G1 X152.523 Y147.536 E0.0216
G1 X152.9 Y147.82 E0.02186
G1 X153.358 Y148.009 E0.02299
G1 X153.833 Y148.073 E0.02226
G1 X154.274 Y148.026 E0.02055
G1 X154.677 Y147.895 E0.01965
G1 X155.059 Y147.661 E0.02078
G1 X155.252 Y147.487 E0.01208
G1 X155.57 Y147.053 E0.02493
G1 X155.911 Y146.394 E0.03443
G1 X156.277 Y145.99 E0.0253
G1 X156.758 Y145.655 E0.0272
G1 X157.461 Y145.409 E0.03455
G1 X158.517 Y145.411 E0.04901
G1 X159.37 Y145.694 E0.04169
G1 X160.075 Y146.184 E0.03982
G1 X162.393 Y148.501 E0.15203
G1 X162.904 Y149.532 E0.05342
G1 X162.994 Y150.451 E0.0428
G1 X162.975 Y151.295 E0.0392
G1 X162.766 Y152.527 E0.05797
G1 X159.547 Y164.541 E0.577
G1 X159.081 Y165.348 E0.04321
G1 X158.014 Y166.415 E0.07002
G1 X157.11 Y166.851 E0.04655
G1 X156.002 Y166.866 E0.0514
G1 X155.031 Y166.429 E0.04942
G1 X133.585 Y144.983 E1.40705
G1 X133.149 Y144.08 E0.04651
G1 X133.113 Y143.082 E0.04635
G1 X133.466 Y142.157 E0.04592
G1 X134.646 Y140.924 E0.07919
G1 X134.944 Y141.258 F36000
G1 F1800
G1 X135.603 Y140.877 E0.03529
G1 X147.576 Y137.669 E0.57504
G1 X148.708 Y137.473 E0.05333
G1 X149.822 Y137.468 E0.05166
G1 X150.568 Y137.593 E0.03512
G1 X151.209 Y137.948 E0.03397
G1 X153.512 Y140.257 E0.15131
G1 X153.906 Y140.829 E0.0322
G1 X154.13 Y141.452 E0.03072
G1 X154.149 Y142.478 E0.04761
G1 X153.961 Y143.01 E0.02619
G1 X153.693 Y143.408 E0.02226
G1 X153.329 Y143.737 E0.02274
G1 X152.725 Y144.042 E0.03138
G1 X152.447 Y144.22 E0.01535
G1 X152.202 Y144.427 E0.01488
G1 X151.987 Y144.665 E0.01487
G1 X151.801 Y144.938 E0.01534
G1 X151.573 Y145.471 E0.0269
G1 X151.484 Y145.959 E0.023
G1 X151.48 Y146.269 E0.01439
G1 X151.519 Y146.588 E0.01487
G1 X151.601 Y146.898 E0.01488
G1 X151.849 Y147.417 E0.02671
G1 X152.212 Y147.86 E0.02659
G1 X152.665 Y148.201 E0.02628
G1 X152.952 Y148.343 E0.01487
G1 X153.256 Y148.445 E0.01488
G1 X153.827 Y148.522 E0.02672
G1 X154.367 Y148.465 E0.02522
G1 X154.849 Y148.308 E0.0235
G1 X155.062 Y148.199 E0.0111
G1 X155.335 Y148.013 E0.01534
G1 X155.573 Y147.798 E0.01487
G1 X155.78 Y147.553 E0.01488
G1 X155.958 Y147.275 E0.01534
G1 X156.262 Y146.671 E0.03134
G1 X156.59 Y146.309 E0.02267
G1 X156.986 Y146.041 E0.02218
G1 X157.503 Y145.855 E0.02548
G1 X158.415 Y145.847 E0.04234
G1 X159.144 Y146.08 E0.03551
G1 X159.774 Y146.514 E0.03548
G1 X162.052 Y148.791 E0.14941
G1 X162.464 Y149.617 E0.04282
G1 X162.548 Y150.48 E0.04027
G1 X162.529 Y151.268 E0.03656
G1 X162.332 Y152.422 E0.0543
G1 X159.123 Y164.397 E0.57516
M73 P2 R35
G1 X158.745 Y165.053 E0.03511
G1 X157.724 Y166.073 E0.06696
G1 X157.048 Y166.406 E0.03498
G1 X156.134 Y166.437 E0.0424
G1 X155.317 Y166.083 E0.04131
G1 X133.927 Y144.693 E1.40339
G1 X133.594 Y144.017 E0.03498
G1 X133.561 Y143.113 E0.04198
G1 X133.863 Y142.365 E0.03743
G1 X134.944 Y141.258 E0.07178
G1 X135.242 Y141.592 F36000
G1 F1800
G1 X135.747 Y141.3 E0.02702
G1 X147.682 Y138.103 E0.57322
G1 X148.73 Y137.92 E0.04938
G1 X149.773 Y137.912 E0.04836
G1 X150.391 Y138.005 E0.02901
G1 X150.916 Y138.287 E0.02766
G1 X153.158 Y140.53 E0.14715
G1 X153.496 Y141.009 E0.02716
G1 X153.698 Y141.567 E0.02756
G1 X153.703 Y142.44 E0.04049
G1 X153.574 Y142.787 E0.01716
G1 X153.372 Y143.096 E0.01714
G1 X153.053 Y143.385 E0.01996
G1 X152.507 Y143.652 E0.0282
G1 X152.181 Y143.86 E0.01792
G1 X151.891 Y144.106 E0.01767
G1 X151.636 Y144.389 E0.01767
G1 X151.417 Y144.71 E0.01803
G1 X151.274 Y144.987 E0.01446
G1 X151.14 Y145.354 E0.01813
G1 X151.038 Y145.916 E0.0265
G1 X151.033 Y146.294 E0.01752
G1 X151.08 Y146.672 E0.01767
G1 X151.177 Y147.04 E0.01767
G1 X151.324 Y147.398 E0.01796
G1 X151.48 Y147.671 E0.01457
G1 X151.89 Y148.172 E0.03006
G1 X152.118 Y148.371 E0.01403
G1 X152.44 Y148.588 E0.018
G1 X152.781 Y148.757 E0.01767
G1 X153.142 Y148.878 E0.01767
G1 X153.521 Y148.951 E0.01789
G1 X153.836 Y148.97 E0.01466
G1 X154.461 Y148.904 E0.02913
G1 X155.021 Y148.722 E0.02734
G1 X155.29 Y148.583 E0.01404
G1 X155.611 Y148.364 E0.01803
G1 X155.894 Y148.109 E0.01767
G1 X156.14 Y147.819 E0.01767
G1 X156.348 Y147.493 E0.01792
G1 X156.615 Y146.947 E0.02818
G1 X156.902 Y146.629 E0.01989
G1 X157.21 Y146.427 E0.01708
G1 X157.55 Y146.3 E0.01683
G1 X158.318 Y146.284 E0.03568
G1 X158.921 Y146.468 E0.02921
G1 X159.473 Y146.845 E0.03101
G1 X161.711 Y149.081 E0.14679
G1 X162.024 Y149.701 E0.03221
G1 X162.103 Y150.51 E0.03771
G1 X162.083 Y151.24 E0.03388
G1 X161.898 Y152.316 E0.05065
G1 X158.7 Y164.253 E0.57333
G1 X158.408 Y164.758 E0.02702
G1 X157.434 Y165.732 E0.06395
G1 X156.976 Y165.963 E0.02377
G1 X156.257 Y166.005 E0.03342
G1 X155.601 Y165.736 E0.03288
G1 X134.268 Y144.403 E1.39967
G1 X134.037 Y143.945 E0.02377
G1 X133.995 Y143.226 E0.03342
G1 X134.215 Y142.643 E0.02889
G1 X135.242 Y141.592 E0.06821
G1 X135.537 Y141.928 F36000
G1 F1800
G1 X135.89 Y141.724 E0.01892
G1 X147.788 Y138.536 E0.57142
G1 X148.753 Y138.366 E0.04547
G1 X149.731 Y138.356 E0.04537
G1 X150.222 Y138.42 E0.02296
G1 X150.625 Y138.627 E0.02105
G1 X152.829 Y140.832 E0.14462
G1 X153.112 Y141.238 E0.02299
G1 X153.264 Y141.679 E0.02159
G1 X153.269 Y142.329 E0.03017
G1 X153.186 Y142.565 E0.01163
G1 X153.015 Y142.826 E0.01446
G1 X152.783 Y143.028 E0.01426
G1 X152.291 Y143.26 E0.02526
G1 X151.916 Y143.499 E0.02064
G1 X151.579 Y143.785 E0.02046
G1 X151.284 Y144.112 E0.02046
G1 X151.032 Y144.481 E0.02071
G1 X150.864 Y144.808 E0.01704
G1 X150.708 Y145.237 E0.02119
G1 X150.592 Y145.873 E0.02999
G1 X150.587 Y146.318 E0.02065
G1 X150.64 Y146.756 E0.02046
G1 X150.752 Y147.183 E0.02046
G1 X150.922 Y147.594 E0.02066
G1 X151.11 Y147.925 E0.01764
G1 X151.569 Y148.484 E0.03354
G1 X151.845 Y148.726 E0.01705
G1 X152.215 Y148.975 E0.02069
G1 X152.611 Y149.17 E0.02046
G1 X153.029 Y149.311 E0.02046
G1 X153.465 Y149.394 E0.02062
G1 X153.846 Y149.418 E0.0177
G1 X154.554 Y149.343 E0.03304
G1 X155.193 Y149.135 E0.03119
G1 X155.519 Y148.968 E0.01698
G1 X155.888 Y148.716 E0.02071
G1 X156.215 Y148.421 E0.02046
G1 X156.501 Y148.084 E0.02046
G1 X156.74 Y147.709 E0.02064
G1 X156.972 Y147.217 E0.02525
G1 X157.173 Y146.986 E0.01422
G1 X157.432 Y146.815 E0.01441
G1 X157.665 Y146.733 E0.01145
G1 X158.222 Y146.721 E0.02584
G1 X158.757 Y146.885 E0.02594
G1 X159.171 Y147.174 E0.02347
G1 X161.371 Y149.372 E0.14426
G1 X161.584 Y149.787 E0.02161
G1 X161.657 Y150.54 E0.03509
G1 X161.637 Y151.211 E0.03117
G1 X161.464 Y152.21 E0.04705
G1 X158.276 Y164.11 E0.57151
G1 X158.072 Y164.463 E0.01892
G1 X157.145 Y165.39 E0.06081
G1 X156.827 Y165.54 E0.01634
G1 X156.29 Y165.557 E0.02491
G1 X155.886 Y165.39 E0.02032
G1 X134.61 Y144.114 E1.39585
G1 X134.46 Y143.796 E0.01634
G1 X134.443 Y143.259 E0.02491
G1 X134.61 Y142.855 E0.02032
G1 X135.537 Y141.928 E0.06081
G1 X135.832 Y142.264 F36000
G1 F1800
G1 X136.034 Y142.148 E0.01082
G1 X147.894 Y138.97 E0.56962
G1 X148.776 Y138.812 E0.04158
G1 X149.698 Y138.802 E0.04276
G1 X150.064 Y138.839 E0.01706
G1 X150.336 Y138.969 E0.01402
G1 X152.499 Y141.133 E0.1419
G1 X152.726 Y141.464 E0.01864
G1 X152.829 Y141.783 E0.01554
G1 X152.832 Y142.229 E0.02068
G1 X152.795 Y142.347 E0.00574
G1 X152.658 Y142.556 E0.0116
G1 X152.565 Y142.637 E0.00574
G1 X152.075 Y142.869 E0.02515
G1 X151.65 Y143.139 E0.02336
G1 X151.268 Y143.463 E0.02326
G1 X150.932 Y143.836 E0.02326
G1 X150.648 Y144.252 E0.0234
G1 X150.455 Y144.629 E0.01963
G1 X150.28 Y145.108 E0.02367
G1 X150.207 Y145.413 E0.01454
