; generated by SuperSlicer 2.5.59 on 2022-09-07 at 01:24:43 UTC


;
;

;
;
; 

; external perimeters extrusion width = 0.50mm
; perimeters extrusion width = 0.50mm
; infill extrusion width = 0.50mm
; solid infill extrusion width = 0.56mm
; top infill extrusion width = 0.40mm

; object:{"name":"z_tops","id":"z_tops.stl id:0 copy 0","object_center":[150.000000,150.000000,0.000000],"boundingbox_center":[150.000000,150.000000,9.000000],"boundingbox_size":[82.003313,82.003313,18.000000]}
; plater:{"center":[150.000000,150.000000,0.000000],"boundingbox_center":[150.000000,150.000000,9.000000],"boundingbox_size":[82.003313,82.003313,18.000000]}

M73 P0 R57
;TYPE:Custom
; custom gcode: start_gcode
PRINT_START EXTRUDER=250 BED=110 AREA_START=109.378,109.536 AREA_END=190.464,190.622
; custom gcode end: start_gcode
M107
G21 ; set units to millimeters
G90 ; use absolute coordinates
M83 ; use relative distances for extrusion
; custom gcode: start_filament_gcode
; Filament gcode
SET_PRESSURE_ADVANCE ADVANCE=0.03
SET_PRESSURE_ADVANCE EXTRUDER=extruder SMOOTH_TIME=0.04
; custom gcode end: start_filament_gcode
;_TOOLCHANGE 0
M104 S250 ; set temperature
M109 S250 ; set temperature and wait for it to be reached
M190 S110 ; set bed temperature and wait for it to be reached
;LAYER_CHANGE
;Z:0.24
;HEIGHT:0.24
G1 Z0.24 F36000
G92 E0
G1 E-0.5 F1800
; printing object z_tops.stl id:0 copy 0
M204 S2000
G1 X162.57 Y175.33 F36000
G1 E0.5 F1800
;TYPE:Internal perimeter
;WIDTH:0.5
G1 X169.107 Y168.792 E0.41374
G1 X166.715 Y159.862 E0.41374
G1 X157.784 Y157.469 E0.41374
G1 X157.112 Y158.141 E0.04254
G1 X151.247 Y164.007 E0.3712
G1 X153.64 Y172.937 E0.41374
G1 X162.57 Y175.33 E0.41374
M204 S1500
G1 X162.436 Y174.83 F36000
;TYPE:External perimeter
G1 F1800
G1 X168.607 Y168.658 E0.39056
G1 X166.348 Y160.228 E0.39056
G1 X157.918 Y157.97 E0.39056
G1 X157.429 Y158.459 E0.03095
G1 X151.747 Y164.141 E0.35961
G1 X154.006 Y172.571 E0.39056
G1 X162.436 Y174.83 E0.39056
;WIPE_START
M204 S4000
G1 X162.764 Y175.059 F36000
;WIPE_END
G1 E-0.5 F1800
; acceleration to travel
M204 S10000
G1 X147.659 Y174.921 F36000
; decel to extrusion
M204 S2000
G1 X144.638 Y174.893
; end travel
G1 E0.5 F1800
;TYPE:Internal perimeter
G1 X145.35 Y174.826 E0.03201
G1 X145.84 Y174.715 E0.02247
G1 X146.595 Y174.444 E0.03592
G1 X147.347 Y174.021 E0.03861
G1 X147.992 Y173.499 E0.03713
G1 X148.339 Y173.136 E0.02246
G1 X148.817 Y172.491 E0.03592
G1 X149.21 Y171.723 E0.03861
G1 X149.458 Y170.931 E0.03713
G1 X149.545 Y170.437 E0.02246
G1 X149.587 Y169.635 E0.03592
G1 X149.489 Y168.778 E0.03862
G1 X149.257 Y167.982 E0.03713
G1 X149.057 Y167.521 E0.02246
G1 X148.648 Y166.831 E0.03592
G1 X148.092 Y166.171 E0.03862
G1 X147.432 Y165.615 E0.03862
G1 X146.741 Y165.206 E0.03592
G1 X146.281 Y165.005 E0.02246
G1 X145.519 Y164.783 E0.03551
G1 X145.023 Y164.705 E0.02249
G1 X144.22 Y164.679 E0.03592
G1 X143.795 Y164.737 E0.01921
G1 X143.366 Y164.794 E0.01937
G1 X142.539 Y165.052 E0.03875
G1 X141.771 Y165.445 E0.03861
G1 X141.127 Y165.924 E0.03592
G1 X140.764 Y166.271 E0.02247
G1 X140.241 Y166.915 E0.03713
G1 X139.819 Y167.667 E0.03861
G1 X139.547 Y168.423 E0.03592
G1 X139.437 Y168.912 E0.02247
G1 X139.358 Y169.738 E0.03713
G1 X139.423 Y170.599 E0.03861
G1 X139.615 Y171.378 E0.03592
G1 X139.794 Y171.847 E0.02247
G1 X140.186 Y172.578 E0.03713
G1 X140.716 Y173.259 E0.0386
G1 X141.307 Y173.802 E0.03592
G1 X141.716 Y174.094 E0.02248
G1 X142.415 Y174.469 E0.03551
G1 X142.884 Y174.648 E0.02247
G1 X143.664 Y174.839 E0.03592
G1 X144.524 Y174.904 E0.03861
G1 X144.638 Y174.893 E0.00512
G1 X144.596 Y174.447 F36000
G1 F1800
G1 X145.279 Y174.382 E0.03073
G1 X145.714 Y174.284 E0.01994
G1 X146.408 Y174.034 E0.03301
G1 X147.095 Y173.649 E0.03523
G1 X147.687 Y173.168 E0.03415
G1 X147.995 Y172.846 E0.01994
G1 X148.435 Y172.254 E0.03301
G1 X148.793 Y171.553 E0.03524
G1 X149.021 Y170.825 E0.03414
G1 X149.099 Y170.386 E0.01994
G1 X149.137 Y169.649 E0.03301
G1 X149.048 Y168.867 E0.03524
G1 X148.834 Y168.134 E0.03415
G1 X148.656 Y167.726 E0.01994
G1 X148.281 Y167.091 E0.03301
G1 X147.773 Y166.489 E0.03524
G1 X147.171 Y165.982 E0.03524
G1 X146.536 Y165.606 E0.03301
G1 X146.128 Y165.428 E0.01994
G1 X145.421 Y165.222 E0.03296
G1 X144.98 Y165.153 E0.01996
G1 X144.243 Y165.129 E0.03301
G1 X143.855 Y165.181 E0.01755
G1 X143.463 Y165.234 E0.01767
G1 X142.71 Y165.469 E0.03534
G1 X142.009 Y165.828 E0.03524
G1 X141.416 Y166.267 E0.03301
G1 X141.094 Y166.575 E0.01994
G1 X140.614 Y167.168 E0.03415
G1 X140.228 Y167.854 E0.03523
G1 X139.979 Y168.548 E0.03301
G1 X139.881 Y168.983 E0.01994
G1 X139.808 Y169.743 E0.03415
G1 X139.868 Y170.528 E0.03523
G1 X140.044 Y171.244 E0.03301
G1 X140.203 Y171.66 E0.01995
G1 X140.563 Y172.333 E0.03415
G1 X141.047 Y172.954 E0.03523
G1 X141.59 Y173.453 E0.03301
G1 X141.953 Y173.712 E0.01995
G1 X142.602 Y174.06 E0.03296
G1 X143.018 Y174.219 E0.01995
G1 X143.735 Y174.395 E0.03301
G1 X144.52 Y174.454 E0.03523
G1 X144.596 Y174.447 E0.00341
G1 X144.553 Y174 F36000
G1 F1800
G1 X145.209 Y173.938 E0.02945
G1 X145.588 Y173.853 E0.01742
G1 X146.221 Y173.625 E0.03009
G1 X146.842 Y173.276 E0.03186
G1 X147.383 Y172.838 E0.03116
G1 X147.652 Y172.556 E0.01742
G1 X148.053 Y172.016 E0.03009
G1 X148.377 Y171.383 E0.03186
G1 X148.584 Y170.718 E0.03116
G1 X148.653 Y170.335 E0.01742
G1 X148.688 Y169.663 E0.03009
G1 X148.607 Y168.956 E0.03186
G1 X148.412 Y168.287 E0.03116
G1 X148.256 Y167.931 E0.01742
G1 X147.914 Y167.352 E0.03009
G1 X147.455 Y166.808 E0.03186
G1 X146.911 Y166.349 E0.03186
G1 X146.332 Y166.006 E0.03009
G1 X145.975 Y165.851 E0.01742
G1 X145.323 Y165.661 E0.0304
G1 X144.938 Y165.6 E0.01743
G1 X144.266 Y165.578 E0.03009
G1 X143.914 Y165.626 E0.01589
G1 X143.561 Y165.673 E0.01596
G1 X142.88 Y165.886 E0.03192
G1 X142.246 Y166.21 E0.03186
G1 X141.706 Y166.611 E0.03009
G1 X141.425 Y166.88 E0.01742
G1 X140.986 Y167.421 E0.03116
G1 X140.638 Y168.041 E0.03186
G1 X140.41 Y168.674 E0.03009
G1 X140.324 Y169.054 E0.01742
G1 X140.259 Y169.747 E0.03116
G1 X140.312 Y170.457 E0.03186
G1 X140.473 Y171.11 E0.03009
G1 X140.611 Y171.474 E0.01743
G1 X140.94 Y172.087 E0.03116
G1 X141.378 Y172.649 E0.03185
G1 X141.873 Y173.104 E0.03009
G1 X142.19 Y173.33 E0.01743
G1 X142.789 Y173.651 E0.0304
G1 X143.152 Y173.79 E0.01743
G1 X143.806 Y173.95 E0.03009
G1 X144.515 Y174.004 E0.03186
G1 X144.553 Y174 E0.00171
M204 S1500
G1 X144.511 Y173.554 F36000
;TYPE:External perimeter
G1 F1800
G1 X145.138 Y173.494 E0.02817
G1 X145.463 Y173.421 E0.0149
G1 X146.034 Y173.215 E0.02718
G1 X146.589 Y172.904 E0.02848
G1 X147.078 Y172.507 E0.02818
G1 X147.308 Y172.267 E0.0149
G1 X147.67 Y171.779 E0.02718
G1 X147.96 Y171.212 E0.02848
G1 X148.148 Y170.611 E0.02817
G1 X148.206 Y170.284 E0.0149
G1 X148.238 Y169.677 E0.02718
G1 X148.165 Y169.045 E0.02848
G1 X147.989 Y168.44 E0.02817
G1 X147.856 Y168.135 E0.0149
G1 X147.547 Y167.612 E0.02718
G1 X147.137 Y167.126 E0.02848
G1 X146.65 Y166.716 E0.02848
G1 X146.127 Y166.406 E0.02718
G1 X145.822 Y166.273 E0.0149
G1 X145.225 Y166.099 E0.02784
G1 X144.896 Y166.047 E0.01491
G1 X144.289 Y166.028 E0.02718
G1 X143.974 Y166.07 E0.01422
G1 X143.658 Y166.112 E0.01425
G1 X143.05 Y166.303 E0.02851
G1 X142.483 Y166.592 E0.02848
G1 X141.996 Y166.954 E0.02718
G1 X141.755 Y167.184 E0.0149
G1 X141.359 Y167.673 E0.02818
G1 X141.047 Y168.228 E0.02848
G1 X140.841 Y168.8 E0.02718
G1 X140.768 Y169.125 E0.0149
G1 X140.709 Y169.752 E0.02818
G1 X140.756 Y170.386 E0.02848
G1 X140.901 Y170.976 E0.02718
G1 X141.02 Y171.287 E0.0149
G1 X141.318 Y171.842 E0.02818
G1 X141.709 Y172.344 E0.02848
G1 X142.156 Y172.755 E0.02718
G1 X142.427 Y172.948 E0.0149
G1 X142.975 Y173.242 E0.02784
G1 X143.287 Y173.361 E0.0149
G1 X143.876 Y173.506 E0.02718
G1 X144.511 Y173.554 E0.02848
;WIPE_START
M204 S4000
G1 X144.724 Y173.892 F36000
;WIPE_END
G1 E-0.5 F1800
; acceleration to travel
M204 S10000
G1 X159.819 Y175.924 F36000
; decel to extrusion
M204 S2000
G1 X162.838 Y176.33
; end travel
G1 E0.5 F1800
;TYPE:Internal perimeter
G1 X170.108 Y169.061 E0.46009
G1 X167.447 Y159.13 E0.46009
G1 X157.516 Y156.469 E0.46009
G1 X150.246 Y163.739 E0.46009
G1 X152.907 Y173.669 E0.46009
G1 X154.905 Y174.205 E0.09256
G1 X154.892 Y174.493 E0.0129
G1 X154.728 Y174.521 E0.00745
G1 X153.826 Y174.803 E0.04228
G1 X153.316 Y175.019 E0.02478
G1 X152.511 Y175.458 E0.04107
G1 X152.053 Y175.77 E0.02478
G1 X151.348 Y176.358 E0.04107
G1 X150.96 Y176.752 E0.02478
G1 X150.384 Y177.466 E0.04107
G1 X150.08 Y177.929 E0.02478
G1 X149.654 Y178.742 E0.04107
G1 X149.446 Y179.255 E0.02478
G1 X149.187 Y180.136 E0.04107
G1 X149.083 Y180.68 E0.02478
G1 X149.001 Y181.594 E0.04107
G1 X149.005 Y182.147 E0.02478
G1 X149.103 Y183.06 E0.04107
G1 X149.215 Y183.602 E0.02478
G1 X149.431 Y184.293 E0.03242
G1 X149.19 Y184.439 E0.01258
G1 X137.551 Y172.799 E0.73666
G1 X137.551 Y168.779 E0.17991
G1 X157.405 Y148.924 E1.25654
G1 X162.253 Y148.924 E0.21694
G1 X167.154 Y153.826 E0.31022
G1 X168.144 Y152.836 E0.06265
G1 X171.326 Y156.018 E0.20134
G1 X170.336 Y157.008 E0.06265
G1 X177.015 Y163.687 E0.42271
G1 X181.297 Y167.968 E0.27097
G1 X182.287 Y166.978 E0.06265
G1 X185.468 Y170.16 E0.20134
G1 X184.478 Y171.15 E0.06265
G1 X187.505 Y174.177 E0.19159
G1 X182.062 Y174.177 E0.2436
G1 X179.728 Y171.843 E0.14768
G1 X174.981 Y171.843 E0.21247
M73 P1 R57
G1 X163.909 Y182.915 E0.70071
G1 X163.989 Y182.025 E0.04001
G1 X163.985 Y181.471 E0.02478
G1 X163.887 Y180.559 E0.04107
G1 X163.775 Y180.017 E0.02478
G1 X163.501 Y179.141 E0.04107
G1 X163.285 Y178.631 E0.02478
G1 X162.846 Y177.825 E0.04107
G1 X162.535 Y177.367 E0.02478
G1 X161.947 Y176.663 E0.04107
G1 X161.536 Y176.258 E0.02581
G1 X161.673 Y176.018 E0.01237
G1 X162.838 Y176.33 E0.05398
G1 X162.704 Y175.83 F36000
G1 F1800
G1 X169.608 Y168.927 E0.43691
G1 X167.081 Y159.496 E0.43691
G1 X157.65 Y156.969 E0.43691
G1 X156.795 Y157.824 E0.05413
G1 X150.747 Y163.873 E0.38279
G1 X153.273 Y173.303 E0.43691
G1 X158.053 Y174.584 E0.22143
G1 X157.976 Y174.921 E0.01548
G1 X157.582 Y174.846 E0.01794
G1 X157.104 Y174.787 E0.02156
G1 X156.231 Y174.766 E0.03907
G1 X155.722 Y174.803 E0.02282
G1 X154.834 Y174.958 E0.04036
G1 X153.981 Y175.225 E0.03999
G1 X153.512 Y175.423 E0.02281
G1 X152.745 Y175.842 E0.0391
G1 X152.323 Y176.128 E0.02281
G1 X151.652 Y176.688 E0.0391
G1 X151.295 Y177.051 E0.02281
G1 X150.746 Y177.731 E0.0391
G1 X150.467 Y178.157 E0.02281
G1 X150.061 Y178.931 E0.03909
G1 X149.87 Y179.403 E0.02281
G1 X149.623 Y180.241 E0.0391
G1 X149.528 Y180.742 E0.02281
G1 X149.449 Y181.612 E0.03909
G1 X149.453 Y182.122 E0.02281
G1 X149.546 Y182.99 E0.0391
G1 X149.65 Y183.489 E0.02281
G1 X149.91 Y184.323 E0.0391
G1 X150.109 Y184.792 E0.02281
G1 X150.527 Y185.56 E0.0391
G1 X150.814 Y185.981 E0.02281
G1 X151.373 Y186.652 E0.03909
G1 X151.737 Y187.009 E0.02281
G1 X152.417 Y187.558 E0.03909
G1 X152.843 Y187.838 E0.02281
G1 X153.616 Y188.243 E0.03909
G1 X154.089 Y188.434 E0.02281
G1 X154.927 Y188.681 E0.03909
G1 X155.427 Y188.776 E0.02281
G1 X156.298 Y188.855 E0.03909
G1 X156.807 Y188.851 E0.02281
G1 X157.676 Y188.758 E0.0391
G1 X158.175 Y188.654 E0.02281
G1 X158.528 Y188.544 E0.01656
G1 X158.674 Y188.785 E0.01258
G1 X157.984 Y189.475 E0.04366
G1 X153.592 Y189.475 E0.19654
G1 X137.102 Y172.985 E1.0436
G1 X137.102 Y168.593 E0.19654
G1 X157.219 Y148.476 E1.27316
G1 X162.438 Y148.476 E0.23357
M73 P1 R56
G1 X167.154 Y153.192 E0.29847
G1 X167.946 Y152.4 E0.0501
G1 X168.343 Y152.4 E0.01775
G1 X171.762 Y155.819 E0.21637
G1 X171.762 Y156.216 E0.01775
G1 X170.97 Y157.007 E0.0501
G1 X177.332 Y163.37 E0.40264
G1 X181.297 Y167.334 E0.2509
G1 X182.096 Y166.535 E0.05058
G1 X182.481 Y166.538 E0.01722
G1 X185.904 Y169.961 E0.21665
G1 X185.904 Y170.358 E0.01775
G1 X185.112 Y171.15 E0.0501
G1 X188.588 Y174.625 E0.21997
G1 X181.876 Y174.625 E0.30036
G1 X179.543 Y172.292 E0.14768
G1 X175.166 Y172.292 E0.19584
G1 X163.468 Y183.991 E0.74039
G1 X163.228 Y183.848 E0.01248
G1 X163.366 Y183.377 E0.02198
G1 X163.462 Y182.877 E0.02281
G1 X163.54 Y182.007 E0.03909
G1 X163.536 Y181.497 E0.02281
G1 X163.443 Y180.628 E0.0391
G1 X163.34 Y180.129 E0.02281
G1 X163.08 Y179.295 E0.03909
G1 X162.881 Y178.826 E0.02281
G1 X162.463 Y178.059 E0.03909
G1 X162.176 Y177.638 E0.02281
G1 X161.616 Y176.967 E0.0391
G1 X161.253 Y176.609 E0.02281
G1 X160.573 Y176.061 E0.0391
G1 X160.147 Y175.781 E0.02281
G1 X159.373 Y175.376 E0.0391
G1 X158.901 Y175.184 E0.02281
G1 X158.663 Y175.114 E0.01111
G1 X158.759 Y174.773 E0.01586
G1 X162.704 Y175.83 E0.18279
G1 E-0.5
; acceleration to travel
M204 S10000
G1 X157.362 Y186.308 F36000
; decel to extrusion
M204 S2000
G1 X156.294 Y188.404
; end travel
G1 E0.5 F1800
G1 X156.316 Y188.406 E0.00098
G1 X156.781 Y188.402 E0.02084
G1 X157.606 Y188.314 E0.03712
G1 X158.062 Y188.22 E0.02083
G1 X158.854 Y187.972 E0.03712
G1 X159.283 Y187.791 E0.02084
G1 X160.011 Y187.394 E0.03712
G1 X160.396 Y187.132 E0.02083
G1 X160.879 Y186.729 E0.02815
G1 X161.11 Y186.982 E0.01535
G1 X158.169 Y189.923 E0.18613
G1 X153.406 Y189.923 E0.21317
G1 X136.654 Y173.171 E1.06023
G1 X136.654 Y168.407 E0.21317
G1 X157.033 Y148.027 E1.28979
G1 X162.624 Y148.027 E0.2502
G1 X167.154 Y152.558 E0.28671
G1 X167.76 Y151.952 E0.03834
G1 X168.529 Y151.952 E0.03438
G1 X172.21 Y155.633 E0.233
G1 X172.21 Y156.402 E0.03438
G1 X171.604 Y157.007 E0.03834
G1 X177.649 Y163.052 E0.38257
G1 X181.297 Y166.7 E0.23083
G1 X181.912 Y166.085 E0.03892
G1 X182.668 Y166.091 E0.03384
G1 X186.352 Y169.776 E0.23318
G1 X186.352 Y170.544 E0.03438
G1 X185.746 Y171.15 E0.03834
G1 X189.476 Y174.88 E0.23606
G1 X189.282 Y175.074 E0.0123
G1 X181.69 Y175.074 E0.33974
G1 X179.357 Y172.74 E0.14768
G1 X175.352 Y172.74 E0.17922
G1 X161.68 Y186.413 E0.86531
G1 X161.427 Y186.186 E0.01522
G1 X161.881 Y185.623 E0.03235
G1 X162.136 Y185.234 E0.02084
G1 X162.521 Y184.499 E0.03712
G1 X162.696 Y184.067 E0.02084
G1 X162.93 Y183.272 E0.03712
G1 X163.017 Y182.814 E0.02084
G1 X163.092 Y181.988 E0.03712
G1 X163.088 Y181.523 E0.02084
G1 X163 Y180.698 E0.03712
G1 X162.905 Y180.242 E0.02084
G1 X162.658 Y179.45 E0.03712
G1 X162.476 Y179.021 E0.02083
G1 X162.079 Y178.293 E0.03712
G1 X161.818 Y177.908 E0.02083
G1 X161.286 Y177.271 E0.03712
G1 X160.954 Y176.945 E0.02084
G1 X160.309 Y176.424 E0.03712
G1 X159.919 Y176.168 E0.02083
G1 X159.185 Y175.783 E0.03712
G1 X158.753 Y175.608 E0.02084
G1 X157.957 Y175.374 E0.03712
G1 X157.513 Y175.289 E0.02026
G1 X157.071 Y175.235 E0.01991
G1 X156.242 Y175.215 E0.03711
G1 X155.777 Y175.249 E0.02085
G1 X154.94 Y175.395 E0.03805
G1 X154.136 Y175.646 E0.0377
G1 X153.707 Y175.828 E0.02084
G1 X152.979 Y176.225 E0.03712
G1 X152.594 Y176.487 E0.02083
G1 X151.957 Y177.018 E0.03712
G1 X151.63 Y177.35 E0.02083
G1 X151.109 Y177.995 E0.03712
G1 X150.854 Y178.385 E0.02084
G1 X150.469 Y179.119 E0.03712
G1 X150.294 Y179.551 E0.02084
G1 X150.06 Y180.347 E0.03712
G1 X149.972 Y180.804 E0.02083
G1 X149.898 Y181.63 E0.03712
G1 X149.902 Y182.096 E0.02084
G1 X149.99 Y182.921 E0.03712
G1 X150.084 Y183.377 E0.02083
G1 X150.332 Y184.168 E0.03712
G1 X150.513 Y184.597 E0.02084
G1 X150.91 Y185.326 E0.03712
G1 X151.172 Y185.711 E0.02083
G1 X151.704 Y186.347 E0.03712
G1 X152.036 Y186.674 E0.02084
G1 X152.681 Y187.195 E0.03712
G1 X153.07 Y187.45 E0.02084
G1 X153.805 Y187.835 E0.03712
G1 X154.237 Y188.01 E0.02084
G1 X155.032 Y188.244 E0.03712
G1 X155.49 Y188.332 E0.02084
G1 X156.294 Y188.404 E0.03614
M204 S1500
G1 X156.334 Y187.957 F36000
;TYPE:External perimeter
G1 F1800
G1 X156.756 Y187.954 E0.01886
G1 X157.537 Y187.871 E0.03515
G1 X157.95 Y187.785 E0.01886
G1 X158.699 Y187.551 E0.03515
G1 X159.087 Y187.386 E0.01886
G1 X159.777 Y187.01 E0.03515
G1 X160.126 Y186.774 E0.01886
G1 X160.729 Y186.27 E0.03515
G1 X161.024 Y185.97 E0.01886
G1 X161.518 Y185.359 E0.03515
G1 X161.749 Y185.006 E0.01886
G1 X162.114 Y184.31 E0.03515
G1 X162.272 Y183.92 E0.01886
G1 X162.494 Y183.166 E0.03515
G1 X162.573 Y182.752 E0.01886
G1 X162.643 Y181.97 E0.03515
G1 X162.64 Y181.548 E0.01886
G1 X162.556 Y180.767 E0.03515
G1 X162.471 Y180.355 E0.01886
G1 X162.236 Y179.605 E0.03515
G1 X162.072 Y179.217 E0.01886
G1 X161.696 Y178.527 E0.03515
G1 X161.459 Y178.178 E0.01886
G1 X160.956 Y177.575 E0.03515
