; generated by SuperSlicer 2.3.57 on 2022-01-30 at 06:53:09 UTC


;
;

;
;
; TODO: check the size of the extruder and the y-bar clearance. Optimize & test supports.

; external perimeters extrusion width = 0.42mm
; perimeters extrusion width = 0.46mm
; infill extrusion width = 0.44mm
; solid infill extrusion width = 0.46mm
; top infill extrusion width = 0.44mm
; first layer extrusion width = 0.56mm

; object:{"name":"3DBenchy (3)","id":"3DBenchy (3).stl id:0 copy 0","object_center":[59.000000,59.500000,0.000000],"boundingbox_center":[59.000000,59.500000,24.000000],"boundingbox_size":[60.000999,31.004000,48.000000]}
; plater:{"center":[59.000000,59.500000,0.000000],"boundingbox_center":[59.000000,59.500000,24.000000],"boundingbox_size":[60.000999,31.004000,48.000000]}

M73 P0 R70
;TYPE:Custom
; custom gcode: start_gcode
; M190 S0
; M109 S0 ; uncomment to remove set&wait temp gcode added automatically after this start gcode
print_start EXTRUDER=215 BED=55 CHAMBER=15
; custom gcode end: start_gcode
G21 ; set units to millimeters
G90 ; use absolute coordinates
M83 ; use relative distances for extrusion
M104 S215 ; set temperature
M109 S215 ; set temperature and wait for it to be reached
M190 S55 ; set bed temperature and wait for it to be reached
;LAYER_CHANGE
;Z:0.2375
;HEIGHT:0.2375
; custom gcode: before_layer_gcode
;BEFORE_LAYER_CHANGE
;0.2375

; custom gcode end: before_layer_gcode

G1 Z0.2375 F18000
; custom gcode: layer_gcode
;AFTER_LAYER_CHANGE
;0.2375
; custom gcode end: layer_gcode

G1 E-0.4 F3000
G1 Z0.4375 F18000
G1 X31.179 Y49.478
G1 Z0.2375
G1 E0.4 F1800
; custom gcode: feature_gcode
; External perimeter
;;Skirt
;SET_VELOCITY_LIMIT ACCEL=7000 ACCEL_TO_DECEL=7000 SQUARE_CORNER_VELOCITY=8

; Support material
;
; custom gcode end: feature_gcode

;TYPE:Skirt
;WIDTH:0.52
G1 X30.118 Y50.45 E0.06665
G1 X29.393 Y51.481 E0.05836
G1 X28.829 Y52.841 E0.0682
G1 X28.595 Y54.179 E0.06288
G1 X28.479 Y58.507 E0.20052
G1 X28.599 Y64.87 E0.29476
G1 X28.914 Y66.416 E0.07306
G1 X29.272 Y67.292 E0.04386
G1 X29.765 Y68.105 E0.04402
G1 X30.682 Y69.123 E0.06344
G1 X31.649 Y69.829 E0.05546
G1 X32.908 Y70.394 E0.06389
G1 X34.133 Y70.656 E0.05805
G1 X58.805 Y72.15 E1.14468
G1 X60.142 Y72.121 E0.06197
G1 X62.253 Y71.886 E0.09834
G1 X64.85 Y71.268 E0.12367
G1 X66.937 Y70.481 E0.10327
G1 X68.154 Y69.891 E0.06263
G1 X69.809 Y68.907 E0.08917
G1 X70.694 Y68.284 E0.05015
G1 X72.306 Y67.074 E0.09334
G1 X73.858 Y65.471 E0.1033
G1 X74.51 Y64.625 E0.04946
G1 X76.135 Y61.964 E0.14442
G1 X76.558 Y60.69 E0.06218
G1 X76.679 Y59.338 E0.06284
G1 X76.487 Y58.009 E0.0622
G1 X75.995 Y56.755 E0.06239
G1 X74.59 Y54.597 E0.11924
G1 X72.945 Y52.684 E0.11685
G1 X71.01 Y50.956 E0.12013
G1 X68.857 Y49.499 E0.12044
G1 X66.521 Y48.338 E0.12078
G1 X64.08 Y47.509 E0.11939
G1 X61.56 Y47.01 E0.11898
G1 X59.07 Y46.848 E0.11556
G1 X34.339 Y48.32 E1.14739
G1 X32.824 Y48.638 E0.07168
G1 X31.983 Y48.987 E0.04219
G1 X31.23 Y49.447 E0.04084
G1 X31.497 Y49.826 F18000
G1 F1800
G1 X30.487 Y50.741 E0.06311
G1 X29.813 Y51.689 E0.05385
G1 X29.28 Y52.969 E0.06421
G1 X29.063 Y54.208 E0.05827
G1 X28.948 Y58.506 E0.19915
G1 X29.064 Y64.805 E0.29177
G1 X29.343 Y66.225 E0.06702
G1 X29.674 Y67.049 E0.04113
G1 X30.114 Y67.788 E0.03984
G1 X30.981 Y68.761 E0.06031
G1 X31.876 Y69.419 E0.05145
G1 X33.062 Y69.951 E0.0602
G1 X34.216 Y70.195 E0.05462
G1 X58.761 Y71.681 E1.13886
G1 X61.288 Y71.55 E0.11719
G1 X63.399 Y71.178 E0.09924
G1 X64.611 Y70.852 E0.05814
G1 X66.955 Y69.96 E0.11616
G1 X68.659 Y69.073 E0.08897
G1 X69.736 Y68.392 E0.05902
G1 X71.925 Y66.784 E0.12577
G1 X73.42 Y65.258 E0.09894
G1 X74.092 Y64.409 E0.05012
G1 X75.617 Y61.957 E0.13375
G1 X76.07 Y60.723 E0.06089
G1 X76.212 Y59.484 E0.05773
G1 X76.058 Y58.224 E0.05882
G1 X75.638 Y57.082 E0.05635
G1 X74.226 Y54.893 E0.12061
G1 X72.623 Y53.025 E0.11403
G1 X70.725 Y51.328 E0.11787
G1 X68.632 Y49.91 E0.11712
G1 X66.345 Y48.772 E0.1183
G1 X63.957 Y47.961 E0.11678
G1 X61.501 Y47.474 E0.11597
G1 X59.072 Y47.317 E0.11273
G1 X34.397 Y48.785 E1.14475
G1 X33.007 Y49.07 E0.06573
G1 X32.224 Y49.39 E0.0392
G1 X31.549 Y49.796 E0.03647
G1 X31.803 Y50.184 F18000
G1 F1800
G1 X30.845 Y51.044 E0.05962
G1 X30.228 Y51.906 E0.04912
G1 X29.731 Y53.095 E0.05965
G1 X29.53 Y54.242 E0.05392
G1 X29.416 Y58.506 E0.19755
G1 X29.529 Y64.747 E0.2891
G1 X29.777 Y66.047 E0.06128
G1 X30.083 Y66.817 E0.03839
G1 X30.47 Y67.479 E0.03553
G1 X31.284 Y68.403 E0.05699
G1 X32.107 Y69.011 E0.04742
G1 X33.213 Y69.508 E0.05615
G1 X34.29 Y69.732 E0.05095
G1 X58.771 Y71.213 E1.13583
G1 X61.222 Y71.086 E0.1137
G1 X63.303 Y70.719 E0.09784
G1 X64.473 Y70.404 E0.05613
G1 X66.746 Y69.541 E0.11261
G1 X67.854 Y68.989 E0.05732
G1 X69.426 Y68.037 E0.08512
G1 X71.539 Y66.495 E0.12114
G1 X72.49 Y65.58 E0.06112
G1 X73.64 Y64.239 E0.08182
G1 X75.179 Y61.783 E0.13419
G1 X75.611 Y60.631 E0.057
G1 X75.744 Y59.493 E0.05307
G1 X75.602 Y58.332 E0.05417
G1 X75.212 Y57.279 E0.05197
G1 X73.847 Y55.168 E0.11642
G1 X72.283 Y53.347 E0.11121
G1 X70.437 Y51.697 E0.11466
G1 X68.389 Y50.311 E0.11451
G1 X66.164 Y49.204 E0.1151
G1 X63.834 Y48.414 E0.11393
G1 X61.437 Y47.939 E0.11321
G1 X59.073 Y47.785 E0.10969
G1 X34.45 Y49.25 E1.14237
G1 X33.188 Y49.503 E0.05964
G1 X32.458 Y49.797 E0.03643
G1 X31.855 Y50.154 E0.03244
G1 X32.102 Y50.547 F18000
G1 F1800
G1 X31.359 Y51.176 E0.0451
G1 X30.641 Y52.129 E0.05524
G1 X30.179 Y53.233 E0.05543
G1 X29.997 Y54.284 E0.0494
G1 X29.885 Y58.509 E0.19576
G1 X29.995 Y64.691 E0.28631
G1 X30.213 Y65.875 E0.05578
G1 X30.494 Y66.591 E0.03563
G1 X30.834 Y67.182 E0.03157
G1 X31.44 Y67.907 E0.04376
G1 X32.342 Y68.606 E0.05286
G1 X33.366 Y69.065 E0.05197
G1 X34.367 Y69.27 E0.04728
G1 X58.784 Y70.745 E1.13288
G1 X61.157 Y70.622 E0.11004
G1 X63.206 Y70.261 E0.09639
G1 X64.335 Y69.956 E0.05416
G1 X66.542 Y69.119 E0.10929
G1 X67.621 Y68.583 E0.0558
G1 X69.128 Y67.673 E0.08155
G1 X71.242 Y66.133 E0.12113
G1 X72.142 Y65.266 E0.05786
G1 X73.255 Y63.973 E0.07902
G1 X74.746 Y61.598 E0.12987
G1 X75.152 Y60.534 E0.05272
G1 X75.275 Y59.497 E0.04836
G1 X75.145 Y58.437 E0.04947
G1 X74.787 Y57.476 E0.04753
G1 X73.469 Y55.445 E0.11211
G1 X71.947 Y53.674 E0.10817
G1 X70.149 Y52.067 E0.11169
G1 X68.152 Y50.715 E0.11167
G1 X65.984 Y49.637 E0.11214
G1 X63.712 Y48.866 E0.11108
G1 X61.378 Y48.403 E0.11023
G1 X59.07 Y48.254 E0.10709
G1 X34.503 Y49.716 E1.13981
G1 X33.361 Y49.939 E0.05385
G1 X32.686 Y50.207 E0.03365
G1 X32.154 Y50.517 E0.02852
; INIT printing object 3DBenchy (3).stl id:0 copy 0
G1 E-0.4 F3000
G1 Z0.4375 F18000
; printing object 3DBenchy (3).stl id:0 copy 0
G1 X46.939 Y54.008
G1 Z0.2375
G1 E0.4 F1800
; custom gcode: feature_gcode
; External perimeter
;;Perimeter
;SET_VELOCITY_LIMIT ACCEL=2000 ACCEL_TO_DECEL=2000 SQUARE_CORNER_VELOCITY=8

; Overhang perimeter
;
; custom gcode end: feature_gcode

;TYPE:Internal perimeter
;WIDTH:0.56
G1 X58.248 Y53.32 E0.56947
G1 X59.06 Y53.296 E0.04084
G1 X60.01 Y53.33 E0.04777
G1 X60.721 Y53.402 E0.03591
G1 X61.434 Y53.515 E0.03629
G1 X62.409 Y53.737 E0.05029
G1 X63.105 Y53.943 E0.03644
G1 X64.049 Y54.294 E0.05066
G1 X64.796 Y54.633 E0.04121
G1 X65.608 Y55.069 E0.04632
G1 X66.235 Y55.459 E0.03716
G1 X67.015 Y56.02 E0.04825
G1 X65.725 Y56.289 E0.0662
G1 X65.243 Y56.109 E0.0259
G1 X64.46 Y56.117 E0.03936
G1 X63.7 Y56.397 E0.04068
G1 X63.55 Y56.531 E0.01013
G1 X63.213 Y56.316 E0.02008
G1 X62.554 Y56.1 E0.03484
G1 X61.799 Y56.097 E0.03799
G1 X61.115 Y56.305 E0.03594
G1 X60.463 Y56.033 E0.03547
G1 X59.491 Y56.208 E0.04966
G1 X59.198 Y56.373 E0.01691
G1 X58.888 Y56.221 E0.01735
G1 X58.335 Y56.07 E0.02881
G1 X57.616 Y56.109 E0.0362
G1 X56.853 Y56.423 E0.04148
G1 X56.392 Y56.798 E0.02985
G1 X56.104 Y57.169 E0.0236
G1 X55.745 Y56.486 E0.03878
G1 X55.256 Y55.867 E0.03965
G1 X54.702 Y55.388 E0.03681
G1 X54.029 Y55.013 E0.03875
G1 X53.296 Y54.786 E0.03857
G1 X52.481 Y54.666 E0.04138
G1 X50.659 Y54.625 E0.09157
G1 X50.029 Y54.692 E0.03188
G1 X49.313 Y54.97 E0.03859
G1 X49.117 Y55.122 E0.01247
G1 X48.489 Y54.784 E0.03584
G1 X48.061 Y54.631 E0.02283
G1 X47.539 Y54.519 E0.02687
G1 X46.928 Y54.453 E0.03085
G1 X46.937 Y54.068 E0.01933
G1 X45.952 Y54.239 F18000
G1 F1800
G1 X45.997 Y54.497 E0.01315
G1 X45.247 Y54.714 E0.03926
G1 X44.81 Y54.909 E0.02404
G1 X44.297 Y54.716 E0.02755
G1 X43.746 Y54.639 E0.02795
G1 X43.763 Y54.202 E0.02198
G1 X45.923 Y54.07 E0.10874
G1 X45.942 Y54.18 E0.00559
G1 X34.517 Y55.526 F18000
G1 F1800
G1 X34.52 Y54.628 E0.04517
G1 X34.548 Y54.443 E0.00941
G1 X34.613 Y54.31 E0.00741
G1 X34.756 Y54.256 E0.00766
G1 X34.917 Y54.231 E0.00821
G1 X58.225 Y52.811 E1.17369
G1 X59.062 Y52.787 E0.04208
G1 X60.045 Y52.822 E0.04944
G1 X60.786 Y52.897 E0.03746
G1 X61.53 Y53.015 E0.03785
G1 X62.538 Y53.244 E0.05197
G1 X63.266 Y53.46 E0.03813
G1 X64.244 Y53.823 E0.05243
G1 X65.022 Y54.176 E0.04296
G1 X65.863 Y54.628 E0.04798
G1 X66.519 Y55.036 E0.03883
G1 X67.363 Y55.643 E0.05226
G1 X68.487 Y56.586 E0.07372
G1 X66.774 Y56.59 E0.0861
G1 X66.001 Y56.752 E0.03967
G1 X65.823 Y56.869 E0.01074
G1 X65.153 Y56.619 E0.0359
G1 X64.553 Y56.625 E0.03018
G1 X63.967 Y56.841 E0.03138
G1 X63.601 Y57.168 E0.02468
G1 X62.993 Y56.779 E0.03624
G1 X62.472 Y56.609 E0.02756
G1 X61.873 Y56.606 E0.0301
G1 X61.087 Y56.846 E0.04129
G1 X60.406 Y56.561 E0.03714
G1 X59.666 Y56.694 E0.03778
G1 X59.214 Y56.949 E0.02608
G1 X58.707 Y56.699 E0.02838
G1 X58.281 Y56.583 E0.02222
G1 X57.729 Y56.613 E0.02775
G1 X57.116 Y56.865 E0.03336
G1 X56.758 Y57.156 E0.02314
G1 X56.474 Y57.522 E0.02333
G1 X56.241 Y58.18 E0.03507
G1 X55.883 Y58.164 E0.01799
G1 X55.777 Y57.751 E0.02144
G1 X55.635 Y57.371 E0.02038
G1 X55.317 Y56.764 E0.03445
G1 X54.887 Y56.22 E0.03484
G1 X54.409 Y55.807 E0.03176
G1 X53.827 Y55.483 E0.03346
G1 X53.183 Y55.284 E0.03391
G1 X52.438 Y55.174 E0.03783
G1 X50.681 Y55.134 E0.08835
G1 X50.15 Y55.191 E0.02683
G1 X49.566 Y55.417 E0.03146
G1 X49.098 Y55.78 E0.02977
G1 X48.712 Y55.482 E0.02455
G1 X48.282 Y55.25 E0.02455
G1 X47.922 Y55.122 E0.01922
G1 X47.457 Y55.022 E0.02387
G1 X47.053 Y54.978 E0.02045
G1 X46.496 Y54.977 E0.02798
G1 X45.916 Y55.05 E0.02941
G1 X45.422 Y55.193 E0.02583
G1 X45.032 Y55.368 E0.02149
G1 X44.816 Y55.525 E0.01344
G1 X44.621 Y55.382 E0.01214
G1 X44.17 Y55.213 E0.0242
G1 X43.716 Y55.149 E0.02304
G1 X40.515 Y55.158 E0.16089
G1 X39.726 Y55.112 E0.03975
G1 X39.166 Y55.245 E0.02889
G1 X38.637 Y55.57 E0.03124
G1 X38.292 Y55.347 E0.02064
G1 X37.808 Y55.144 E0.0264
G1 X37.261 Y55.017 E0.0282
G1 X36.624 Y54.973 E0.0321
G1 X36.234 Y54.987 E0.01965
G1 X35.808 Y55.044 E0.02157
G1 X35.378 Y55.151 E0.02227
G1 X35.034 Y55.277 E0.01844
G1 X34.571 Y55.5 E0.02582
G1 X34.005 Y56.597 F18000
G1 F1800
G1 X34.011 Y54.588 E0.10096
G1 X34.049 Y54.341 E0.01259
G1 X34.084 Y54.232 E0.00573
G1 X34.142 Y54.115 E0.00657
G1 X34.198 Y54.033 E0.00501
G1 X34.278 Y53.946 E0.00594
G1 X34.359 Y53.88 E0.00521
G1 X34.439 Y53.832 E0.00473
G1 X34.624 Y53.762 E0.00993
G1 X34.861 Y53.724 E0.01209
G1 X58.202 Y52.303 E1.17533
G1 X59.063 Y52.278 E0.04331
G1 X60.08 Y52.314 E0.05111
G1 X60.852 Y52.392 E0.03902
G1 X61.626 Y52.515 E0.03941
G1 X62.667 Y52.751 E0.05365
G1 X63.427 Y52.977 E0.03982
G1 X64.438 Y53.352 E0.0542
G1 X65.248 Y53.72 E0.04472
G1 X66.118 Y54.187 E0.04964
G1 X66.802 Y54.613 E0.04051
G1 X67.676 Y55.241 E0.05407
G1 X68.435 Y55.878 E0.04981
G1 X69.074 Y56.491 E0.0445
G1 X69.622 Y57.087 E0.0407
G1 X68.697 Y57.094 E0.04649
G1 X66.827 Y57.099 E0.09397
M73 P0 R69
G1 X66.2 Y57.23 E0.03222
G1 X65.741 Y57.531 E0.02756
G1 X65.498 Y57.291 E0.01717
G1 X65.064 Y57.129 E0.02327
G1 X64.646 Y57.133 E0.02101
G1 X64.234 Y57.285 E0.02208
G1 X63.91 Y57.574 E0.02182
G1 X63.592 Y58.033 E0.02805
G1 X63.129 Y57.471 E0.03661
G1 X62.773 Y57.243 E0.02123
G1 X62.39 Y57.117 E0.02028
G1 X61.948 Y57.116 E0.0222
G1 X61.466 Y57.263 E0.02535
G1 X61.129 Y57.555 E0.02241
G1 X60.895 Y57.317 E0.01683
G1 X60.348 Y57.088 E0.02977
G1 X59.841 Y57.18 E0.0259
G1 X59.415 Y57.42 E0.02457
G1 X59.218 Y57.632 E0.01455
G1 X58.811 Y57.317 E0.02589
G1 X58.526 Y57.177 E0.01592
G1 X58.226 Y57.096 E0.01564
G1 X57.843 Y57.116 E0.01929
G1 X57.378 Y57.307 E0.02524
G1 X57.125 Y57.513 E0.01643
G1 X56.926 Y57.77 E0.01629
G1 X56.778 Y58.189 E0.02234
G1 X56.803 Y58.691 E0.02531
G1 X56.931 Y59.07 E0.02007
G1 X57.054 Y59.32 E0.01402
G1 X57.581 Y60.245 E0.05351
G1 X57.284 Y60.775 E0.03053
G1 X56.933 Y60.401 E0.02578
G1 X56.623 Y60.183 E0.01906
G1 X56.234 Y60.044 E0.02077
G1 X55.472 Y60.001 E0.03837
G1 X55.505 Y59.309 E0.0348
G1 X55.487 Y58.913 E0.01995
G1 X55.412 Y58.375 E0.0273
G1 X55.291 Y57.904 E0.02446
G1 X55.17 Y57.579 E0.01741
G1 X54.888 Y57.043 E0.03045
G1 X54.518 Y56.574 E0.03003
G1 X54.115 Y56.227 E0.02671
G1 X53.626 Y55.954 E0.02818
G1 X53.07 Y55.781 E0.02924
G1 X52.395 Y55.683 E0.03427
G1 X50.702 Y55.644 E0.08513
G1 X50.271 Y55.69 E0.02178
G1 X49.82 Y55.865 E0.02433
G1 X49.566 Y56.062 E0.01614
G1 X49.112 Y56.634 E0.03672
G1 X48.879 Y56.302 E0.02038
G1 X48.667 Y56.09 E0.01507
G1 X48.434 Y55.91 E0.0148
G1 X48.075 Y55.717 E0.0205
G1 X47.782 Y55.612 E0.0156
G1 X47.376 Y55.525 E0.02086
G1 X47.025 Y55.487 E0.01777
G1 X46.528 Y55.486 E0.025
G1 X46.019 Y55.55 E0.02577
G1 X45.598 Y55.673 E0.02206
G1 X45.288 Y55.811 E0.01704
G1 X44.814 Y56.156 E0.02945
G1 X44.376 Y55.834 E0.02732
G1 X44.043 Y55.709 E0.01786
G1 X43.681 Y55.658 E0.01838
G1 X40.501 Y55.667 E0.15983
G1 X39.771 Y55.625 E0.03678
G1 X39.364 Y55.721 E0.02104
G1 X39.032 Y55.925 E0.01957
G1 X38.702 Y56.302 E0.02519
G1 X38.442 Y56.051 E0.01818
G1 X38.054 Y55.799 E0.02325
G1 X37.651 Y55.63 E0.02196
G1 X37.186 Y55.522 E0.024
G1 X36.616 Y55.483 E0.02871
G1 X36.276 Y55.495 E0.01708
G1 X35.903 Y55.545 E0.01891
G1 X35.528 Y55.638 E0.01947
G1 X35.232 Y55.746 E0.0158
G1 X34.947 Y55.884 E0.01594
G1 X34.574 Y56.123 E0.02224
G1 X34.051 Y56.559 E0.03423
G1 E-0.4 F3000
G1 Z0.4375 F18000
G1 X43.628 Y58.89
G1 Z0.2375
G1 E0.4 F1800
G1 X44.015 Y58.832 E0.01971
G1 X44.602 Y58.639 E0.03103
G1 X44.501 Y59.076 E0.02256
G1 X44.499 Y59.552 E0.02393
G1 X44.672 Y60.076 E0.02776
G1 X44.496 Y60.162 E0.00984
G1 X43.637 Y61.127 E0.06489
G1 X43.628 Y58.95 E0.1094
G1 E-0.4 F3000
G1 Z0.4375 F18000
G1 X39.886 Y58.951
G1 Z0.2375
G1 E0.4 F1800
G1 X39.896 Y60.538 E0.07979
G1 X39.541 Y60.638 E0.01854
G1 X39.403 Y60.409 E0.01342
G1 X39.133 Y60.127 E0.01963
G1 X38.816 Y59.905 E0.01946
G1 X38.422 Y59.729 E0.02172
G1 X38.128 Y59.681 E0.01497
G1 X38.101 Y59.299 E0.01923
G1 X38.633 Y59.133 E0.02801
G1 X39.11 Y58.8 E0.02923
G1 X39.827 Y58.939 E0.03676
G1 X37.565 Y59.28 F18000
G1 F1800
G1 X37.541 Y59.663 E0.01928
G1 X37.214 Y59.717 E0.01664
G1 X36.486 Y60.048 E0.04019
G1 X36.461 Y59.43 E0.03107
G1 X36.495 Y58.809 E0.03126
G1 X37.04 Y59.122 E0.03159
G1 X37.508 Y59.263 E0.02453
G1 X42.199 Y64.266 F18000
G1 F1800
G1 X42.526 Y64.221 E0.01658
G1 X43.246 Y63.828 E0.04125
G1 X43.796 Y63.207 E0.04169
G1 X44.157 Y63.624 E0.02772
G1 X44.671 Y63.988 E0.03167
G1 X45.198 Y64.224 E0.02897
G1 X45.732 Y64.373 E0.02792
G1 X46.317 Y64.454 E0.02968
G1 X46.929 Y64.463 E0.03076
G1 X47.541 Y64.403 E0.03091
G1 X48.28 Y64.202 E0.03846
G1 X49.061 Y63.787 E0.04444
G1 X49.208 Y63.922 E0.01003
G1 X49.747 Y64.21 E0.03074
G1 X50.425 Y64.338 E0.03469
G1 X51.093 Y64.284 E0.03368
G1 X51.885 Y64.292 E0.03978
G1 X52.536 Y64.258 E0.03277
G1 X53.16 Y64.167 E0.0317
G1 X53.778 Y63.98 E0.03246
G1 X54.296 Y64.379 E0.03291
G1 X54.805 Y64.611 E0.02811
G1 X55.319 Y64.744 E0.02665
G1 X55.849 Y64.773 E0.0267
G1 X56.395 Y64.709 E0.02765
G1 X56.966 Y64.508 E0.03041
G1 X57.17 Y64.377 E0.01219
G1 X58.394 Y64.475 E0.06171
G1 X59.08 Y64.19 E0.03736
G1 X59.212 Y64.278 E0.00795
G1 X59.365 Y64.332 E0.00818
G1 X59.398 Y64.897 E0.02845
G1 X59.591 Y65.69 E0.04103
G1 X58.843 Y65.703 E0.03761
G1 X58.237 Y65.679 E0.03049
G1 X42.215 Y64.704 E0.80676
G1 X42.201 Y64.326 E0.01902
G1 X40.99 Y64.207 F18000
G1 F1800
G1 X40.91 Y64.624 E0.02138
G1 X38.446 Y64.474 E0.12409
G1 X38.365 Y64.121 E0.01822
G1 X38.898 Y63.824 E0.03064
G1 X39.368 Y63.443 E0.03042
G1 X39.633 Y63.129 E0.02066
G1 X39.821 Y63.448 E0.01863
G1 X40.242 Y63.854 E0.02936
G1 X40.699 Y64.111 E0.02636
G1 X40.933 Y64.188 E0.01236
G1 X39.767 Y61.941 F18000
G1 F1800
G1 X39.997 Y62.743 E0.04193
G1 X40.225 Y63.13 E0.0226
G1 X40.548 Y63.442 E0.0226
