; generated by SuperSlicer 2.3.57 on 2022-01-31 at 04:11:02 UTC

; 

; external perimeters extrusion width = 0.42mm
; perimeters extrusion width = 0.44mm
; infill extrusion width = 0.44mm
; solid infill extrusion width = 0.44mm
; top infill extrusion width = 0.44mm
; first layer extrusion width = 0.56mm

; object:{"name":"KONGY","id":"KONGY.stl id:0 copy 0","object_center":[100.000000,100.000000,0.000000],"boundingbox_center":[100.000000,100.000000,16.370126],"boundingbox_size":[18.872800,17.600000,32.740251]}
; object:{"name":"KONGY","id":"KONGY.stl id:1 copy 0","object_center":[100.000000,100.000000,0.000000],"boundingbox_center":[100.000000,100.000000,16.370126],"boundingbox_size":[18.872800,17.600000,32.740251]}
; Total objects to print: 2
M486 T2
; plater:{"center":[100.000000,100.000000,0.000000],"boundingbox_center":[100.000000,100.000000,16.370126],"boundingbox_size":[18.872800,17.600000,32.740251]}

;TYPE:Custom
M115 U3.1.0 ; tell printer latest fw version
M83  ; extruder relative mode
M204 S1500 T1500 ; ENDER3 firmware may only supports the old M204 format
G28 W ; home all
M104 S200 ; set extruder temp
M140 S60 ; set bed temp
M190 S60 ; wait for bed temp
M109 S200 ; wait for extruder temp
G1 X0.0 Y0.0 F1000.0 ; go outside print area
G92 E0.0
G1 X150.0 E20  F1000.0 ; intro line
G92 E0.0
M107
G21 ; set units to millimeters
G90 ; use absolute coordinates
M82 ; use absolute distances for extrusion
G92 E0
; Filament gcode
;LAYER_CHANGE
;Z:0.3
;HEIGHT:0.3
;BEFORE_LAYER_CHANGE
;0.3


G1 E-0.5 F2100
G1 Z0.6 F10800
;AFTER_LAYER_CHANGE
;0.3
; INIT printing object KONGY.stl id:0 copy 0
G92 E0
G1 Z0.9
; printing object KONGY.stl id:0 copy 0
M486 S0
M204 P1500
G1 X96.484 Y97.094
G1 Z0.3
G1 E0.5 F2100
;TYPE:Thin wall
;WIDTH:0.4
G1 F731
G1 X96.457 Y97.121 E0.50159
G1 X96.235 Y97.375 E0.51573
G1 X95.824 Y97.934 E0.54476
G1 X95.804 Y97.968 E0.54643
G1 X95.525 Y98.603 E0.57545
G1 X95.417 Y98.923 E0.58958
G1 X95.407 Y98.959 E0.59118
G1 X95.341 Y99.291 E0.60532
G1 X95.265 Y99.98 E0.63435
G1 X95.265 Y100.02 E0.63602
G1 X95.341 Y100.709 E0.66505
G1 X95.407 Y101.041 E0.67919
G1 X95.417 Y101.077 E0.68078
G1 X95.525 Y101.397 E0.69491
G1 X95.804 Y102.032 E0.72394
G1 X95.824 Y102.066 E0.72561
G1 X96.235 Y102.625 E0.75463
G1 X96.457 Y102.879 E0.76878
G1 X96.484 Y102.906 E0.77037
G1 X96.738 Y103.129 E0.78451
G1 X97.297 Y103.539 E0.81354
G1 X97.332 Y103.559 E0.81521
G1 X97.967 Y103.838 E0.84423
G1 X98.286 Y103.947 E0.85836
G1 X98.323 Y103.957 E0.85995
G1 X98.654 Y104.023 E0.8741
G1 X99.344 Y104.098 E0.90312
G1 X99.384 Y104.098 E0.90479
G1 X100.073 Y104.023 E0.93382
G1 X100.404 Y103.957 E0.94797
G1 X100.441 Y103.947 E0.94956
G1 X100.761 Y103.838 E0.96369
G1 X101.395 Y103.559 E0.99271
G1 X101.43 Y103.539 E0.99438
G1 X101.989 Y103.129 E1.02341
G1 X102.243 Y102.906 E1.03755
G1 X102.27 Y102.879 E1.03914
G1 X102.493 Y102.625 E1.05328
G1 X102.903 Y102.066 E1.08231
G1 X102.923 Y102.032 E1.08398
G1 X103.202 Y101.397 E1.11301
G1 X103.31 Y101.077 E1.12714
G1 X103.32 Y101.041 E1.12873
G1 X103.386 Y100.709 E1.14287
G1 X103.462 Y100.02 E1.1719
G1 X103.463 Y100 E1.17274
G1 X103.462 Y99.98 E1.17358
G1 X103.386 Y99.291 E1.2026
G1 X103.32 Y98.959 E1.21675
G1 X103.31 Y98.923 E1.21834
G1 X103.202 Y98.603 E1.23247
G1 X102.923 Y97.968 E1.26149
G1 X102.903 Y97.934 E1.26316
G1 X102.493 Y97.375 E1.29219
G1 X102.27 Y97.121 E1.30633
G1 X102.243 Y97.094 E1.30792
G1 X101.989 Y96.871 E1.32207
G1 X101.43 Y96.461 E1.35109
G1 X101.395 Y96.441 E1.35276
G1 X100.761 Y96.162 E1.38179
G1 X100.441 Y96.053 E1.39592
G1 X100.404 Y96.043 E1.39751
G1 X100.073 Y95.977 E1.41165
G1 X99.384 Y95.902 E1.44068
G1 X99.344 Y95.902 E1.44235
G1 X98.654 Y95.977 E1.47138
G1 X98.323 Y96.043 E1.48552
G1 X98.286 Y96.053 E1.48712
G1 X97.967 Y96.162 E1.50125
G1 X97.332 Y96.441 E1.53027
G1 X97.297 Y96.461 E1.53194
G1 X96.738 Y96.871 E1.56097
G1 X96.529 Y97.054 E1.5726
; INIT stop printing object KONGY.stl id:0 copy 0
; INIT printing object KONGY.stl id:1 copy 0
; stop printing object KONGY.stl id:0 copy 0
M486 S-1
; printing object KONGY.stl id:1 copy 0
M486 S1
G1 X96.529 Y97.054 F10800
G1 F731
G1 X96.484 Y97.094 E1.57511
G1 X96.457 Y97.121 E1.5767
G1 X96.235 Y97.375 E1.59084
G1 X95.824 Y97.934 E1.61987
G1 X95.804 Y97.968 E1.62154
G1 X95.525 Y98.603 E1.65056
G1 X95.417 Y98.923 E1.66469
G1 X95.407 Y98.959 E1.66629
G1 X95.341 Y99.291 E1.68043
G1 X95.265 Y99.98 E1.70946
G1 X95.265 Y100.02 E1.71113
G1 X95.341 Y100.709 E1.74015
G1 X95.407 Y101.041 E1.7543
G1 X95.417 Y101.077 E1.75589
G1 X95.525 Y101.397 E1.77002
G1 X95.804 Y102.032 E1.79905
G1 X95.824 Y102.066 E1.80072
G1 X96.235 Y102.625 E1.82974
G1 X96.457 Y102.879 E1.84389
G1 X96.484 Y102.906 E1.84548
G1 X96.738 Y103.129 E1.85962
G1 X97.297 Y103.539 E1.88865
G1 X97.332 Y103.559 E1.89032
G1 X97.967 Y103.838 E1.91934
G1 X98.286 Y103.947 E1.93347
G1 X98.323 Y103.957 E1.93506
G1 X98.654 Y104.023 E1.94921
G1 X99.344 Y104.098 E1.97823
G1 X99.384 Y104.098 E1.9799
G1 X100.073 Y104.023 E2.00893
G1 X100.404 Y103.957 E2.02308
G1 X100.441 Y103.947 E2.02467
G1 X100.761 Y103.838 E2.0388
G1 X101.395 Y103.559 E2.06782
G1 X101.43 Y103.539 E2.06949
G1 X101.989 Y103.129 E2.09852
G1 X102.243 Y102.906 E2.11266
G1 X102.27 Y102.879 E2.11425
G1 X102.493 Y102.625 E2.12839
G1 X102.903 Y102.066 E2.15742
G1 X102.923 Y102.032 E2.15909
G1 X103.202 Y101.397 E2.18811
G1 X103.31 Y101.077 E2.20225
G1 X103.32 Y101.041 E2.20384
G1 X103.386 Y100.709 E2.21798
G1 X103.462 Y100.02 E2.24701
G1 X103.463 Y100 E2.24785
G1 X103.462 Y99.98 E2.24868
G1 X103.386 Y99.291 E2.27771
G1 X103.32 Y98.959 E2.29186
G1 X103.31 Y98.923 E2.29345
G1 X103.202 Y98.603 E2.30758
G1 X102.923 Y97.968 E2.3366
G1 X102.903 Y97.934 E2.33827
G1 X102.493 Y97.375 E2.3673
G1 X102.27 Y97.121 E2.38144
G1 X102.243 Y97.094 E2.38303
G1 X101.989 Y96.871 E2.39718
G1 X101.43 Y96.461 E2.4262
G1 X101.395 Y96.441 E2.42787
G1 X100.761 Y96.162 E2.4569
G1 X100.441 Y96.053 E2.47103
G1 X100.404 Y96.043 E2.47262
G1 X100.073 Y95.977 E2.48676
G1 X99.384 Y95.902 E2.51579
G1 X99.344 Y95.902 E2.51746
G1 X98.654 Y95.977 E2.54649
G1 X98.323 Y96.043 E2.56063
G1 X98.286 Y96.053 E2.56223
G1 X97.967 Y96.162 E2.57636
G1 X97.332 Y96.441 E2.60538
G1 X97.297 Y96.461 E2.60705
G1 X96.738 Y96.871 E2.63608
G1 X96.574 Y97.015 E2.6452
; INIT stop printing object KONGY.stl id:1 copy 0
M106 S84.15
;LAYER_CHANGE
;Z:0.5
;HEIGHT:0.2
;BEFORE_LAYER_CHANGE
;0.5


G92 E0
;WIPE_START
G1 F8640
M204 P1000
G1 X96.484 Y97.094 E-0.02771
G1 X96.457 Y97.121 E-0.03648
G1 X96.235 Y97.375 E-0.11449
G1 X95.824 Y97.934 E-0.27461
G1 X95.804 Y97.968 E-0.28382
G1 X95.525 Y98.603 E-0.44391
G1 X95.482 Y98.73 E-0.475
;WIPE_END
G1 E-0.5 F2100
G1 Z0.9 F10800
; stop printing object KONGY.stl id:1 copy 0
M486 S-1
;AFTER_LAYER_CHANGE
;0.5
; INIT printing object KONGY.stl id:0 copy 0
; printing object KONGY.stl id:0 copy 0
M486 S0
M204 P1500
G1 X95.454 Y98.719
G1 Z0.5
G1 E0 F2100
;TYPE:External perimeter
;WIDTH:0.42
G1 F973
G1 X95.367 Y98.929 E0.00713
G1 X95.226 Y100 E0.041
G1 X95.367 Y101.071 E0.07487
G1 X95.573 Y101.568 E0.09173
G1 X95.78 Y102.069 E0.10872
G1 X96.438 Y102.925 E0.14259
G1 X97.295 Y103.583 E0.17646
G1 X98.293 Y103.996 E0.21031
G1 X99.364 Y104.137 E0.24418
G1 X100.435 Y103.996 E0.27805
G1 X100.932 Y103.79 E0.29491
G1 X101.432 Y103.583 E0.3119
G1 X102.289 Y102.925 E0.34577
G1 X102.947 Y102.069 E0.37964
G1 X103.36 Y101.071 E0.41349
G1 X103.501 Y100 E0.44736
G1 X103.36 Y98.929 E0.48123
G1 X103.154 Y98.432 E0.4981
G1 X102.947 Y97.931 E0.51509
G1 X102.289 Y97.075 E0.54895
G1 X101.432 Y96.417 E0.58282
G1 X100.435 Y96.004 E0.61668
G1 X99.364 Y95.863 E0.65055
G1 X98.83 Y95.933 E0.66742
G1 X98.293 Y96.004 E0.68442
G1 X97.295 Y96.417 E0.71827
G1 X96.438 Y97.075 E0.75214
G1 X95.78 Y97.931 E0.78601
G1 X95.477 Y98.664 E0.81085
;WIPE_START
M204 P1000
G1 X95.229 Y98.749 F10800
;WIPE_END
M204 P1500
G1 X95.157 Y98.729
M204 P800
G1 X95.085 Y98.71
;TYPE:Overhang perimeter
;WIDTH:0.357771
;HEIGHT:0.357771
G1 F1200
G1 X95.15 Y98.466 E0.82139
G1 X95.48 Y97.758 E0.85406
G1 X95.929 Y97.118 E0.88673
G1 X96.481 Y96.565 E0.91939
G1 X97.122 Y96.117 E0.95206
G1 X97.83 Y95.787 E0.98473
G1 X98.585 Y95.584 E1.01739
G1 X99.364 Y95.516 E1.05006
G1 X100.142 Y95.584 E1.08273
G1 X100.897 Y95.787 E1.1154
G1 X101.606 Y96.117 E1.14807
G1 X102.246 Y96.565 E1.18073
G1 X102.798 Y97.118 E1.2134
G1 X103.247 Y97.758 E1.24607
G1 X103.577 Y98.466 E1.27873
G1 X103.779 Y99.221 E1.3114
G1 X103.848 Y100 E1.34407
G1 X103.779 Y100.779 E1.37674
G1 X103.577 Y101.534 E1.4094
G1 X103.247 Y102.242 E1.44207
G1 X102.798 Y102.882 E1.47474
G1 X102.246 Y103.435 E1.5074
G1 X101.606 Y103.883 E1.54007
G1 X100.897 Y104.213 E1.57274
G1 X100.142 Y104.416 E1.6054
G1 X99.364 Y104.484 E1.63807
G1 X98.585 Y104.416 E1.67074
G1 X97.83 Y104.213 E1.70341
G1 X97.122 Y103.883 E1.73608
G1 X96.481 Y103.435 E1.76874
G1 X95.929 Y102.882 E1.80141
G1 X95.48 Y102.242 E1.83408
G1 X95.15 Y101.534 E1.86674
G1 X94.948 Y100.779 E1.89941
G1 X94.879 Y100 E1.93208
G1 X94.948 Y99.221 E1.96475
G1 X95.069 Y98.768 E1.98436
; INIT stop printing object KONGY.stl id:0 copy 0
; INIT printing object KONGY.stl id:1 copy 0
; stop printing object KONGY.stl id:0 copy 0
M486 S-1
; printing object KONGY.stl id:1 copy 0
M486 S1
M204 P1500
G1 X95.225 Y98.832 F10800
M204 P800
G1 X95.381 Y98.897
;TYPE:External perimeter
;WIDTH:0.42
;HEIGHT:0.2
G1 F973
G1 X95.367 Y98.929 E1.98545
G1 X95.226 Y100 E2.01932
G1 X95.367 Y101.071 E2.05319
G1 X95.573 Y101.568 E2.07005
G1 X95.78 Y102.069 E2.08704
G1 X96.438 Y102.925 E2.12091
G1 X97.295 Y103.583 E2.15478
G1 X98.293 Y103.996 E2.18863
G1 X99.364 Y104.137 E2.2225
G1 X100.435 Y103.996 E2.25637
G1 X100.932 Y103.79 E2.27324
G1 X101.432 Y103.583 E2.29023
G1 X102.289 Y102.925 E2.3241
G1 X102.947 Y102.069 E2.35796
G1 X103.36 Y101.071 E2.39182
G1 X103.501 Y100 E2.42569
G1 X103.36 Y98.929 E2.45956
G1 X103.154 Y98.432 E2.47642
G1 X102.947 Y97.931 E2.49341
G1 X102.289 Y97.075 E2.52728
G1 X101.432 Y96.417 E2.56115
G1 X100.435 Y96.004 E2.595
G1 X99.364 Y95.863 E2.62887
G1 X98.83 Y95.933 E2.64575
G1 X98.293 Y96.004 E2.66274
G1 X97.295 Y96.417 E2.69659
G1 X96.438 Y97.075 E2.73046
G1 X95.78 Y97.931 E2.76433
G1 X95.404 Y98.842 E2.79521
;WIPE_START
M204 P1000
G1 X95.346 Y98.901 F10800
;WIPE_END
M204 P1500
G1 X95.2 Y98.862
M204 P800
G1 X95.055 Y98.823
;TYPE:Overhang perimeter
;WIDTH:0.357771
;HEIGHT:0.357771
G1 F1200
G1 X95.15 Y98.466 E2.81065
G1 X95.48 Y97.758 E2.84332
G1 X95.929 Y97.118 E2.87599
G1 X96.481 Y96.565 E2.90866
G1 X97.122 Y96.117 E2.94132
G1 X97.83 Y95.787 E2.97399
G1 X98.585 Y95.584 E3.00666
G1 X99.364 Y95.516 E3.03933
G1 X100.142 Y95.584 E3.07199
G1 X100.897 Y95.787 E3.10466
G1 X101.606 Y96.117 E3.13733
G1 X102.246 Y96.565 E3.16999
G1 X102.798 Y97.118 E3.20266
G1 X103.247 Y97.758 E3.23533
G1 X103.577 Y98.466 E3.268
G1 X103.779 Y99.221 E3.30066
G1 X103.848 Y100 E3.33333
G1 X103.779 Y100.779 E3.366
G1 X103.577 Y101.534 E3.39866
G1 X103.247 Y102.242 E3.43133
G1 X102.798 Y102.882 E3.464
G1 X102.246 Y103.435 E3.49667
G1 X101.606 Y103.883 E3.52933
G1 X100.897 Y104.213 E3.562
G1 X100.142 Y104.416 E3.59467
G1 X99.364 Y104.484 E3.62733
G1 X98.585 Y104.416 E3.66
G1 X97.83 Y104.213 E3.69267
G1 X97.122 Y103.883 E3.72534
G1 X96.481 Y103.435 E3.758
G1 X95.929 Y102.882 E3.79067
G1 X95.48 Y102.242 E3.82334
G1 X95.15 Y101.534 E3.85601
G1 X94.948 Y100.779 E3.88867
G1 X94.879 Y100 E3.92134
G1 X94.948 Y99.221 E3.95401
G1 X95.039 Y98.881 E3.96873
; INIT stop printing object KONGY.stl id:1 copy 0
M106 S168.3
;LAYER_CHANGE
;Z:0.7
;HEIGHT:0.2
;BEFORE_LAYER_CHANGE
;0.7


G92 E0
;WIPE_START
G1 F8640
M204 P1000
G1 X95.15 Y98.466 E-0.09916
G1 X95.48 Y97.758 E-0.27964
G1 X95.929 Y97.118 E-0.4601
G1 X95.974 Y97.072 E-0.475
;WIPE_END
G1 E-0.5 F2100
G1 Z1.1 F10800
; stop printing object KONGY.stl id:1 copy 0
M486 S-1
;AFTER_LAYER_CHANGE
;0.7
; INIT printing object KONGY.stl id:0 copy 0
; printing object KONGY.stl id:0 copy 0
M486 S0
M204 P1500
G1 X96.212 Y97.079
M204 P800
G1 X96.45 Y97.086
G1 Z0.7
G1 E0 F2100
;TYPE:External perimeter
;WIDTH:0.42
G1 F1800
G1 X95.795 Y97.94 E0.03373
G1 X95.384 Y98.933 E0.06744
G1 X95.243 Y100 E0.10117
G1 X95.384 Y101.067 E0.13491
G1 X95.795 Y102.06 E0.16861
G1 X96.45 Y102.914 E0.20235
G1 X97.304 Y103.568 E0.23608
G1 X98.297 Y103.98 E0.26979
G1 X99.364 Y104.12 E0.30352
G1 X100.43 Y103.98 E0.33725
G1 X101.424 Y103.568 E0.37096
G1 X102.277 Y102.914 E0.40469
G1 X102.932 Y102.06 E0.43842
G1 X103.343 Y101.067 E0.47213
G1 X103.484 Y100 E0.50586
G1 X103.343 Y98.933 E0.5396
G1 X102.932 Y97.94 E0.5733
G1 X102.277 Y97.086 E0.60704
G1 X101.424 Y96.432 E0.64077
G1 X100.43 Y96.02 E0.67448
G1 X99.364 Y95.88 E0.70821
G1 X98.297 Y96.02 E0.74194
G1 X97.304 Y96.432 E0.77565
G1 X96.498 Y97.05 E0.8075
;WIPE_START
M204 P1000
G1 X96.06 Y97 F10800
;WIPE_END
M204 P1500
G1 X95.946 Y96.886
M204 P800
G1 X95.832 Y96.772
;TYPE:Overhang perimeter
;WIDTH:0.357771
;HEIGHT:0.357771
M106 S170.85
G1 F1200
G1 X96.279 Y96.325 E0.83396
G1 X96.965 Y95.845 E0.86892
G1 X97.723 Y95.491 E0.90387
G1 X98.53 Y95.275 E0.93882
G1 X99.364 Y95.202 E0.97378
G1 X100.197 Y95.275 E1.00874
G1 X101.005 Y95.491 E1.04369
G1 X101.763 Y95.845 E1.07865
G1 X102.448 Y96.325 E1.11361
G1 X103.039 Y96.916 E1.14856
G1 X103.519 Y97.601 E1.18352
G1 X103.872 Y98.359 E1.21848
G1 X104.089 Y99.167 E1.25343
G1 X104.162 Y100 E1.28839
G1 X104.089 Y100.833 E1.32334
G1 X103.872 Y101.641 E1.3583
G1 X103.519 Y102.399 E1.39325
G1 X103.039 Y103.084 E1.42821
G1 X102.448 Y103.675 E1.46316
G1 X101.763 Y104.155 E1.49812
G1 X101.005 Y104.509 E1.53308
G1 X100.197 Y104.725 E1.56803
G1 X99.364 Y104.798 E1.60299
G1 X98.53 Y104.725 E1.63795
G1 X97.723 Y104.509 E1.6729
G1 X96.965 Y104.155 E1.70786
G1 X96.279 Y103.675 E1.74282
G1 X95.688 Y103.084 E1.77776
G1 X95.208 Y102.399 E1.81272
G1 X94.855 Y101.641 E1.84768
G1 X94.639 Y100.833 E1.88263
G1 X94.565 Y100 E1.91759
G1 X94.639 Y99.167 E1.95255
G1 X94.855 Y98.359 E1.9875
G1 X95.208 Y97.601 E2.02246
G1 X95.688 Y96.916 E2.05742
G1 X95.789 Y96.815 E2.0634
M106 S168.3
M204 P1500
G1 X95.919 Y96.929 F10800
M204 P1000
G1 X96.049 Y97.042
;TYPE:Gap fill
;WIDTH:0.405004
;HEIGHT:0.2
G1 F2400
G1 X95.96 Y97.144 E2.06747
G1 X95.737 Y97.448 E2.07883
;WIDTH:0.372108
G1 X95.514 Y97.753 E2.08916
G1 X95.492 Y97.79 E2.09034
G1 X95.34 Y98.135 E2.10066
;WIDTH:0.405202
G1 X95.189 Y98.481 E2.11203
G1 X95.13 Y98.654 E2.11756
;WIDTH:0.357295
G1 X95.071 Y98.828 E2.12236
G1 X95.06 Y98.868 E2.12343
G1 X95.024 Y99.048 E2.12823
;WIDTH:0.405359
G1 X94.988 Y99.229 E2.13378
G1 X94.947 Y99.604 E2.14514
;WIDTH:0.372675
G1 X94.906 Y99.978 E2.15549
G1 X94.906 Y100.022 E2.15667
G1 X94.947 Y100.396 E2.16701
;WIDTH:0.405357
G1 X94.988 Y100.771 E2.17838
G1 X95.024 Y100.952 E2.18392
;WIDTH:0.357298
G1 X95.06 Y101.132 E2.18873
G1 X95.071 Y101.172 E2.1898
G1 X95.13 Y101.346 E2.1946
;WIDTH:0.405203
G1 X95.189 Y101.519 E2.20013
G1 X95.34 Y101.865 E2.21149
;WIDTH:0.372077
G1 X95.492 Y102.21 E2.22181
G1 X95.514 Y102.247 E2.22299
G1 X95.737 Y102.552 E2.23332
;WIDTH:0.405002
G1 X95.96 Y102.856 E2.24468
G1 X96.081 Y102.994 E2.25021
;WIDTH:0.35694
G1 X96.202 Y103.132 E2.25501
G1 X96.231 Y103.161 E2.25608
G1 X96.37 Y103.282 E2.26088
;WIDTH:0.405003
G1 X96.508 Y103.403 E2.26641
G1 X96.812 Y103.627 E2.27777
;WIDTH:0.372109
G1 X97.116 Y103.85 E2.2881
G1 X97.154 Y103.871 E2.28928
G1 X97.499 Y104.023 E2.2996
;WIDTH:0.405202
G1 X97.844 Y104.175 E2.31097
G1 X98.018 Y104.234 E2.3165
;WIDTH:0.357294
G1 X98.192 Y104.293 E2.3213
G1 X98.231 Y104.304 E2.32237
G1 X98.412 Y104.339 E2.32717
;WIDTH:0.40536
G1 X98.592 Y104.375 E2.33272
G1 X98.967 Y104.416 E2.34408
;WIDTH:0.372677
G1 X99.342 Y104.458 E2.35443
G1 X99.385 Y104.458 E2.35561
G1 X99.76 Y104.416 E2.36595
;WIDTH:0.405359
G1 X100.135 Y104.375 E2.37732
G1 X100.315 Y104.339 E2.38286
;WIDTH:0.357298
G1 X100.496 Y104.304 E2.38767
G1 X100.535 Y104.293 E2.38874
G1 X100.709 Y104.234 E2.39354
;WIDTH:0.405203
G1 X100.883 Y104.175 E2.39907
G1 X101.228 Y104.023 E2.41043
;WIDTH:0.372077
G1 X101.574 Y103.871 E2.42075
G1 X101.611 Y103.85 E2.42193
G1 X101.915 Y103.627 E2.43226
;WIDTH:0.405002
G1 X102.22 Y103.403 E2.44362
G1 X102.358 Y103.282 E2.44915
;WIDTH:0.35694
G1 X102.496 Y103.161 E2.45395
