; generated by SuperSlicer 2.5.59 on 2022-12-10 at 22:38:14 UTC


;
;

;
;
; 

; external perimeters extrusion width = 0.40mm
; perimeters extrusion width = 0.45mm
; infill extrusion width = 0.72mm
; solid infill extrusion width = 0.56mm
; top infill extrusion width = 0.40mm
; first layer extrusion width = 0.48mm

; object:{"name":"bear_upgrade_big_case_clamp_r2","id":"bear_upgrade_big_case_clamp_r2.stl id:0 copy 0","object_center":[60.000000,60.000000,0.000000],"boundingbox_center":[60.000000,60.000000,7.443107],"boundingbox_size":[36.000053,34.000092,14.886214]}
; plater:{"center":[60.000000,60.000000,0.000000],"boundingbox_center":[60.000000,60.000000,7.443107],"boundingbox_size":[36.000053,34.000092,14.886214]}

;TYPE:Custom
; M190 S0
; M109 S0 ; uncomment to remove set&wait temp gcode added automatically after this start gcode
print_start EXTRUDER=230 BED=110 CHAMBER=50
M107
G21 ; set units to millimeters
G90 ; use absolute coordinates
M83 ; use relative distances for extrusion
;_TOOLCHANGE 0
M104 S230 ; set temperature
M109 S230 ; set temperature and wait for it to be reached
M190 S110 ; set bed temperature and wait for it to be reached
M107
;LAYER_CHANGE
;Z:0.25
;HEIGHT:0.25
;BEFORE_LAYER_CHANGE
;0.25


G1 Z0.25 F27000
;AFTER_LAYER_CHANGE
;0.25
G92 E0
G1 E-2 F3000
M204 S1500
G1 Z0.65 F27000
; printing object bear_upgrade_big_case_clamp_r2.stl id:0 copy 0
G1 X49.839 Y69.977
G1 Z0.25
G1 E2 F1800
;TYPE:Internal perimeter
;WIDTH:0.48
G1 F900
G1 X49.541 Y70.217 E0.01534
G1 X49.265 Y70.532 E0.0168
G1 X49.045 Y70.888 E0.0168
G1 X48.889 Y71.277 E0.0168
G1 X48.801 Y71.686 E0.0168
G1 X48.783 Y72.105 E0.0168
G1 X48.836 Y72.52 E0.0168
G1 X48.959 Y72.921 E0.01679
G1 X49.147 Y73.295 E0.0168
G1 X49.396 Y73.631 E0.01679
G1 X49.699 Y73.921 E0.0168
G1 X50.046 Y74.156 E0.0168
G1 X50.427 Y74.328 E0.0168
G1 X50.833 Y74.434 E0.0168
G1 X51.25 Y74.469 E0.01679
G1 X51.667 Y74.434 E0.01679
G1 X52.073 Y74.328 E0.0168
G1 X52.454 Y74.156 E0.01679
G1 X52.801 Y73.921 E0.0168
G1 X53.103 Y73.631 E0.0168
G1 X53.353 Y73.295 E0.0168
G1 X53.541 Y72.921 E0.0168
G1 X53.664 Y72.52 E0.01679
G1 X53.717 Y72.105 E0.0168
G1 X53.699 Y71.686 E0.0168
G1 X53.611 Y71.277 E0.01679
G1 X53.455 Y70.888 E0.0168
G1 X53.235 Y70.532 E0.0168
G1 X52.958 Y70.217 E0.01679
G1 X52.633 Y69.954 E0.0168
G1 X52.267 Y69.75 E0.0168
G1 X51.872 Y69.611 E0.0168
G1 X51.459 Y69.54 E0.0168
G1 X51.041 Y69.54 E0.01679
G1 X50.628 Y69.611 E0.0168
G1 X50.233 Y69.75 E0.0168
G1 X49.888 Y69.943 E0.01584
M204 S1000
G1 X50.107 Y70.309 F27000
;TYPE:External perimeter
G1 F900
G1 X49.838 Y70.526 E0.01389
G1 X49.609 Y70.786 E0.01388
G1 X49.427 Y71.081 E0.01388
G1 X49.298 Y71.402 E0.01388
G1 X49.225 Y71.741 E0.01388
G1 X49.211 Y72.087 E0.01388
G1 X49.255 Y72.43 E0.01388
G1 X49.356 Y72.761 E0.01388
G1 X49.512 Y73.07 E0.01388
G1 X49.718 Y73.349 E0.01388
G1 X49.968 Y73.588 E0.01389
G1 X50.254 Y73.782 E0.01388
G1 X50.57 Y73.925 E0.01388
G1 X50.905 Y74.012 E0.01388
G1 X51.25 Y74.041 E0.01388
G1 X51.595 Y74.012 E0.01388
G1 X51.93 Y73.925 E0.01389
G1 X52.245 Y73.782 E0.01388
G1 X52.532 Y73.588 E0.01388
G1 X52.782 Y73.349 E0.01388
G1 X52.988 Y73.07 E0.01388
G1 X53.144 Y72.761 E0.01388
G1 X53.245 Y72.43 E0.01388
G1 X53.289 Y72.087 E0.01388
G1 X53.275 Y71.741 E0.01388
G1 X53.202 Y71.402 E0.01388
G1 X53.073 Y71.081 E0.01388
G1 X52.891 Y70.786 E0.01388
G1 X52.662 Y70.526 E0.01388
G1 X52.393 Y70.309 E0.01388
G1 X52.091 Y70.14 E0.01388
G1 X51.764 Y70.025 E0.01388
G1 X51.423 Y69.966 E0.01389
G1 X51.077 Y69.966 E0.01388
G1 X50.736 Y70.025 E0.01389
G1 X50.409 Y70.14 E0.01388
G1 X50.159 Y70.28 E0.01148
;WIPE_START
M204 S1500
G1 X49.742 Y70.144 F27000
;WIPE_END
G1 X48.949 Y69.6
;TYPE:Internal perimeter
G1 F900
G1 X48.577 Y70.023 E0.02262
G1 X48.281 Y70.503 E0.02262
G1 X48.071 Y71.026 E0.02262
G1 X47.952 Y71.578 E0.02262
G1 X47.943 Y71.781 E0.00816
G1 X44.609 Y71.781 E0.13373
G1 X45.619 Y70.771 E0.0573
G1 X45.619 Y65.112 E0.22694
G1 X47.383 Y65.112 E0.07073
G1 X47.383 Y66.613 E0.0602
G1 X53.621 Y66.613 E0.25017
G1 X53.621 Y65.112 E0.0602
G1 X55.381 Y65.112 E0.07059
G1 X55.381 Y74.829 E0.38971
G1 X54.829 Y75.381 E0.03128
G1 X52.467 Y75.381 E0.09474
G1 X52.409 Y75.112 E0.01104
G1 X52.872 Y74.903 E0.02035
G1 X53.339 Y74.587 E0.02262
G1 X53.746 Y74.197 E0.02262
G1 X54.081 Y73.743 E0.02262
G1 X54.335 Y73.24 E0.02262
G1 X54.5 Y72.701 E0.02262
G1 X54.572 Y72.141 E0.02262
G1 X54.548 Y71.578 E0.02262
G1 X54.429 Y71.026 E0.02262
G1 X54.219 Y70.503 E0.02262
G1 X53.923 Y70.023 E0.02262
G1 X53.551 Y69.6 E0.02261
G1 X53.112 Y69.245 E0.02262
G1 X52.62 Y68.97 E0.02262
G1 X52.088 Y68.782 E0.02262
G1 X51.532 Y68.687 E0.02262
G1 X50.968 Y68.687 E0.02262
G1 X50.412 Y68.782 E0.02262
G1 X49.88 Y68.97 E0.02262
G1 X49.388 Y69.245 E0.02262
G1 X48.996 Y69.562 E0.02021
G1 E-2 F3000
G1 Z0.65 F27000
G1 X48.619 Y74.067
G1 Z0.25
G1 E2 F1800
G1 F900
G1 X49.161 Y74.587 E0.03012
G1 X49.628 Y74.903 E0.02262
G1 X50.091 Y75.112 E0.02035
G1 X50.033 Y75.381 E0.01104
G1 X48.619 Y75.381 E0.0567
G1 X48.619 Y74.127 E0.05028
G1 X48.193 Y74.127 F27000
G1 F900
G1 X48.193 Y72.867 E0.05054
G1 X48.483 Y72.824 E0.01178
G1 X48.562 Y73.08 E0.01077
G1 X48.783 Y73.519 E0.01971
G1 X49.075 Y73.914 E0.01971
G1 X49.43 Y74.254 E0.01971
G1 X49.837 Y74.529 E0.01971
G1 X50.285 Y74.732 E0.01971
G1 X50.76 Y74.855 E0.01971
G1 X51.25 Y74.897 E0.01971
G1 X51.74 Y74.855 E0.01971
G1 X52.215 Y74.732 E0.01971
G1 X52.663 Y74.529 E0.01971
G1 X53.07 Y74.254 E0.01971
G1 X53.425 Y73.914 E0.01971
G1 X53.717 Y73.519 E0.01971
G1 X53.938 Y73.08 E0.01971
G1 X54.082 Y72.61 E0.01971
G1 X54.144 Y72.123 E0.01971
G1 X54.124 Y71.632 E0.01971
G1 X54.02 Y71.152 E0.01971
G1 X53.837 Y70.696 E0.01971
G1 X53.579 Y70.277 E0.01971
G1 X53.255 Y69.909 E0.0197
G1 X52.872 Y69.6 E0.01971
G1 X52.443 Y69.36 E0.01971
G1 X51.98 Y69.197 E0.01971
G1 X51.496 Y69.113 E0.01971
G1 X51.004 Y69.113 E0.01971
G1 X50.52 Y69.197 E0.01971
G1 X50.057 Y69.36 E0.01971
G1 X49.628 Y69.6 E0.0197
G1 X49.245 Y69.909 E0.01971
G1 X48.921 Y70.277 E0.01971
G1 X48.663 Y70.696 E0.01971
G1 X48.48 Y71.152 E0.01971
G1 X48.376 Y71.632 E0.01971
G1 X48.352 Y72.207 E0.02309
G1 X43.579 Y72.207 E0.1914
G1 X45.193 Y70.594 E0.0915
G1 X45.193 Y64.685 E0.23696
G1 X47.809 Y64.685 E0.10492
G1 X47.809 Y66.187 E0.0602
G1 X53.194 Y66.187 E0.21598
G1 X53.194 Y64.686 E0.0602
G1 X55.807 Y64.686 E0.10479
G1 X55.807 Y75.006 E0.41389
G1 X55.006 Y75.807 E0.04545
G1 X48.193 Y75.807 E0.27324
G1 X48.193 Y74.187 E0.06497
G1 X47.766 Y72.634 F27000
G1 F900
G1 X42.55 Y72.634 E0.20919
G1 X44.766 Y70.417 E0.12569
G1 X44.766 Y64.259 E0.24697
G1 X48.235 Y64.259 E0.13912
G1 X48.235 Y65.76 E0.0602
G1 X52.768 Y65.76 E0.18178
G1 X52.768 Y64.259 E0.0602
G1 X56.234 Y64.259 E0.13899
G1 X56.234 Y75.183 E0.43807
G1 X55.183 Y76.234 E0.05961
G1 X47.766 Y76.234 E0.29742
G1 X47.766 Y72.694 E0.14197
M204 S1000
G1 X47.34 Y73.06 F27000
;TYPE:External perimeter
G1 F900
G1 X43.46 Y73.06 E0.1556
G1 X43.46 Y74.56 E0.06016
G1 X43.019 Y74.56 E0.01768
G1 X42.854 Y74.541 E0.00668
G1 X42.715 Y74.493 E0.00591
G1 X42.59 Y74.414 E0.00591
G1 X42.486 Y74.31 E0.00591
G1 X42.407 Y74.185 E0.00591
G1 X42.359 Y74.046 E0.00591
G1 X42.34 Y73.881 E0.00668
G1 X42.34 Y72.241 E0.06577
G1 X44.34 Y70.241 E0.11343
G1 X44.34 Y63.833 E0.25699
G1 X48.662 Y63.833 E0.17332
G1 X48.662 Y65.334 E0.0602
G1 X52.342 Y65.334 E0.14758
G1 X52.342 Y63.833 E0.0602
G1 X56.66 Y63.833 E0.17318
G1 X56.66 Y75.359 E0.46225
G1 X55.359 Y76.66 E0.07378
G1 X47.34 Y76.66 E0.3216
G1 X47.34 Y73.12 E0.14197
;WIPE_START
M204 S1500
G1 X47.34 Y72.66 F27000
;WIPE_END
G1 E-2 F3000
G1 Z0.65 F27000
G1 X50.259 Y75.26
G1 Z0.25
G1 E2 F1800
;TYPE:Gap fill
;WIDTH:0.73868
G1 F900
G1 X50.406 Y75.286 E0.00963
;WIDTH:0.651166
G1 X50.554 Y75.313 E0.0084
G1 X50.703 Y75.33 E0.00847
;WIDTH:0.616954
G1 X50.966 Y75.341 E0.01391
;WIDTH:0.57238
G1 X51.228 Y75.352 E0.01281
G1 X51.272 Y75.352 E0.00215
G1 X51.534 Y75.341 E0.01281
;WIDTH:0.616954
G1 X51.797 Y75.33 E0.01391
G1 X51.946 Y75.313 E0.00798
;WIDTH:0.651166
G1 X52.093 Y75.286 E0.0084
;WIDTH:0.710917
G1 X52.241 Y75.26 E0.00924
G1 E-2 F3000
G1 Z0.65 F27000
G1 X55.317 Y74.298
G1 Z0.25
G1 E2 F1800
;TYPE:Solid infill
;WIDTH:0.509834
G1 F1200
G1 X54.467 Y73.448 E0.05123
G1 X54.293 Y73.877 E0.01973
G1 X55.134 Y74.718 E0.05064
G1 X55.134 Y74.727 E0.0004
G1 X54.837 Y75.024 E0.01788
G1 X54.011 Y74.198 E0.04977
G1 X53.728 Y74.518 E0.0182
G1 X54.344 Y75.134 E0.03707
G1 X53.741 Y75.134 E0.02568
G1 X53.316 Y74.709 E0.02558
G1 X54.845 Y73.313 F27000
;TYPE:Gap fill
;WIDTH:0.679481
G1 F900
G1 X54.873 Y73.173 E0.00838
;WIDTH:0.622589
G1 X54.901 Y73.034 E0.00762
G1 X54.917 Y72.925 E0.0059
;WIDTH:0.548251
G1 X54.933 Y72.816 E0.00513
G1 X54.938 Y72.773 E0.00198
G1 X54.957 Y72.475 E0.01392
;WIDTH:0.470573
G1 X54.976 Y72.176 E0.01174
G1 X54.977 Y72.141 E0.00139
G1 X54.97 Y71.842 E0.01171
;WIDTH:0.500306
G1 X54.964 Y71.543 E0.01255
G1 X54.947 Y71.366 E0.00748
;WIDTH:0.540393
G1 X54.932 Y71.227 E0.00643
;WIDTH:0.580036
G1 X54.917 Y71.087 E0.00695
;WIDTH:0.606591
G1 X54.902 Y70.947 E0.0073
G1 X54.88 Y70.771 E0.00923
;WIDTH:0.67299
G1 X54.866 Y70.666 E0.00619
G1 E-2 F3000
G1 Z0.65 F27000
G1 X54.455 Y65.176
G1 Z0.25
G1 E2 F1800
;TYPE:Solid infill
;WIDTH:0.445091
G1 F1200
G1 X55.134 Y65.854 E0.03569
G1 X55.134 Y66.457 E0.02242
G1 X54.035 Y65.359 E0.05776
G1 X53.868 Y65.359 E0.00623
G1 X53.868 Y65.795 E0.01619
G1 X55.134 Y67.06 E0.06657
G1 X55.134 Y67.663 E0.02242
G1 X53.868 Y66.398 E0.06657
G1 X53.868 Y66.86 E0.0172
G1 X53.728 Y66.86 E0.00522
G1 X55.134 Y68.266 E0.07394
G1 X55.134 Y68.869 E0.02242
G1 X53.125 Y66.86 E0.10565
G1 X52.522 Y66.86 E0.02242
G1 X55.134 Y69.472 E0.13736
G1 X55.134 Y70.075 E0.02242
G1 X51.919 Y66.86 E0.16907
G1 X51.316 Y66.86 E0.02242
G1 X54.909 Y70.454 E0.18899
G1 X54.834 Y70.464 E0.00283
G1 X54.522 Y70.524 E0.01181
G1 X54.117 Y69.866 E0.02873
G1 X53.252 Y69.037 E0.04454
G1 X52.591 Y68.739 E0.02697
G1 X50.713 Y66.86 E0.09879
G1 X50.11 Y66.86 E0.02242
G1 X51.756 Y68.506 E0.08655
G1 X51.097 Y68.45 E0.0246
G1 X49.507 Y66.86 E0.0836
G1 X48.904 Y66.86 E0.02242
G1 X50.552 Y68.508 E0.08664
G1 X50.339 Y68.544 E0.00801
G1 X50.095 Y68.654 E0.00995
G1 X48.118 Y66.677 E0.104
G1 X47.319 Y65.878 F27000
G1 F1200
G1 X46.8 Y65.359 E0.02728
G1 X46.197 Y65.359 E0.02242
G1 X47.135 Y66.297 E0.04935
G1 X47.135 Y66.86 E0.02093
G1 X47.698 Y66.86 E0.02093
G1 X49.68 Y68.842 E0.10423
G1 X49.265 Y69.03 E0.01695
G1 X45.866 Y65.631 E0.17873
G1 X45.866 Y66.234 E0.02242
G1 X48.93 Y69.298 E0.16111
G1 X48.769 Y69.427 E0.00766
G1 X48.636 Y69.607 E0.00833
G1 X45.866 Y66.837 E0.14568
G1 X45.866 Y67.44 E0.02242
G1 X48.38 Y69.954 E0.13219
G1 X48.124 Y70.3 E0.01603
G1 X45.866 Y68.043 E0.11871
G1 X45.866 Y68.646 E0.02242
G1 X47.931 Y70.711 E0.10859
G1 X47.831 Y70.959 E0.00994
G1 X47.795 Y71.177 E0.00823
G1 X45.866 Y69.249 E0.10141
G1 X45.866 Y69.852 E0.02242
G1 X47.548 Y71.534 E0.08845
G1 X46.945 Y71.534 E0.02242
G1 X45.866 Y70.455 E0.05674
G1 X45.866 Y70.873 E0.01555
G1 X45.774 Y70.965 E0.00486
G1 X46.342 Y71.534 E0.02989
G1 X45.739 Y71.534 E0.02242
G1 X45.343 Y71.137 E0.02085
G1 X42.9 Y72.83 F27000
;TYPE:Gap fill
;WIDTH:0.781856
G1 F900
G1 X42.9 Y73.85 E0.06986
G1 X42.941 Y74.022 E0.01217
;WIDTH:0.601482
G1 X43.043 Y74.143 E0.00811
;WIDTH:0.389689
G1 X43.175 Y74.276 E0.00594
;WIDTH:0.175505
G1 X43.264 Y74.364 E0.00144
G1 E-2 F3000
G1 Z0.65 F27000
G1 X68.928 Y71.781
G1 Z0.25
G1 E2 F1800
;TYPE:Internal perimeter
;WIDTH:0.48
G1 F900
G1 X65.609 Y71.781 E0.1331
G1 X66.619 Y70.771 E0.0573
G1 X66.619 Y65.109 E0.22704
G1 X68.389 Y65.106 E0.07097
G1 X68.362 Y66.627 E0.06098
G1 X74.725 Y66.594 E0.25517
G1 X74.61 Y65.107 E0.05982
G1 X76.381 Y65.11 E0.07101
G1 X76.381 Y74.829 E0.3898
G1 X75.829 Y75.381 E0.03128
G1 X73.465 Y75.381 E0.09481
G1 X73.408 Y75.11 E0.01111
G1 X73.832 Y74.924 E0.01857
G1 X74.292 Y74.624 E0.02202
G1 X74.696 Y74.252 E0.02202
G1 X75.033 Y73.818 E0.02202
G1 X75.295 Y73.335 E0.02202
G1 X75.473 Y72.816 E0.02202
G1 X75.563 Y72.275 E0.02202
G1 X75.563 Y71.725 E0.02202
G1 X75.473 Y71.184 E0.02202
G1 X75.295 Y70.665 E0.02202
G1 X75.033 Y70.182 E0.02202
G1 X74.696 Y69.748 E0.02202
G1 X74.292 Y69.376 E0.02202
G1 X73.832 Y69.076 E0.02202
G1 X73.33 Y68.856 E0.02202
G1 X72.797 Y68.721 E0.02202
G1 X72.25 Y68.675 E0.02202
G1 X71.703 Y68.721 E0.02202
G1 X71.171 Y68.856 E0.02202
G1 X70.668 Y69.076 E0.02202
G1 X70.208 Y69.376 E0.02202
G1 X69.804 Y69.748 E0.02202
G1 X69.467 Y70.182 E0.02202
G1 X69.205 Y70.665 E0.02202
G1 X69.027 Y71.184 E0.02202
G1 X68.937 Y71.722 E0.02187
G1 X69.619 Y74.081 F27000
G1 F900
G1 X70.208 Y74.624 E0.0321
G1 X70.668 Y74.924 E0.02202
G1 X71.092 Y75.11 E0.01857
G1 X71.035 Y75.381 E0.01111
G1 X69.619 Y75.381 E0.05678
G1 X69.619 Y74.141 E0.04971
G1 X69.193 Y72.863 F27000
G1 F900
G1 X69.478 Y72.815 E0.01159
G1 X69.597 Y73.164 E0.01477
G1 X69.825 Y73.584 E0.01919
G1 X70.119 Y73.962 E0.01919
G1 X70.471 Y74.286 E0.01919
G1 X70.871 Y74.548 E0.01919
G1 X71.309 Y74.74 E0.01919
G1 X71.773 Y74.857 E0.01919
G1 X72.25 Y74.897 E0.01919
G1 X72.727 Y74.857 E0.01919
G1 X73.191 Y74.74 E0.01919
G1 X73.629 Y74.548 E0.01919
G1 X74.029 Y74.286 E0.01919
G1 X74.381 Y73.962 E0.01919
G1 X74.675 Y73.584 E0.01919
G1 X74.903 Y73.164 E0.01919
G1 X75.058 Y72.711 E0.01919
G1 X75.137 Y72.239 E0.01919
G1 X75.137 Y71.761 E0.01919
G1 X75.058 Y71.289 E0.01919
G1 X74.903 Y70.836 E0.01919
G1 X74.675 Y70.416 E0.01919
G1 X74.381 Y70.038 E0.01919
G1 X74.029 Y69.714 E0.01919
G1 X73.629 Y69.452 E0.01919
G1 X73.191 Y69.26 E0.01919
G1 X72.727 Y69.143 E0.01919
G1 X72.25 Y69.103 E0.01919
G1 X71.773 Y69.143 E0.01919
G1 X71.309 Y69.26 E0.01919
G1 X70.871 Y69.452 E0.01919
G1 X70.471 Y69.714 E0.01919
G1 X70.119 Y70.038 E0.01919
G1 X69.825 Y70.416 E0.01919
G1 X69.597 Y70.836 E0.01919
G1 X69.442 Y71.289 E0.01919
G1 X69.363 Y71.761 E0.01919
G1 X69.363 Y72.207 E0.01791
G1 X64.579 Y72.207 E0.19185
G1 X66.193 Y70.594 E0.0915
G1 X66.193 Y64.684 E0.23703
G1 X68.391 Y64.68 E0.08816
G1 X68.823 Y64.655 E0.01735
G1 X68.796 Y66.198 E0.06189
G1 X74.265 Y66.17 E0.21931
G1 X74.148 Y64.656 E0.06089
G1 X74.564 Y64.68 E0.01669
G1 X76.807 Y64.684 E0.08998
G1 X76.807 Y75.006 E0.41396
G1 X76.006 Y75.807 E0.04545
G1 X69.193 Y75.807 E0.27324
G1 X69.193 Y72.923 E0.11568
G1 X69.789 Y72.169 F27000
G1 F900
G1 X69.789 Y72.204 E0.00142
G1 X69.857 Y72.606 E0.01635
G1 X69.989 Y72.992 E0.01635
G1 X70.183 Y73.35 E0.01635
G1 X70.434 Y73.672 E0.01635
G1 X70.734 Y73.948 E0.01635
G1 X71.075 Y74.171 E0.01635
G1 X71.448 Y74.335 E0.01635
G1 X71.844 Y74.435 E0.01635
G1 X72.25 Y74.469 E0.01635
G1 X72.656 Y74.435 E0.01635
G1 X73.052 Y74.335 E0.01635
G1 X73.425 Y74.171 E0.01635
G1 X73.766 Y73.948 E0.01635
G1 X74.067 Y73.672 E0.01635
G1 X74.317 Y73.35 E0.01635
G1 X74.511 Y72.992 E0.01635
G1 X74.643 Y72.606 E0.01635
G1 X74.711 Y72.204 E0.01635
G1 X74.711 Y71.796 E0.01635
G1 X74.643 Y71.394 E0.01635
G1 X74.511 Y71.008 E0.01635
G1 X74.317 Y70.65 E0.01635
G1 X74.067 Y70.328 E0.01635
G1 X73.766 Y70.052 E0.01635
G1 X73.425 Y69.829 E0.01635
G1 X73.052 Y69.665 E0.01635
G1 X72.656 Y69.565 E0.01635
G1 X72.25 Y69.531 E0.01635
G1 X71.844 Y69.565 E0.01635
G1 X71.448 Y69.665 E0.01635
G1 X71.075 Y69.829 E0.01635
G1 X70.734 Y70.052 E0.01635
G1 X70.434 Y70.328 E0.01635
G1 X70.183 Y70.65 E0.01635
G1 X69.989 Y71.008 E0.01635
G1 X69.857 Y71.394 E0.01635
G1 X69.789 Y71.796 E0.01635
G1 X69.789 Y72.109 E0.01253
M204 S1000
G1 X70.216 Y72.169 F27000
;TYPE:External perimeter
G1 F900
G1 X70.271 Y72.501 E0.01352
G1 X70.381 Y72.82 E0.01352
G1 X70.541 Y73.116 E0.01352
G1 X70.748 Y73.382 E0.01352
G1 X70.996 Y73.611 E0.01352
G1 X71.279 Y73.795 E0.01352
G1 X71.587 Y73.931 E0.01352
G1 X71.914 Y74.013 E0.01352
G1 X72.25 Y74.041 E0.01352
G1 X72.586 Y74.013 E0.01352
G1 X72.913 Y73.931 E0.01352
G1 X73.222 Y73.795 E0.01352
G1 X73.504 Y73.611 E0.01352
G1 X73.752 Y73.382 E0.01352
G1 X73.959 Y73.116 E0.01352
G1 X74.119 Y72.82 E0.01352
G1 X74.229 Y72.501 E0.01352
G1 X74.284 Y72.169 E0.01352
G1 X74.284 Y71.831 E0.01352
G1 X74.229 Y71.499 E0.01352
G1 X74.119 Y71.18 E0.01352
G1 X73.959 Y70.884 E0.01352
G1 X73.752 Y70.618 E0.01352
G1 X73.504 Y70.389 E0.01352
G1 X73.222 Y70.205 E0.01352
G1 X72.913 Y70.069 E0.01352
G1 X72.586 Y69.987 E0.01352
