; generated by SuperSlicer 2.5.59 on 2022-12-10 at 02:29:09 UTC


;
;

;
;
; TODO: check the size of the extruder and the y-bar clearance. Optimize & test supports.

; external perimeters extrusion width = 0.42mm
; perimeters extrusion width = 0.46mm
; infill extrusion width = 0.44mm
; solid infill extrusion width = 0.46mm
; top infill extrusion width = 0.44mm
; first layer extrusion width = 0.56mm

; object:{"name":"Shape-Box","id":"Shape-Box id:0 copy 0","object_center":[60.000000,60.000000,0.000000],"boundingbox_center":[60.000000,60.000000,1.500000],"boundingbox_size":[30.000000,30.000000,3.000000]}
; plater:{"center":[60.000000,60.000000,0.000000],"boundingbox_center":[60.000000,60.000000,1.500000],"boundingbox_size":[30.000000,30.000000,3.000000]}

;TYPE:Custom
; M190 S0
; M109 S0 ; uncomment to remove set&wait temp gcode added automatically after this start gcode
print_start EXTRUDER=230 BED=110 CHAMBER=50


; Pre-Processed for Cancel-Object support by preprocess_cancellation v0.2.0
; 1 known objects
EXCLUDE_OBJECT_DEFINE NAME=Shape_Box_id_0_copy_0 CENTER=59.967,60.073 POLYGON=[[45.21,45.21],[45.21,74.79],[74.79,74.79],[74.79,45.21],[45.21,45.21]]
M107
G21 ; set units to millimeters
G90 ; use absolute coordinates
M83 ; use relative distances for extrusion
;_TOOLCHANGE 0
M104 S230 ; set temperature
M109 S230 ; set temperature and wait for it to be reached
M190 S110 ; set bed temperature and wait for it to be reached
M107
;LAYER_CHANGE
;Z:0.2
;HEIGHT:0.2
;BEFORE_LAYER_CHANGE
;0.2


G1 Z0.2 F18000
;AFTER_LAYER_CHANGE
;0.2
G92 E0
G1 E-2 F3000
G1 Z0.6 F18000
M204 S1000
G1 X41.946 Y41.656
G1 Z0.2
G1 E2 F1800
;TYPE:Skirt
;WIDTH:0.52
G1 X40.826 Y43.219 E0.07626
G1 X40.43 Y45.1 E0.07626
G1 X40.43 Y74.9 E1.18215
G1 X40.677 Y76.399 E0.06028
G1 X41.656 Y78.054 E0.07626
G1 X43.219 Y79.174 E0.07626
G1 X45.1 Y79.57 E0.07626
G1 X74.9 Y79.57 E1.18215
G1 X76.399 Y79.323 E0.06028
G1 X78.054 Y78.344 E0.07626
G1 X79.174 Y76.781 E0.07626
G1 X79.57 Y74.9 E0.07626
G1 X79.57 Y45.1 E1.18215
G1 X79.323 Y43.601 E0.06028
G1 X78.344 Y41.946 E0.07626
G1 X76.781 Y40.826 E0.07626
G1 X74.9 Y40.43 E0.07626
G1 X45.1 Y40.43 E1.18215
G1 X43.601 Y40.677 E0.06028
G1 X41.998 Y41.626 E0.07388
G1 X42.382 Y41.922 F18000
G1 F1800
G1 X41.303 Y43.323 E0.07016
G1 X40.907 Y45.1 E0.07222
G1 X40.907 Y74.9 E1.18215
G1 X41.046 Y75.969 E0.04275
G1 X41.881 Y77.586 E0.07222
G1 X43.323 Y78.697 E0.07222
G1 X45.1 Y79.093 E0.07222
G1 X74.9 Y79.093 E1.18215
G1 X75.969 Y78.954 E0.04275
G1 X77.586 Y78.119 E0.07222
G1 X78.697 Y76.677 E0.07222
G1 X79.093 Y74.9 E0.07222
G1 X79.093 Y45.1 E1.18215
G1 X78.954 Y44.031 E0.04275
G1 X78.119 Y42.414 E0.07222
G1 X76.677 Y41.303 E0.07222
G1 X74.9 Y40.907 E0.07222
G1 X45.1 Y40.907 E1.18215
G1 X44.031 Y41.046 E0.04275
G1 X42.421 Y41.877 E0.07189
G1 X42.81 Y42.203 F18000
G1 F1800
G1 X41.779 Y43.434 E0.06368
G1 X41.384 Y45.1 E0.06793
G1 X41.384 Y74.9 E1.18215
G1 X42.121 Y77.121 E0.09283
G1 X43.434 Y78.221 E0.06793
G1 X45.1 Y78.616 E0.06793
G1 X74.9 Y78.616 E1.18215
G1 X77.121 Y77.879 E0.09283
G1 X78.221 Y76.566 E0.06793
G1 X78.616 Y74.9 E0.06793
G1 X78.616 Y45.1 E1.18215
G1 X77.879 Y42.879 E0.09283
G1 X76.566 Y41.779 E0.06793
G1 X74.9 Y41.384 E0.06793
G1 X45.1 Y41.384 E1.18215
G1 X42.879 Y42.121 E0.09283
G1 X42.849 Y42.157 E0.00187
G1 X43.225 Y42.506 F18000
G1 F1800
G1 X42.255 Y43.552 E0.05658
G1 X41.861 Y45.1 E0.06336
G1 X41.861 Y74.9 E1.18215
G1 X42.381 Y76.659 E0.07276
G1 X43.552 Y77.745 E0.06336
G1 X45.1 Y78.139 E0.06336
G1 X74.9 Y78.139 E1.18215
G1 X76.659 Y77.619 E0.07276
G1 X77.745 Y76.448 E0.06336
G1 X78.139 Y74.9 E0.06336
G1 X78.139 Y45.1 E1.18215
G1 X77.619 Y43.341 E0.07276
G1 X76.448 Y42.255 E0.06336
G1 X74.9 Y41.861 E0.06336
G1 X45.1 Y41.861 E1.18215
G1 X43.341 Y42.381 E0.07276
G1 X43.266 Y42.462 E0.00439
G1 E-2 F3000
M204 S1500
G1 Z0.6 F18000
; printing object Shape-Box id:0 copy 0
EXCLUDE_OBJECT_START NAME=Shape_Box_id_0_copy_0
; acceleration to travel
G1 X45.775 Y45.454
; decel to extrusion
M204 S1000
G1 X47.448 Y47.448
; end travel
G1 Z0.2
G1 E2 F1800
;TYPE:Internal perimeter
;WIDTH:0.56
G1 X72.552 Y47.448 E1.07933
G1 X72.552 Y72.552 E1.07933
G1 X47.448 Y72.552 E1.07933
G1 X47.448 Y47.508 E1.07675
G1 X46.931 Y46.931 F18000
G1 F1800
G1 X73.069 Y46.931 E1.12379
G1 X73.069 Y73.069 E1.12379
G1 X46.931 Y73.069 E1.12379
G1 X46.931 Y46.991 E1.12121
G1 X46.414 Y46.414 F18000
G1 F1800
G1 X73.586 Y46.414 E1.16826
G1 X73.586 Y73.586 E1.16826
G1 X46.414 Y73.586 E1.16826
G1 X46.414 Y46.474 E1.16568
G1 X45.897 Y45.897 F18000
G1 F1800
G1 X74.103 Y45.897 E1.21272
G1 X74.103 Y74.103 E1.21272
G1 X45.897 Y74.103 E1.21272
G1 X45.897 Y45.957 E1.21014
G1 X45.38 Y45.38 F18000
;TYPE:External perimeter
G1 F1800
G1 X74.62 Y45.38 E1.25718
G1 X74.62 Y74.62 E1.25718
G1 X45.38 Y74.62 E1.25718
G1 X45.38 Y45.44 E1.2546
;WIPE_START
M204 S1500
G1 X45.726 Y45.58 F18000
;WIPE_END
G1 E-2 F3000
G1 Z0.6 F18000
; acceleration to travel
G1 X61.086 Y46.81
; decel to extrusion
M204 S1000
G1 X71.325 Y47.629
; end travel
G1 Z0.2
G1 E2 F1800
;TYPE:Solid infill
;WIDTH:0.559844
G1 X72.148 Y48.452 E0.05002
G1 X72.148 Y49.183 E0.03143
G1 X70.817 Y47.852 E0.08096
G1 X70.085 Y47.852 E0.03143
G1 X72.148 Y49.915 E0.12541
G1 X72.148 Y50.646 E0.03143
G1 X69.354 Y47.852 E0.16986
G1 X68.623 Y47.852 E0.03143
G1 X72.148 Y51.377 E0.21431
G1 X72.148 Y52.108 E0.03143
G1 X67.892 Y47.852 E0.25876
G1 X67.16 Y47.852 E0.03143
G1 X72.148 Y52.84 E0.30322
G1 X72.148 Y53.571 E0.03143
G1 X66.429 Y47.852 E0.34767
G1 X65.698 Y47.852 E0.03143
G1 X72.148 Y54.302 E0.39212
G1 X72.148 Y55.034 E0.03143
G1 X64.966 Y47.852 E0.43657
G1 X64.235 Y47.852 E0.03143
G1 X72.148 Y55.765 E0.48102
G1 X72.148 Y56.496 E0.03143
G1 X63.504 Y47.852 E0.52547
G1 X62.773 Y47.852 E0.03143
G1 X72.148 Y57.227 E0.56993
G1 X72.148 Y57.959 E0.03143
G1 X62.041 Y47.852 E0.61438
G1 X61.31 Y47.852 E0.03143
G1 X72.148 Y58.69 E0.65883
G1 X72.148 Y59.421 E0.03143
G1 X60.579 Y47.852 E0.70328
G1 X59.848 Y47.852 E0.03143
G1 X72.148 Y60.152 E0.74773
G1 X72.148 Y60.884 E0.03143
G1 X59.116 Y47.852 E0.79218
G1 X58.385 Y47.852 E0.03143
G1 X72.148 Y61.615 E0.83664
G1 X72.148 Y62.346 E0.03143
G1 X57.654 Y47.852 E0.88109
G1 X56.923 Y47.852 E0.03143
G1 X72.148 Y63.077 E0.92554
G1 X72.148 Y63.809 E0.03143
G1 X56.191 Y47.852 E0.96999
G1 X55.46 Y47.852 E0.03143
G1 X72.148 Y64.54 E1.01444
G1 X72.148 Y65.271 E0.03143
G1 X54.729 Y47.852 E1.05889
G1 X53.998 Y47.852 E0.03143
G1 X72.148 Y66.002 E1.10335
G1 X72.148 Y66.734 E0.03143
G1 X53.266 Y47.852 E1.1478
G1 X52.535 Y47.852 E0.03143
G1 X72.148 Y67.465 E1.19225
G1 X72.148 Y68.196 E0.03143
G1 X51.804 Y47.852 E1.2367
G1 X51.073 Y47.852 E0.03143
G1 X72.148 Y68.927 E1.28115
G1 X72.148 Y69.659 E0.03143
G1 X50.341 Y47.852 E1.3256
G1 X49.61 Y47.852 E0.03143
G1 X72.148 Y70.39 E1.37006
G1 X72.148 Y71.121 E0.03143
G1 X48.879 Y47.852 E1.41451
G1 X48.147 Y47.852 E0.03143
G1 X72.148 Y71.853 E1.45896
G1 X72.148 Y72.148 E0.01272
G1 X71.713 Y72.148 E0.01871
G1 X47.852 Y48.287 E1.45048
G1 X47.852 Y49.018 E0.03143
G1 X70.982 Y72.148 E1.40603
G1 X70.25 Y72.148 E0.03143
G1 X47.852 Y49.75 E1.36158
G1 X47.852 Y50.481 E0.03143
G1 X69.519 Y72.148 E1.31712
G1 X68.788 Y72.148 E0.03143
G1 X47.852 Y51.212 E1.27267
G1 X47.852 Y51.943 E0.03143
G1 X68.057 Y72.148 E1.22822
G1 X67.325 Y72.148 E0.03143
G1 X47.852 Y52.675 E1.18377
G1 X47.852 Y53.406 E0.03143
G1 X66.594 Y72.148 E1.13932
G1 X65.863 Y72.148 E0.03143
G1 X47.852 Y54.137 E1.09487
G1 X47.852 Y54.868 E0.03143
G1 X65.132 Y72.148 E1.05041
G1 X64.4 Y72.148 E0.03143
G1 X47.852 Y55.6 E1.00596
G1 X47.852 Y56.331 E0.03143
G1 X63.669 Y72.148 E0.96151
G1 X62.938 Y72.148 E0.03143
G1 X47.852 Y57.062 E0.91706
G1 X47.852 Y57.793 E0.03143
G1 X62.207 Y72.148 E0.87261
G1 X61.475 Y72.148 E0.03143
G1 X47.852 Y58.525 E0.82816
G1 X47.852 Y59.256 E0.03143
G1 X60.744 Y72.148 E0.7837
G1 X60.013 Y72.148 E0.03143
G1 X47.852 Y59.987 E0.73925
G1 X47.852 Y60.718 E0.03143
G1 X59.282 Y72.148 E0.6948
G1 X58.55 Y72.148 E0.03143
G1 X47.852 Y61.45 E0.65035
G1 X47.852 Y62.181 E0.03143
G1 X57.819 Y72.148 E0.6059
G1 X57.088 Y72.148 E0.03143
G1 X47.852 Y62.912 E0.56145
G1 X47.852 Y63.643 E0.03143
G1 X56.357 Y72.148 E0.51699
G1 X55.625 Y72.148 E0.03143
G1 X47.852 Y64.375 E0.47254
G1 X47.852 Y65.106 E0.03143
G1 X54.894 Y72.148 E0.42809
G1 X54.163 Y72.148 E0.03143
G1 X47.852 Y65.837 E0.38364
G1 X47.852 Y66.569 E0.03143
G1 X53.431 Y72.148 E0.33919
G1 X52.7 Y72.148 E0.03143
G1 X47.852 Y67.3 E0.29474
G1 X47.852 Y68.031 E0.03143
G1 X51.969 Y72.148 E0.25028
G1 X51.238 Y72.148 E0.03143
G1 X47.852 Y68.762 E0.20583
G1 X47.852 Y69.494 E0.03143
G1 X50.506 Y72.148 E0.16138
G1 X49.775 Y72.148 E0.03143
G1 X47.852 Y70.225 E0.11693
G1 X47.852 Y70.956 E0.03143
G1 X49.044 Y72.148 E0.07248
G1 X48.313 Y72.148 E0.03143
G1 X47.629 Y71.465 E0.04154
;LAYER_CHANGE
;Z:0.4
;HEIGHT:0.2
;BEFORE_LAYER_CHANGE
;0.4


; stop printing object Shape-Box id:0 copy 0
EXCLUDE_OBJECT_END NAME=Shape_Box_id_0_copy_0
M204 S1500
G1 Z0.4 F18000
;AFTER_LAYER_CHANGE
;0.4
G92 E0
M104 S235 ; set temperature
; printing object Shape-Box id:0 copy 0
EXCLUDE_OBJECT_START NAME=Shape_Box_id_0_copy_0
G1 X46.872 Y73.128
;TYPE:Internal perimeter
;WIDTH:0.464
G1 F6000
G1 X46.872 Y46.872 E0.91928
G1 X73.128 Y46.872 E0.91928
G1 X73.128 Y73.128 E0.91928
G1 X46.932 Y73.128 E0.91718
G1 X46.451 Y73.549 F18000
G1 F6000
G1 X46.451 Y46.451 E0.94876
G1 X73.549 Y46.451 E0.94876
G1 X73.549 Y73.549 E0.94876
G1 X46.511 Y73.549 E0.94666
G1 X46.03 Y73.97 F18000
G1 F6000
G1 X46.03 Y46.03 E0.97825
G1 X73.97 Y46.03 E0.97825
G1 X73.97 Y73.97 E0.97825
G1 X46.09 Y73.97 E0.97615
G1 X45.609 Y74.391 F18000
G1 F6000
G1 X45.609 Y45.609 E1.00774
G1 X74.391 Y45.609 E1.00774
G1 X74.391 Y74.391 E1.00774
G1 X45.669 Y74.391 E1.00564
G1 X45.21 Y74.79 F18000
;TYPE:External perimeter
;WIDTH:0.42
G1 F2400
G1 X45.21 Y45.21 E0.92746
G1 X74.79 Y45.21 E0.92746
G1 X74.79 Y74.79 E0.92746
G1 X45.27 Y74.79 E0.92558
;WIPE_START
G1 X45.41 Y74.444 F18000
;WIPE_END
G1 X72.129 Y72.98
;TYPE:Solid infill
;WIDTH:0.465155
G1 F7200
G1 X72.799 Y72.31 E0.03327
G1 X72.799 Y71.715 E0.0209
G1 X71.715 Y72.799 E0.05384
G1 X71.119 Y72.799 E0.0209
G1 X72.799 Y71.119 E0.0834
G1 X72.799 Y70.524 E0.0209
G1 X70.524 Y72.799 E0.11296
G1 X69.928 Y72.799 E0.0209
G1 X72.799 Y69.928 E0.14252
G1 X72.799 Y69.333 E0.0209
G1 X69.333 Y72.799 E0.17208
G1 X68.737 Y72.799 E0.0209
G1 X72.799 Y68.737 E0.20164
G1 X72.799 Y68.142 E0.0209
G1 X68.142 Y72.799 E0.2312
G1 X67.546 Y72.799 E0.0209
G1 X72.799 Y67.546 E0.26076
G1 X72.799 Y66.951 E0.0209
G1 X66.951 Y72.799 E0.29032
G1 X66.355 Y72.799 E0.0209
G1 X72.799 Y66.355 E0.31988
G1 X72.799 Y65.76 E0.0209
G1 X65.76 Y72.799 E0.34944
G1 X65.164 Y72.799 E0.0209
G1 X72.799 Y65.164 E0.379
G1 X72.799 Y64.569 E0.0209
G1 X64.569 Y72.799 E0.40855
G1 X63.973 Y72.799 E0.0209
G1 X72.799 Y63.973 E0.43811
G1 X72.799 Y63.378 E0.0209
G1 X63.378 Y72.799 E0.46767
G1 X62.782 Y72.799 E0.0209
G1 X72.799 Y62.782 E0.49723
G1 X72.799 Y62.187 E0.0209
G1 X62.187 Y72.799 E0.52679
G1 X61.591 Y72.799 E0.0209
G1 X72.799 Y61.591 E0.55635
G1 X72.799 Y60.996 E0.0209
G1 X60.996 Y72.799 E0.58591
G1 X60.4 Y72.799 E0.0209
G1 X72.799 Y60.4 E0.61547
G1 X72.799 Y59.805 E0.0209
G1 X59.805 Y72.799 E0.64503
G1 X59.209 Y72.799 E0.0209
G1 X72.799 Y59.209 E0.67459
G1 X72.799 Y58.614 E0.0209
G1 X58.614 Y72.799 E0.70415
G1 X58.018 Y72.799 E0.0209
G1 X72.799 Y58.018 E0.73371
G1 X72.799 Y57.423 E0.0209
G1 X57.423 Y72.799 E0.76327
G1 X56.827 Y72.799 E0.0209
G1 X72.799 Y56.827 E0.79283
G1 X72.799 Y56.232 E0.0209
G1 X56.232 Y72.799 E0.82239
G1 X55.636 Y72.799 E0.0209
G1 X72.799 Y55.636 E0.85195
G1 X72.799 Y55.041 E0.0209
G1 X55.041 Y72.799 E0.88151
G1 X54.445 Y72.799 E0.0209
G1 X72.799 Y54.445 E0.91107
G1 X72.799 Y53.85 E0.0209
G1 X53.85 Y72.799 E0.94063
G1 X53.254 Y72.799 E0.0209
G1 X72.799 Y53.254 E0.97019
G1 X72.799 Y52.659 E0.0209
G1 X52.659 Y72.799 E0.99975
G1 X52.063 Y72.799 E0.0209
G1 X72.799 Y52.063 E1.02931
G1 X72.799 Y51.468 E0.0209
G1 X51.468 Y72.799 E1.05887
G1 X50.872 Y72.799 E0.0209
G1 X72.799 Y50.872 E1.08843
G1 X72.799 Y50.277 E0.0209
G1 X50.277 Y72.799 E1.11799
G1 X49.681 Y72.799 E0.0209
G1 X72.799 Y49.681 E1.14755
G1 X72.799 Y49.086 E0.0209
G1 X49.086 Y72.799 E1.17711
G1 X48.49 Y72.799 E0.0209
G1 X72.799 Y48.49 E1.20667
G1 X72.799 Y47.895 E0.0209
G1 X47.895 Y72.799 E1.23623
G1 X47.299 Y72.799 E0.0209
G1 X72.799 Y47.299 E1.26579
G1 X72.799 Y47.201 E0.00346
G1 X72.302 Y47.201 E0.01744
G1 X47.201 Y72.302 E1.24602
G1 X47.201 Y71.707 E0.0209
G1 X71.707 Y47.201 E1.21646
G1 X71.111 Y47.201 E0.0209
G1 X47.201 Y71.111 E1.1869
G1 X47.201 Y70.516 E0.0209
G1 X70.516 Y47.201 E1.15734
G1 X69.92 Y47.201 E0.0209
G1 X47.201 Y69.92 E1.12778
G1 X47.201 Y69.325 E0.0209
G1 X69.325 Y47.201 E1.09822
G1 X68.729 Y47.201 E0.0209
G1 X47.201 Y68.729 E1.06866
G1 X47.201 Y68.134 E0.0209
G1 X68.134 Y47.201 E1.0391
G1 X67.538 Y47.201 E0.0209
G1 X47.201 Y67.538 E1.00954
G1 X47.201 Y66.943 E0.0209
G1 X66.943 Y47.201 E0.97998
G1 X66.347 Y47.201 E0.0209
G1 X47.201 Y66.347 E0.95042
G1 X47.201 Y65.752 E0.0209
G1 X65.752 Y47.201 E0.92086
G1 X65.156 Y47.201 E0.0209
G1 X47.201 Y65.156 E0.8913
G1 X47.201 Y64.561 E0.0209
G1 X64.561 Y47.201 E0.86174
G1 X63.965 Y47.201 E0.0209
G1 X47.201 Y63.965 E0.83218
G1 X47.201 Y63.37 E0.0209
G1 X63.37 Y47.201 E0.80262
G1 X62.774 Y47.201 E0.0209
G1 X47.201 Y62.774 E0.77306
G1 X47.201 Y62.179 E0.0209
G1 X62.179 Y47.201 E0.7435
G1 X61.583 Y47.201 E0.0209
G1 X47.201 Y61.583 E0.71394
G1 X47.201 Y60.988 E0.0209
G1 X60.988 Y47.201 E0.68438
G1 X60.392 Y47.201 E0.0209
G1 X47.201 Y60.392 E0.65482
G1 X47.201 Y59.797 E0.0209
G1 X59.797 Y47.201 E0.62526
G1 X59.201 Y47.201 E0.0209
G1 X47.201 Y59.201 E0.5957
G1 X47.201 Y58.606 E0.0209
G1 X58.606 Y47.201 E0.56614
G1 X58.01 Y47.201 E0.0209
G1 X47.201 Y58.01 E0.53658
G1 X47.201 Y57.415 E0.0209
G1 X57.415 Y47.201 E0.50702
G1 X56.819 Y47.201 E0.0209
G1 X47.201 Y56.819 E0.47746
G1 X47.201 Y56.224 E0.0209
G1 X56.224 Y47.201 E0.4479
G1 X55.628 Y47.201 E0.0209
G1 X47.201 Y55.628 E0.41834
G1 X47.201 Y55.033 E0.0209
G1 X55.033 Y47.201 E0.38879
G1 X54.438 Y47.201 E0.0209
G1 X47.201 Y54.437 E0.35923
G1 X47.201 Y53.842 E0.0209
G1 X53.842 Y47.201 E0.32967
G1 X53.247 Y47.201 E0.0209
G1 X47.201 Y53.247 E0.30011
G1 X47.201 Y52.651 E0.0209
G1 X52.651 Y47.201 E0.27055
G1 X52.056 Y47.201 E0.0209
G1 X47.201 Y52.056 E0.24099
G1 X47.201 Y51.46 E0.0209
G1 X51.46 Y47.201 E0.21143
G1 X50.865 Y47.201 E0.0209
G1 X47.201 Y50.865 E0.18187
G1 X47.201 Y50.269 E0.0209
G1 X50.269 Y47.201 E0.15231
G1 X49.674 Y47.201 E0.0209
G1 X47.201 Y49.674 E0.12275
G1 X47.201 Y49.078 E0.0209
G1 X49.078 Y47.201 E0.09319
G1 X48.483 Y47.201 E0.0209
G1 X47.201 Y48.483 E0.06363
G1 X47.201 Y47.887 E0.0209
G1 X47.887 Y47.201 E0.03407
G1 X47.292 Y47.201 E0.0209
G1 X47.02 Y47.473 E0.0135
;LAYER_CHANGE
;Z:0.6
;HEIGHT:0.2
;BEFORE_LAYER_CHANGE
;0.6


; stop printing object Shape-Box id:0 copy 0
EXCLUDE_OBJECT_END NAME=Shape_Box_id_0_copy_0
G1 Z0.6 F18000
;AFTER_LAYER_CHANGE
;0.6
G92 E0
; printing object Shape-Box id:0 copy 0
EXCLUDE_OBJECT_START NAME=Shape_Box_id_0_copy_0
G1 X46.872 Y46.872
;TYPE:Internal perimeter
;WIDTH:0.464
G1 F6000
G1 X73.128 Y46.872 E0.91928
G1 X73.128 Y73.128 E0.91928
G1 X46.872 Y73.128 E0.91928
G1 X46.872 Y46.932 E0.91718
G1 X46.451 Y46.451 F18000
G1 F6000
G1 X73.549 Y46.451 E0.94876
G1 X73.549 Y73.549 E0.94876
G1 X46.451 Y73.549 E0.94876
G1 X46.451 Y46.511 E0.94666
G1 X46.03 Y46.03 F18000
G1 F6000
G1 X73.97 Y46.03 E0.97825
G1 X73.97 Y73.97 E0.97825
G1 X46.03 Y73.97 E0.97825
G1 X46.03 Y46.09 E0.97615
G1 X45.609 Y45.609 F18000
G1 F6000
G1 X74.391 Y45.609 E1.00774
G1 X74.391 Y74.391 E1.00774
G1 X45.609 Y74.391 E1.00774
G1 X45.609 Y45.669 E1.00564
G1 X45.21 Y45.21 F18000
;TYPE:External perimeter
;WIDTH:0.42
G1 F2400
G1 X74.79 Y45.21 E0.92746
G1 X74.79 Y74.79 E0.92746
G1 X45.21 Y74.79 E0.92746
G1 X45.21 Y45.27 E0.92558
;WIPE_START
G1 X45.556 Y45.41 F18000
;WIPE_END
G1 X47.115 Y47.115
;TYPE:Internal infill
;WIDTH:0.44
G1 F7500
G1 X72.885 Y72.885 E1.20326
G1 X71.182 Y72.885 F18000
G1 F7500
G1 X72.885 Y71.182 E0.0795
G1 X72.885 Y70.211 F18000
G1 F7500
G1 X49.789 Y47.115 E1.0784
G1 X48.818 Y47.115 F18000
G1 F7500
