; generated by SuperSlicer 2.5.59 on 2022-12-10 at 06:18:12 UTC


;
;

;
;
; TODO: check the size of the extruder and the y-bar clearance. Optimize & test supports.

; external perimeters extrusion width = 0.42mm
; perimeters extrusion width = 0.46mm
; infill extrusion width = 0.44mm
; solid infill extrusion width = 0.46mm
; top infill extrusion width = 0.44mm
; first layer extrusion width = 0.56mm

; external perimeters extrusion width = 0.42mm
; perimeters extrusion width = 0.46mm
; infill extrusion width = 0.44mm
; solid infill extrusion width = 0.46mm
; top infill extrusion width = 0.44mm
; first layer extrusion width = 0.56mm

; object:{"name":"build_helper_y","id":"build_helper_y.stl id:0 copy 0","object_center":[67.858527,44.547701,0.000000],"boundingbox_center":[67.858527,44.547701,6.000000],"boundingbox_size":[83.000000,46.000000,12.000000]}
; object:{"name":"build_helper_z","id":"build_helper_z.stl id:1 copy 0","object_center":[60.000000,78.852298,0.000000],"boundingbox_center":[60.000000,78.852298,6.000000],"boundingbox_size":[106.000000,39.200001,12.000000]}
; plater:{"center":[60.000000,60.000000,0.000000],"boundingbox_center":[60.000000,60.000000,6.000000],"boundingbox_size":[106.000000,76.904597,12.000000]}

;TYPE:Custom
; M190 S0
; M109 S0 ; uncomment to remove set&wait temp gcode added automatically after this start gcode
print_start EXTRUDER=230 BED=110 CHAMBER=50


; Pre-Processed for Cancel-Object support by preprocess_cancellation v0.2.0
; 2 known objects
EXCLUDE_OBJECT_DEFINE NAME=build_helper_y_stl_id_0_copy_0 CENTER=67.960,42.779 POLYGON=[[55.364,21.758],[54.898,21.818],[27.898,29.818],[27.466,29.996],[27.096,30.279],[26.818,30.638],[26.694,30.89],[26.579,31.358],[26.569,39.542],[26.629,40.009],[26.808,40.442],[26.938,40.637],[27.269,40.968],[27.675,41.202],[88.127,67.246],[88.45,67.321],[88.695,67.338],[107.353,67.338],[107.82,67.277],[108.237,67.107],[108.448,66.968],[108.779,66.637],[109.022,66.208],[109.1,65.957],[109.149,65.542],[109.149,53.553],[109.09,53.094],[108.918,52.669],[108.78,52.46],[108.446,52.126],[59.57,21.988],[59.152,21.818],[58.776,21.76],[55.364,21.758]]
EXCLUDE_OBJECT_DEFINE NAME=build_helper_z_stl_id_1_copy_0 CENTER=52.593,83.203 POLYGON=[[8.808,59.462],[8.551,59.483],[8.078,59.636],[7.676,59.928],[7.514,60.118],[7.288,60.561],[7.21,61.061],[7.21,96.644],[7.288,97.143],[7.514,97.586],[7.866,97.938],[8.309,98.164],[8.808,98.242],[111.192,98.242],[111.691,98.164],[112.134,97.938],[112.486,97.586],[112.712,97.143],[112.79,96.644],[112.79,80.761],[112.712,80.261],[112.486,79.818],[112.134,79.466],[111.691,79.241],[25.449,59.483],[25.192,59.462],[8.808,59.462]]
M107
G21 ; set units to millimeters
G90 ; use absolute coordinates
M83 ; use relative distances for extrusion
;_TOOLCHANGE 0
M104 S230 ; set temperature
M109 S230 ; set temperature and wait for it to be reached
M190 S110 ; set bed temperature and wait for it to be reached
M107
;LAYER_CHANGE
;Z:0.2
;HEIGHT:0.2
;BEFORE_LAYER_CHANGE
;0.2


G1 Z0.2 F18000
;AFTER_LAYER_CHANGE
;0.2
G92 E0
G1 E-2 F3000
G1 Z0.6 F18000
M204 S1000
G1 X24.26 Y27.601
G1 Z0.2
G1 E2 F1800
;TYPE:Skirt
;WIDTH:0.52
G1 X23.589 Y28.44 E0.03859
G1 X4.167 Y58.106 E1.27297
G1 X3.779 Y58.836 E0.02968
G1 X3.529 Y59.523 E0.02624
G1 X3.307 Y61.057 E0.05564
G1 X3.307 Y96.648 E1.27775
G1 X3.529 Y98.182 E0.05565
G1 X3.875 Y99.074 E0.03434
G1 X4.24 Y99.707 E0.02624
G1 X5 Y100.613 E0.04244
G1 X5.56 Y101.082 E0.02624
G1 X6.378 Y101.578 E0.03435
G1 X7.489 Y101.982 E0.04244
G1 X8.804 Y102.145 E0.04758
G1 X111.196 Y102.145 E3.67592
G1 X112.73 Y101.923 E0.05565
G1 X113.622 Y101.578 E0.03434
G1 X114.255 Y101.212 E0.02624
G1 X115.16 Y100.452 E0.04244
G1 X115.76 Y99.707 E0.03435
G1 X116.221 Y98.869 E0.03435
G1 X116.471 Y98.182 E0.02624
G1 X116.657 Y97.243 E0.03434
G1 X116.677 Y80.391 E0.60501
G1 X112.999 Y52.778 E1.00007
G1 X112.651 Y51.46 E0.04897
G1 X111.977 Y50.224 E0.05053
G1 X111.305 Y49.45 E0.0368
G1 X110.369 Y48.717 E0.04267
G1 X61.63 Y18.673 E2.05549
G1 X60.399 Y18.12 E0.04845
G1 X59.692 Y17.946 E0.02616
G1 X58.903 Y17.868 E0.02846
G1 X55.378 Y17.855 E0.12657
G1 X54.045 Y18.012 E0.04818
G1 X26.745 Y26.089 E1.02208
G1 X25.726 Y26.504 E0.03949
G1 X25.035 Y26.93 E0.02914
G1 X24.306 Y27.562 E0.03465
G1 X24.617 Y27.921 F18000
G1 F1800
G1 X24.598 Y27.938 E0.00093
G1 X23.988 Y28.702 E0.03507
G1 X4.566 Y58.367 E1.27297
G1 X3.99 Y59.646 E0.05036
G1 X3.784 Y61.057 E0.05117
G1 X3.784 Y96.648 E1.27775
G1 X3.99 Y98.059 E0.05117
G1 X4.307 Y98.872 E0.03136
G1 X4.631 Y99.433 E0.02325
G1 X5.337 Y100.275 E0.03945
G1 X5.833 Y100.692 E0.02325
G1 X6.58 Y101.145 E0.03136
G1 X7.613 Y101.521 E0.03946
G1 X8.804 Y101.668 E0.04311
G1 X111.196 Y101.668 E3.67592
G1 X112.606 Y101.463 E0.05117
G1 X113.42 Y101.145 E0.03136
G1 X113.981 Y100.821 E0.02325
G1 X114.823 Y100.115 E0.03946
G1 X115.369 Y99.433 E0.03136
G1 X115.789 Y98.667 E0.03136
G1 X116.01 Y98.058 E0.02326
G1 X116.181 Y97.202 E0.03136
G1 X116.201 Y80.433 E0.60202
G1 X112.526 Y52.842 E0.99929
G1 X112.204 Y51.626 E0.04514
G1 X111.595 Y50.51 E0.04565
G1 X110.968 Y49.787 E0.03436
G1 X110.119 Y49.123 E0.03869
G1 X61.38 Y19.079 E2.05549
G1 X60.249 Y18.572 E0.04451
G1 X58.901 Y18.345 E0.04905
G1 X55.376 Y18.332 E0.12657
G1 X54.146 Y18.478 E0.04445
G1 X26.88 Y26.546 E1.02082
G1 X25.955 Y26.922 E0.03587
G1 X25.321 Y27.312 E0.0267
G1 X24.663 Y27.882 E0.03127
G1 X24.982 Y28.234 F18000
G1 F1800
G1 X24.935 Y28.276 E0.00225
G1 X24.387 Y28.963 E0.03155
G1 X4.965 Y58.629 E1.27297
G1 X4.451 Y59.77 E0.04493
G1 X4.261 Y61.057 E0.0467
G1 X4.261 Y96.648 E1.27775
G1 X4.451 Y97.935 E0.0467
G1 X5.022 Y99.16 E0.04851
G1 X5.675 Y99.938 E0.03647
G1 X6.782 Y100.713 E0.04851
G1 X7.736 Y101.06 E0.03647
G1 X8.804 Y101.191 E0.03864
G1 X111.196 Y101.191 E3.67592
G1 X112.483 Y101.002 E0.0467
G1 X113.707 Y100.431 E0.04851
G1 X114.486 Y99.778 E0.03647
G1 X114.978 Y99.16 E0.02838
G1 X115.356 Y98.465 E0.02838
G1 X115.706 Y97.16 E0.04851
G1 X115.726 Y80.474 E0.59904
G1 X112.053 Y52.905 E0.99851
G1 X111.757 Y51.793 E0.04131
G1 X111.213 Y50.796 E0.04078
G1 X110.631 Y50.124 E0.03191
G1 X109.869 Y49.529 E0.03471
G1 X61.13 Y19.485 E2.05549
G1 X60.098 Y19.025 E0.04057
G1 X58.899 Y18.822 E0.04363
G1 X55.131 Y18.817 E0.13529
G1 X54.016 Y19.004 E0.04058
G1 X26.804 Y27.074 E1.01898
G1 X26.183 Y27.341 E0.02426
G1 X25.436 Y27.822 E0.03191
G1 X25.026 Y28.193 E0.01985
G1 E-2 F3000
M204 S1500
G1 Z0.6 F18000
; printing object build_helper_y.stl id:0 copy 0
EXCLUDE_OBJECT_START NAME=build_helper_y_stl_id_0_copy_0
; acceleration to travel
G1 X42.493 Y31.615
; decel to extrusion
M204 S1000
G1 X54.139 Y33.896
; end travel
G1 Z0.2
G1 E2 F1800
;TYPE:Internal perimeter
;WIDTH:0.56
G1 X56.207 Y33.896 E0.08048
G1 X56.207 Y24.409 E0.36914
G1 X58.426 Y24.409 E0.08636
G1 X98.409 Y54.396 E1.94471
G1 X106.51 Y54.396 E0.31522
G1 X106.51 Y64.699 E0.40091
G1 X88.995 Y64.699 E0.68152
G1 X54.308 Y38.699 E1.68678
G1 X29.207 Y38.699 E0.9767
G1 X29.207 Y32.396 E0.24527
G1 X50.06 Y32.396 E0.81141
G1 X51.341 Y33.896 E0.07677
G1 X54.079 Y33.896 E0.1065
G1 X54.139 Y33.379 F18000
G1 F1800
G1 X55.69 Y33.379 E0.06036
G1 X55.69 Y23.892 E0.36914
G1 X58.599 Y23.892 E0.11318
G1 X98.581 Y53.879 E1.94471
G1 X107.027 Y53.879 E0.32863
G1 X107.027 Y65.216 E0.44115
G1 X88.823 Y65.216 E0.70835
G1 X54.136 Y39.216 E1.68678
G1 X28.69 Y39.216 E0.99011
G1 X28.69 Y31.879 E0.28551
G1 X50.298 Y31.879 E0.84081
G1 X51.58 Y33.379 E0.07677
G1 X54.079 Y33.379 E0.09723
G1 X55.173 Y32.862 F18000
G1 F1800
G1 X55.173 Y23.598 E0.36046
G1 X55.175 Y23.559 E0.00153
G1 X55.229 Y23.375 E0.00745
G1 X58.742 Y23.375 E0.13666
G1 X58.865 Y23.445 E0.00552
G1 X98.754 Y53.362 E1.94015
G1 X107.292 Y53.362 E0.33223
G1 X107.44 Y53.382 E0.00582
G1 X107.519 Y53.482 E0.00494
G1 X107.542 Y53.559 E0.00314
G1 X107.544 Y53.598 E0.00153
G1 X107.544 Y65.481 E0.46238
G1 X107.524 Y65.635 E0.00603
G1 X107.419 Y65.71 E0.00502
G1 X107.347 Y65.731 E0.00289
G1 X107.308 Y65.734 E0.00153
G1 X88.772 Y65.734 E0.72124
G1 X88.606 Y65.7 E0.0066
G1 X88.519 Y65.65 E0.0039
G1 X53.963 Y39.734 E1.68074
G1 X28.409 Y39.734 E0.99433
G1 X28.37 Y39.731 E0.00153
G1 X28.198 Y39.68 E0.00698
G1 X28.173 Y39.483 E0.00773
G1 X28.173 Y31.598 E0.30681
G1 X28.175 Y31.559 E0.00153
G1 X28.226 Y31.387 E0.00698
G1 X28.423 Y31.362 E0.00773
G1 X50.4 Y31.362 E0.85512
G1 X50.555 Y31.383 E0.00609
G1 X51.818 Y32.862 E0.07568
G1 X55.113 Y32.862 E0.12819
G1 X54.656 Y32.345 F18000
G1 F1800
G1 X54.656 Y23.58 E0.34105
G1 X54.664 Y23.467 E0.00442
G1 X54.725 Y23.258 E0.00844
G1 X54.842 Y23.076 E0.00844
G1 X54.887 Y23.031 E0.00244
G1 X55.069 Y22.914 E0.00846
G1 X55.258 Y22.858 E0.00766
G1 X55.807 Y22.846 E0.02137
G1 X58.783 Y22.858 E0.11576
G1 X58.962 Y22.905 E0.0072
G1 X59.149 Y23.012 E0.00841
G1 X98.926 Y52.845 E1.93469
G1 X107.326 Y52.845 E0.32686
G1 X107.458 Y52.854 E0.00514
G1 X107.556 Y52.875 E0.00389
G1 X107.632 Y52.904 E0.00317
G1 X107.815 Y53.021 E0.00844
G1 X107.957 Y53.185 E0.00845
G1 X107.987 Y53.24 E0.00244
G1 X108.053 Y53.467 E0.00918
G1 X108.061 Y53.58 E0.00442
G1 X108.061 Y65.516 E0.46444
G1 X108.052 Y65.647 E0.00514
G1 X108.031 Y65.745 E0.00389
G1 X108.002 Y65.821 E0.00317
G1 X107.875 Y66.02 E0.00917
G1 X107.831 Y66.064 E0.00244
G1 X107.648 Y66.181 E0.00845
G1 X107.44 Y66.243 E0.00844
G1 X107.327 Y66.251 E0.00442
G1 X88.721 Y66.251 E0.72397
G1 X88.628 Y66.245 E0.00363
G1 X88.422 Y66.19 E0.00827
G1 X88.235 Y66.083 E0.0084
G1 X53.791 Y40.251 E1.67529
G1 X28.391 Y40.251 E0.98835
G1 X28.277 Y40.243 E0.00441
G1 X28.069 Y40.181 E0.00845
G1 X27.902 Y40.074 E0.00772
G1 X27.772 Y39.924 E0.00772
G1 X27.682 Y39.727 E0.00844
G1 X27.665 Y39.647 E0.00317
G1 X27.656 Y39.516 E0.00514
G1 X27.656 Y31.58 E0.30879
G1 X27.664 Y31.467 E0.00442
G1 X27.725 Y31.258 E0.00845
G1 X27.832 Y31.092 E0.00772
G1 X27.982 Y30.962 E0.00772
G1 X28.179 Y30.871 E0.00844
G1 X28.259 Y30.854 E0.00317
G1 X28.391 Y30.845 E0.00514
G1 X50.435 Y30.845 E0.85775
G1 X50.569 Y30.855 E0.00523
G1 X50.668 Y30.877 E0.00396
G1 X50.763 Y30.913 E0.00396
G1 X50.852 Y30.962 E0.00396
G1 X50.92 Y31.014 E0.00331
G1 X52.056 Y32.345 E0.06809
G1 X54.596 Y32.345 E0.0988
G1 X54.139 Y31.828 F18000
;TYPE:External perimeter
G1 F1800
G1 X54.139 Y23.561 E0.32165
G1 X54.152 Y23.374 E0.0073
G1 X54.25 Y23.041 E0.0135
G1 X54.437 Y22.749 E0.0135
G1 X54.56 Y22.626 E0.00677
G1 X54.852 Y22.439 E0.0135
G1 X55.178 Y22.343 E0.01323
G1 X55.803 Y22.329 E0.02432
G1 X58.851 Y22.341 E0.11859
G1 X59.159 Y22.422 E0.01242
G1 X59.434 Y22.579 E0.0123
G1 X99.099 Y52.328 E1.92924
G1 X107.345 Y52.328 E0.32088
G1 X107.532 Y52.341 E0.0073
G1 X107.702 Y52.378 E0.00677
G1 X107.865 Y52.439 E0.00677
G1 X108.157 Y52.626 E0.0135
G1 X108.384 Y52.889 E0.0135
G1 X108.467 Y53.041 E0.00677
G1 X108.565 Y53.374 E0.0135
G1 X108.579 Y53.561 E0.0073
G1 X108.579 Y65.534 E0.46587
G1 X108.565 Y65.721 E0.0073
G1 X108.528 Y65.891 E0.00677
G1 X108.467 Y66.054 E0.00677
G1 X108.28 Y66.346 E0.0135
G1 X108.157 Y66.469 E0.00677
G1 X107.865 Y66.657 E0.0135
G1 X107.532 Y66.754 E0.0135
G1 X107.345 Y66.768 E0.0073
G1 X88.704 Y66.768 E0.72533
G1 X88.544 Y66.757 E0.00622
G1 X88.225 Y66.673 E0.01287
G1 X87.95 Y66.516 E0.0123
G1 X53.619 Y40.768 E1.66983
G1 X28.372 Y40.768 E0.98236
G1 X28.185 Y40.754 E0.0073
G1 X27.852 Y40.657 E0.0135
G1 X27.56 Y40.469 E0.0135
G1 X27.333 Y40.207 E0.0135
G1 X27.189 Y39.891 E0.0135
G1 X27.152 Y39.721 E0.00677
G1 X27.139 Y39.534 E0.0073
G1 X27.139 Y31.561 E0.31023
G1 X27.152 Y31.374 E0.0073
G1 X27.25 Y31.041 E0.0135
G1 X27.437 Y30.749 E0.0135
G1 X27.699 Y30.522 E0.0135
G1 X28.015 Y30.378 E0.0135
G1 X28.185 Y30.341 E0.00677
G1 X28.372 Y30.328 E0.0073
G1 X50.453 Y30.328 E0.8592
G1 X50.644 Y30.342 E0.00743
G1 X50.817 Y30.38 E0.00689
G1 X50.982 Y30.443 E0.00689
G1 X51.137 Y30.529 E0.00689
G1 X51.278 Y30.637 E0.00689
G1 X52.295 Y31.828 E0.06093
G1 X54.079 Y31.828 E0.06941
;WIPE_START
M204 S1500
G1 X54.539 Y31.828 F18000
;WIPE_END
G1 E-2 F3000
G1 Z0.6 F18000
; acceleration to travel
G1 X85.613 Y46.104
; decel to extrusion
M204 S1000
G1 X106.329 Y55.622
; end travel
G1 Z0.2
G1 E2 F1800
;TYPE:Solid infill
;WIDTH:0.559303
G1 X105.506 Y54.799 E0.04523
G1 X104.775 Y54.799 E0.02842
G1 X106.107 Y56.131 E0.0732
G1 X106.107 Y56.862 E0.02842
G1 X104.044 Y54.799 E0.11339
G1 X103.313 Y54.799 E0.02842
G1 X106.107 Y57.594 E0.15358
G1 X106.107 Y58.325 E0.02842
G1 X102.581 Y54.799 E0.19377
G1 X101.85 Y54.799 E0.02842
G1 X106.107 Y59.056 E0.23396
G1 X106.107 Y59.787 E0.02842
G1 X101.119 Y54.799 E0.27415
G1 X100.388 Y54.799 E0.02842
G1 X106.107 Y60.519 E0.31434
G1 X106.107 Y61.25 E0.02842
G1 X99.656 Y54.799 E0.35453
G1 X98.925 Y54.799 E0.02842
G1 X106.107 Y61.981 E0.39471
G1 X106.107 Y62.712 E0.02842
G1 X97.951 Y54.557 E0.44824
G1 X95.026 Y52.363 E0.14209
G1 X106.107 Y63.444 E0.609
G1 X106.107 Y64.175 E0.02842
G1 X92.101 Y50.169 E0.76976
G1 X89.176 Y47.975 E0.14209
G1 X105.497 Y64.296 E0.89699
G1 X104.765 Y64.296 E0.02842
G1 X86.251 Y45.781 E1.01756
G1 X83.326 Y43.588 E0.14209
G1 X104.034 Y64.296 E1.13813
G1 X103.303 Y64.296 E0.02842
G1 X80.401 Y41.394 E1.25869
G1 X77.476 Y39.2 E0.14209
G1 X102.572 Y64.296 E1.37926
G1 X101.84 Y64.296 E0.02842
G1 X74.551 Y37.006 E1.49983
G1 X71.626 Y34.813 E0.14209
G1 X101.109 Y64.296 E1.6204
G1 X100.378 Y64.296 E0.02842
G1 X68.701 Y32.619 E1.74097
G1 X65.776 Y30.425 E0.14209
G1 X99.647 Y64.296 E1.86154
G1 X98.915 Y64.296 E0.02842
G1 X62.851 Y28.231 E1.98211
G1 X59.925 Y26.037 E0.14209
G1 X98.184 Y64.296 E2.10268
G1 X97.453 Y64.296 E0.02842
G1 X57.969 Y24.812 E2.17002
G1 X57.238 Y24.812 E0.02841
G1 X96.722 Y64.296 E2.17001
G1 X95.99 Y64.296 E0.02842
G1 X56.61 Y24.916 E2.16432
G1 X56.61 Y25.647 E0.02842
G1 X95.259 Y64.296 E2.12413
G1 X94.528 Y64.296 E0.02842
G1 X56.61 Y26.378 E2.08394
G1 X56.61 Y27.11 E0.02842
G1 X93.797 Y64.296 E2.04375
G1 X93.065 Y64.296 E0.02842
G1 X56.61 Y27.841 E2.00356
G1 X56.61 Y28.572 E0.02842
G1 X92.334 Y64.296 E1.96337
G1 X91.603 Y64.296 E0.02842
G1 X56.61 Y29.303 E1.92318
G1 X56.61 Y30.035 E0.02842
G1 X90.872 Y64.296 E1.88299
G1 X90.14 Y64.296 E0.02842
G1 X56.61 Y30.766 E1.8428
G1 X56.61 Y31.497 E0.02842
G1 X89.409 Y64.296 E1.80261
G1 X89.13 Y64.296 E0.01086
G1 X87.326 Y62.944 E0.08762
G1 X56.61 Y32.228 E1.68811
G1 X56.61 Y32.96 E0.02842
G1 X84.406 Y60.755 E1.52764
G1 X81.486 Y58.567 E0.14181
G1 X56.61 Y33.691 E1.36716
G1 X56.61 Y34.299 E0.02364
G1 X56.487 Y34.299 E0.00478
G1 X78.566 Y56.378 E1.21345
G1 X75.646 Y54.19 E0.14181
G1 X55.756 Y34.299 E1.09317
G1 X55.025 Y34.299 E0.02842
G1 X72.726 Y52.001 E0.97289
G1 X69.807 Y49.813 E0.14181
G1 X54.293 Y34.299 E0.8526
G1 X53.562 Y34.299 E0.02842
G1 X66.887 Y47.624 E0.73232
G1 X63.967 Y45.435 E0.14181
G1 X52.831 Y34.299 E0.61204
G1 X52.1 Y34.299 E0.02842
G1 X61.047 Y43.247 E0.49176
G1 X58.127 Y41.058 E0.14181
G1 X49.868 Y32.799 E0.45392
G1 X49.137 Y32.799 E0.02842
G1 X55.208 Y38.87 E0.33363
G1 X54.442 Y38.296 E0.03718
G1 X53.903 Y38.296 E0.02097
G1 X48.406 Y32.799 E0.3021
G1 X47.675 Y32.799 E0.02842
G1 X53.171 Y38.296 E0.3021
G1 X52.44 Y38.296 E0.02842
G1 X46.943 Y32.799 E0.3021
G1 X46.212 Y32.799 E0.02842
G1 X51.709 Y38.296 E0.3021
G1 X50.978 Y38.296 E0.02842
G1 X45.481 Y32.799 E0.3021
G1 X44.75 Y32.799 E0.02842
G1 X50.246 Y38.296 E0.3021
G1 X49.515 Y38.296 E0.02842
G1 X44.018 Y32.799 E0.3021
G1 X43.287 Y32.799 E0.02842
G1 X48.784 Y38.296 E0.3021
G1 X48.053 Y38.296 E0.02842
G1 X42.556 Y32.799 E0.3021
G1 X41.825 Y32.799 E0.02842
G1 X47.321 Y38.296 E0.3021
G1 X46.59 Y38.296 E0.02842
G1 X41.093 Y32.799 E0.3021
G1 X40.362 Y32.799 E0.02842
G1 X45.859 Y38.296 E0.3021
G1 X45.128 Y38.296 E0.02842
G1 X39.631 Y32.799 E0.3021
G1 X38.899 Y32.799 E0.02842
G1 X44.396 Y38.296 E0.3021
G1 X43.665 Y38.296 E0.02842
G1 X38.168 Y32.799 E0.3021
G1 X37.437 Y32.799 E0.02842
G1 X42.934 Y38.296 E0.3021
G1 X42.202 Y38.296 E0.02842
G1 X36.706 Y32.799 E0.3021
G1 X35.974 Y32.799 E0.02842
G1 X41.471 Y38.296 E0.3021
G1 X40.74 Y38.296 E0.02842
G1 X35.243 Y32.799 E0.3021
G1 X34.512 Y32.799 E0.02842
G1 X40.009 Y38.296 E0.3021
G1 X39.277 Y38.296 E0.02842
G1 X33.781 Y32.799 E0.3021
G1 X33.049 Y32.799 E0.02842
G1 X38.546 Y38.296 E0.3021
G1 X37.815 Y38.296 E0.02842
G1 X32.318 Y32.799 E0.3021
G1 X31.587 Y32.799 E0.02842
