; generated by SuperSlicer 2.5.59 on 2022-12-11 at 08:44:07 UTC


;
;

;
;
; 

; external perimeters extrusion width = 0.40mm
; perimeters extrusion width = 0.45mm
; infill extrusion width = 0.72mm
; solid infill extrusion width = 0.56mm
; top infill extrusion width = 0.40mm
; first layer extrusion width = 0.48mm

; object:{"name":"X_Carriage_90_x1","id":"X_Carriage_90_x1.STL id:0 copy 0","object_center":[60.000000,60.000000,0.000000],"boundingbox_center":[60.000000,60.000000,13.000000],"boundingbox_size":[34.899998,35.999664,26.000000]}
; plater:{"center":[60.000000,60.000000,0.000000],"boundingbox_center":[60.000000,60.000000,13.000000],"boundingbox_size":[34.899998,35.999664,26.000000]}

;TYPE:Custom
; M190 S0
; M109 S0 ; uncomment to remove set&wait temp gcode added automatically after this start gcode
print_start EXTRUDER=230 BED=110 CHAMBER=50
M107
G21 ; set units to millimeters
G90 ; use absolute coordinates
M83 ; use relative distances for extrusion
;_TOOLCHANGE 0
M104 S230 ; set temperature
M109 S230 ; set temperature and wait for it to be reached
M190 S110 ; set bed temperature and wait for it to be reached
M107
;LAYER_CHANGE
;Z:0.25
;HEIGHT:0.25
;BEFORE_LAYER_CHANGE
;0.25


G1 Z0.25 F27000
;AFTER_LAYER_CHANGE
;0.25
G92 E0
G1 E-2 F3000
M204 S1500
G1 Z0.65 F27000
; printing object X_Carriage_90_x1.STL id:0 copy 0
G1 X67.912 Y62.74
G1 Z0.25
G1 E2 F1800
;TYPE:Internal perimeter
;WIDTH:0.48
G1 F900
G1 X67.362 Y62.64 E0.02241
G1 X66.938 Y62.64 E0.01704
G1 X66.474 Y62.724 E0.01888
G1 X66.616 Y62.084 E0.02631
G1 X66.614 Y59.872 E0.08869
G1 X66.546 Y59.565 E0.01263
G1 X66.401 Y59.285 E0.01265
G1 X66.955 Y59.36 E0.02244
G1 X67.362 Y59.36 E0.01634
G1 X67.842 Y59.273 E0.01953
G1 X67.686 Y59.856 E0.02419
G1 X67.686 Y62.128 E0.09112
G1 X67.754 Y62.436 E0.01265
G1 X67.885 Y62.687 E0.01136
G1 E-2 F3000
G1 Z0.65 F27000
G1 X51.864 Y52.165
G1 Z0.25
G1 E2 F1800
G1 F900
G1 X51.809 Y52.218 E0.00308
G1 X51.411 Y52.765 E0.02712
G1 X51.118 Y53.375 E0.02712
G1 X50.945 Y54.001 E0.02604
G1 X50.893 Y54.389 E0.01572
G1 X50.893 Y55.038 E0.02604
G1 X51.013 Y55.704 E0.02712
G1 X51.251 Y56.337 E0.02712
G1 X51.584 Y56.894 E0.02604
G1 X51.828 Y57.201 E0.01572
G1 X52.298 Y57.65 E0.02604
G1 X52.862 Y58.022 E0.02712
G1 X53.484 Y58.288 E0.02712
G1 X54.144 Y58.439 E0.02712
G1 X54.819 Y58.469 E0.02712
G1 X55.489 Y58.378 E0.02712
G1 X56.107 Y58.177 E0.02604
G1 X56.46 Y58.007 E0.01572
G1 X57.002 Y57.65 E0.02604
G1 X57.472 Y57.201 E0.02604
G1 X57.716 Y56.894 E0.01572
G1 X58.049 Y56.337 E0.02604
G1 X58.287 Y55.704 E0.02712
G1 X58.407 Y55.038 E0.02712
G1 X58.407 Y54.362 E0.02712
G1 X58.287 Y53.697 E0.02712
G1 X58.049 Y53.063 E0.02712
G1 X57.702 Y52.483 E0.02712
G1 X57.257 Y51.973 E0.02712
G1 X56.728 Y51.552 E0.02712
G1 X56.156 Y51.244 E0.02604
G1 X55.79 Y51.106 E0.01572
G1 X55.156 Y50.962 E0.02604
G1 X54.508 Y50.933 E0.02604
G1 X54.117 Y50.968 E0.01572
G1 X53.484 Y51.112 E0.02604
G1 X52.862 Y51.378 E0.02712
G1 X52.298 Y51.751 E0.02712
G1 X51.908 Y52.124 E0.02164
G1 X52.159 Y52.473 F27000
G1 F900
G1 X52.131 Y52.5 E0.00154
G1 X51.779 Y52.985 E0.02405
G1 X51.519 Y53.525 E0.02405
G1 X51.364 Y54.086 E0.02335
G1 X51.319 Y54.418 E0.01341
G1 X51.319 Y55 E0.02335
G1 X51.426 Y55.59 E0.02405
G1 X51.637 Y56.151 E0.02405
G1 X51.935 Y56.651 E0.02335
G1 X52.144 Y56.913 E0.01341
G1 X52.565 Y57.315 E0.02335
G1 X53.065 Y57.645 E0.02405
G1 X53.617 Y57.881 E0.02405
G1 X54.201 Y58.014 E0.02405
G1 X54.8 Y58.041 E0.02405
G1 X55.394 Y57.961 E0.02405
G1 X55.948 Y57.781 E0.02335
G1 X56.249 Y57.636 E0.01341
G1 X56.735 Y57.315 E0.02335
G1 X57.156 Y56.913 E0.02335
G1 X57.365 Y56.651 E0.01341
G1 X57.663 Y56.151 E0.02335
G1 X57.874 Y55.59 E0.02405
G1 X57.981 Y55 E0.02405
G1 X57.981 Y54.4 E0.02405
G1 X57.874 Y53.81 E0.02405
G1 X57.663 Y53.249 E0.02405
G1 X57.356 Y52.734 E0.02405
G1 X56.961 Y52.283 E0.02405
G1 X56.492 Y51.909 E0.02405
G1 X55.98 Y51.633 E0.02335
G1 X55.667 Y51.516 E0.01341
G1 X55.099 Y51.386 E0.02335
G1 X54.517 Y51.36 E0.02335
G1 X54.184 Y51.39 E0.01341
G1 X53.617 Y51.519 E0.02335
G1 X53.065 Y51.755 E0.02405
G1 X52.565 Y52.085 E0.02405
G1 X52.202 Y52.432 E0.0201
M204 S1000
G1 X52.454 Y52.781 F27000
;TYPE:External perimeter
G1 F900
G1 X52.146 Y53.204 E0.02097
G1 X51.92 Y53.675 E0.02097
G1 X51.783 Y54.172 E0.02066
G1 X51.745 Y54.446 E0.01111
G1 X51.745 Y54.962 E0.02066
G1 X51.839 Y55.476 E0.02097
G1 X52.022 Y55.966 E0.02097
G1 X52.287 Y56.408 E0.02066
G1 X52.459 Y56.624 E0.0111
G1 X52.832 Y56.98 E0.02066
G1 X53.268 Y57.268 E0.02097
G1 X53.749 Y57.474 E0.02097
G1 X54.259 Y57.59 E0.02097
G1 X54.781 Y57.614 E0.02097
G1 X55.299 Y57.543 E0.02097
G1 X55.789 Y57.384 E0.02066
G1 X56.038 Y57.264 E0.0111
G1 X56.468 Y56.98 E0.02066
G1 X56.841 Y56.624 E0.02066
G1 X57.013 Y56.408 E0.0111
G1 X57.278 Y55.966 E0.02066
G1 X57.461 Y55.476 E0.02097
G1 X57.555 Y54.962 E0.02097
G1 X57.555 Y54.439 E0.02097
G1 X57.461 Y53.924 E0.02097
G1 X57.278 Y53.435 E0.02097
G1 X57.009 Y52.986 E0.02097
G1 X56.665 Y52.592 E0.02097
G1 X56.257 Y52.266 E0.02097
G1 X55.803 Y52.022 E0.02066
G1 X55.544 Y51.925 E0.01111
G1 X55.041 Y51.81 E0.02066
G1 X54.527 Y51.787 E0.02066
G1 X54.251 Y51.812 E0.01111
G1 X53.749 Y51.927 E0.02066
G1 X53.268 Y52.132 E0.02097
G1 X52.832 Y52.42 E0.02097
G1 X52.497 Y52.74 E0.01856
;WIPE_START
M204 S1500
G1 X52.059 Y52.716 F27000
;WIPE_END
G1 E-2 F3000
G1 Z0.65 F27000
G1 X58.269 Y70.427
G1 Z0.25
G1 E2 F1800
;TYPE:Internal perimeter
G1 F900
G1 X57.739 Y70.403 E0.02127
G1 X57.099 Y70.49 E0.02589
G1 X56.485 Y70.689 E0.02589
G1 X55.949 Y70.978 E0.02442
G1 X55.629 Y71.21 E0.01586
G1 X55.189 Y71.631 E0.02442
G1 X54.81 Y72.153 E0.02589
G1 X54.529 Y72.735 E0.02589
G1 X54.367 Y73.322 E0.02442
G1 X54.314 Y73.714 E0.01586
G1 X54.314 Y74.323 E0.02442
G1 X54.361 Y74.578 E0.01041
G1 X54.024 Y74.517 E0.01371
G1 X50.156 Y74.513 E0.15513
G1 X50.471 Y74.08 E0.0215
G1 X50.689 Y73.627 E0.02014
G1 X50.832 Y73.108 E0.02161
G1 X50.863 Y72.428 E0.02728
G1 X50.767 Y71.898 E0.02161
G1 X50.59 Y71.428 E0.02014
G1 X50.314 Y70.966 E0.02161
G1 X49.844 Y70.474 E0.02728
G1 X49.394 Y70.177 E0.02161
G1 X48.932 Y69.98 E0.02014
G1 X48.443 Y69.868 E0.02013
G1 X47.941 Y69.845 E0.02014
G1 X47.429 Y69.915 E0.02072
G1 X47.698 Y69.366 E0.0245
G1 X48.121 Y68.371 E0.04337
G1 X48.488 Y67.363 E0.04302
G1 X48.801 Y66.331 E0.04323
G1 X49.059 Y65.283 E0.04329
G1 X49.26 Y64.223 E0.04327
G1 X49.404 Y63.154 E0.04327
G1 X49.491 Y62.078 E0.04327
G1 X49.52 Y61 E0.04327
G1 X49.491 Y59.921 E0.04327
G1 X49.404 Y58.846 E0.04327
G1 X49.26 Y57.776 E0.04329
G1 X49.056 Y56.703 E0.0438
G1 X48.798 Y55.658 E0.04318
G1 X48.484 Y54.628 E0.04316
G1 X48.118 Y53.622 E0.04295
G1 X47.69 Y52.618 E0.04377
G1 X47.447 Y52.121 E0.02217
G1 X48.193 Y52.155 E0.02994
G1 X48.69 Y52.088 E0.02013
G1 X49.168 Y51.932 E0.02014
G1 X49.642 Y51.677 E0.02161
G1 X50.154 Y51.229 E0.02728
G1 X50.471 Y50.794 E0.02161
G1 X50.689 Y50.341 E0.02014
G1 X50.832 Y49.822 E0.02161
G1 X50.863 Y49.142 E0.02728
G1 X50.767 Y48.612 E0.02161
G1 X50.577 Y48.108 E0.02161
G1 X50.172 Y47.494 E0.02948
G1 X53.702 Y47.494 E0.14156
G1 X54.352 Y47.436 E0.02617
G1 X54.314 Y47.714 E0.01126
G1 X54.314 Y48.323 E0.02442
G1 X54.43 Y48.958 E0.02589
G1 X54.656 Y49.562 E0.02589
G1 X54.988 Y50.117 E0.02589
G1 X55.361 Y50.544 E0.02277
G1 X54.498 Y50.505 E0.03465
G1 X54.051 Y50.546 E0.01802
G1 X53.352 Y50.705 E0.02874
G1 X52.659 Y51.001 E0.0302
G1 X52.031 Y51.416 E0.0302
G1 X51.487 Y51.936 E0.0302
G1 X51.044 Y52.546 E0.0302
G1 X50.717 Y53.224 E0.0302
G1 X50.527 Y53.915 E0.02874
G1 X50.466 Y54.36 E0.01802
G1 X50.466 Y55.077 E0.02874
G1 X50.601 Y55.818 E0.0302
G1 X50.865 Y56.523 E0.0302
G1 X51.233 Y57.138 E0.02874
G1 X51.513 Y57.489 E0.01802
G1 X52.031 Y57.984 E0.02874
G1 X52.659 Y58.399 E0.0302
G1 X53.352 Y58.695 E0.0302
G1 X54.086 Y58.863 E0.0302
G1 X54.838 Y58.897 E0.0302
G1 X55.585 Y58.795 E0.0302
G1 X56.266 Y58.574 E0.02874
G1 X56.671 Y58.379 E0.01802
G1 X57.269 Y57.984 E0.02874
G1 X57.787 Y57.489 E0.02874
G1 X58.067 Y57.138 E0.01802
G1 X58.435 Y56.523 E0.02874
G1 X58.699 Y55.818 E0.0302
G1 X58.834 Y55.077 E0.0302
G1 X58.834 Y54.324 E0.0302
G1 X58.699 Y53.583 E0.0302
G1 X58.435 Y52.878 E0.0302
G1 X58.048 Y52.231 E0.0302
G1 X57.49 Y51.592 E0.03402
G1 X58.098 Y51.592 E0.02438
G1 X58.702 Y51.51 E0.02442
G1 X59.281 Y51.322 E0.02442
G1 X59.637 Y51.151 E0.01586
G1 X60.335 Y50.69 E0.03355
G1 X60.421 Y50.974 E0.0119
G1 X60.653 Y51.496 E0.02291
G1 X60.84 Y51.838 E0.01564
G1 X61.131 Y52.274 E0.02101
G1 X61.357 Y52.554 E0.01443
G1 X61.602 Y52.817 E0.01441
G1 X62.026 Y53.189 E0.02264
G1 X62.705 Y53.615 E0.03215
G1 X63.404 Y53.881 E0.02999
G1 X64.126 Y53.994 E0.0293
G1 X65.421 Y53.994 E0.05192
G1 X65.497 Y54.23 E0.00994
G1 X65.028 Y54.571 E0.02327
G1 X64.628 Y54.989 E0.02319
G1 X64.31 Y55.472 E0.02319
G1 X64.082 Y56.003 E0.02319
G1 X63.954 Y56.567 E0.02319
G1 X63.928 Y57.145 E0.02319
G1 X64.027 Y57.881 E0.0298
G1 X59.77 Y57.881 E0.17076
G1 X59.073 Y58.037 E0.02863
G1 X58.434 Y58.484 E0.03128
G1 X58.007 Y59.094 E0.02986
G1 X57.833 Y59.743 E0.02696
G1 X57.833 Y62.221 E0.09936
G1 X57.946 Y62.73 E0.02089
G1 X58.203 Y63.224 E0.02233
G1 X58.579 Y63.634 E0.02233
G1 X59.11 Y63.972 E0.02523
G1 X59.773 Y64.119 E0.02724
G1 X64.056 Y64.119 E0.17177
G1 X63.954 Y64.567 E0.01843
G1 X63.928 Y65.145 E0.02319
G1 X64 Y65.682 E0.02173
G1 X64.097 Y66.031 E0.01452
G1 X64.31 Y66.529 E0.02172
G1 X64.628 Y67.011 E0.02319
G1 X65.028 Y67.429 E0.02319
G1 X65.494 Y67.768 E0.02313
G1 X65.418 Y68.004 E0.00993
G1 X64.296 Y68.005 E0.045
G1 X63.854 Y68.034 E0.01778
G1 X63.472 Y68.11 E0.01559
G1 X63.096 Y68.223 E0.01576
G1 X62.639 Y68.425 E0.02003
G1 X62.303 Y68.62 E0.0156
G1 X61.858 Y68.946 E0.02209
G1 X61.302 Y69.503 E0.03159
G1 X60.831 Y70.174 E0.03284
G1 X60.58 Y70.655 E0.02177
G1 X60.413 Y71.051 E0.01726
G1 X60.32 Y71.343 E0.01228
G1 X59.913 Y71.018 E0.02091
G1 X59.573 Y70.815 E0.01586
G1 X59.013 Y70.576 E0.02442
G1 X58.384 Y70.432 E0.02589
G1 X58.329 Y70.43 E0.00221
G1 E-2 F3000
G1 Z0.65 F27000
G1 X70.272 Y57.883
G1 Z0.25
G1 E2 F1800
G1 F900
G1 X70.372 Y57.145 E0.02986
G1 X70.346 Y56.567 E0.02319
G1 X70.218 Y56.003 E0.0232
G1 X69.99 Y55.472 E0.02318
G1 X69.672 Y54.989 E0.02319
G1 X69.272 Y54.571 E0.02319
G1 X68.805 Y54.231 E0.02318
G1 X68.881 Y53.996 E0.00994
G1 X73.956 Y53.998 E0.20352
G1 X73.96 Y57.887 E0.15597
G1 X70.332 Y57.883 E0.14549
G1 E-2 F3000
G1 Z0.65 F27000
G1 X70.244 Y64.118
G1 Z0.25
G1 E2 F1800
G1 F900
G1 X73.96 Y64.114 E0.14904
G1 X73.956 Y67.996 E0.15568
G1 X68.88 Y68.001 E0.20357
G1 X68.811 Y67.75 E0.01042
G1 X69.015 Y67.628 E0.00952
G1 X69.298 Y67.403 E0.01451
G1 X69.672 Y67.011 E0.02173
G1 X69.99 Y66.529 E0.02319
G1 X70.203 Y66.031 E0.02173
G1 X70.3 Y65.682 E0.01451
G1 X70.372 Y65.145 E0.02172
G1 X70.346 Y64.567 E0.02319
G1 X70.257 Y64.176 E0.01608
G1 E-2 F3000
G1 Z0.65 F27000
G1 X60.553 Y72.165
G1 Z0.25
G1 E2 F1800
G1 F900
G1 X60.542 Y72.221 E0.00227
G1 X60.093 Y71.707 E0.02736
G1 X59.669 Y71.369 E0.02173
G1 X59.379 Y71.196 E0.01356
G1 X58.881 Y70.983 E0.02173
G1 X58.326 Y70.856 E0.02281
G1 X57.758 Y70.831 E0.02281
G1 X57.194 Y70.907 E0.02281
G1 X56.654 Y71.083 E0.02281
G1 X56.176 Y71.34 E0.02173
G1 X55.903 Y71.538 E0.01356
G1 X55.511 Y71.913 E0.02173
G1 X55.177 Y72.373 E0.02281
G1 X54.93 Y72.885 E0.02281
G1 X54.786 Y73.408 E0.02173
G1 X54.741 Y73.743 E0.01356
G1 X54.741 Y74.285 E0.02173
G1 X54.842 Y74.844 E0.02281
G1 X54.945 Y75.117 E0.01171
G1 X53.986 Y74.944 E0.03909
G1 X49.319 Y74.939 E0.18714
G1 X49.247 Y74.696 E0.01017
G1 X49.546 Y74.498 E0.0144
G1 X49.854 Y74.204 E0.01706
G1 X50.104 Y73.86 E0.01706
G1 X50.288 Y73.477 E0.01706
G1 X50.409 Y73.041 E0.01814
G1 X50.435 Y72.457 E0.02343
G1 X50.354 Y72.012 E0.01814
G1 X50.205 Y71.614 E0.01706
G1 X49.973 Y71.225 E0.01814
G1 X49.569 Y70.803 E0.02343
G1 X49.191 Y70.554 E0.01814
G1 X48.8 Y70.387 E0.01706
G1 X48.385 Y70.292 E0.01706
G1 X47.961 Y70.273 E0.01706
G1 X47.539 Y70.33 E0.01706
G1 X47.135 Y70.462 E0.01706
G1 X46.865 Y70.607 E0.01229
G1 X46.685 Y70.425 E0.01026
G1 X46.844 Y70.14 E0.01307
G1 X47.31 Y69.189 E0.04248
G1 X47.724 Y68.215 E0.04245
G1 X48.083 Y67.228 E0.04211
G1 X48.39 Y66.218 E0.04231
G1 X48.642 Y65.192 E0.04238
G1 X48.839 Y64.155 E0.04235
G1 X48.98 Y63.108 E0.04235
G1 X49.065 Y62.056 E0.04235
G1 X49.094 Y61 E0.04235
G1 X49.065 Y59.944 E0.04235
G1 X48.98 Y58.892 E0.04235
G1 X48.839 Y57.845 E0.04237
G1 X48.639 Y56.794 E0.04288
G1 X48.386 Y55.771 E0.04227
G1 X48.08 Y54.763 E0.04224
G1 X47.722 Y53.778 E0.04203
G1 X47.303 Y52.795 E0.04285
G1 X46.843 Y51.858 E0.04187
G1 X46.685 Y51.576 E0.01295
G1 X46.865 Y51.394 E0.01026
G1 X47.158 Y51.552 E0.01337
G1 X47.722 Y51.707 E0.02343
G1 X48.173 Y51.727 E0.01814
G1 X48.595 Y51.67 E0.01706
G1 X48.999 Y51.539 E0.01706
G1 X49.398 Y51.324 E0.01814
G1 X49.838 Y50.94 E0.02343
G1 X50.104 Y50.574 E0.01814
G1 X50.288 Y50.191 E0.01706
G1 X50.409 Y49.755 E0.01814
G1 X50.435 Y49.171 E0.02343
G1 X50.354 Y48.726 E0.01814
G1 X50.195 Y48.302 E0.01814
G1 X49.873 Y47.815 E0.02343
G1 X49.546 Y47.502 E0.01814
G1 X49.256 Y47.311 E0.01393
G1 X49.329 Y47.068 E0.01017
G1 X53.683 Y47.068 E0.17461
G1 X54.338 Y47.009 E0.02636
G1 X54.942 Y46.843 E0.02514
G1 X54.786 Y47.408 E0.02351
G1 X54.741 Y47.743 E0.01356
G1 X54.741 Y48.285 E0.02173
G1 X54.842 Y48.844 E0.02281
G1 X55.042 Y49.377 E0.02281
G1 X55.334 Y49.865 E0.02281
G1 X55.708 Y50.293 E0.02281
G1 X56.153 Y50.648 E0.02281
G1 X56.654 Y50.917 E0.02281
G1 X57.194 Y51.093 E0.02281
G1 X57.731 Y51.166 E0.02173
G1 X58.069 Y51.166 E0.01356
G1 X58.606 Y51.093 E0.02173
G1 X59.122 Y50.926 E0.02173
G1 X59.426 Y50.779 E0.01356
G1 X59.878 Y50.481 E0.02173
G1 X60.29 Y50.087 E0.02281
G1 X60.508 Y49.786 E0.01492
G1 X60.821 Y50.825 E0.0435
G1 X61.036 Y51.307 E0.02114
G1 X61.205 Y51.617 E0.01419
G1 X61.474 Y52.021 E0.01946
G1 X61.679 Y52.274 E0.01305
G1 X61.899 Y52.511 E0.01296
G1 X62.281 Y52.846 E0.0204
G1 X62.896 Y53.231 E0.02909
G1 X63.514 Y53.467 E0.02653
G1 X64.159 Y53.567 E0.02618
G1 X74.178 Y53.571 E0.4018
G1 X74.353 Y53.6 E0.00709
G1 X74.382 Y53.845 E0.00992
G1 X74.387 Y58.341 E0.18027
G1 X73.89 Y58.313 E0.01995
G1 X69.621 Y58.308 E0.17122
G1 X69.8 Y57.889 E0.01827
G1 X69.881 Y57.596 E0.01221
G1 X69.945 Y57.126 E0.01903
G1 X69.922 Y56.625 E0.02011
G1 X69.811 Y56.135 E0.02012
G1 X69.613 Y55.674 E0.0201
G1 X69.337 Y55.256 E0.02011
G1 X68.991 Y54.893 E0.02011
G1 X68.607 Y54.614 E0.01903
G1 X68.339 Y54.47 E0.01221
G1 X67.894 Y54.303 E0.01903
G1 X67.401 Y54.214 E0.02011
G1 X66.899 Y54.214 E0.02011
G1 X66.432 Y54.299 E0.01903
G1 X66.143 Y54.393 E0.01221
G1 X65.715 Y54.599 E0.01903
G1 X65.309 Y54.893 E0.02011
G1 X64.963 Y55.256 E0.02011
G1 X64.687 Y55.675 E0.02011
G1 X64.489 Y56.136 E0.02011
G1 X64.378 Y56.625 E0.02011
G1 X64.355 Y57.126 E0.02011
G1 X64.419 Y57.596 E0.01904
G1 X64.5 Y57.89 E0.01222
G1 X64.679 Y58.307 E0.01822
G1 X59.817 Y58.308 E0.19499
G1 X59.248 Y58.434 E0.02336
G1 X58.74 Y58.79 E0.02487
G1 X58.399 Y59.277 E0.02383
G1 X58.259 Y59.8 E0.0217
G1 X58.259 Y62.174 E0.09524
G1 X58.35 Y62.583 E0.01677
G1 X58.555 Y62.977 E0.01783
G1 X58.855 Y63.305 E0.01783
G1 X59.275 Y63.572 E0.01996
G1 X59.819 Y63.693 E0.02235
G1 X64.679 Y63.693 E0.19488
G1 X64.489 Y64.136 E0.01932
G1 X64.378 Y64.625 E0.02011
G1 X64.355 Y65.126 E0.02011
G1 X64.419 Y65.596 E0.01904
G1 X64.5 Y65.89 E0.01222
G1 X64.687 Y66.326 E0.01902
G1 X64.963 Y66.744 E0.02011
G1 X65.309 Y67.107 E0.02011
G1 X65.715 Y67.402 E0.02011
G1 X66.167 Y67.619 E0.02011
G1 X66.625 Y67.746 E0.01903
G1 X66.926 Y67.786 E0.01221
G1 X67.401 Y67.786 E0.01903
G1 X67.894 Y67.697 E0.02011
G1 X68.364 Y67.521 E0.02011
G1 X68.771 Y67.277 E0.01903
G1 X69.009 Y67.087 E0.01221
G1 X69.337 Y66.744 E0.01903
G1 X69.613 Y66.326 E0.02011
G1 X69.8 Y65.889 E0.01903
G1 X69.881 Y65.596 E0.01221
G1 X69.945 Y65.126 E0.01903
G1 X69.922 Y64.625 E0.02011
G1 X69.811 Y64.135 E0.02012
G1 X69.621 Y63.692 E0.01933
G1 X73.891 Y63.688 E0.17123
G1 X74.387 Y63.661 E0.01993
G1 X74.382 Y68.147 E0.17991
G1 X74.353 Y68.422 E0.01108
G1 X64.31 Y68.431 E0.40276
G1 X63.909 Y68.458 E0.0161
G1 X63.576 Y68.524 E0.01365
G1 X63.244 Y68.624 E0.01389
G1 X62.833 Y68.805 E0.01803
G1 X62.536 Y68.977 E0.01375
G1 X62.137 Y69.27 E0.01986
G1 X61.629 Y69.778 E0.0288
G1 X61.197 Y70.396 E0.03024
