; generated by SuperSlicer 2.3.57 on 2022-02-03 at 02:10:56 UTC


;
;

;
;
; TODO: check the size of the extruder and the y-bar clearance. Optimize & test supports.

; external perimeters extrusion width = 0.42mm
; perimeters extrusion width = 0.46mm
; infill extrusion width = 0.44mm
; solid infill extrusion width = 0.46mm
; top infill extrusion width = 0.44mm
; first layer extrusion width = 0.56mm

; object:{"name":"cap_ring(1)","id":"cap_ring(1).stl id:0 copy 0","object_center":[60.000053,60.000053,0.000000],"boundingbox_center":[60.000053,60.000053,2.951996],"boundingbox_size":[57.915125,57.915125,5.903992]}
; object:{"name":"badge_triangle__blue(2)","id":"badge_triangle__blue(2).stl id:1 copy 0","object_center":[60.000000,60.000000,0.000000],"boundingbox_center":[60.000000,60.000000,1.526000],"boundingbox_size":[20.666000,20.664001,3.052000]}
; plater:{"center":[60.000053,60.000053,0.000000],"boundingbox_center":[60.000053,60.000053,2.951996],"boundingbox_size":[57.915125,57.915125,5.903992]}

;TYPE:Custom
; M190 S0
; M109 S0 ; uncomment to remove set&wait temp gcode added automatically after this start gcode
print_start EXTRUDER=210 BED=60 CHAMBER=15
M107
G21 ; set units to millimeters
G90 ; use absolute coordinates
M83 ; use relative distances for extrusion
M104 S210 ; set temperature
M109 S210 ; set temperature and wait for it to be reached
M190 S60 ; set bed temperature and wait for it to be reached
;LAYER_CHANGE
;Z:0.2
;HEIGHT:0.2
;BEFORE_LAYER_CHANGE
;0.2


G1 Z0.2 F18000
;AFTER_LAYER_CHANGE
;0.2
G1 E-2 F3000
G1 Z0.6 F18000
M204 S1500
G1 X38.427 Y36.7
G1 Z0.2
G1 E2 F1800
;TYPE:Skirt
;WIDTH:0.52
G1 X34.693 Y40.609 E0.21442
G1 X32.357 Y43.697 E0.1536
G1 X29.693 Y49.437 E0.25103
G1 X28.23 Y55.436 E0.24497
G1 X27.948 Y61.699 E0.24869
G1 X28.899 Y67.933 E0.25018
G1 X31.044 Y73.848 E0.24959
G1 X34.305 Y79.234 E0.24978
G1 X38.547 Y83.874 E0.24937
G1 X43.618 Y87.603 E0.24968
G1 X49.317 Y90.267 E0.24956
G1 X55.427 Y91.77 E0.24963
G1 X61.696 Y92.053 E0.24893
G1 X67.946 Y91.098 E0.25083
G1 X74.022 Y88.868 E0.25675
G1 X79.421 Y85.556 E0.25126
G1 X85.317 Y79.381 E0.33867
G1 X87.644 Y76.304 E0.15303
G1 X90.307 Y70.564 E0.251
G1 X91.77 Y64.566 E0.24494
G1 X92.053 Y58.303 E0.24869
G1 X91.1 Y52.064 E0.25037
G1 X88.956 Y46.153 E0.24945
G1 X85.695 Y40.767 E0.24974
G1 X81.461 Y36.133 E0.24901
G1 X76.383 Y32.4 E0.25
G1 X70.693 Y29.737 E0.24925
G1 X64.584 Y28.233 E0.24958
G1 X58.515 Y27.944 E0.24102
G1 X52.069 Y28.899 E0.25848
G1 X45.99 Y31.126 E0.25682
G1 X40.583 Y34.442 E0.25163
G1 X38.468 Y36.657 E0.12147
G1 X38.64 Y36.821 F18000
M204 S1000
G1 X38.812 Y36.985
G1 F1800
G1 X35.047 Y40.93 E0.21631
G1 X32.771 Y43.933 E0.14947
G1 X30.147 Y49.585 E0.24723
G1 X28.702 Y55.505 E0.24172
G1 X28.424 Y61.68 E0.24522
G1 X29.362 Y67.817 E0.24625
G1 X31.475 Y73.643 E0.24588
G1 X34.685 Y78.945 E0.24587
G1 X38.867 Y83.52 E0.24586
G1 X43.862 Y87.193 E0.24596
G1 X49.477 Y89.817 E0.24586
G1 X55.496 Y91.298 E0.24591
G1 X61.677 Y91.576 E0.24544
G1 X67.829 Y90.636 E0.24686
G1 X73.799 Y88.446 E0.25226
G1 X79.113 Y85.192 E0.24717
G1 X84.963 Y79.061 E0.33617
G1 X87.229 Y76.068 E0.14893
G1 X89.853 Y70.416 E0.2472
G1 X91.298 Y64.497 E0.24169
G1 X91.576 Y58.322 E0.24522
G1 X90.638 Y52.186 E0.24624
G1 X88.525 Y46.357 E0.24594
G1 X85.315 Y41.056 E0.24584
G1 X81.141 Y36.487 E0.24552
G1 X76.139 Y32.81 E0.24627
G1 X70.532 Y30.186 E0.24556
G1 X64.514 Y28.705 E0.24587
G1 X58.511 Y28.421 E0.23838
G1 X52.186 Y29.362 E0.25368
G1 X46.213 Y31.548 E0.25232
G1 X40.888 Y34.81 E0.24771
G1 X38.853 Y36.941 E0.11691
M204 S1500
G1 X39.025 Y37.105 F18000
M204 S1000
G1 X39.197 Y37.269
G1 F1800
G1 X35.398 Y41.252 E0.21834
G1 X33.186 Y44.168 E0.14516
G1 X30.6 Y49.732 E0.24342
G1 X29.174 Y55.572 E0.23846
G1 X28.901 Y61.655 E0.24155
G1 X29.824 Y67.698 E0.24252
G1 X31.905 Y73.437 E0.24216
G1 X35.067 Y78.659 E0.24216
G1 X39.186 Y83.165 E0.24216
G1 X44.105 Y86.783 E0.24225
G1 X49.635 Y89.367 E0.24215
G1 X55.564 Y90.826 E0.2422
G1 X61.652 Y91.099 E0.24176
G1 X67.705 Y90.175 E0.24291
G1 X73.575 Y88.025 E0.24796
G1 X78.806 Y84.827 E0.24325
G1 X84.608 Y78.742 E0.33349
G1 X86.814 Y75.833 E0.14483
G1 X89.399 Y70.269 E0.2434
G1 X90.826 Y64.43 E0.23844
G1 X91.099 Y58.347 E0.24155
G1 X90.175 Y52.3 E0.24269
G1 X88.095 Y46.564 E0.24205
G1 X84.933 Y41.342 E0.24213
G1 X80.821 Y36.841 E0.24183
G1 X75.896 Y33.22 E0.24254
G1 X70.373 Y30.636 E0.24187
G1 X64.441 Y29.176 E0.24234
G1 X58.51 Y28.898 E0.23552
G1 X52.304 Y29.824 E0.24893
G1 X46.432 Y31.972 E0.24802
G1 X41.194 Y35.175 E0.24358
G1 X39.238 Y37.226 E0.11241
; INIT printing object cap_ring(1).stl id:0 copy 0
G1 E-2 F3000
M204 S1500
G1 Z0.6 F18000
; printing object cap_ring(1).stl id:0 copy 0
G1 X57.658 Y54.206
M204 S1000
G1 X76.078 Y71.185
G1 Z0.2
G1 E2 F1800
;TYPE:Internal perimeter
;WIDTH:0.56
G1 X81.537 Y74.422 E0.27285
G1 X81.992 Y74.654 E0.02196
G1 X81.218 Y75.695 E0.05575
G1 X77.186 Y79.406 E0.23561
G1 X76.741 Y80.015 E0.03245
G1 X72.837 Y74.793 E0.28034
G1 X74.635 Y73.148 E0.10476
G1 X76.043 Y71.234 E0.10217
M204 S1500
G1 X75.991 Y70.868 F18000
M204 S1000
G1 X75.939 Y70.502
G1 F1800
G1 X81.787 Y73.969 E0.2923
G1 X82.771 Y74.472 E0.04756
G1 X81.604 Y76.042 E0.08413
G1 X77.574 Y79.753 E0.23553
G1 X76.7 Y80.946 E0.06359
G1 X76.501 Y80.603 E0.01705
G1 X76.211 Y80.17 E0.02242
G1 X72.143 Y74.727 E0.29216
G1 X74.249 Y72.801 E0.12271
G1 X75.903 Y70.55 E0.12012
G1 E-2 F3000
M204 S1500
G1 Z0.6 F18000
G1 X61.533 Y57.88
M204 S1000
G1 X47.163 Y45.209
G1 Z0.2
G1 E2 F1800
G1 X45.365 Y46.854 E0.10476
G1 X43.922 Y48.817 E0.10475
G1 X38.463 Y45.58 E0.27285
G1 X38.008 Y45.347 E0.02199
G1 X38.782 Y44.306 E0.05579
G1 X42.814 Y40.595 E0.2356
G1 X43.259 Y39.986 E0.03243
G1 X47.127 Y45.161 E0.27778
M204 S1500
G1 X47.492 Y45.218 F18000
M204 S1000
G1 X47.858 Y45.275
G1 F1800
G1 X45.751 Y47.201 E0.12271
G1 X44.061 Y49.5 E0.1227
G1 X38.213 Y46.033 E0.2923
G1 X37.228 Y45.529 E0.04758
G1 X38.396 Y43.959 E0.08415
G1 X42.426 Y40.249 E0.23552
G1 X43.3 Y39.056 E0.06357
G1 X43.499 Y39.399 E0.01707
G1 X43.79 Y39.832 E0.02242
G1 X47.822 Y45.227 E0.28958
M204 S1500
G1 X48.187 Y45.284 F18000
M204 S1000
G1 X48.552 Y45.34
;TYPE:External perimeter
G1 F1800
G1 X46.138 Y47.548 E0.14066
G1 X44.201 Y50.184 E0.14065
G1 X37.964 Y46.486 E0.31175
G1 X36.818 Y45.9 E0.05535
G1 X34.441 Y50.981 E0.2412
G1 X33.173 Y56.141 E0.22847
G1 X32.934 Y61.449 E0.22845
G1 X33.738 Y66.702 E0.22845
G1 X35.549 Y71.695 E0.22839
G1 X38.301 Y76.241 E0.22848
G1 X41.887 Y80.163 E0.22848
G1 X46.167 Y83.31 E0.22842
G1 X50.981 Y85.56 E0.22845
G1 X56.142 Y86.829 E0.2285
G1 X61.447 Y87.066 E0.22835
G1 X66.7 Y86.264 E0.22844
G1 X71.695 Y84.451 E0.2285
G1 X75.4 Y82.209 E0.18618
G1 X76.449 Y81.544 E0.05339
G1 X76.063 Y80.877 E0.03315
G1 X75.789 Y80.469 E0.02112
G1 X71.448 Y74.662 E0.31174
G1 X73.862 Y72.454 E0.14066
G1 X75.8 Y69.818 E0.14065
G1 X82.037 Y73.516 E0.31175
G1 X83.182 Y74.102 E0.05533
G1 X85.559 Y69.019 E0.24126
G1 X86.827 Y63.861 E0.22839
G1 X87.066 Y58.553 E0.22845
G1 X86.262 Y53.3 E0.22845
G1 X84.451 Y48.305 E0.22847
G1 X81.699 Y43.761 E0.22841
G1 X78.115 Y39.839 E0.22843
G1 X73.833 Y36.692 E0.22848
G1 X69.019 Y34.441 E0.22848
G1 X63.858 Y33.173 E0.22847
G1 X58.551 Y32.936 E0.22844
G1 X58.048 Y33.012 E0.02185
G1 X53.3 Y33.738 E0.20651
G1 X48.305 Y35.549 E0.22847
G1 X44.6 Y37.793 E0.18622
G1 X43.551 Y38.458 E0.0534
G1 X43.937 Y39.125 E0.03315
G1 X44.211 Y39.533 E0.02112
G1 X48.516 Y45.292 E0.30916
;WIPE_START
M204 S1500
G1 X48.159 Y45.414 F18000
;WIPE_END
G1 X45.812 Y41.641
M204 S1000
G1 X43.465 Y37.868
G1 F1800
G1 X48.081 Y35.081 E0.23182
G1 X53.172 Y33.235 E0.23284
G1 X58.523 Y32.418 E0.23276
G1 X58.985 Y32.437 E0.01988
G1 X63.933 Y32.659 E0.21294
G1 X69.192 Y33.952 E0.23283
G1 X74.097 Y36.246 E0.23285
G1 X78.461 Y39.452 E0.23282
G1 X82.114 Y43.449 E0.2328
G1 X84.919 Y48.081 E0.23281
G1 X86.765 Y53.172 E0.23283
G1 X87.584 Y58.525 E0.23284
G1 X87.341 Y63.935 E0.23283
G1 X86.048 Y69.192 E0.23279
G1 X83.756 Y74.089 E0.23245
G1 X83.15 Y74.83 E0.04115
G1 X81.989 Y76.39 E0.08361
G1 X77.961 Y80.099 E0.23544
G1 X77.19 Y81.152 E0.05612
G1 X76.751 Y81.863 E0.03593
G1 X76.535 Y82.133 E0.01488
G1 X71.919 Y84.919 E0.2318
G1 X66.828 Y86.766 E0.23284
G1 X61.475 Y87.584 E0.23283
G1 X56.067 Y87.342 E0.23275
G1 X50.809 Y86.049 E0.23283
G1 X45.903 Y83.756 E0.23283
G1 X41.54 Y80.548 E0.23282
G1 X37.886 Y76.552 E0.23283
G1 X35.082 Y71.92 E0.23281
G1 X33.235 Y66.83 E0.23279
G1 X32.416 Y61.477 E0.23283
G1 X32.659 Y56.067 E0.23284
G1 X33.952 Y50.809 E0.23283
G1 X36.244 Y45.912 E0.23245
G1 X36.85 Y45.171 E0.04115
G1 X38.011 Y43.611 E0.08361
G1 X42.039 Y39.902 E0.23543
G1 X42.81 Y38.849 E0.0561
G1 X43.249 Y38.139 E0.03592
G1 X43.428 Y37.915 E0.0123
;WIPE_START
M204 S1500
G1 X43.836 Y38.019 F18000
;WIPE_END
G1 E-2 F3000
G1 Z0.6 F18000
G1 X45.14 Y41.284
M204 S1000
G1 X46.443 Y44.549
G1 Z0.2
G1 E2 F1800
;TYPE:Solid infill
;WIDTH:0.575823
G1 X42.93 Y41.036 E0.21964
G1 X42.55 Y41.386 E0.02288
G1 X46.465 Y45.301 E0.24479
G1 X46.083 Y45.651 E0.02288
G1 X42.169 Y41.737 E0.24471
G1 X41.788 Y42.087 E0.02288
G1 X45.701 Y46 E0.24463
G1 X45.319 Y46.349 E0.02288
G1 X41.407 Y42.438 E0.24455
G1 X41.027 Y42.788 E0.02288
G1 X44.961 Y46.722 E0.24597
G1 X44.651 Y47.144 E0.02313
G1 X40.646 Y43.139 E0.2504
G1 X40.265 Y43.489 E0.02288
G1 X44.341 Y47.565 E0.25484
G1 X44.031 Y47.987 E0.02313
G1 X39.884 Y43.84 E0.25928
G1 X39.504 Y44.19 E0.02288
G1 X43.281 Y47.968 E0.23618
G1 X41.485 Y46.903 E0.09232
G1 X39.123 Y44.541 E0.14769
G1 X39.083 Y44.577 E0.00238
G1 X38.804 Y44.953 E0.02071
G1 X40.324 Y46.473 E0.09503
M204 S1500
G1 X41.731 Y43.531 F18000
M204 S1000
G1 X43.138 Y40.59
;TYPE:Gap fill
;WIDTH:0.412712
G1 F1800
G1 X43.263 Y40.731 E0.0058
G1 X43.47 Y40.97 E0.00974
;WIDTH:0.36023
G1 X43.678 Y41.21 E0.00836
;WIDTH:0.308903
G1 X43.885 Y41.449 E0.00701
;WIDTH:0.257575
G1 X44.092 Y41.689 E0.00565
;WIDTH:0.206248
G1 X44.3 Y41.928 E0.0043
;WIDTH:0.15492
G1 X44.507 Y42.168 E0.00295
G1 E-2 F3000
M204 S1500
G1 Z0.6 F18000
G1 X61.816 Y57.685
M204 S1000
G1 X79.125 Y73.202
G1 Z0.2
G1 E2 F1800
;TYPE:Solid infill
;WIDTH:0.57073
G1 X81.1 Y75.177 E0.12241
G1 X80.917 Y75.424 E0.01346
G1 X80.76 Y75.568 E0.00935
G1 X77.963 Y72.772 E0.17328
G1 X76.187 Y71.719 E0.09051
G1 X76.183 Y71.723 E0.00025
G1 X80.379 Y75.919 E0.26
G1 X79.998 Y76.269 E0.02268
G1 X75.874 Y72.145 E0.2556
G1 X75.564 Y72.566 E0.02292
G1 X79.617 Y76.62 E0.2512
G1 X79.237 Y76.97 E0.02268
G1 X75.254 Y72.988 E0.24681
G1 X74.944 Y73.409 E0.02292
G1 X78.856 Y77.321 E0.24241
G1 X78.475 Y77.671 E0.02268
G1 X74.564 Y73.76 E0.24238
G1 X74.182 Y74.109 E0.02268
G1 X78.095 Y78.022 E0.24246
G1 X77.714 Y78.372 E0.02268
G1 X73.8 Y74.459 E0.24253
G1 X73.418 Y74.808 E0.02268
G1 X77.333 Y78.723 E0.24261
G1 X76.952 Y79.074 E0.02268
G1 X74.221 Y76.342 E0.16926
; INIT stop printing object cap_ring(1).stl id:0 copy 0
; INIT printing object badge_triangle__blue(2).stl id:1 copy 0
G1 E-2 F3000
M204 S1500
G1 Z0.6 F18000
; stop printing object cap_ring(1).stl id:0 copy 0
; printing object badge_triangle__blue(2).stl id:1 copy 0
G1 X70.261 Y71.322
M204 S1000
G1 X66.3 Y66.301
G1 Z0.2
G1 E2 F1800
;TYPE:Internal perimeter
;WIDTH:0.56
G1 X64.951 Y67.409 E0.07504
G1 X63.409 Y68.233 E0.07519
G1 X61.738 Y68.74 E0.07509
G1 X59.999 Y68.911 E0.07512
G1 X58.262 Y68.74 E0.07505
G1 X56.589 Y68.233 E0.07516
G1 X55.049 Y67.409 E0.07513
G1 X53.698 Y66.301 E0.0751
G1 X52.59 Y64.95 E0.0751
G1 X51.766 Y63.41 E0.07514
G1 X51.259 Y61.739 E0.07507
G1 X51.088 Y60 E0.07513
G1 X51.259 Y58.261 E0.07513
G1 X51.766 Y56.59 E0.07507
G1 X52.59 Y55.049 E0.07514
G1 X53.698 Y53.698 E0.07512
G1 X55.049 Y52.59 E0.07513
G1 X56.588 Y51.767 E0.07506
G1 X58.262 Y51.26 E0.07518
G1 X59.999 Y51.089 E0.07505
G1 X60.667 Y51.155 E0.02886
G1 X61.738 Y51.26 E0.04626
G1 X63.41 Y51.767 E0.07511
G1 X64.951 Y52.59 E0.07513
G1 X66.3 Y53.698 E0.07507
G1 X67.409 Y55.049 E0.07517
G1 X68.232 Y56.59 E0.07507
G1 X68.739 Y58.262 E0.07513
G1 X68.912 Y60 E0.0751
G1 X68.739 Y61.738 E0.0751
G1 X68.232 Y63.41 E0.07513
G1 X67.409 Y64.95 E0.07507
G1 X66.338 Y66.255 E0.07256
M204 S1500
G1 X66.538 Y66.419 F18000
M204 S1000
G1 X66.738 Y66.583
G1 F1800
G1 X66.668 Y66.669 E0.00476
G1 X65.24 Y67.841 E0.07941
G1 X63.608 Y68.713 E0.07957
G1 X61.839 Y69.25 E0.07947
G1 X59.999 Y69.431 E0.0795
G1 X58.161 Y69.25 E0.07942
G1 X56.39 Y68.713 E0.07955
G1 X54.76 Y67.841 E0.07951
G1 X53.33 Y66.669 E0.07947
G1 X52.158 Y65.239 E0.07948
G1 X51.286 Y63.609 E0.07951
G1 X50.749 Y61.84 E0.07946
G1 X50.568 Y60 E0.0795
G1 X50.749 Y58.16 E0.0795
G1 X51.286 Y56.391 E0.07946
G1 X52.158 Y54.761 E0.07951
G1 X53.331 Y53.331 E0.07949
G1 X54.76 Y52.158 E0.07951
G1 X56.39 Y51.287 E0.07945
G1 X58.161 Y50.75 E0.07956
G1 X59.999 Y50.569 E0.07942
G1 X60.718 Y50.64 E0.03105
G1 X61.839 Y50.75 E0.04845
G1 X63.608 Y51.287 E0.07949
G1 X65.24 Y52.158 E0.07952
G1 X66.667 Y53.331 E0.07945
G1 X67.841 Y54.761 E0.07954
G1 X68.712 Y56.391 E0.07946
G1 X69.249 Y58.16 E0.0795
G1 X69.432 Y60 E0.07949
G1 X69.249 Y61.84 E0.07949
G1 X68.712 Y63.609 E0.0795
G1 X67.841 Y65.239 E0.07946
G1 X66.776 Y66.537 E0.07218
M204 S1500
G1 X66.906 Y66.786 F18000
M204 S1000
G1 X67.035 Y67.036
;TYPE:External perimeter
G1 F1800
G1 X65.529 Y68.273 E0.08379
G1 X63.807 Y69.193 E0.08395
G1 X61.941 Y69.759 E0.08385
G1 X59.999 Y69.95 E0.08388
G1 X58.059 Y69.759 E0.0838
G1 X56.191 Y69.193 E0.08393
G1 X54.471 Y68.273 E0.08388
G1 X52.963 Y67.036 E0.08385
G1 X51.726 Y65.528 E0.08385
G1 X50.806 Y63.808 E0.08388
G1 X50.24 Y61.942 E0.08385
G1 X50.049 Y60 E0.08388
G1 X50.24 Y58.058 E0.08388
G1 X50.806 Y56.192 E0.08385
G1 X51.726 Y54.472 E0.08388
G1 X52.963 Y52.964 E0.08386
G1 X54.471 Y51.725 E0.0839
G1 X56.191 Y50.807 E0.08384
G1 X58.059 Y50.241 E0.08394
G1 X59.999 Y50.05 E0.0838
G1 X60.768 Y50.125 E0.03323
G1 X61.941 Y50.241 E0.05065
G1 X63.807 Y50.807 E0.08386
G1 X65.529 Y51.725 E0.08391
G1 X67.035 Y52.964 E0.08384
G1 X68.274 Y54.472 E0.08391
G1 X69.192 Y56.192 E0.08384
G1 X69.759 Y58.059 E0.08387
G1 X69.951 Y60 E0.08388
G1 X69.759 Y61.941 E0.08388
G1 X69.192 Y63.808 E0.08387
G1 X68.274 Y65.528 E0.08384
G1 X67.073 Y66.99 E0.08133
;WIPE_START
M204 S1500
G1 X66.652 Y66.92 F18000
;WIPE_END
G1 X67.008 Y61.134
M204 S1000
G1 X67.364 Y55.349
;TYPE:Solid infill
;WIDTH:0.561748
G1 F1800
G1 X65.94 Y53.925 E0.08686
G1 X64.726 Y52.926 E0.06778
G1 X63.621 Y52.337 E0.05403
G1 X67.662 Y56.377 E0.24645
G1 X67.858 Y56.745 E0.01796
G1 X68.102 Y57.549 E0.03624
G1 X62.45 Y51.897 E0.34471
G1 X61.659 Y51.657 E0.03566
G1 X61.459 Y51.638 E0.00865
G1 X68.362 Y58.54 E0.42102
G1 X68.442 Y59.352 E0.03518
G1 X60.648 Y51.558 E0.47539
G1 X60.628 Y51.556 E0.00089
G1 X59.999 Y51.494 E0.02724
G1 X59.866 Y51.507 E0.00575
G1 X68.493 Y60.134 E0.52619
G1 X68.427 Y60.799 E0.02883
G1 X59.201 Y51.573 E0.56278
G1 X58.535 Y51.638 E0.02885
G1 X68.361 Y61.465 E0.59936
G1 X68.342 Y61.659 E0.00842
G1 X68.222 Y62.056 E0.0179
G1 X57.943 Y51.778 E0.62693
G1 X57.382 Y51.948 E0.02529
G1 X68.051 Y62.617 E0.65077
G1 X67.881 Y63.178 E0.02529
G1 X56.821 Y52.118 E0.67462
G1 X56.743 Y52.141 E0.00349
G1 X56.332 Y52.361 E0.02009
G1 X67.638 Y63.667 E0.68958
G1 X67.383 Y64.143 E0.02331
G1 X55.856 Y52.616 E0.70312
G1 X55.379 Y52.87 E0.02331
G1 X67.129 Y64.62 E0.71666
G1 X67.072 Y64.725 E0.00516
G1 X66.816 Y65.038 E0.01745
G1 X54.961 Y53.183 E0.72307
G1 X54.559 Y53.513 E0.02241
G1 X66.486 Y65.439 E0.72745
G1 X66.156 Y65.841 E0.02241
G1 X54.158 Y53.843 E0.73183
G1 X53.985 Y53.985 E0.00966
G1 X53.797 Y54.213 E0.01275
G1 X65.786 Y66.202 E0.73122
G1 X65.384 Y66.531 E0.02241
G1 X53.468 Y54.615 E0.72682
G1 X53.139 Y55.017 E0.02241
G1 X64.983 Y66.861 E0.72242
G1 X64.726 Y67.072 E0.01431
G1 X64.554 Y67.164 E0.00842
G1 X52.836 Y55.446 E0.71474
G1 X52.581 Y55.922 E0.0233
G1 X64.077 Y67.419 E0.70123
G1 X63.601 Y67.673 E0.0233
G1 X52.326 Y56.398 E0.68772
G1 X52.14 Y56.745 E0.01699
G1 X52.094 Y56.897 E0.00685
G1 X63.102 Y67.905 E0.6714
G1 X62.54 Y68.075 E0.02529
G1 X51.924 Y57.459 E0.64756
G1 X51.753 Y58.02 E0.02529
G1 X61.979 Y68.246 E0.62373
G1 X61.659 Y68.343 E0.01445
G1 X61.373 Y68.371 E0.01237
G1 X51.628 Y58.626 E0.59441
G1 X51.563 Y59.291 E0.02886
G1 X60.708 Y68.436 E0.55778
G1 X60.042 Y68.502 E0.02886
