; generated by SuperSlicer 2.3.57 on 2022-02-13 at 07:22:47 UTC


;
;

;
;
; TODO: check the size of the extruder and the y-bar clearance. Optimize & test supports.

; external perimeters extrusion width = 0.42mm
; perimeters extrusion width = 0.46mm
; infill extrusion width = 0.44mm
; solid infill extrusion width = 0.46mm
; top infill extrusion width = 0.44mm
; first layer extrusion width = 0.56mm

; object:{"name":"Dewalt_Drill_Bit_Holder(1)","id":"Dewalt_Drill_Bit_Holder(1).stl id:0 copy 0","object_center":[59.011867,59.523424,0.000000],"boundingbox_center":[59.011867,59.523424,7.503234],"boundingbox_size":[68.004122,25.715818,15.006676]}
; plater:{"center":[59.011867,59.523424,0.000000],"boundingbox_center":[59.011867,59.523424,7.503234],"boundingbox_size":[68.004122,25.715818,15.006676]}

M73 P0 R30
;TYPE:Custom
; custom gcode: start_gcode
; M190 S0
; M109 S0 ; uncomment to remove set&wait temp gcode added automatically after this start gcode
print_start EXTRUDER=210 BED=60 CHAMBER=15
; custom gcode end: start_gcode
G21 ; set units to millimeters
G90 ; use absolute coordinates
M83 ; use relative distances for extrusion
M104 S210 ; set temperature
M109 S210 ; set temperature and wait for it to be reached
M190 S60 ; set bed temperature and wait for it to be reached
;LAYER_CHANGE
;Z:0.2
;HEIGHT:0.2
; custom gcode: before_layer_gcode
;BEFORE_LAYER_CHANGE
;0.2

; custom gcode end: before_layer_gcode

G1 Z0.2 F18000
; custom gcode: layer_gcode
;AFTER_LAYER_CHANGE
;0.2
; custom gcode end: layer_gcode

G1 E-0.4 F3000
G1 Z0.4 F18000
M204 S1500
G1 X33.423 Y43.692
G1 Z0.2
G1 E0.4 F1800
; custom gcode: feature_gcode
; External perimeter
;;Skirt
;SET_VELOCITY_LIMIT ACCEL=7000 ACCEL_TO_DECEL=7000 SQUARE_CORNER_VELOCITY=8

; Support material
;
; custom gcode end: feature_gcode

;TYPE:Skirt
;WIDTH:0.52
G1 X32.275 Y44.847 E0.0646
G1 X21.769 Y58.195 E0.67385
G1 X20.686 Y59.96 E0.08216
G1 X19.979 Y61.806 E0.07839
G1 X19.489 Y64.967 E0.12689
G1 X19.497 Y67.537 E0.10194
G1 X19.605 Y68.751 E0.04836
G1 X19.901 Y69.871 E0.04594
G1 X20.419 Y70.906 E0.04594
G1 X21.306 Y71.977 E0.05517
G1 X22.429 Y72.798 E0.05517
G1 X23.719 Y73.318 E0.05517
G1 X25.097 Y73.505 E0.05517
G1 X93.012 Y73.355 E2.69412
G1 X94.052 Y73.232 E0.04154
G1 X95.051 Y72.918 E0.04154
G1 X95.974 Y72.425 E0.04154
G1 X96.791 Y71.769 E0.04154
G1 X97.447 Y71.006 E0.03992
G1 X97.955 Y70.144 E0.03969
G1 X98.304 Y69.2 E0.03992
G1 X98.478 Y68.215 E0.03969
G1 X98.538 Y67.27 E0.03756
G1 X98.508 Y64.407 E0.11358
G1 X98.259 Y62.462 E0.07776
G1 X97.743 Y60.778 E0.0699
G1 X96.978 Y59.19 E0.0699
G1 X95.805 Y57.509 E0.08132
G1 X85.132 Y44.383 E0.67114
G1 X84.156 Y43.471 E0.05297
G1 X82.937 Y42.604 E0.05931
G1 X81.607 Y41.916 E0.05942
G1 X80.346 Y41.561 E0.05199
G1 X79.531 Y41.475 E0.03251
G1 X67.09 Y41.15 E0.49366
G1 X50.574 Y41.184 E0.6552
G1 X38.092 Y41.566 E0.49536
G1 X37.262 Y41.67 E0.0332
G1 X36.339 Y41.921 E0.03796
G1 X34.627 Y42.797 E0.07627
G1 X33.471 Y43.656 E0.05713
G1 X33.612 Y43.847 F18000
M204 S1000
G1 X33.754 Y44.038
G1 F1800
G1 X32.646 Y45.146 E0.06214
G1 X22.15 Y58.482 E0.67323
G1 X21.127 Y60.145 E0.07746
G1 X20.447 Y61.902 E0.07473
G1 X19.967 Y64.938 E0.12196
G1 X19.973 Y67.51 E0.10201
G1 X20.069 Y68.627 E0.04449
G1 X20.33 Y69.658 E0.04217
G1 X20.798 Y70.612 E0.04217
G1 X21.611 Y71.608 E0.051
G1 X22.645 Y72.372 E0.051
G1 X23.837 Y72.855 E0.051
G1 X25.111 Y73.028 E0.051
G1 X92.994 Y72.878 E2.69287
G1 X93.955 Y72.764 E0.03841
G1 X94.884 Y72.471 E0.03863
G1 X95.735 Y72.011 E0.03841
G1 X96.49 Y71.395 E0.03863
G1 X97.15 Y70.598 E0.04106
G1 X97.635 Y69.689 E0.04084
G1 X97.924 Y68.73 E0.03974
G1 X98.046 Y67.61 E0.04472
G1 X98.025 Y64.374 E0.12836
G1 X97.788 Y62.54 E0.07335
G1 X97.28 Y60.91 E0.06774
G1 X96.56 Y59.421 E0.06561
G1 X95.421 Y57.791 E0.07888
G1 X84.756 Y44.681 E0.67041
G1 X83.851 Y43.838 E0.04906
G1 X82.687 Y43.01 E0.05668
G1 X81.424 Y42.357 E0.05638
G1 X80.23 Y42.025 E0.04918
G1 X67.091 Y41.627 E0.52147
G1 X50.579 Y41.661 E0.65501
G1 X38.133 Y42.041 E0.49396
G1 X37.366 Y42.136 E0.03065
G1 X36.509 Y42.367 E0.03522
G1 X34.916 Y43.178 E0.0709
G1 X33.802 Y44.002 E0.05496
M204 S1500
G1 X33.943 Y44.194 F18000
M204 S1000
G1 X34.083 Y44.385
G1 F1800
G1 X34.067 Y44.397 E0.0008
G1 X33.018 Y45.445 E0.05883
G1 X22.532 Y58.768 E0.67258
G1 X21.567 Y60.332 E0.07289
G1 X20.913 Y62.004 E0.07121
G1 X20.445 Y64.924 E0.11734
G1 X20.45 Y67.484 E0.10153
G1 X20.534 Y68.515 E0.04104
G1 X20.765 Y69.457 E0.03848
G1 X21.182 Y70.326 E0.03826
G1 X21.92 Y71.243 E0.04668
G1 X22.863 Y71.947 E0.04668
G1 X23.952 Y72.392 E0.04668
G1 X25.118 Y72.551 E0.04668
G1 X92.977 Y72.401 E2.69191
G1 X93.866 Y72.296 E0.03553
G1 X94.714 Y72.025 E0.03531
G1 X95.495 Y71.597 E0.03531
G1 X96.185 Y71.026 E0.03553
G1 X96.779 Y70.294 E0.03742
G1 X97.214 Y69.457 E0.03742
G1 X97.466 Y68.586 E0.03595
G1 X97.574 Y67.522 E0.04242
G1 X97.577 Y64.769 E0.10922
G1 X97.395 Y63.081 E0.06734
G1 X97.25 Y62.351 E0.02952
G1 X96.822 Y61.052 E0.05425
G1 X96.146 Y59.658 E0.06147
G1 X95.04 Y58.079 E0.07648
G1 X84.388 Y44.987 E0.66954
G1 X83.547 Y44.206 E0.04551
G1 X82.441 Y43.42 E0.05383
M73 P1 R30
G1 X81.244 Y42.798 E0.05353
G1 X80.119 Y42.49 E0.04628
G1 X67.091 Y42.104 E0.51704
G1 X50.584 Y42.138 E0.65481
G1 X38.168 Y42.517 E0.49276
G1 X37.464 Y42.603 E0.02814
G1 X36.674 Y42.815 E0.03244
G1 X35.202 Y43.562 E0.06547
G1 X34.132 Y44.349 E0.05273
M204 S1500
G1 X34.272 Y44.541 F18000
M204 S1000
G1 X34.412 Y44.733
G1 F1800
G1 X34.388 Y44.75 E0.00116
G1 X33.389 Y45.744 E0.05592
G1 X22.911 Y59.058 E0.67209
G1 X22.004 Y60.526 E0.06846
G1 X21.378 Y62.111 E0.06759
G1 X20.923 Y64.913 E0.11261
G1 X20.926 Y67.463 E0.10118
G1 X21.001 Y68.405 E0.03749
G1 X21.2 Y69.256 E0.03465
G1 X21.571 Y70.047 E0.03465
G1 X22.232 Y70.881 E0.04223
G1 X23.081 Y71.522 E0.04223
G1 X24.065 Y71.929 E0.04223
G1 X25.125 Y72.074 E0.04243
G1 X92.959 Y71.924 E2.69093
G1 X93.766 Y71.829 E0.03226
G1 X94.54 Y71.58 E0.03226
G1 X95.252 Y71.186 E0.03226
G1 X95.877 Y70.659 E0.03246
G1 X96.429 Y69.956 E0.03545
G1 X96.818 Y69.157 E0.03525
G1 X97.02 Y68.359 E0.03266
G1 X97.107 Y67.249 E0.04414
G1 X97.098 Y64.745 E0.09934
G1 X96.891 Y62.927 E0.07258
G1 X96.513 Y61.561 E0.05625
G1 X95.937 Y60.28 E0.05569
G1 X94.628 Y58.327 E0.09327
G1 X84.022 Y45.297 E0.66651
G1 X83.244 Y44.575 E0.0421
G1 X82.197 Y43.83 E0.05099
G1 X81.065 Y43.241 E0.05062
G1 X80.017 Y42.957 E0.04306
G1 X67.091 Y42.581 E0.51301
G1 X50.59 Y42.615 E0.65459
G1 X38.199 Y42.993 E0.49175
G1 X36.831 Y43.265 E0.05533
G1 X35.482 Y43.95 E0.06001
G1 X34.46 Y44.697 E0.05023
M204 S1500
G1 X34.6 Y44.889 F18000
M204 S1000
G1 X34.74 Y45.081
G1 F1800
G1 X34.705 Y45.106 E0.00169
G1 X33.758 Y46.048 E0.05298
G1 X23.288 Y59.35 E0.67155
G1 X22.438 Y60.727 E0.06417
G1 X21.843 Y62.218 E0.06368
G1 X21.401 Y64.909 E0.10819
G1 X21.47 Y68.311 E0.13499
G1 X21.641 Y69.072 E0.03092
G1 X21.964 Y69.776 E0.03074
G1 X22.552 Y70.528 E0.03787
G1 X23.308 Y71.103 E0.03768
G1 X24.19 Y71.468 E0.03787
G1 X25.136 Y71.597 E0.03787
G1 X92.942 Y71.447 E2.68981
G1 X93.669 Y71.362 E0.02905
G1 X94.365 Y71.136 E0.02905
G1 X95.004 Y70.777 E0.02905
G1 X95.559 Y70.301 E0.02905
G1 X96.172 Y69.444 E0.0418
G1 X96.519 Y68.454 E0.04161
G1 X96.628 Y67.338 E0.04446
G1 X96.627 Y64.927 E0.09566
G1 X96.358 Y62.707 E0.08871
G1 X96.035 Y61.643 E0.04409
G1 X95.486 Y60.442 E0.05238
G1 X94.253 Y58.622 E0.0872
G1 X83.663 Y45.613 E0.66543
G1 X82.946 Y44.947 E0.03885
G1 X81.957 Y44.242 E0.04816
G1 X80.893 Y43.686 E0.04767
G1 X79.92 Y43.424 E0.03993
G1 X67.086 Y43.058 E0.50934
G1 X50.6 Y43.092 E0.65397
G1 X38.227 Y43.47 E0.49107
G1 X36.986 Y43.717 E0.05019
G1 X35.756 Y44.342 E0.05476
G1 X34.788 Y45.046 E0.04746
M204 S1500
G1 X34.928 Y45.239 F18000
M204 S1000
G1 X35.067 Y45.431
G1 F1800
G1 X35.019 Y45.466 E0.00237
G1 X34.126 Y46.35 E0.04983
G1 X23.669 Y59.638 E0.67077
G1 X22.869 Y60.933 E0.0604
G1 X22.306 Y62.333 E0.05985
G1 X21.878 Y64.912 E0.10371
G1 X21.94 Y68.218 E0.13118
G1 X22.081 Y68.882 E0.02693
G1 X22.36 Y69.507 E0.02711
G1 X22.87 Y70.171 E0.03324
G1 X23.538 Y70.684 E0.03342
G1 X24.311 Y71.007 E0.03324
G1 X25.142 Y71.12 E0.03324
G1 X92.931 Y70.97 E2.68917
G1 X93.575 Y70.894 E0.02571
G1 X94.19 Y70.692 E0.02571
G1 X94.749 Y70.373 E0.02553
G1 X95.237 Y69.947 E0.02571
G1 X95.77 Y69.184 E0.03691
G1 X96.062 Y68.305 E0.03673
G1 X96.151 Y67.304 E0.03985
G1 X96.149 Y64.884 E0.096
G1 X95.89 Y62.802 E0.08323
G1 X95.586 Y61.804 E0.04139
G1 X95.028 Y60.592 E0.05292
G1 X93.868 Y58.904 E0.08128
G1 X83.596 Y46.242 E0.64677
M73 P2 R30
G1 X82.832 Y45.48 E0.0428
G1 X81.876 Y44.754 E0.04763
G1 X80.996 Y44.257 E0.0401
G1 X80.44 Y44.032 E0.02378
G1 X79.749 Y43.882 E0.02807
G1 X67.086 Y43.535 E0.50251
G1 X50.606 Y43.569 E0.65374
G1 X38.252 Y43.946 E0.49031
G1 X37.139 Y44.168 E0.04502
G1 X36.023 Y44.739 E0.04974
G1 X35.116 Y45.396 E0.04444
; INIT printing object Dewalt_Drill_Bit_Holder(1).stl id:0 copy 0
G1 E-0.4 F3000
M204 S3000
G1 Z0.4 F18000
; printing object Dewalt_Drill_Bit_Holder(1).stl id:0 copy 0
M204 S1500
G1 X36.312 Y50.601
M204 S1000
G1 X37.508 Y55.805
G1 Z0.2
G1 E0.4 F1800
; custom gcode: feature_gcode
; External perimeter
;;Perimeter
;SET_VELOCITY_LIMIT ACCEL=2000 ACCEL_TO_DECEL=2000 SQUARE_CORNER_VELOCITY=8

; Overhang perimeter
;
; custom gcode end: feature_gcode

;TYPE:Internal perimeter
;WIDTH:0.56
G1 X38.199 Y56.21 E0.03441
G1 X38.928 Y56.499 E0.03372
G1 X39.693 Y56.674 E0.03373
G1 X40.475 Y56.732 E0.03371
G1 X41.256 Y56.671 E0.0337
G1 X42.021 Y56.493 E0.03379
G1 X42.748 Y56.2 E0.0337
G1 X43.672 Y55.654 E0.04614
G1 X43.783 Y55.997 E0.01552
G1 X44.623 Y56.829 E0.05082
G1 X45.754 Y57.14 E0.05042
G1 X47.663 Y57.082 E0.08212
G1 X48.205 Y57.003 E0.02354
G1 X48.979 Y56.618 E0.03717
G1 X49.693 Y55.816 E0.04615
G1 X49.79 Y55.437 E0.01683
G1 X50.47 Y55.835 E0.03387
G1 X51.199 Y56.124 E0.03372
G1 X51.964 Y56.299 E0.03373
G1 X52.746 Y56.357 E0.03371
G1 X53.528 Y56.296 E0.03371
G1 X54.291 Y56.118 E0.03373
G1 X55.019 Y55.825 E0.03372
G1 X55.937 Y55.283 E0.04584
G1 X56.041 Y55.611 E0.01483
G1 X56.844 Y56.421 E0.04901
G1 X57.825 Y56.754 E0.04452
G1 X59.946 Y56.75 E0.09121
G1 X60.925 Y56.412 E0.04452
G1 X61.724 Y55.599 E0.04901
G1 X61.827 Y55.27 E0.01483
G1 X62.747 Y55.809 E0.04585
G1 X63.476 Y56.098 E0.03372
G1 X64.241 Y56.273 E0.03373
G1 X65.023 Y56.331 E0.03371
G1 X65.805 Y56.27 E0.03371
G1 X66.568 Y56.092 E0.03373
G1 X67.296 Y55.799 E0.03372
G1 X67.974 Y55.399 E0.03383
G1 X68.072 Y55.777 E0.0168
G1 X68.8 Y56.586 E0.0468
G1 X69.571 Y56.958 E0.0368
G1 X70.107 Y57.034 E0.02329
G1 X72.019 Y57.085 E0.08224
G1 X73.148 Y56.769 E0.05038
G1 X73.982 Y55.933 E0.05076
G1 X74.093 Y55.589 E0.01555
G1 X75.02 Y56.132 E0.04619
G1 X75.748 Y56.421 E0.0337
G1 X76.514 Y56.596 E0.03379
G1 X77.296 Y56.654 E0.0337
G1 X78.077 Y56.593 E0.03371
G1 X78.842 Y56.415 E0.03375
G1 X79.568 Y56.122 E0.03366
G1 X80.258 Y55.715 E0.03445
G1 X80.467 Y56.289 E0.02625
G1 X81.218 Y57.034 E0.0455
G1 X82.191 Y57.339 E0.04383
G1 X82.933 Y57.418 E0.03208
G1 X83.622 Y57.57 E0.03034
G1 X83.568 Y58.013 E0.01918
G1 X60.603 Y57.447 E0.98772
G1 X58.992 Y57.431 E0.06926
G1 X57.388 Y57.454 E0.06897
G1 X34.177 Y58.124 E0.99836
G1 X34.122 Y57.681 E0.01918
G1 X34.842 Y57.519 E0.03173
G1 X35.577 Y57.436 E0.03181
G1 X36.352 Y57.224 E0.03455
G1 X37.278 Y56.444 E0.05206
G1 X37.488 Y55.862 E0.02662
G1 E-0.4 F3000
M204 S3000
G1 Z0.4 F18000
M204 S1500
G1 X64.115 Y59.549
M204 S1000
G1 X90.742 Y63.237
G1 Z0.2
G1 E0.4 F1800
G1 X91.166 Y63.081 E0.01945
G1 X91.335 Y63.444 E0.01721
G1 X91.463 Y63.883 E0.01966
G1 X91.516 Y64.337 E0.01966
G1 X91.07 Y64.424 E0.01955
G1 X90.758 Y63.295 E0.05038
M204 S1500
G1 X91.437 Y65.116 F18000
M204 S1000
G1 X92.116 Y66.937
G1 F1800
G1 X90.653 Y66.94 E0.06291
G1 X90.649 Y64.842 E0.09021
G1 X90.12 Y62.929 E0.08536
G1 X89.543 Y62.124 E0.04257
G1 X89.088 Y61.691 E0.02701
G1 X86.417 Y59.485 E0.14892
G1 X85.95 Y59.152 E0.02465
G1 X85.052 Y58.765 E0.04205
G1 X83.876 Y58.538 E0.05151
G1 X60.594 Y57.964 E1.00133
G1 X58.993 Y57.948 E0.06883
G1 X57.399 Y57.971 E0.06854
G1 X34.143 Y58.642 E1.00033
G1 X33.329 Y58.754 E0.03531
G1 X32.504 Y59.023 E0.03731
G1 X31.603 Y59.584 E0.04565
G1 X28.865 Y61.864 E0.15317
G1 X27.684 Y63.496 E0.08661
G1 X27.42 Y64.437 E0.04203
G1 X27.373 Y65.05 E0.02645
G1 X27.377 Y67.08 E0.08725
G1 X25.914 Y67.083 E0.06291
G1 X25.909 Y65.168 E0.08232
G1 X26.219 Y63.336 E0.07989
G1 X26.418 Y62.858 E0.02228
G1 X26.886 Y62.076 E0.03918
G1 X27.473 Y61.356 E0.03994
G1 X27.928 Y60.936 E0.02663
G1 X30.499 Y58.793 E0.14392
G1 X31.014 Y58.411 E0.02753
G1 X31.552 Y58.097 E0.02679
G1 X32.127 Y57.839 E0.02711
G1 X32.732 Y57.643 E0.02734
G1 X33.146 Y57.555 E0.01822
G1 X33.614 Y57.332 E0.02228
G1 X34.174 Y57.14 E0.02546
G1 X34.756 Y57.009 E0.02563
G1 X35.479 Y56.927 E0.03129
G1 X36.106 Y56.755 E0.02795
G1 X36.839 Y56.138 E0.0412
G1 X37.27 Y54.941 E0.0547
G1 X37.82 Y55.388 E0.03047
G1 X38.426 Y55.744 E0.03023
G1 X39.082 Y56.004 E0.03033
G1 X39.77 Y56.161 E0.03033
G1 X40.474 Y56.213 E0.03034
G1 X41.177 Y56.158 E0.03033
G1 X41.865 Y55.998 E0.03039
G1 X42.519 Y55.735 E0.0303
G1 X43.124 Y55.377 E0.03022
G1 X43.916 Y54.727 E0.04405
G1 X44.237 Y55.718 E0.04477
G1 X44.891 Y56.366 E0.03959
G1 X45.816 Y56.621 E0.04126
G1 X47.618 Y56.566 E0.0775
G1 X48.049 Y56.503 E0.01871
G1 X48.659 Y56.199 E0.02932
G1 X49.223 Y55.565 E0.03648
G1 X49.492 Y54.526 E0.04615
G1 X50.091 Y55.014 E0.03321
G1 X50.698 Y55.369 E0.03023
G1 X51.353 Y55.629 E0.03033
G1 X52.041 Y55.786 E0.03033
G1 X52.745 Y55.838 E0.03034
G1 X53.448 Y55.783 E0.03034
G1 X54.135 Y55.623 E0.03033
G1 X54.79 Y55.36 E0.03033
G1 X55.395 Y55.002 E0.03023
G1 X56.185 Y54.354 E0.04395
G1 X56.496 Y55.336 E0.04429
G1 X57.126 Y55.97 E0.03841
G1 X57.909 Y56.237 E0.0356
G1 X59.859 Y56.233 E0.08381
G1 X60.642 Y55.963 E0.0356
G1 X61.268 Y55.326 E0.03841
G1 X61.575 Y54.343 E0.04429
G1 X62.368 Y54.988 E0.04395
G1 X62.975 Y55.343 E0.03023
G1 X63.63 Y55.603 E0.03033
G1 X64.318 Y55.761 E0.03033
G1 X65.022 Y55.812 E0.03034
G1 X65.725 Y55.758 E0.03034
G1 X66.412 Y55.597 E0.03033
G1 X67.067 Y55.334 E0.03033
G1 X67.672 Y54.976 E0.03023
G1 X68.27 Y54.486 E0.03325
G1 X68.541 Y55.525 E0.04615
G1 X69.117 Y56.164 E0.03702
G1 X69.723 Y56.458 E0.02897
G1 X70.15 Y56.518 E0.01854
G1 X71.955 Y56.566 E0.07762
G1 X72.878 Y56.307 E0.04119
G1 X73.528 Y55.656 E0.03956
G1 X73.846 Y54.665 E0.04478
G1 X74.641 Y55.311 E0.04402
G1 X75.247 Y55.666 E0.03022
G1 X75.902 Y55.926 E0.0303
G1 X76.591 Y56.084 E0.03039
G1 X77.294 Y56.135 E0.03033
G1 X77.998 Y56.081 E0.03034
G1 X78.685 Y55.92 E0.03035
G1 X79.338 Y55.657 E0.03027
G1 X79.945 Y55.3 E0.03028
G1 X80.492 Y54.849 E0.03047
G1 X80.913 Y56.003 E0.05281
G1 X81.493 Y56.579 E0.03512
G1 X82.297 Y56.83 E0.03622
G1 X83.017 Y56.907 E0.03112
G1 X83.597 Y57.035 E0.02556
G1 X84.159 Y57.226 E0.0255
G1 X84.469 Y57.372 E0.01473
G1 X85.261 Y57.533 E0.03475
G1 X85.865 Y57.726 E0.02726
G1 X86.441 Y57.981 E0.02711
G1 X86.981 Y58.293 E0.02679
G1 X87.496 Y58.673 E0.02753
G1 X90.065 Y60.795 E0.14324
G1 X90.738 Y61.456 E0.04055
G1 X91.447 Y62.458 E0.05279
G1 X91.82 Y63.261 E0.03809
G1 X91.972 Y63.779 E0.02321
G1 X92.114 Y65.003 E0.05297
G1 X92.116 Y66.877 E0.08057
M204 S1500
G1 X92.366 Y67.165 F18000
M204 S1000
G1 X92.615 Y67.453
; custom gcode: feature_gcode
; External perimeter
;;ExternalPerimeter
;SET_VELOCITY_LIMIT ACCEL=1000 ACCEL_TO_DECEL=1000 SQUARE_CORNER_VELOCITY=8

; Perimeter
;
; custom gcode end: feature_gcode

;TYPE:External perimeter
G1 F1800
G1 X90.088 Y67.458 E0.10868
G1 X90.137 Y67.165 E0.01279
G1 X90.132 Y64.913 E0.09684
G1 X89.646 Y63.155 E0.07841
G1 X89.151 Y62.465 E0.03652
G1 X88.745 Y62.078 E0.02413
G1 X86.102 Y59.896 E0.14735
G1 X85.695 Y59.605 E0.0215
G1 X84.899 Y59.262 E0.03726
G1 X83.82 Y59.054 E0.04724
G1 X60.585 Y58.481 E0.99932
M73 P2 R29
G1 X58.994 Y58.465 E0.0684
G1 X57.41 Y58.488 E0.06811
G1 X34.185 Y59.158 E0.99897
G1 X33.445 Y59.26 E0.03212
G1 X32.724 Y59.495 E0.03261
G1 X31.906 Y60.004 E0.04142
G1 X29.246 Y62.22 E0.14884
G1 X28.157 Y63.724 E0.07986
G1 X27.932 Y64.527 E0.03587
G1 X27.89 Y65.07 E0.02337
G1 X27.895 Y67.273 E0.09475
G1 X27.909 Y67.523 E0.01075
G1 X27.925 Y67.595 E0.00321
G1 X25.419 Y67.601 E0.10778
G1 X25.398 Y67.354 E0.01065
