; generated by SuperSlicer 2.3.57 on 2022-01-30 at 19:31:26 UTC


;
;

;
;
; TODO: check the size of the extruder and the y-bar clearance. Optimize & test supports.

; external perimeters extrusion width = 0.43mm
; perimeters extrusion width = 0.48mm
; infill extrusion width = 0.44mm
; solid infill extrusion width = 0.48mm
; top infill extrusion width = 0.46mm
; first layer extrusion width = 0.56mm

; object:{"name":"DysonHolder_-_Clip(1)","id":"DysonHolder_-_Clip(1).stl id:0 copy 0","object_center":[59.000000,59.500000,0.000000],"boundingbox_center":[59.000000,59.500000,7.240437],"boundingbox_size":[36.500000,36.919399,14.480875]}
; plater:{"center":[59.000000,59.500000,0.000000],"boundingbox_center":[59.000000,59.500000,7.240437],"boundingbox_size":[36.500000,36.919399,14.480875]}

M73 P0 R17
;TYPE:Custom
; custom gcode: start_gcode
; M190 S0
; M109 S0 ; uncomment to remove set&wait temp gcode added automatically after this start gcode
print_start EXTRUDER=215 BED=55 CHAMBER=15
; custom gcode end: start_gcode
G21 ; set units to millimeters
G90 ; use absolute coordinates
M83 ; use relative distances for extrusion
M104 S215 ; set temperature
M109 S215 ; set temperature and wait for it to be reached
M190 S55 ; set bed temperature and wait for it to be reached
;LAYER_CHANGE
;Z:0.2
;HEIGHT:0.2
; custom gcode: before_layer_gcode
;BEFORE_LAYER_CHANGE
;0.2

; custom gcode end: before_layer_gcode

G1 Z0.2 F18000
; custom gcode: layer_gcode
;AFTER_LAYER_CHANGE
;0.2
; custom gcode end: layer_gcode

G1 E-0.4 F3000
G1 Z0.4 F18000
M204 S1500
G1 X37.552 Y38.048
G1 Z0.2
G1 E0.4 F1800
; custom gcode: feature_gcode
; External perimeter
;;Skirt
;SET_VELOCITY_LIMIT ACCEL=7000 ACCEL_TO_DECEL=7000 SQUARE_CORNER_VELOCITY=8

; Support material
;
; custom gcode end: feature_gcode

;TYPE:Skirt
;WIDTH:0.52
G1 X36.911 Y38.845 E0.04058
G1 X36.458 Y39.768 E0.04079
G1 X36.218 Y40.763 E0.04058
G1 X36.182 Y75.217 E1.3668
M73 P0 R16
G1 X36.279 Y76.028 E0.03236
G1 X36.516 Y76.813 E0.03257
G1 X36.888 Y77.546 E0.03257
G1 X37.378 Y78.197 E0.03236
G1 X38.094 Y78.844 E0.03826
G1 X38.932 Y79.332 E0.03848
G1 X39.848 Y79.635 E0.03826
G1 X40.812 Y79.744 E0.03848
G1 X77.289 Y79.742 E1.44701
G1 X78.104 Y79.645 E0.03257
G1 X78.885 Y79.41 E0.03236
G1 X79.618 Y79.039 E0.03257
G1 X80.27 Y78.549 E0.03236
G1 X80.882 Y77.881 E0.03595
G1 X81.352 Y77.112 E0.03574
G1 X81.665 Y76.267 E0.03574
G1 X81.81 Y75.373 E0.03595
G1 X81.796 Y64.675 E0.42438
G1 X81.705 Y63.286 E0.05523
G1 X81.393 Y60.901 E0.09541
G1 X80.898 Y58.612 E0.09287
G1 X80.511 Y57.253 E0.05608
G1 X79.714 Y55.023 E0.09393
G1 X78.733 Y52.862 E0.09414
G1 X78.067 Y51.616 E0.05608
G1 X76.815 Y49.605 E0.09394
G1 X75.401 Y47.703 E0.09405
G1 X74.523 Y46.667 E0.05385
G1 X72.898 Y44.985 E0.09277
G1 X71.908 Y44.081 E0.0532
G1 X70.063 Y42.605 E0.09372
G1 X68.921 Y41.807 E0.05524
G1 X66.886 Y40.573 E0.09443
G1 X64.506 Y39.359 E0.10601
G1 X62.56 Y38.546 E0.08363
G1 X61.29 Y38.118 E0.05316
G1 X58.739 Y37.476 E0.10436
G1 X55.162 Y36.976 E0.14326
G1 X42.65 Y36.684 E0.49649
G1 X40.074 Y36.749 E0.10221
G1 X39.18 Y36.993 E0.03679
G1 X38.351 Y37.409 E0.03679
G1 X37.599 Y38.01 E0.0382
G1 X37.751 Y38.191 F18000
M204 S1000
G1 X37.903 Y38.371
G1 F1800
G1 X37.314 Y39.101 E0.03725
G1 X36.903 Y39.94 E0.03705
G1 X36.687 Y40.854 E0.03725
G1 X36.659 Y75.194 E1.36226
G1 X36.746 Y75.932 E0.02946
G1 X36.962 Y76.643 E0.02946
G1 X37.299 Y77.304 E0.02946
G1 X37.749 Y77.895 E0.02946
G1 X38.392 Y78.471 E0.03425
G1 X39.14 Y78.902 E0.03425
G1 X39.966 Y79.173 E0.03445
G1 X40.824 Y79.267 E0.03425
G1 X77.266 Y79.265 E1.44562
G1 X78.008 Y79.178 E0.02966
G1 X78.719 Y78.962 E0.02946
G1 X79.38 Y78.624 E0.02946
G1 X79.972 Y78.175 E0.02946
G1 X80.517 Y77.572 E0.03226
G1 X80.936 Y76.875 E0.03226
G1 X81.213 Y76.11 E0.03226
G1 X81.336 Y75.307 E0.03226
G1 X81.319 Y64.687 E0.42129
G1 X81.231 Y63.331 E0.05389
G1 X80.92 Y60.964 E0.09472
G1 X80.435 Y58.724 E0.09091
G1 X80.056 Y57.398 E0.05469
G1 X79.27 Y55.197 E0.09272
G1 X78.304 Y53.069 E0.09271
G1 X77.653 Y51.854 E0.05469
G1 X76.418 Y49.869 E0.09272
G1 X75.02 Y47.99 E0.09291
G1 X74.15 Y46.966 E0.0533
G1 X72.561 Y45.322 E0.0907
G1 X71.595 Y44.441 E0.05187
G1 X69.773 Y42.984 E0.09252
M73 P1 R16
G1 X68.66 Y42.206 E0.0539
G1 X66.657 Y40.991 E0.09292
G1 X64.3 Y39.789 E0.10494
G1 X62.385 Y38.989 E0.08236
G1 X61.141 Y38.571 E0.05204
G1 X58.652 Y37.946 E0.10182
G1 X55.123 Y37.451 E0.14135
G1 X42.65 Y37.161 E0.49493
G1 X40.201 Y37.212 E0.09719
G1 X39.389 Y37.424 E0.03326
G1 X38.641 Y37.79 E0.03306
G1 X37.951 Y38.334 E0.03487
M204 S1500
G1 X38.107 Y38.51 F18000
M204 S1000
G1 X38.264 Y38.685
G1 F1800
G1 X37.725 Y39.343 E0.03374
G1 X37.35 Y40.107 E0.03374
G1 X37.158 Y40.935 E0.03374
G1 X37.136 Y75.172 E1.35813
G1 X37.213 Y75.833 E0.02641
G1 X37.408 Y76.474 E0.0266
G1 X37.713 Y77.066 E0.02641
G1 X38.119 Y77.594 E0.02641
G1 X38.69 Y78.097 E0.03017
G1 X39.35 Y78.474 E0.03017
G1 X40.074 Y78.708 E0.03017
G1 X40.83 Y78.79 E0.03017
G1 X77.243 Y78.789 E1.44448
G1 X77.905 Y78.712 E0.02641
G1 X78.542 Y78.519 E0.02641
G1 X79.134 Y78.215 E0.02641
G1 X79.667 Y77.808 E0.0266
G1 X80.151 Y77.265 E0.02886
G1 X80.518 Y76.643 E0.02867
G1 X80.758 Y75.961 E0.02867
G1 X80.862 Y75.246 E0.02867
G1 X80.842 Y64.699 E0.41837
G1 X80.646 Y62.355 E0.09331
G1 X80.446 Y61.025 E0.05337
G1 X79.955 Y58.771 E0.09149
G1 X79.278 Y56.568 E0.09142
G1 X78.802 Y55.315 E0.05318
G1 X77.872 Y53.272 E0.08903
G1 X77.242 Y52.096 E0.05293
G1 X76.024 Y50.138 E0.09149
G1 X74.644 Y48.284 E0.09167
G1 X73.78 Y47.268 E0.05294
G1 X71.282 Y44.801 E0.13924
G1 X69.484 Y43.364 E0.0913
G1 X68.402 Y42.608 E0.05237
G1 X66.423 Y41.407 E0.09181
G1 X64.091 Y40.218 E0.10386
G1 X62.214 Y39.435 E0.08068
G1 X60.993 Y39.025 E0.05109
G1 X58.565 Y38.415 E0.09933
G1 X55.085 Y37.927 E0.13939
G1 X42.65 Y37.638 E0.49342
G1 X40.325 Y37.675 E0.09224
G1 X39.609 Y37.851 E0.02923
G1 X38.939 Y38.167 E0.02942
G1 X38.312 Y38.649 E0.03136
M204 S1500
G1 X38.468 Y38.825 F18000
M204 S1000
G1 X38.623 Y39.002
G1 F1800
G1 X38.135 Y39.588 E0.03026
G1 X37.799 Y40.268 E0.03009
G1 X37.63 Y41.012 E0.03026
G1 X37.612 Y75.15 E1.35424
G1 X37.68 Y75.737 E0.02342
G1 X37.851 Y76.297 E0.02325
G1 X38.123 Y76.821 E0.02342
G1 X38.483 Y77.284 E0.02325
G1 X38.977 Y77.716 E0.02606
G1 X39.553 Y78.042 E0.02623
G1 X40.183 Y78.243 E0.02623
G1 X40.836 Y78.313 E0.02606
G1 X77.222 Y78.312 E1.4434
G1 X77.809 Y78.245 E0.02342
G1 X78.374 Y78.073 E0.02342
G1 X78.894 Y77.803 E0.02325
G1 X79.36 Y77.441 E0.02342
G1 X79.785 Y76.957 E0.02553
G1 X80.105 Y76.399 E0.02553
G1 X80.309 Y75.788 E0.02553
G1 X80.388 Y75.15 E0.02553
G1 X80.364 Y64.677 E0.41546
G1 X80.164 Y62.339 E0.09307
G1 X79.766 Y60.032 E0.09289
G1 X78.802 Y56.651 E0.13946
G1 X77.95 Y54.541 E0.09025
G1 X77.386 Y53.37 E0.05157
G1 X76.269 Y51.389 E0.09025
G1 X74.99 Y49.508 E0.09023
M73 P2 R16
G1 X74.19 Y48.482 E0.05158
G1 X72.715 Y46.821 E0.08812
G1 X71.794 Y45.91 E0.05141
G1 X70.08 Y44.42 E0.09007
G1 X67.217 Y42.419 E0.13857
G1 X65.231 Y41.305 E0.09035
G1 X63.826 Y40.62 E0.06199
G1 X62.032 Y39.876 E0.07706
G1 X60.795 Y39.463 E0.05171
G1 X57.45 Y38.693 E0.13619
G1 X55.043 Y38.402 E0.09615
G1 X42.65 Y38.115 E0.49177
G1 X40.441 Y38.141 E0.08763
G1 X39.814 Y38.285 E0.02553
G1 X39.231 Y38.549 E0.02536
G1 X38.672 Y38.966 E0.02771
; INIT printing object DysonHolder_-_Clip(1).stl id:0 copy 0
G1 E-0.4 F3000
M204 S3000
G1 Z0.4 F18000
; printing object DysonHolder_-_Clip(1).stl id:0 copy 0
M204 S1500
G1 X45.1 Y55.612
M204 S1000
G1 X51.529 Y72.259
G1 Z0.2
G1 E0.4 F1800
; custom gcode: feature_gcode
; External perimeter
;;Perimeter
;SET_VELOCITY_LIMIT ACCEL=2000 ACCEL_TO_DECEL=2000 SQUARE_CORNER_VELOCITY=8

; Overhang perimeter
;
; custom gcode end: feature_gcode

;TYPE:Internal perimeter
;WIDTH:0.56
G1 X75.836 Y72.259 E1.04508
G1 X75.836 Y73.76 E0.06456
G1 X51.529 Y73.761 E1.04508
G1 X51.529 Y72.319 E0.06204
M204 S1500
G1 X51.27 Y72.03 F18000
M204 S1000
G1 X51.012 Y71.741
G1 F1800
G1 X76.353 Y71.741 E1.08955
G1 X76.353 Y74.277 E0.10902
G1 X51.012 Y74.279 E1.08955
G1 X51.012 Y71.801 E0.1065
M204 S1500
G1 X50.753 Y71.911 F18000
M204 S1000
G1 X50.495 Y72.022
; custom gcode: feature_gcode
; External perimeter
;;ExternalPerimeter
;SET_VELOCITY_LIMIT ACCEL=1000 ACCEL_TO_DECEL=1000 SQUARE_CORNER_VELOCITY=8

; Perimeter
;
; custom gcode end: feature_gcode

;TYPE:External perimeter
G1 F1800
G1 X43.848 Y72.019 E0.2858
G1 X42.37 Y72.019 E0.06353
G1 X42.37 Y74.794 E0.1193
G1 X41.13 Y74.794 E0.05331
G1 X41.13 Y41.634 E1.42575
G1 X42.37 Y41.634 E0.05331
G1 X42.37 Y71.224 E1.27226
G1 X75.63 Y71.224 E1.43003
G1 X75.63 Y65.713 E0.23698
G1 X75.608 Y64.685 E0.0442
G1 X75.541 Y63.655 E0.04438
G1 X75.429 Y62.629 E0.04438
G1 X75.274 Y61.608 E0.04438
G1 X75.074 Y60.595 E0.04438
G1 X74.831 Y59.592 E0.04438
G1 X74.544 Y58.601 E0.04438
G1 X74.215 Y57.622 E0.04438
G1 X73.844 Y56.659 E0.04438
G1 X73.431 Y55.713 E0.04438
M73 P3 R16
G1 X72.978 Y54.785 E0.04438
G1 X72.486 Y53.878 E0.04438
G1 X71.954 Y52.993 E0.04438
G1 X71.385 Y52.132 E0.04438
G1 X70.779 Y51.297 E0.04438
G1 X70.137 Y50.488 E0.04438
G1 X69.462 Y49.708 E0.04438
G1 X68.753 Y48.958 E0.04438
G1 X68.012 Y48.239 E0.04438
G1 X67.24 Y47.553 E0.04438
G1 X66.44 Y46.901 E0.04438
G1 X65.613 Y46.284 E0.04439
G1 X64.758 Y45.703 E0.04441
G1 X63.875 Y45.163 E0.04452
G1 X62.96 Y44.678 E0.04452
G1 X61.714 Y44.101 E0.05901
G1 X60.761 Y43.714 E0.04425
G1 X59.156 Y43.135 E0.07334
G1 X58.172 Y42.836 E0.04425
G1 X57.176 Y42.58 E0.0442
G1 X56.17 Y42.368 E0.0442
G1 X55.156 Y42.199 E0.0442
G1 X54.7 Y42.144 E0.01975
G1 X54.912 Y41.924 E0.01314
G1 X55.804 Y42.011 E0.03851
G1 X56.819 Y42.155 E0.04408
G1 X57.827 Y42.342 E0.04408
G1 X58.826 Y42.571 E0.04408
G1 X59.813 Y42.842 E0.04402
G1 X60.782 Y43.165 E0.04392
G1 X61.733 Y43.542 E0.04397
G1 X62.356 Y43.817 E0.02928
G1 X63.585 Y44.414 E0.05872
G1 X64.485 Y44.901 E0.04403
G1 X65.371 Y45.415 E0.04401
G1 X66.232 Y45.963 E0.0439
G1 X67.069 Y46.547 E0.04389
G1 X67.88 Y47.167 E0.04389
G1 X68.664 Y47.82 E0.04389
G1 X69.42 Y48.507 E0.04389
G1 X70.145 Y49.225 E0.04389
G1 X70.839 Y49.973 E0.04389
G1 X71.501 Y50.751 E0.04389
G1 X72.129 Y51.556 E0.04389
G1 X72.721 Y52.387 E0.04389
G1 X73.278 Y53.242 E0.04389
G1 X73.798 Y54.121 E0.04389
G1 X74.279 Y55.021 E0.04389
G1 X74.722 Y55.941 E0.04389
G1 X75.125 Y56.879 E0.04389
G1 X75.488 Y57.833 E0.04389
G1 X75.809 Y58.801 E0.04389
G1 X76.089 Y59.783 E0.04389
G1 X76.327 Y60.776 E0.04389
G1 X76.522 Y61.778 E0.04389
G1 X76.674 Y62.787 E0.04389
G1 X76.783 Y63.802 E0.04389
G1 X76.848 Y64.821 E0.04389
G1 X76.87 Y65.845 E0.04406
G1 X76.87 Y74.794 E0.38476
G1 X50.495 Y74.796 E1.13401
G1 X50.495 Y72.082 E0.11669
;WIPE_START
M204 S3000
G1 X50.495 Y71.622 F18000
;WIPE_END
M204 S1500
G1 X50.634 Y71.622
M204 S1000
G1 X50.774 Y71.623
; custom gcode: feature_gcode
; External perimeter
;;GapFill
;SET_VELOCITY_LIMIT ACCEL=2000 ACCEL_TO_DECEL=2000 SQUARE_CORNER_VELOCITY=8

; Skirt
;
; custom gcode end: feature_gcode

;TYPE:Gap fill
;WIDTH:0.36129
G1 F1800
G1 X50.613 Y71.623 E0.00424
G1 X47.23 Y71.622 E0.08955
G1 X43.848 Y71.622 E0.08955
G1 X42.132 Y71.622 E0.04543
;WIDTH:0.467528
G1 X41.949 Y71.622 E0.00644
;WIDTH:0.733123
G1 X41.767 Y71.622 E0.01047
M204 S1500
G1 X41.758 Y73.089 F18000
M204 S1000
G1 X41.75 Y74.556
;WIDTH:0.806161
G1 F1800
G1 X41.75 Y74.365 E0.01211
G1 X41.75 Y74.174 E0.01211
G1 X41.75 Y71.781 E0.15187
G1 X41.767 Y71.622 E0.01016
G1 X41.75 Y71.463 E0.01016
G1 X41.75 Y42.254 E1.85372
G1 X41.75 Y41.872 E0.02422
G1 E-0.4 F3000
M204 S3000
G1 Z0.4 F18000
M204 S1500
G1 X53.482 Y43.766
M204 S1000
G1 X65.214 Y45.66
G1 Z0.2
G1 E0.4 F1800
;WIDTH:0.150639
G1 X65.259 Y45.69 E0.00048
G1 X65.523 Y45.863 E0.00283
G1 X65.787 Y46.037 E0.00283
G1 X65.923 Y46.131 E0.00149
;WIDTH:0.194182
G1 X66.058 Y46.224 E0.00206
G1 X66.348 Y46.434 E0.0045
G1 X66.639 Y46.643 E0.0045
G1 X66.756 Y46.732 E0.00185
;WIDTH:0.237992
G1 X66.871 Y46.818 E0.00233
G1 X67.168 Y47.052 E0.00613
G1 X67.464 Y47.286 E0.00613
G1 X67.563 Y47.368 E0.00207
;WIDTH:0.280581
G1 X67.658 Y47.446 E0.00243
G1 X67.959 Y47.706 E0.00787
G1 X68.261 Y47.966 E0.00787
G1 X68.341 Y48.037 E0.00212
;WIDTH:0.321751
G1 X68.416 Y48.105 E0.00235
G1 X69.029 Y48.68 E0.01948
;WIDTH:0.35534
G1 X69.146 Y48.795 E0.00427
G1 X69.455 Y49.112 E0.0115
;WIDTH:0.390969
G1 X69.765 Y49.428 E0.01281
G1 X69.846 Y49.515 E0.00343
G1 X70.157 Y49.862 E0.01348
;WIDTH:0.431389
G1 X70.468 Y50.209 E0.01505
G1 X70.514 Y50.262 E0.00229
G1 X70.825 Y50.641 E0.01583
;WIDTH:0.470349
G1 X71.136 Y51.02 E0.01742
G1 X71.15 Y51.037 E0.00077
G1 X71.451 Y51.437 E0.01779
;WIDTH:0.506709
G1 X71.752 Y51.837 E0.0193
G1 X71.774 Y51.869 E0.00151
G1 X72.046 Y52.265 E0.01854
;WIDTH:0.540693
G1 X72.319 Y52.661 E0.0199
G1 X72.369 Y52.738 E0.00381
G1 X72.61 Y53.123 E0.01879
;WIDTH:0.572896
G1 X72.85 Y53.508 E0.02
G1 X72.925 Y53.634 E0.00645
G1 X73.135 Y54.005 E0.01879
;WIDTH:0.603316
G1 X73.346 Y54.375 E0.01987
G1 X73.442 Y54.553 E0.00942
G1 X73.623 Y54.908 E0.01855
;WIDTH:0.631814
G1 X73.804 Y55.262 E0.0195
G1 X73.858 Y55.373 E0.00603
G1 X73.917 Y55.495 E0.00665
G1 X74.071 Y55.831 E0.01809
G1 X74.225 Y56.167 E0.01809
G1 X74.285 Y56.306 E0.00744
G1 X74.351 Y56.458 E0.00809
G1 X74.479 Y56.773 E0.01665
;WIDTH:0.682958
G1 X74.607 Y57.088 E0.0181
G1 X74.672 Y57.257 E0.00965
G1 X74.742 Y57.44 E0.01038
G1 X74.951 Y58.024 E0.03302
G1 X75.085 Y58.424 E0.02247
G1 X75.172 Y58.705 E0.01566
;WIDTH:0.725992
G1 X75.255 Y58.972 E0.0159
G1 X75.322 Y59.204 E0.01371
G1 X75.392 Y59.451 E0.01455
G1 X75.456 Y59.692 E0.01415
G1 X75.519 Y59.932 E0.01415
G1 X75.583 Y60.197 E0.01546
G1 X75.647 Y60.462 E0.01546
G1 X75.697 Y60.689 E0.01324
;WIDTH:0.760594
G1 X75.743 Y60.902 E0.01301
G1 X75.801 Y61.2 E0.0181
G1 X75.86 Y61.498 E0.0181
G1 X75.894 Y61.697 E0.01205
G1 X75.926 Y61.881 E0.01113
G1 X75.977 Y62.212 E0.01998
G1 X76.027 Y62.543 E0.01998
G1 X76.049 Y62.712 E0.01018
G1 X76.069 Y62.865 E0.00923
G1 X76.108 Y63.23 E0.02188
G1 X76.147 Y63.594 E0.02188
G1 X76.159 Y63.732 E0.00828
;WIDTH:0.796104
G1 X76.17 Y63.855 E0.00768
G1 X76.196 Y64.252 E0.02496
G1 X76.221 Y64.65 E0.02496
G1 X76.23 Y64.847 E0.01235
G1 X76.239 Y65.275 E0.02677
G1 X76.248 Y65.702 E0.02677
G1 X76.25 Y65.852 E0.0094
G1 X76.25 Y71.503 E0.35392
M204 S1500
G1 X75.924 Y72.256 F18000
M204 S1000
G1 X75.597 Y73.009
;WIDTH:1.06904
G1 F1800
G1 X75.341 Y73.009 E0.02186
G1 X75.085 Y73.009 E0.02186
G1 X63.683 Y73.01 E0.97287
G1 X52.28 Y73.01 E0.97287
G1 X52.024 Y73.01 E0.02189
G1 X51.767 Y73.01 E0.02189
; INIT stop printing object DysonHolder_-_Clip(1).stl id:0 copy 0
M106 S84.15
;LAYER_CHANGE
;Z:0.5
;HEIGHT:0.3
; custom gcode: before_layer_gcode
;BEFORE_LAYER_CHANGE
;0.5

; custom gcode end: before_layer_gcode

; stop printing object DysonHolder_-_Clip(1).stl id:0 copy 0
M204 S3000
G1 Z0.5 F18000
; custom gcode: layer_gcode
;AFTER_LAYER_CHANGE
;0.5
; custom gcode end: layer_gcode

M104 S205 ; set temperature
; INIT printing object DysonHolder_-_Clip(1).stl id:0 copy 0
; printing object DysonHolder_-_Clip(1).stl id:0 copy 0
M204 S2000
G1 X50.82 Y74.199
; custom gcode: feature_gcode
; External perimeter
;;Perimeter
;SET_VELOCITY_LIMIT ACCEL=2000 ACCEL_TO_DECEL=2000 SQUARE_CORNER_VELOCITY=8

; Overhang perimeter
;
; custom gcode end: feature_gcode

;TYPE:Internal perimeter
;WIDTH:0.484
G1 F6000
G1 X50.82 Y71.943 E0.11809
G1 X76.221 Y71.943 E1.32942
G1 X76.221 Y74.195 E0.1179
G1 X50.88 Y74.199 E1.32628
G1 X50.4 Y74.619 F18000
G1 F6000
G1 X50.4 Y71.523 E0.16202
G1 X75.86 Y71.523 E1.33249
G1 X75.86 Y65.705 E0.30448
G1 X75.837 Y64.67 E0.0542
G1 X75.77 Y63.63 E0.05454
G1 X75.657 Y62.594 E0.05454
G1 X75.5 Y61.564 E0.05454
G1 X75.298 Y60.541 E0.05454
G1 X75.053 Y59.528 E0.05454
G1 X74.763 Y58.527 E0.05454
G1 X74.431 Y57.539 E0.05454
G1 X74.056 Y56.567 E0.05454
G1 X73.64 Y55.612 E0.05454
G1 X73.182 Y54.675 E0.05454
G1 X72.685 Y53.759 E0.05454
G1 X72.149 Y52.866 E0.05454
G1 X71.574 Y51.996 E0.05454
G1 X70.962 Y51.153 E0.05454
G1 X70.314 Y50.336 E0.05454
G1 X70.041 Y50.02 E0.02188
G1 X70.333 Y49.759 E0.02052
G1 X70.668 Y50.121 E0.0258
G1 X71.323 Y50.891 E0.05293
G1 X71.944 Y51.688 E0.05291
G1 X72.532 Y52.511 E0.05291
G1 X73.083 Y53.358 E0.05291
G1 X73.597 Y54.229 E0.05291
