; generated by SuperSlicer 2.3.57 on 2022-01-30 at 20:01:12 UTC


;
;

;
;
; TODO: check the size of the extruder and the y-bar clearance. Optimize & test supports.

; external perimeters extrusion width = 0.43mm
; perimeters extrusion width = 0.48mm
; infill extrusion width = 0.44mm
; solid infill extrusion width = 0.48mm
; top infill extrusion width = 0.46mm
; support material extrusion width = 0.44mm
; first layer extrusion width = 0.56mm

; object:{"name":"DysonHolder_-_Bottom(1)","id":"DysonHolder_-_Bottom(1).stl id:0 copy 0","object_center":[59.000000,59.500000,0.000000],"boundingbox_center":[59.000000,59.500000,20.000000],"boundingbox_size":[48.028000,44.500000,40.000000]}
; plater:{"center":[59.000000,59.500000,0.000000],"boundingbox_center":[59.000000,59.500000,20.000000],"boundingbox_size":[48.028000,44.500000,40.000000]}

M73 P0 R55
;TYPE:Custom
; custom gcode: start_gcode
; M190 S0
; M109 S0 ; uncomment to remove set&wait temp gcode added automatically after this start gcode
print_start EXTRUDER=215 BED=55 CHAMBER=15
; custom gcode end: start_gcode
G21 ; set units to millimeters
G90 ; use absolute coordinates
M83 ; use relative distances for extrusion
M104 S215 ; set temperature
M109 S215 ; set temperature and wait for it to be reached
M190 S55 ; set bed temperature and wait for it to be reached
;LAYER_CHANGE
;Z:0.2
;HEIGHT:0.2
; custom gcode: before_layer_gcode
;BEFORE_LAYER_CHANGE
;0.2

; custom gcode end: before_layer_gcode

G1 Z0.2 F18000
; custom gcode: layer_gcode
;AFTER_LAYER_CHANGE
;0.2
; custom gcode end: layer_gcode

G1 E-0.4 F3000
G1 Z0.4 F18000
M204 S1500
G1 X39.442 Y41.169
G1 Z0.2
G1 E0.4 F1800
; custom gcode: feature_gcode
; External perimeter
;;Skirt
;SET_VELOCITY_LIMIT ACCEL=7000 ACCEL_TO_DECEL=7000 SQUARE_CORNER_VELOCITY=8

; Support material
;
; custom gcode end: feature_gcode

;TYPE:Skirt
;WIDTH:0.52
G1 X39.273 Y41.33 E0.00925
G1 X37.726 Y43.169 E0.09535
G1 X36.383 Y45.086 E0.09282
G1 X35.21 Y47.117 E0.09303
G1 X34.214 Y49.256 E0.09364
G1 X33.103 Y52.525 E0.13692
G1 X30.578 Y61.8 E0.38135
G1 X30.431 Y62.957 E0.04626
G1 X30.655 Y64.709 E0.07008
G1 X31.199 Y67.094 E0.09701
G1 X31.923 Y69.369 E0.0947
G1 X32.875 Y71.667 E0.09872
G1 X33.948 Y73.746 E0.09278
G1 X35.252 Y75.827 E0.09744
G1 X36.708 Y77.766 E0.09617
G1 X38.604 Y79.818 E0.11083
G1 X39.729 Y80.498 E0.05214
G1 X48.757 Y84.286 E0.38838
G1 X50.921 Y85.074 E0.09135
G1 X53.107 Y85.664 E0.08984
G1 X54.444 Y85.929 E0.05406
G1 X56.668 Y86.218 E0.08899
G1 X59.001 Y86.32 E0.09261
G1 X61.434 Y86.208 E0.09662
G1 X64.717 Y85.703 E0.13178
G1 X67.065 Y85.078 E0.09639
G1 X69.352 Y84.24 E0.09663
G1 X72.327 Y82.774 E0.13155
G1 X74.384 Y81.469 E0.09663
G1 X76.313 Y79.982 E0.09661
G1 X78.727 Y77.67 E0.13261
G1 X80.274 Y75.831 E0.09535
G1 X81.617 Y73.914 E0.09282
G1 X82.79 Y71.883 E0.09304
G1 X83.786 Y69.744 E0.09364
G1 X84.897 Y66.475 E0.13692
G1 X87.422 Y57.2 E0.38135
G1 X87.569 Y56.043 E0.04626
G1 X87.345 Y54.291 E0.07008
G1 X86.801 Y51.906 E0.09703
G1 X86.077 Y49.631 E0.09469
G1 X85.125 Y47.333 E0.09872
G1 X84.052 Y45.254 E0.09278
G1 X82.745 Y43.168 E0.09765
G1 X81.292 Y41.234 E0.09596
G1 X79.396 Y39.182 E0.11083
G1 X78.271 Y38.502 E0.05214
G1 X69.243 Y34.714 E0.38838
G1 X67.079 Y33.926 E0.09135
G1 X64.898 Y33.338 E0.08963
G1 X63.562 Y33.072 E0.05406
G1 X61.332 Y32.782 E0.0892
G1 X59.005 Y32.68 E0.0924
G1 X56.566 Y32.792 E0.09683
G1 X53.288 Y33.296 E0.13157
G1 X50.935 Y33.922 E0.0966
G1 X48.648 Y34.76 E0.09663
G1 X45.673 Y36.226 E0.13155
G1 X43.617 Y37.53 E0.09658
G1 X41.687 Y39.018 E0.09667
G1 X39.485 Y41.128 E0.12099
G1 X39.65 Y41.3 F18000
M204 S1000
G1 X39.815 Y41.472
G1 F1800
G1 X39.619 Y41.659 E0.01074
G1 X38.104 Y43.46 E0.09337
G1 X36.785 Y45.342 E0.09117
G1 X35.633 Y47.337 E0.09137
G1 X34.655 Y49.438 E0.09195
G1 X33.565 Y52.646 E0.1344
G1 X31.041 Y61.914 E0.38106
G1 X30.908 Y62.96 E0.04183
G1 X31.126 Y64.633 E0.06692
G1 X31.66 Y66.972 E0.09516
G1 X32.371 Y69.205 E0.09297
G1 X33.304 Y71.459 E0.09678
G1 X34.36 Y73.506 E0.09135
G1 X35.641 Y75.552 E0.09576
G1 X37.073 Y77.458 E0.09456
G1 X38.913 Y79.454 E0.10772
G1 X39.919 Y80.061 E0.0466
G1 X48.938 Y83.845 E0.388
G1 X51.07 Y84.621 E0.08998
G1 X53.215 Y85.199 E0.08814
G1 X54.516 Y85.457 E0.05263
G1 X56.71 Y85.743 E0.08774
G1 X59.001 Y85.843 E0.09097
G1 X61.382 Y85.734 E0.09457
G1 X64.618 Y85.236 E0.12989
G1 X66.922 Y84.623 E0.09455
G1 X69.16 Y83.804 E0.09458
G1 X72.097 Y82.355 E0.12988
G1 X74.11 Y81.078 E0.09458
G1 X75.998 Y79.623 E0.09456
G1 X78.381 Y77.341 E0.13088
G1 X79.896 Y75.54 E0.09337
G1 X81.215 Y73.658 E0.09117
G1 X82.367 Y71.663 E0.09137
G1 X83.345 Y69.562 E0.09195
G1 X84.435 Y66.354 E0.1344
G1 X86.959 Y57.086 E0.38105
G1 X87.092 Y56.04 E0.04183
G1 X86.874 Y54.367 E0.06692
G1 X86.341 Y52.033 E0.09498
G1 X85.631 Y49.8 E0.09296
G1 X84.696 Y47.541 E0.09698
G1 X83.64 Y45.494 E0.09136
G1 X82.359 Y43.448 E0.09576
G1 X80.927 Y41.542 E0.09456
G1 X79.087 Y39.546 E0.10772
G1 X78.081 Y38.939 E0.0466
G1 X69.062 Y35.155 E0.388
G1 X66.93 Y34.379 E0.08998
G1 X64.785 Y33.801 E0.08814
G1 X63.484 Y33.543 E0.05263
G1 X61.29 Y33.257 E0.08774
G1 X59.005 Y33.157 E0.09077
G1 X56.618 Y33.266 E0.09477
G1 X53.382 Y33.764 E0.12989
G1 X51.078 Y34.377 E0.09455
G1 X48.84 Y35.196 E0.09458
G1 X45.903 Y36.645 E0.12988
G1 X43.891 Y37.921 E0.09453
G1 X42.002 Y39.377 E0.09461
G1 X39.858 Y41.43 E0.11776
M204 S1500
G1 X40.023 Y41.602 F18000
M204 S1000
G1 X40.188 Y41.774
G1 F1800
G1 X39.965 Y41.987 E0.01221
G1 X38.482 Y43.75 E0.0914
G1 X37.188 Y45.599 E0.08952
G1 X36.057 Y47.557 E0.08971
G1 X35.098 Y49.615 E0.09006
G1 X34.025 Y52.772 E0.1323
G1 X31.504 Y62.028 E0.38055
G1 X31.385 Y62.961 E0.0373
G1 X31.596 Y64.55 E0.0636
G1 X32.12 Y66.844 E0.09333
G1 X32.817 Y69.037 E0.09127
G1 X33.736 Y71.254 E0.09523
G1 X34.774 Y73.27 E0.08993
G1 X36.03 Y75.276 E0.0939
G1 X37.434 Y77.146 E0.09277
G1 X39.218 Y79.088 E0.1046
G1 X40.114 Y79.625 E0.04142
G1 X49.119 Y83.404 E0.38743
G1 X51.218 Y84.167 E0.08858
G1 X53.327 Y84.735 E0.08667
G1 X54.589 Y84.986 E0.05101
G1 X56.751 Y85.268 E0.08648
G1 X59 Y85.366 E0.08933
G1 X61.33 Y85.26 E0.09253
G1 X64.524 Y84.768 E0.12819
G1 X66.778 Y84.168 E0.09251
G1 X68.969 Y83.367 E0.09254
G1 X71.867 Y81.938 E0.12818
G1 X73.836 Y80.688 E0.09254
G1 X75.684 Y79.265 E0.09252
G1 X78.035 Y77.013 E0.12913
G1 X79.518 Y75.25 E0.0914
G1 X80.812 Y73.401 E0.08952
G1 X81.943 Y71.443 E0.08971
G1 X82.902 Y69.385 E0.09006
G1 X83.975 Y66.228 E0.1323
G1 X86.496 Y56.972 E0.38055
G1 X86.615 Y56.039 E0.0373
G1 X86.404 Y54.45 E0.0636
G1 X85.88 Y52.156 E0.09334
G1 X85.183 Y49.963 E0.09125
G1 X84.264 Y47.746 E0.09523
G1 X83.226 Y45.73 E0.08994
G1 X81.97 Y43.724 E0.09389
G1 X80.566 Y41.854 E0.09277
G1 X78.782 Y39.912 E0.1046
G1 X77.886 Y39.375 E0.04142
G1 X68.885 Y35.598 E0.38724
G1 X66.787 Y34.834 E0.08858
G1 X64.673 Y34.265 E0.08686
G1 X63.411 Y34.014 E0.05101
G1 X61.249 Y33.732 E0.08648
G1 X59.005 Y33.634 E0.08914
G1 X56.67 Y33.74 E0.09272
G1 X53.476 Y34.232 E0.12819
G1 X51.222 Y34.832 E0.09252
G1 X49.031 Y35.633 E0.09254
G1 X46.133 Y37.062 E0.12818
G1 X44.165 Y38.312 E0.09249
G1 X42.316 Y39.735 E0.09257
G1 X40.231 Y41.733 E0.11454
M204 S1500
G1 X40.396 Y41.905 F18000
M204 S1000
G1 X40.561 Y42.077
G1 F1800
G1 X40.312 Y42.315 E0.01365
G1 X38.861 Y44.041 E0.08945
G1 X37.588 Y45.858 E0.08804
G1 X36.48 Y47.777 E0.08787
G1 X35.539 Y49.796 E0.08838
G1 X34.486 Y52.895 E0.12983
G1 X31.968 Y62.142 E0.38018
G1 X31.863 Y62.96 E0.03272
G1 X32.066 Y64.467 E0.06034
G1 X32.581 Y66.72 E0.0917
G1 X33.265 Y68.873 E0.08959
G1 X34.165 Y71.046 E0.09329
G1 X35.189 Y73.033 E0.0887
G1 X36.417 Y74.996 E0.09187
G1 X37.799 Y76.839 E0.09135
G1 X39.523 Y78.721 E0.10126
G1 X40.303 Y79.187 E0.03604
G1 X49.296 Y82.961 E0.38689
G1 X51.361 Y83.712 E0.08717
G1 X53.439 Y84.271 E0.08539
G1 X54.661 Y84.514 E0.04942
G1 X56.791 Y84.792 E0.08521
G1 X59 Y84.889 E0.08769
G1 X61.279 Y84.785 E0.0905
G1 X64.43 Y84.301 E0.12647
G1 X66.634 Y83.714 E0.09049
G1 X68.777 Y82.93 E0.09051
G1 X71.636 Y81.52 E0.12646
G1 X73.562 Y80.297 E0.09051
G1 X75.37 Y78.906 E0.0905
G1 X77.688 Y76.685 E0.12734
G1 X79.139 Y74.959 E0.08945
G1 X80.412 Y73.142 E0.08804
G1 X81.52 Y71.223 E0.08787
G1 X82.461 Y69.204 E0.08838
G1 X83.514 Y66.105 E0.12983
G1 X86.032 Y56.858 E0.38018
G1 X86.137 Y56.04 E0.03272
G1 X85.934 Y54.533 E0.06034
G1 X85.421 Y52.284 E0.09153
G1 X84.735 Y50.127 E0.08976
G1 X83.835 Y47.954 E0.09329
G1 X82.811 Y45.967 E0.0887
G1 X81.583 Y44.004 E0.09187
G1 X80.201 Y42.161 E0.09135
G1 X78.477 Y40.279 E0.10126
G1 X77.697 Y39.813 E0.03604
G1 X68.704 Y36.039 E0.38689
G1 X66.639 Y35.288 E0.08717
G1 X64.561 Y34.729 E0.08539
G1 X63.339 Y34.486 E0.04942
G1 X61.209 Y34.208 E0.08521
G1 X59.005 Y34.111 E0.08751
G1 X56.721 Y34.215 E0.09068
G1 X53.57 Y34.699 E0.12647
G1 X51.366 Y35.286 E0.09049
G1 X49.223 Y36.07 E0.09051
G1 X46.364 Y37.48 E0.12646
G1 X44.439 Y38.702 E0.09046
G1 X42.63 Y40.094 E0.09055
G1 X40.604 Y42.035 E0.11131
; INIT printing object DysonHolder_-_Bottom(1).stl id:0 copy 0
G1 E-0.4 F3000
M204 S3000
G1 Z0.4 F18000
; printing object DysonHolder_-_Bottom(1).stl id:0 copy 0
M204 S1500
G1 X51.089 Y43.291
M204 S1000
G1 X61.573 Y44.546
G1 Z0.2
G1 E0.4 F1800
; custom gcode: feature_gcode
; External perimeter
;;SupportMaterial
;SET_VELOCITY_LIMIT ACCEL=7000 ACCEL_TO_DECEL=7000 SQUARE_CORNER_VELOCITY=8

; Support material interface
;
; custom gcode end: feature_gcode

;TYPE:Support material
;WIDTH:0.56
G1 X56.427 Y44.546 E0.22128
G1 X56.427 Y45.922 E0.05915
G1 X48.569 Y45.922 E0.33783
G1 X48.31 Y44.846 E0.04759
G1 X48.42 Y44.763 E0.0059
G1 X49.063 Y44.322 E0.03353
G1 X49.725 Y43.909 E0.03353
G1 X50.402 Y43.525 E0.03348
G1 X51.096 Y43.171 E0.03349
G1 X51.804 Y42.847 E0.03349
G1 X52.525 Y42.554 E0.03347
G1 X53.259 Y42.291 E0.0335
G1 X54.003 Y42.061 E0.03349
G1 X54.756 Y41.862 E0.03349
G1 X55.517 Y41.696 E0.03348
G1 X56.284 Y41.563 E0.03349
G1 X57.057 Y41.463 E0.03349
G1 X57.833 Y41.396 E0.03349
G1 X58.611 Y41.363 E0.03348
G1 X59.389 Y41.363 E0.03349
G1 X60.167 Y41.396 E0.03348
G1 X60.943 Y41.463 E0.03349
G1 X61.716 Y41.563 E0.03349
G1 X62.483 Y41.696 E0.03349
G1 X63.244 Y41.862 E0.03348
G1 X63.997 Y42.061 E0.03349
G1 X64.741 Y42.291 E0.03349
G1 X65.475 Y42.553 E0.03349
G1 X66.196 Y42.847 E0.03348
G1 X66.904 Y43.171 E0.03349
G1 X67.598 Y43.525 E0.03349
G1 X68.275 Y43.909 E0.03348
G1 X68.936 Y44.322 E0.03349
G1 X69.576 Y44.761 E0.03338
G1 X69.69 Y44.846 E0.0061
G1 X69.431 Y45.922 E0.04758
G1 X61.573 Y45.922 E0.33783
G1 X61.573 Y44.606 E0.05657
M204 S1500
G1 X61.737 Y43.114 F18000
M204 S1000
G1 X61.901 Y41.622
G1 F1800
G1 X58.374 Y41.622 E0.15166
G1 X57.848 Y41.644 E0.02261
G1 X57.083 Y41.71 E0.03303
G1 X56.321 Y41.809 E0.03303
G1 X55.564 Y41.94 E0.03303
G1 X54.814 Y42.104 E0.03302
G1 X54.681 Y42.139 E0.00592
G1 X63.319 Y42.139 E0.37141
G1 X63.929 Y42.299 E0.02711
G1 X64.663 Y42.527 E0.03303
G1 X65.023 Y42.656 E0.01648
G1 X52.977 Y42.656 E0.51796
G1 X52.614 Y42.785 E0.01657
G1 X51.903 Y43.075 E0.03301
G1 X51.689 Y43.173 E0.01012
G1 X66.311 Y43.173 E0.62871
G1 X66.796 Y43.395 E0.02291
G1 X67.374 Y43.69 E0.02791
G1 X50.626 Y43.69 E0.72008
G1 X50.52 Y43.744 E0.00512
G1 X49.852 Y44.122 E0.03302
G1 X49.716 Y44.207 E0.00685
G1 X68.284 Y44.207 E0.7983
G1 X68.8 Y44.529 E0.02617
G1 X69.084 Y44.724 E0.0148
G1 X61.821 Y44.724 E0.31225
G1 X61.821 Y45.241 E0.02223
G1 X69.568 Y45.241 E0.33306
G1 E-0.4 F3000
M204 S3000
G1 Z0.4 F18000
M204 S1500
G1 X62.984 Y44.983
M204 S1000
G1 X56.401 Y44.724
G1 Z0.2
G1 E0.4 F1800
G1 X48.916 Y44.724 E0.32181
G1 X48.59 Y44.948 E0.017
G1 X48.661 Y45.241 E0.01298
G1 X56.401 Y45.241 E0.33279
G1 E-0.4 F3000
M204 S3000
G1 Z0.4 F18000
M204 S1500
G1 X49.472 Y47.032
M204 S1000
G1 X42.544 Y48.823
G1 Z0.2
G1 E0.4 F1800
; custom gcode: feature_gcode
; External perimeter
;;Perimeter
;SET_VELOCITY_LIMIT ACCEL=2000 ACCEL_TO_DECEL=2000 SQUARE_CORNER_VELOCITY=8

; Overhang perimeter
;
; custom gcode end: feature_gcode

;TYPE:Internal perimeter
G1 X42.048 Y49.63 E0.04073
G1 X40.95 Y49.092 E0.05255
G1 X41.564 Y48.081 E0.05087
G1 X42.496 Y48.786 E0.05028
G1 E-0.4 F3000
M204 S3000
G1 Z0.4 F18000
M204 S1500
G1 X58.159 Y47.2
M204 S1000
G1 X73.822 Y45.614
G1 Z0.2
G1 E0.4 F1800
G1 X74.203 Y45.24 E0.02298
G1 X74.998 Y46.017 E0.0478
G1 X76.374 Y44.688 E0.08222
G1 X76.696 Y45.067 E0.0214
G1 X77.285 Y45.821 E0.04112
G1 X77.842 Y46.599 E0.04113
G1 X78.366 Y47.399 E0.04112
G1 X78.855 Y48.221 E0.04112
G1 X79.31 Y49.062 E0.04112
G1 X79.73 Y49.922 E0.04113
G1 X80.112 Y50.798 E0.04112
G1 X80.458 Y51.69 E0.04113
G1 X80.767 Y52.595 E0.04113
G1 X81.037 Y53.513 E0.04112
G1 X81.268 Y54.441 E0.04112
G1 X81.368 Y54.928 E0.0214
G1 X79.468 Y55.195 E0.08249
G1 X79.587 Y56.225 E0.04458
G1 X79.068 Y56.305 E0.02261
G1 X78.868 Y55.264 E0.04559
G1 X78.678 Y54.456 E0.03568
G1 X78.456 Y53.656 E0.03568
G1 X78.201 Y52.866 E0.03568
G1 X77.914 Y52.088 E0.03568
G1 X77.595 Y51.321 E0.03568
G1 X76.651 Y49.288 E0.09641
G1 X75.952 Y49.63 E0.03344
G1 X75.456 Y48.823 E0.04073
G1 X76.078 Y48.352 E0.03352
G1 X74.658 Y46.557 E0.0984
G1 X74.088 Y45.897 E0.03749
G1 X73.863 Y45.658 E0.01412
M204 S1500
G1 X76.951 Y50.648 F18000
M204 S1000
G1 X80.04 Y55.637
G1 F1800
G1 X80.192 Y56.953 E0.05695
G1 X78.632 Y56.953 E0.06706
G1 X78.514 Y56.166 E0.03422
G1 X78.362 Y55.372 E0.03477
G1 X78.177 Y54.584 E0.03477
G1 X77.96 Y53.805 E0.03477
G1 X77.712 Y53.035 E0.03478
G1 X77.432 Y52.276 E0.03477
G1 X77.122 Y51.53 E0.03477
G1 X76.404 Y49.984 E0.07327
G1 X75.738 Y50.31 E0.03189
G1 X75.456 Y49.809 E0.02475
G1 X75.07 Y49.182 E0.03163
G1 X74.752 Y48.707 E0.02459
G1 X75.344 Y48.259 E0.03195
G1 X74.259 Y46.887 E0.07521
G1 X73.704 Y46.244 E0.03654
G1 X73.121 Y45.625 E0.03654
G1 X72.513 Y45.031 E0.03654
G1 X71.879 Y44.465 E0.03654
G1 X71.222 Y43.926 E0.03655
G1 X70.542 Y43.415 E0.03656
G1 X69.843 Y42.936 E0.03643
G1 X69.122 Y42.486 E0.03654
G1 X68.382 Y42.067 E0.03654
G1 X67.626 Y41.681 E0.03654
G1 X66.853 Y41.327 E0.03655
G1 X66.066 Y41.007 E0.03654
G1 X65.265 Y40.72 E0.03654
G1 X64.453 Y40.469 E0.03655
M73 P1 R55
G1 X63.632 Y40.252 E0.03654
G1 X62.801 Y40.071 E0.03654
G1 X61.964 Y39.926 E0.03655
G1 X61.121 Y39.817 E0.03654
G1 X60.274 Y39.744 E0.03654
G1 X59.425 Y39.707 E0.03654
G1 X58.575 Y39.707 E0.03654
G1 X57.726 Y39.744 E0.03654
G1 X56.879 Y39.817 E0.03654
G1 X56.036 Y39.926 E0.03654
G1 X55.199 Y40.071 E0.03655
G1 X54.368 Y40.252 E0.03654
G1 X53.547 Y40.469 E0.03654
G1 X52.735 Y40.72 E0.03655
G1 X51.934 Y41.007 E0.03656
G1 X51.147 Y41.327 E0.03652
G1 X50.374 Y41.681 E0.03655
G1 X49.618 Y42.067 E0.03654
G1 X48.878 Y42.486 E0.03654
G1 X48.156 Y42.937 E0.03658
G1 X47.454 Y43.418 E0.03659
G1 X46.775 Y43.928 E0.03654
G1 X46.118 Y44.467 E0.03654
G1 X45.484 Y45.034 E0.03654
G1 X44.876 Y45.628 E0.03654
G1 X44.294 Y46.247 E0.03654
G1 X43.738 Y46.89 E0.03654
G1 X42.656 Y48.259 E0.07503
G1 X43.248 Y48.707 E0.03194
G1 X42.928 Y49.185 E0.02475
G1 X42.539 Y49.818 E0.03193
G1 X42.271 Y50.314 E0.02426
G1 X41.596 Y49.984 E0.03232
G1 X40.876 Y51.533 E0.07344
G1 X40.566 Y52.28 E0.03478
G1 X40.287 Y53.039 E0.03477
G1 X40.038 Y53.809 E0.03478
G1 X39.822 Y54.588 E0.03477
G1 X39.637 Y55.375 E0.03477
G1 X39.485 Y56.17 E0.03477
G1 X39.368 Y56.953 E0.03405
G1 X37.793 Y56.953 E0.0677
G1 X37.972 Y55.792 E0.0505
G1 X38.153 Y54.878 E0.04005
G1 X38.375 Y53.974 E0.04006
G1 X38.636 Y53.079 E0.04006
G1 X38.935 Y52.197 E0.04005
G1 X39.273 Y51.329 E0.04005
G1 X39.648 Y50.476 E0.04006
G1 X40.06 Y49.64 E0.04005
G1 X40.508 Y48.824 E0.04005
G1 X40.991 Y48.027 E0.04005
G1 X41.509 Y47.253 E0.04006
G1 X42.06 Y46.501 E0.04005
G1 X42.643 Y45.775 E0.04006
G1 X43.257 Y45.074 E0.04006
G1 X43.901 Y44.401 E0.04005
G1 X44.574 Y43.757 E0.04005
G1 X45.275 Y43.143 E0.04006
G1 X46.001 Y42.56 E0.04005
G1 X46.753 Y42.008 E0.0401
G1 X47.527 Y41.491 E0.04001
G1 X48.324 Y41.008 E0.04005
G1 X49.14 Y40.56 E0.04005
G1 X49.976 Y40.148 E0.04005
G1 X50.829 Y39.773 E0.04006
G1 X51.697 Y39.435 E0.04006
G1 X52.579 Y39.136 E0.04005
G1 X53.474 Y38.875 E0.04006
G1 X54.378 Y38.653 E0.04006
G1 X55.292 Y38.472 E0.04005
G1 X56.213 Y38.33 E0.04006
G1 X57.139 Y38.229 E0.04006
G1 X58.069 Y38.168 E0.04006
G1 X59 Y38.147 E0.04005
G1 X59.466 Y38.157 E0.02003
G1 X59.931 Y38.168 E0.02003
G1 X60.861 Y38.229 E0.04006
