; generated by SuperSlicer 2.3.57 on 2022-02-03 at 01:27:48 UTC


;
;

;
;
; TODO: check the size of the extruder and the y-bar clearance. Optimize & test supports.

; external perimeters extrusion width = 0.42mm
; perimeters extrusion width = 0.46mm
; infill extrusion width = 0.44mm
; solid infill extrusion width = 0.46mm
; top infill extrusion width = 0.44mm
; first layer extrusion width = 0.56mm

; object:{"name":"gold_ring_(1)","id":"gold_ring_(1).stl id:0 copy 0","object_center":[59.000000,59.500000,0.000000],"boundingbox_center":[59.000000,59.500000,1.700807],"boundingbox_size":[26.198940,26.198975,3.401613]}
; plater:{"center":[59.000000,59.500000,0.000000],"boundingbox_center":[59.000000,59.500000,1.700807],"boundingbox_size":[26.198940,26.198975,3.401613]}

M73 P0 R6
;TYPE:Custom
; custom gcode: start_gcode
; M190 S0
; M109 S0 ; uncomment to remove set&wait temp gcode added automatically after this start gcode
print_start EXTRUDER=210 BED=60 CHAMBER=15
; custom gcode end: start_gcode
G21 ; set units to millimeters
G90 ; use absolute coordinates
M83 ; use relative distances for extrusion
M104 S210 ; set temperature
M109 S210 ; set temperature and wait for it to be reached
M190 S60 ; set bed temperature and wait for it to be reached
;LAYER_CHANGE
;Z:0.2
;HEIGHT:0.2
; custom gcode: before_layer_gcode
;BEFORE_LAYER_CHANGE
;0.2

; custom gcode end: before_layer_gcode

G1 Z0.2 F18000
; custom gcode: layer_gcode
;AFTER_LAYER_CHANGE
;0.2
; custom gcode end: layer_gcode

G1 E-0.4 F3000
G1 Z0.4 F18000
M204 S1500
G1 X46.168 Y46.67
G1 Z0.2
G1 E0.4 F1800
; custom gcode: feature_gcode
; External perimeter
;;Skirt
;SET_VELOCITY_LIMIT ACCEL=7000 ACCEL_TO_DECEL=7000 SQUARE_CORNER_VELOCITY=8

; Support material
;
; custom gcode end: feature_gcode

;TYPE:Skirt
;WIDTH:0.52
G1 X43.912 Y49.419 E0.14111
G1 X42.235 Y52.557 E0.14111
G1 X41.203 Y55.961 E0.14111
G1 X40.854 Y59.501 E0.14111
G1 X41.203 Y63.041 E0.14111
G1 X42.236 Y66.445 E0.14111
G1 X43.913 Y69.582 E0.14112
G1 X46.17 Y72.332 E0.14111
G1 X48.919 Y74.588 E0.14111
G1 X52.057 Y76.265 E0.14112
G1 X55.461 Y77.297 E0.14111
G1 X59.001 Y77.646 E0.14111
G1 X62.541 Y77.297 E0.14111
G1 X65.945 Y76.264 E0.14112
G1 X69.082 Y74.587 E0.14111
G1 X71.832 Y72.33 E0.14111
G1 X74.088 Y69.581 E0.14112
G1 X75.765 Y66.443 E0.14111
G1 X76.797 Y63.039 E0.14111
G1 X77.146 Y59.499 E0.14111
G1 X76.797 Y55.959 E0.14111
G1 X75.764 Y52.555 E0.14111
G1 X74.087 Y49.418 E0.14112
G1 X71.831 Y46.668 E0.1411
M73 P1 R6
G1 X69.081 Y44.412 E0.14112
G1 X65.943 Y42.735 E0.14111
G1 X62.539 Y41.703 E0.14112
G1 X59.005 Y41.354 E0.14089
G1 X55.459 Y41.703 E0.14134
G1 X52.055 Y42.736 E0.14111
G1 X48.918 Y44.413 E0.14112
G1 X46.215 Y46.631 E0.13873
G1 X46.365 Y46.815 F18000
M204 S1000
G1 X46.516 Y46.998
G1 F1800
G1 X44.309 Y49.683 E0.13786
G1 X42.676 Y52.738 E0.1374
G1 X41.671 Y56.052 E0.1374
G1 X41.331 Y59.499 E0.1374
G1 X41.671 Y62.946 E0.1374
G1 X42.676 Y66.261 E0.1374
G1 X44.309 Y69.316 E0.13741
G1 X46.506 Y71.993 E0.1374
G1 X49.183 Y74.191 E0.1374
G1 X52.238 Y75.824 E0.13741
G1 X55.552 Y76.829 E0.1374
G1 X58.999 Y77.169 E0.1374
G1 X62.446 Y76.829 E0.1374
G1 X65.761 Y75.824 E0.13741
G1 X68.816 Y74.191 E0.1374
G1 X71.493 Y71.994 E0.1374
G1 X73.691 Y69.317 E0.13741
G1 X75.324 Y66.262 E0.1374
G1 X76.329 Y62.948 E0.1374
G1 X76.669 Y59.501 E0.1374
G1 X76.329 Y56.054 E0.1374
M73 P2 R6
G1 X75.324 Y52.739 E0.1374
G1 X73.691 Y49.684 E0.13741
G1 X71.494 Y47.007 E0.13739
G1 X68.817 Y44.809 E0.13741
G1 X65.762 Y43.176 E0.1374
G1 X62.448 Y42.171 E0.13741
G1 X59.006 Y41.831 E0.13719
G1 X55.554 Y42.171 E0.13762
G1 X52.239 Y43.176 E0.1374
G1 X49.184 Y44.809 E0.13741
G1 X46.562 Y46.96 E0.13455
M204 S1500
G1 X46.713 Y47.144 F18000
M204 S1000
G1 X46.864 Y47.327
G1 F1800
G1 X46.842 Y47.345 E0.00109
G1 X44.705 Y49.95 E0.13369
G1 X43.118 Y52.918 E0.13349
G1 X42.138 Y56.148 E0.13389
G1 X41.808 Y59.497 E0.13349
G1 X42.138 Y62.851 E0.13369
G1 X43.116 Y66.076 E0.13369
M73 P2 R5
G1 X44.704 Y69.049 E0.1337
G1 X46.841 Y71.654 E0.13369
G1 X49.45 Y73.795 E0.13389
G1 X52.423 Y75.384 E0.1337
G1 X55.648 Y76.362 E0.13369
G1 X58.997 Y76.692 E0.13349
G1 X62.356 Y76.361 E0.13389
G1 X65.576 Y75.384 E0.1335
G1 X68.549 Y73.796 E0.13369
G1 X71.154 Y71.659 E0.13369
G1 X73.295 Y69.05 E0.1339
G1 X74.884 Y66.077 E0.13369
M73 P3 R5
G1 X75.862 Y62.852 E0.13369
G1 X76.192 Y59.503 E0.13349
G1 X75.862 Y56.149 E0.13369
G1 X74.884 Y52.924 E0.13369
G1 X73.293 Y49.947 E0.1339
G1 X71.159 Y47.346 E0.13348
G1 X68.55 Y45.205 E0.1339
G1 X65.577 Y43.616 E0.13369
G1 X62.357 Y42.639 E0.1335
G1 X59.003 Y42.308 E0.13369
G1 X55.644 Y42.639 E0.1339
G1 X52.419 Y43.618 E0.13369
G1 X49.447 Y45.207 E0.1337
G1 X46.91 Y47.289 E0.13021
M204 S1500
G1 X47.06 Y47.473 F18000
M204 S1000
G1 X47.211 Y47.656
G1 F1800
G1 X47.182 Y47.68 E0.00147
G1 X45.103 Y50.212 E0.12998
G1 X43.558 Y53.102 E0.12998
G1 X42.607 Y56.237 E0.12998
G1 X42.285 Y59.498 E0.12998
G1 X42.606 Y62.759 E0.12998
G1 X43.557 Y65.895 E0.12998
G1 X45.101 Y68.785 E0.12999
G1 X47.18 Y71.318 E0.12998
G1 X49.712 Y73.397 E0.12998
G1 X52.602 Y74.942 E0.12999
G1 X55.737 Y75.893 E0.12998
G1 X58.998 Y76.215 E0.12998
G1 X62.259 Y75.894 E0.12998
G1 X65.395 Y74.943 E0.12999
G1 X68.285 Y73.399 E0.12998
G1 X70.818 Y71.32 E0.12998
G1 X72.897 Y68.788 E0.12999
M73 P4 R5
G1 X74.442 Y65.898 E0.12998
G1 X75.393 Y62.763 E0.12998
G1 X75.715 Y59.502 E0.12998
G1 X75.394 Y56.241 E0.12998
G1 X74.443 Y53.105 E0.12998
G1 X72.899 Y50.215 E0.12999
G1 X70.82 Y47.682 E0.12998
G1 X68.288 Y45.603 E0.12999
G1 X65.398 Y44.058 E0.12998
G1 X62.263 Y43.107 E0.12998
G1 X59.007 Y42.785 E0.12979
G1 X55.741 Y43.106 E0.13017
G1 X52.605 Y44.057 E0.12998
G1 X49.715 Y45.601 E0.12999
G1 X47.257 Y47.618 E0.12613
M204 S1500
G1 X47.408 Y47.802 F18000
M204 S1000
G1 X47.558 Y47.985
G1 F1800
G1 X47.52 Y48.017 E0.00198
G1 X45.5 Y50.477 E0.12627
G1 X43.999 Y53.284 E0.12627
G1 X43.075 Y56.33 E0.12627
G1 X42.762 Y59.498 E0.12627
G1 X43.074 Y62.666 E0.12627
G1 X43.998 Y65.712 E0.12627
G1 X45.498 Y68.519 E0.12628
G1 X47.517 Y70.98 E0.12627
G1 X49.981 Y73.002 E0.12645
G1 X52.788 Y74.502 E0.12628
G1 X55.83 Y75.425 E0.12609
G1 X58.998 Y75.738 E0.12627
G1 X62.166 Y75.426 E0.12627
G1 X65.212 Y74.502 E0.12628
G1 X68.019 Y73.002 E0.12627
G1 X70.48 Y70.983 E0.12627
M73 P5 R5
G1 X72.5 Y68.523 E0.12628
G1 X74.001 Y65.716 E0.12627
G1 X74.925 Y62.67 E0.12627
G1 X75.238 Y59.502 E0.12627
G1 X74.926 Y56.334 E0.12627
G1 X74.002 Y53.288 E0.12627
G1 X72.502 Y50.481 E0.12628
G1 X70.483 Y48.02 E0.12627
G1 X68.023 Y46 E0.12628
G1 X65.216 Y44.499 E0.12627
G1 X62.17 Y43.575 E0.12627
G1 X59.007 Y43.262 E0.12609
G1 X55.834 Y43.574 E0.12645
G1 X52.788 Y44.498 E0.12627
G1 X49.981 Y45.998 E0.12628
G1 X47.605 Y47.947 E0.12191
; INIT printing object gold_ring_(1).stl id:0 copy 0
G1 E-0.4 F3000
M204 S3000
G1 Z0.4 F18000
; printing object gold_ring_(1).stl id:0 copy 0
M204 S1500
G1 X49.224 Y49.645
M204 S1000
G1 X50.843 Y51.343
G1 Z0.2
G1 E0.4 F1800
; custom gcode: feature_gcode
; External perimeter
;;Perimeter
;SET_VELOCITY_LIMIT ACCEL=2000 ACCEL_TO_DECEL=2000 SQUARE_CORNER_VELOCITY=8

; Overhang perimeter
;
; custom gcode end: feature_gcode

;TYPE:Internal perimeter
;WIDTH:0.56
G1 X49.409 Y53.091 E0.09722
G1 X48.343 Y55.086 E0.09722
G1 X47.687 Y57.25 E0.09723
G1 X47.465 Y59.5 E0.09722
G1 X47.687 Y61.75 E0.09722
G1 X48.343 Y63.914 E0.09722
G1 X49.409 Y65.909 E0.09722
G1 X50.843 Y67.657 E0.09722
G1 X52.591 Y69.091 E0.09722
G1 X54.586 Y70.157 E0.09723
G1 X56.75 Y70.813 E0.09722
G1 X59 Y71.035 E0.09722
G1 X61.25 Y70.813 E0.09722
G1 X63.414 Y70.157 E0.09722
G1 X65.409 Y69.091 E0.09723
G1 X67.157 Y67.657 E0.09722
G1 X68.591 Y65.909 E0.09722
G1 X69.657 Y63.914 E0.09722
M73 P6 R5
G1 X70.313 Y61.75 E0.09722
G1 X70.535 Y59.5 E0.09722
G1 X70.313 Y57.25 E0.09722
G1 X69.657 Y55.086 E0.09723
G1 X68.591 Y53.091 E0.09722
G1 X67.157 Y51.343 E0.09722
G1 X65.409 Y49.909 E0.09722
G1 X63.414 Y48.843 E0.09722
G1 X61.25 Y48.187 E0.09722
G1 X59 Y47.965 E0.09722
G1 X58.497 Y48.015 E0.02174
G1 X56.75 Y48.187 E0.07548
G1 X54.586 Y48.843 E0.09723
G1 X52.591 Y49.909 E0.09722
G1 X50.89 Y51.305 E0.09464
M204 S1500
G1 X51.054 Y51.505 F18000
M204 S1000
G1 X51.218 Y51.705
; custom gcode: feature_gcode
; External perimeter
;;ExternalPerimeter
;SET_VELOCITY_LIMIT ACCEL=1000 ACCEL_TO_DECEL=1000 SQUARE_CORNER_VELOCITY=8

; Perimeter
;
; custom gcode end: feature_gcode

;TYPE:External perimeter
G1 F1800
G1 X49.841 Y53.38 E0.09323
G1 X48.823 Y55.284 E0.09284
G1 X48.196 Y57.351 E0.09285
G1 X47.985 Y59.5 E0.09284
G1 X48.196 Y61.649 E0.09285
G1 X48.823 Y63.715 E0.09285
G1 X49.841 Y65.62 E0.09284
G1 X51.211 Y67.289 E0.09284
G1 X52.88 Y68.659 E0.09284
G1 X54.785 Y69.677 E0.09285
G1 X56.851 Y70.304 E0.09284
G1 X59 Y70.515 E0.09284
G1 X61.149 Y70.304 E0.09284
G1 X63.215 Y69.677 E0.09284
G1 X65.12 Y68.659 E0.09285
G1 X66.789 Y67.289 E0.09284
G1 X68.159 Y65.62 E0.09284
G1 X69.177 Y63.715 E0.09284
G1 X69.804 Y61.649 E0.09285
G1 X70.015 Y59.5 E0.09285
G1 X69.804 Y57.351 E0.09284
G1 X69.177 Y55.284 E0.09285
G1 X68.159 Y53.38 E0.09284
G1 X66.789 Y51.711 E0.09284
G1 X65.12 Y50.341 E0.09284
G1 X63.215 Y49.323 E0.09285
G1 X61.149 Y48.696 E0.09284
G1 X59 Y48.485 E0.09284
G1 X58.547 Y48.529 E0.01955
G1 X56.851 Y48.696 E0.07329
G1 X54.785 Y49.323 E0.09285
G1 X52.88 Y50.341 E0.09284
G1 X51.264 Y51.667 E0.08988
;WIPE_START
M204 S3000
M73 P7 R5
G1 X51.209 Y51.702 F18000
;WIPE_END
M204 S1500
G1 X50.839 Y51.25
M204 S1000
G1 X50.468 Y50.798
; custom gcode: feature_gcode
; External perimeter
;;Perimeter
;SET_VELOCITY_LIMIT ACCEL=2000 ACCEL_TO_DECEL=2000 SQUARE_CORNER_VELOCITY=8

; Overhang perimeter
;
; custom gcode end: feature_gcode

;TYPE:Internal perimeter
G1 F1800
G1 X52.223 Y49.358 E0.09764
G1 X54.332 Y48.23 E0.10281
G1 X56.62 Y47.536 E0.10281
G1 X59 Y47.302 E0.10281
G1 X59.338 Y47.335 E0.0146
G1 X61.38 Y47.536 E0.08821
G1 X63.668 Y48.23 E0.10281
G1 X65.777 Y49.358 E0.10281
G1 X67.625 Y50.875 E0.10281
G1 X69.142 Y52.723 E0.10281
G1 X70.27 Y54.832 E0.10281
G1 X70.964 Y57.12 E0.10281
G1 X71.198 Y59.5 E0.10281
G1 X70.964 Y61.88 E0.10281
G1 X70.27 Y64.168 E0.10281
G1 X69.142 Y66.277 E0.10282
G1 X67.625 Y68.125 E0.10281
G1 X65.777 Y69.642 E0.10281
G1 X63.668 Y70.77 E0.10281
G1 X61.38 Y71.464 E0.10281
G1 X59 Y71.698 E0.10281
G1 X56.62 Y71.464 E0.10281
G1 X54.332 Y70.77 E0.10281
G1 X52.223 Y69.642 E0.10281
G1 X50.375 Y68.125 E0.10281
G1 X48.858 Y66.277 E0.10281
G1 X47.73 Y64.168 E0.10281
G1 X47.036 Y61.88 E0.10281
G1 X46.802 Y59.5 E0.10281
G1 X47.036 Y57.12 E0.10281
G1 X47.73 Y54.832 E0.10281
G1 X48.858 Y52.723 E0.10281
G1 X50.375 Y50.875 E0.10281
G1 X50.421 Y50.836 E0.0026
M204 S1500
G1 X50.257 Y50.637 F18000
M204 S1000
G1 X50.093 Y50.437
; custom gcode: feature_gcode
; External perimeter
;;ExternalPerimeter
;SET_VELOCITY_LIMIT ACCEL=1000 ACCEL_TO_DECEL=1000 SQUARE_CORNER_VELOCITY=8

; Perimeter
;
; custom gcode end: feature_gcode

;TYPE:External perimeter
G1 F1800
G1 X51.934 Y48.926 E0.1024
G1 X54.133 Y47.75 E0.10719
G1 X56.519 Y47.027 E0.10719
G1 X59 Y46.782 E0.10719
G1 X59.389 Y46.821 E0.01679
G1 X61.481 Y47.027 E0.0904
G1 X63.867 Y47.75 E0.10719
G1 X66.066 Y48.926 E0.10719
G1 X67.993 Y50.507 E0.10719
G1 X69.574 Y52.434 E0.10719
M73 P8 R5
G1 X70.75 Y54.633 E0.10719
G1 X71.473 Y57.019 E0.10719
G1 X71.718 Y59.5 E0.10719
G1 X71.473 Y61.981 E0.10719
G1 X70.75 Y64.367 E0.10719
G1 X69.574 Y66.566 E0.1072
G1 X67.993 Y68.493 E0.10719
G1 X66.066 Y70.074 E0.10719
G1 X63.867 Y71.25 E0.10719
G1 X61.481 Y71.973 E0.10719
G1 X59 Y72.218 E0.10719
G1 X56.519 Y71.973 E0.10719
G1 X54.133 Y71.25 E0.10719
G1 X51.934 Y70.074 E0.10719
G1 X50.007 Y68.493 E0.10719
G1 X48.426 Y66.566 E0.10719
G1 X47.25 Y64.367 E0.10719
G1 X46.527 Y61.981 E0.10719
G1 X46.282 Y59.5 E0.10719
G1 X46.527 Y57.019 E0.10719
G1 X47.25 Y54.633 E0.10719
G1 X48.426 Y52.434 E0.10719
G1 X50.007 Y50.507 E0.10719
G1 X50.047 Y50.475 E0.00221
;WIPE_START
M204 S3000
G1 X50.468 Y50.578 F18000
;WIPE_END
M204 S1500
G1 X50.542 Y50.84
M204 S1000
G1 X50.616 Y51.103
; custom gcode: feature_gcode
; External perimeter
;;GapFill
;SET_VELOCITY_LIMIT ACCEL=2000 ACCEL_TO_DECEL=2000 SQUARE_CORNER_VELOCITY=8

; Skirt
;
; custom gcode end: feature_gcode

;TYPE:Gap fill
;WIDTH:0.226181
G1 F1800
G1 X50.603 Y51.116 E0.00027
G1 X49.871 Y52.008 E0.01759
G1 X49.139 Y52.9 E0.01759
G1 X49.129 Y52.915 E0.00027
G1 X48.585 Y53.933 E0.01759
G1 X48.041 Y54.951 E0.01759
G1 X48.034 Y54.967 E0.00027
G1 X47.699 Y56.072 E0.01759
G1 X47.364 Y57.176 E0.01759
G1 X47.361 Y57.194 E0.00027
G1 X47.247 Y58.342 E0.01759
G1 X47.134 Y59.491 E0.01759
G1 X47.134 Y59.509 E0.00027
G1 X47.361 Y61.806 E0.03517
G1 X47.364 Y61.824 E0.00027
G1 X48.034 Y64.033 E0.03517
G1 X48.041 Y64.049 E0.00027
G1 X48.585 Y65.067 E0.01759
G1 X49.129 Y66.085 E0.01759
G1 X49.139 Y66.1 E0.00027
G1 X50.603 Y67.884 E0.03517
G1 X50.616 Y67.897 E0.00027
G1 X51.508 Y68.629 E0.01759
G1 X52.4 Y69.361 E0.01759
G1 X52.415 Y69.371 E0.00027
G1 X53.433 Y69.915 E0.01759
G1 X54.451 Y70.459 E0.01759
G1 X54.468 Y70.466 E0.00027
G1 X56.676 Y71.136 E0.03517
G1 X56.694 Y71.139 E0.00027
G1 X57.842 Y71.253 E0.01759
G1 X58.991 Y71.366 E0.01759
G1 X59.009 Y71.366 E0.00027
G1 X61.306 Y71.139 E0.03517
G1 X61.324 Y71.136 E0.00027
G1 X62.428 Y70.801 E0.01759
G1 X63.533 Y70.466 E0.01759
G1 X63.549 Y70.459 E0.00027
G1 X64.567 Y69.915 E0.01759
G1 X65.585 Y69.371 E0.01759
G1 X65.6 Y69.361 E0.00027
G1 X66.492 Y68.629 E0.01759
G1 X67.384 Y67.897 E0.01759
G1 X67.397 Y67.884 E0.00027
G1 X68.129 Y66.992 E0.01759
G1 X68.861 Y66.1 E0.01759
G1 X68.871 Y66.085 E0.00027
G1 X69.415 Y65.067 E0.01759
G1 X69.959 Y64.049 E0.01759
M73 P9 R5
G1 X69.966 Y64.033 E0.00027
G1 X70.301 Y62.928 E0.01759
G1 X70.636 Y61.824 E0.01759
G1 X70.639 Y61.806 E0.00027
G1 X70.866 Y59.5 E0.03531
G1 X70.753 Y58.342 E0.01772
G1 X70.639 Y57.194 E0.01759
G1 X70.636 Y57.176 E0.00027
G1 X69.966 Y54.967 E0.03517
G1 X69.959 Y54.951 E0.00027
G1 X69.415 Y53.933 E0.01759
G1 X68.871 Y52.915 E0.01759
G1 X68.861 Y52.9 E0.00027
G1 X67.397 Y51.116 E0.03517
G1 X67.384 Y51.103 E0.00027
G1 X66.492 Y50.371 E0.01759
G1 X65.6 Y49.639 E0.01759
G1 X65.585 Y49.629 E0.00027
G1 X64.567 Y49.085 E0.01759
G1 X63.549 Y48.541 E0.01759
G1 X63.533 Y48.534 E0.00027
G1 X62.428 Y48.199 E0.01759
G1 X61.324 Y47.864 E0.01759
G1 X61.306 Y47.861 E0.00027
G1 X60.158 Y47.747 E0.01759
G1 X59.009 Y47.634 E0.01759
G1 X58.991 Y47.634 E0.00027
G1 X56.694 Y47.861 E0.03517
G1 X56.676 Y47.864 E0.00027
G1 X54.467 Y48.534 E0.03517
G1 X54.451 Y48.541 E0.00027
G1 X53.433 Y49.085 E0.01759
G1 X52.415 Y49.629 E0.01759
G1 X52.4 Y49.639 E0.00027
G1 X51.508 Y50.371 E0.01759
G1 X50.662 Y51.065 E0.01667
; INIT stop printing object gold_ring_(1).stl id:0 copy 0
M106 S84.15
;LAYER_CHANGE
;Z:0.4
;HEIGHT:0.2
; custom gcode: before_layer_gcode
;BEFORE_LAYER_CHANGE
;0.4

; custom gcode end: before_layer_gcode

; stop printing object gold_ring_(1).stl id:0 copy 0
M204 S3000
G1 Z0.4 F18000
; custom gcode: layer_gcode
;AFTER_LAYER_CHANGE
;0.4
; custom gcode end: layer_gcode

M104 S200 ; set temperature
M140 S56 ; set bed temperature
; INIT printing object gold_ring_(1).stl id:0 copy 0
; printing object gold_ring_(1).stl id:0 copy 0
M204 S2000
G1 X51.054 Y51.542
; custom gcode: feature_gcode
; External perimeter
;;Perimeter
;SET_VELOCITY_LIMIT ACCEL=2000 ACCEL_TO_DECEL=2000 SQUARE_CORNER_VELOCITY=8

; Overhang perimeter
;
; custom gcode end: feature_gcode

;TYPE:Internal perimeter
;WIDTH:0.464
G1 F4404
G1 X49.649 Y53.252 E0.07748
G1 X48.609 Y55.196 E0.07719
G1 X47.969 Y57.306 E0.0772
G1 X47.753 Y59.5 E0.07719
G1 X47.969 Y61.694 E0.0772
G1 X48.609 Y63.804 E0.0772
G1 X49.649 Y65.748 E0.07719
G1 X51.047 Y67.453 E0.07719
G1 X52.752 Y68.851 E0.07719
G1 X54.696 Y69.891 E0.0772
G1 X56.806 Y70.531 E0.07719
G1 X59 Y70.747 E0.07719
G1 X61.194 Y70.531 E0.07719
G1 X63.304 Y69.891 E0.07719
G1 X65.248 Y68.851 E0.0772
G1 X66.953 Y67.453 E0.07719
G1 X68.351 Y65.748 E0.0772
G1 X69.391 Y63.804 E0.07719
G1 X70.031 Y61.694 E0.0772
G1 X70.247 Y59.5 E0.0772
G1 X70.031 Y57.306 E0.07719
G1 X69.391 Y55.196 E0.0772
G1 X68.351 Y53.252 E0.07719
G1 X66.953 Y51.547 E0.07719
G1 X65.248 Y50.149 E0.0772
G1 X63.304 Y49.109 E0.0772
G1 X61.194 Y48.469 E0.0772
