; generated by SuperSlicer 2.3.57 on 2022-02-03 at 01:07:24 UTC


;
;

;
;
; TODO: check the size of the extruder and the y-bar clearance. Optimize & test supports.

; external perimeters extrusion width = 0.42mm
; perimeters extrusion width = 0.46mm
; infill extrusion width = 0.44mm
; solid infill extrusion width = 0.46mm
; top infill extrusion width = 0.44mm
; first layer extrusion width = 0.56mm

; object:{"name":"dabge_gold(1)","id":"dabge_gold(1).stl id:0 copy 0","object_center":[59.000000,59.500000,0.000000],"boundingbox_center":[59.000000,59.500000,4.902001],"boundingbox_size":[33.558002,33.557983,9.804003]}
; plater:{"center":[59.000000,59.500000,0.000000],"boundingbox_center":[59.000000,59.500000,4.902001],"boundingbox_size":[33.558002,33.557983,9.804003]}

M73 P0 R16
;TYPE:Custom
; custom gcode: start_gcode
; M190 S0
; M109 S0 ; uncomment to remove set&wait temp gcode added automatically after this start gcode
print_start EXTRUDER=210 BED=60 CHAMBER=15
; custom gcode end: start_gcode
G21 ; set units to millimeters
G90 ; use absolute coordinates
M83 ; use relative distances for extrusion
M104 S210 ; set temperature
M109 S210 ; set temperature and wait for it to be reached
M190 S60 ; set bed temperature and wait for it to be reached
;LAYER_CHANGE
;Z:0.2
;HEIGHT:0.2
; custom gcode: before_layer_gcode
;BEFORE_LAYER_CHANGE
;0.2

; custom gcode end: before_layer_gcode

G1 Z0.2 F18000
; custom gcode: layer_gcode
;AFTER_LAYER_CHANGE
;0.2
; custom gcode end: layer_gcode

G1 E-0.4 F3000
G1 Z0.4 F18000
M204 S1500
G1 X43.904 Y44.404
G1 Z0.2
G1 E0.4 F1800
; custom gcode: feature_gcode
; External perimeter
;;Skirt
;SET_VELOCITY_LIMIT ACCEL=7000 ACCEL_TO_DECEL=7000 SQUARE_CORNER_VELOCITY=8

; Support material
;
; custom gcode end: feature_gcode

;TYPE:Skirt
;WIDTH:0.52
G1 X41.251 Y47.637 E0.16593
G1 X39.275 Y51.331 E0.16617
G1 X38.062 Y55.335 E0.16598
G1 X37.652 Y59.498 E0.16592
G1 X38.061 Y63.663 E0.16601
G1 X39.276 Y67.67 E0.16611
G1 X41.249 Y71.361 E0.16603
G1 X43.904 Y74.596 E0.16599
G1 X47.137 Y77.249 E0.16593
G1 X50.831 Y79.225 E0.16617
G1 X54.836 Y80.438 E0.166
G1 X59 Y80.848 E0.166
G1 X63.163 Y80.439 E0.16592
G1 X67.17 Y79.224 E0.16611
G1 X70.861 Y77.251 E0.16603
G1 X74.096 Y74.596 E0.16599
G1 X76.749 Y71.363 E0.16593
G1 X78.725 Y67.669 E0.16617
G1 X79.938 Y63.664 E0.166
G1 X80.348 Y59.5 E0.166
G1 X79.939 Y55.337 E0.16592
G1 X78.724 Y51.33 E0.16611
G1 X76.751 Y47.639 E0.16603
G1 X74.096 Y44.404 E0.16599
G1 X70.863 Y41.751 E0.16593
G1 X67.169 Y39.775 E0.16617
G1 X63.165 Y38.562 E0.16599
G1 X59.008 Y38.152 E0.16571
G1 X54.837 Y38.561 E0.16623
G1 X50.83 Y39.776 E0.16611
G1 X47.139 Y41.749 E0.16603
G1 X43.951 Y44.366 E0.16361
G1 X44.101 Y44.549 F18000
M204 S1000
G1 X44.252 Y44.732
G1 F1800
G1 X41.646 Y47.904 E0.16284
G1 X39.717 Y51.511 E0.16226
G1 X38.529 Y55.431 E0.16248
G1 X38.129 Y59.5 E0.16221
G1 X38.53 Y63.572 E0.16231
G1 X39.715 Y67.485 E0.16219
G1 X41.647 Y71.098 E0.16253
G1 X44.243 Y74.26 E0.16228
G1 X47.404 Y76.854 E0.16223
G1 X51.016 Y78.785 E0.16245
G1 X54.931 Y79.971 E0.16229
G1 X59.003 Y80.371 E0.16229
G1 X63.072 Y79.97 E0.16222
G1 X66.99 Y78.783 E0.16239
G1 X70.598 Y76.853 E0.16233
G1 X73.76 Y74.257 E0.16228
G1 X76.354 Y71.096 E0.16223
G1 X78.285 Y67.484 E0.16245
G1 X79.471 Y63.569 E0.16229
G1 X79.871 Y59.497 E0.16229
G1 X79.47 Y55.428 E0.16222
G1 X78.283 Y51.51 E0.16239
G1 X76.353 Y47.902 E0.16233
G1 X73.757 Y44.74 E0.16228
G1 X70.596 Y42.146 E0.16223
G1 X66.989 Y40.217 E0.16225
G1 X63.074 Y39.03 E0.16228
G1 X59.005 Y38.629 E0.16221
G1 X54.928 Y39.03 E0.16251
G1 X51.015 Y40.215 E0.16219
G1 X47.402 Y42.147 E0.16253
G1 X44.298 Y44.694 E0.15928
M204 S1500
M73 P1 R15
G1 X44.449 Y44.878 F18000
M204 S1000
G1 X44.599 Y45.062
G1 F1800
G1 X44.58 Y45.077 E0.001
G1 X42.042 Y48.17 E0.15871
G1 X40.157 Y51.695 E0.15855
G1 X38.998 Y55.52 E0.15857
G1 X38.606 Y59.497 E0.15851
G1 X38.997 Y63.475 E0.1586
G1 X40.157 Y67.303 E0.15867
G1 X42.042 Y70.83 E0.15862
G1 X44.577 Y73.92 E0.15857
G1 X47.67 Y76.458 E0.15871
G1 X51.195 Y78.343 E0.15855
G1 X55.02 Y79.502 E0.15858
G1 X58.999 Y79.894 E0.15859
G1 X62.975 Y79.503 E0.15851
G1 X66.803 Y78.343 E0.15867
G1 X70.33 Y76.458 E0.15862
G1 X73.42 Y73.923 E0.15857
G1 X75.958 Y70.83 E0.15871
G1 X77.843 Y67.305 E0.15855
G1 X79.002 Y63.48 E0.15858
G1 X79.394 Y59.501 E0.15859
G1 X79.003 Y55.525 E0.15851
G1 X77.843 Y51.697 E0.15867
G1 X75.958 Y48.17 E0.15862
G1 X73.423 Y45.08 E0.15857
G1 X70.334 Y42.545 E0.15852
G1 X66.805 Y40.657 E0.15874
G1 X62.975 Y39.497 E0.15876
G1 X59.003 Y39.106 E0.15832
G1 X55.025 Y39.497 E0.1586
G1 X51.197 Y40.657 E0.15867
G1 X47.67 Y42.542 E0.15862
G1 X44.646 Y45.023 E0.15519
M204 S1500
G1 X44.796 Y45.207 F18000
M204 S1000
G1 X44.947 Y45.39
G1 F1800
G1 X44.918 Y45.415 E0.00151
G1 X42.439 Y48.435 E0.15499
G1 X40.598 Y51.877 E0.15484
G1 X39.466 Y55.613 E0.15487
G1 X39.083 Y59.496 E0.1548
G1 X39.466 Y63.387 E0.15507
G1 X40.597 Y67.121 E0.15478
G1 X42.439 Y70.564 E0.15492
G1 X44.915 Y73.582 E0.15486
G1 X47.935 Y76.061 E0.15499
G1 X51.377 Y77.902 E0.15484
G1 X55.113 Y79.034 E0.15487
G1 X58.999 Y79.417 E0.15488
G1 X62.882 Y79.035 E0.15481
G1 X66.621 Y77.903 E0.15495
G1 X70.068 Y76.059 E0.15509
G1 X73.082 Y73.585 E0.15468
G1 X75.561 Y70.565 E0.15499
G1 X77.402 Y67.123 E0.15484
G1 X78.535 Y63.383 E0.15505
G1 X78.917 Y59.501 E0.1547
G1 X78.535 Y55.618 E0.15481
G1 X77.403 Y51.879 E0.15495
G1 X75.561 Y48.436 E0.15492
G1 X73.085 Y45.418 E0.15486
G1 X70.065 Y42.939 E0.15499
G1 X66.623 Y41.098 E0.15484
G1 X62.887 Y39.966 E0.15487
G1 X59.004 Y39.583 E0.1548
G1 X55.113 Y39.966 E0.15507
G1 X51.379 Y41.097 E0.15478
G1 X47.932 Y42.941 E0.15509
G1 X44.993 Y45.352 E0.15079
; INIT printing object dabge_gold(1).stl id:0 copy 0
G1 E-0.4 F3000
M204 S3000
G1 Z0.4 F18000
; printing object dabge_gold(1).stl id:0 copy 0
M204 S1500
G1 X46.567 Y46.996
M204 S1000
G1 X48.14 Y48.64
G1 Z0.2
G1 E0.4 F1800
; custom gcode: feature_gcode
; External perimeter
;;Perimeter
;SET_VELOCITY_LIMIT ACCEL=2000 ACCEL_TO_DECEL=2000 SQUARE_CORNER_VELOCITY=8

; Overhang perimeter
;
; custom gcode end: feature_gcode

;TYPE:Internal perimeter
;WIDTH:0.56
G1 X50.467 Y46.73 E0.12941
G1 X53.123 Y45.31 E0.12951
G1 X56.004 Y44.437 E0.12944
G1 X59.001 Y44.142 E0.12948
G1 X59.33 Y44.174 E0.01421
G1 X61.996 Y44.437 E0.11518
G1 X64.877 Y45.31 E0.12944
M73 P2 R15
G1 X67.533 Y46.73 E0.12951
G1 X69.86 Y48.64 E0.12941
G1 X71.77 Y50.967 E0.12941
G1 X73.19 Y53.623 E0.12951
G1 X74.063 Y56.504 E0.12944
G1 X74.358 Y59.499 E0.1294
G1 X74.063 Y62.496 E0.12948
G1 X73.19 Y65.377 E0.12944
G1 X71.77 Y68.033 E0.12951
G1 X69.86 Y70.36 E0.12941
G1 X67.533 Y72.27 E0.12941
G1 X64.877 Y73.69 E0.12951
G1 X61.996 Y74.563 E0.12944
G1 X59.001 Y74.858 E0.1294
G1 X56.004 Y74.563 E0.12948
G1 X53.123 Y73.69 E0.12944
G1 X50.467 Y72.27 E0.12951
G1 X48.14 Y70.36 E0.12941
G1 X46.23 Y68.033 E0.12941
G1 X44.81 Y65.377 E0.12951
G1 X43.937 Y62.496 E0.12944
G1 X43.642 Y59.499 E0.12948
G1 X43.937 Y56.504 E0.1294
G1 X44.81 Y53.623 E0.12944
G1 X46.23 Y50.967 E0.12951
G1 X48.102 Y48.686 E0.12683
M204 S1500
G1 X47.902 Y48.522 F18000
M204 S1000
G1 X47.702 Y48.358
G1 F1800
G1 X47.772 Y48.272 E0.00477
G1 X50.178 Y46.298 E0.13379
G1 X52.924 Y44.83 E0.13389
G1 X55.903 Y43.927 E0.13382
G1 X59.001 Y43.622 E0.13386
G1 X59.381 Y43.66 E0.0164
G1 X62.097 Y43.927 E0.11737
G1 X65.076 Y44.83 E0.13382
G1 X67.822 Y46.298 E0.13389
G1 X70.228 Y48.272 E0.13379
G1 X72.202 Y50.678 E0.13379
G1 X73.67 Y53.424 E0.13389
G1 X74.573 Y56.403 E0.13382
G1 X74.878 Y59.499 E0.13377
G1 X74.573 Y62.597 E0.13386
G1 X73.67 Y65.576 E0.13382
G1 X72.202 Y68.322 E0.13389
G1 X70.228 Y70.728 E0.13379
G1 X67.822 Y72.702 E0.13379
G1 X65.076 Y74.17 E0.13389
G1 X62.097 Y75.073 E0.13382
G1 X59.001 Y75.378 E0.13377
G1 X55.903 Y75.073 E0.13386
G1 X52.924 Y74.17 E0.13382
G1 X50.178 Y72.702 E0.13389
G1 X47.772 Y70.728 E0.13379
G1 X45.798 Y68.322 E0.13379
G1 X44.33 Y65.576 E0.13389
G1 X43.427 Y62.597 E0.13382
G1 X43.122 Y59.499 E0.13386
G1 X43.427 Y56.403 E0.13377
G1 X44.33 Y53.424 E0.13382
G1 X45.798 Y50.678 E0.13389
G1 X47.664 Y48.405 E0.12644
M204 S1500
G1 X47.534 Y48.155 F18000
M204 S1000
G1 X47.405 Y47.905
; custom gcode: feature_gcode
; External perimeter
;;ExternalPerimeter
;SET_VELOCITY_LIMIT ACCEL=1000 ACCEL_TO_DECEL=1000 SQUARE_CORNER_VELOCITY=8

; Perimeter
;
; custom gcode end: feature_gcode

;TYPE:External perimeter
G1 F1800
G1 X49.889 Y45.866 E0.13817
G1 X52.725 Y44.35 E0.13828
G1 X55.801 Y43.418 E0.13821
G1 X59.001 Y43.103 E0.13823
G1 X59.431 Y43.145 E0.01859
G1 X62.199 Y43.418 E0.11956
G1 X65.275 Y44.35 E0.13821
G1 X68.111 Y45.866 E0.13827
G1 X70.595 Y47.905 E0.13817
G1 X72.634 Y50.389 E0.13817
G1 X74.15 Y53.225 E0.13828
G1 X75.082 Y56.301 E0.13821
G1 X75.397 Y59.499 E0.13815
G1 X75.082 Y62.699 E0.13823
G1 X74.15 Y65.775 E0.13821
G1 X72.634 Y68.611 E0.13828
G1 X70.595 Y71.095 E0.13817
G1 X68.111 Y73.134 E0.13817
G1 X65.275 Y74.65 E0.13827
G1 X62.199 Y75.582 E0.13821
G1 X59.001 Y75.897 E0.13815
G1 X55.801 Y75.582 E0.13823
G1 X52.725 Y74.65 E0.13821
G1 X49.889 Y73.134 E0.13828
G1 X47.405 Y71.095 E0.13817
G1 X45.366 Y68.611 E0.13817
G1 X43.85 Y65.775 E0.13828
G1 X42.918 Y62.699 E0.13821
G1 X42.603 Y59.499 E0.13823
G1 X42.918 Y56.301 E0.13815
G1 X43.85 Y53.225 E0.13821
G1 X45.366 Y50.389 E0.13828
G1 X47.367 Y47.951 E0.13559
;WIPE_START
M204 S3000
M73 P3 R15
G1 X47.788 Y48.021 F18000
;WIPE_END
M204 S1500
G1 X59.512 Y49.312
M204 S1000
G1 X71.236 Y50.602
; custom gcode: feature_gcode
; External perimeter
;;SolidInfill
;SET_VELOCITY_LIMIT ACCEL=4000 ACCEL_TO_DECEL=4000 SQUARE_CORNER_VELOCITY=8

; Bridge infill
;
; custom gcode end: feature_gcode

;TYPE:Solid infill
;WIDTH:0.56034
G1 F1800
G1 X69.501 Y48.867 E0.10558
G1 X67.308 Y47.067 E0.12204
G1 X66.582 Y46.679 E0.03543
G1 X71.821 Y51.918 E0.31876
G1 X72.662 Y53.49 E0.07669
G1 X65.01 Y45.838 E0.46554
G1 X64.722 Y45.684 E0.01404
G1 X63.865 Y45.425 E0.03853
G1 X73.075 Y54.635 E0.56037
G1 X73.393 Y55.684 E0.04717
G1 X62.816 Y45.107 E0.64356
G1 X61.917 Y44.834 E0.0404
G1 X61.801 Y44.823 E0.00503
G1 X73.677 Y56.699 E0.72258
G1 X73.757 Y57.51 E0.03506
G1 X60.99 Y44.743 E0.77679
G1 X60.179 Y44.663 E0.03506
G1 X73.837 Y58.321 E0.83099
G1 X73.917 Y59.132 E0.03506
G1 X59.368 Y44.583 E0.88519
G1 X59.29 Y44.576 E0.00333
G1 X59.001 Y44.547 E0.01251
G1 X58.636 Y44.583 E0.01577
G1 X73.917 Y59.864 E0.92971
G1 X73.851 Y60.53 E0.02878
G1 X57.97 Y44.649 E0.96623
G1 X57.305 Y44.714 E0.02878
G1 X73.786 Y61.196 E1.00276
G1 X73.72 Y61.861 E0.02878
G1 X56.639 Y44.78 E1.03928
G1 X56.083 Y44.834 E0.02403
G1 X55.99 Y44.862 E0.00417
G1 X73.638 Y62.51 E1.0737
G1 X73.468 Y63.071 E0.02523
G1 X55.429 Y45.032 E1.0975
M73 P4 R15
G1 X54.868 Y45.202 E0.02523
G1 X73.298 Y63.632 E1.12129
G1 X73.127 Y64.193 E0.02523
G1 X54.307 Y45.373 E1.14509
G1 X53.745 Y45.543 E0.02523
G1 X72.957 Y64.755 E1.16888
G1 X72.816 Y65.222 E0.02102
G1 X72.773 Y65.302 E0.00388
G1 X53.198 Y45.727 E1.19096
G1 X52.722 Y45.982 E0.02324
G1 X72.518 Y65.778 E1.20445
G1 X72.264 Y66.255 E0.02324
G1 X52.245 Y46.236 E1.21793
G1 X51.769 Y46.491 E0.02324
G1 X72.009 Y66.731 E1.23142
G1 X71.754 Y67.207 E0.02324
G1 X51.293 Y46.746 E1.2449
G1 X50.816 Y47.001 E0.02324
G1 X71.499 Y67.684 E1.25839
G1 X71.433 Y67.808 E0.00607
G1 X71.189 Y68.105 E0.01652
G1 X50.395 Y47.311 E1.26515
M73 P5 R15
G1 X49.993 Y47.641 E0.02235
G1 X70.859 Y68.507 E1.26953
G1 X70.53 Y68.908 E0.02235
G1 X49.592 Y47.97 E1.27391
G1 X49.19 Y48.3 E0.02235
G1 X70.2 Y69.31 E1.2783
G1 X69.871 Y69.712 E0.02235
G1 X48.788 Y48.629 E1.28268
G1 X48.426 Y48.926 E0.02014
G1 X48.394 Y48.966 E0.00221
G1 X69.534 Y70.106 E1.2862
G1 X69.132 Y70.436 E0.02235
G1 X48.064 Y49.368 E1.28182
G1 X47.735 Y49.769 E0.02235
G1 X68.731 Y70.765 E1.27743
G1 X68.329 Y71.095 E0.02235
G1 X47.405 Y50.171 E1.27305
G1 X47.075 Y50.573 E0.02235
G1 X67.927 Y71.425 E1.26866
M73 P6 R15
G1 X67.526 Y71.754 E0.02235
G1 X46.746 Y50.974 E1.26428
G1 X46.567 Y51.192 E0.0121
G1 X46.45 Y51.41 E0.01066
G1 X67.09 Y72.05 E1.25572
G1 X66.613 Y72.304 E0.02324
G1 X46.196 Y51.887 E1.24224
G1 X45.941 Y52.363 E0.02324
G1 X66.137 Y72.559 E1.22875
G1 X65.66 Y72.814 E0.02324
G1 X45.686 Y52.84 E1.21527
G1 X45.431 Y53.316 E0.02324
G1 X65.184 Y73.069 E1.20178
G1 X64.722 Y73.316 E0.02253
G1 X64.705 Y73.321 E0.00078
G1 X45.179 Y53.795 E1.18798
G1 X45.009 Y54.356 E0.02523
G1 X64.144 Y73.491 E1.16418
G1 X63.582 Y73.661 E0.02523
G1 X44.839 Y54.918 E1.14039
M73 P7 R15
G1 X44.669 Y55.479 E0.02523
G1 X63.021 Y73.831 E1.11659
G1 X62.46 Y74.001 E0.02523
G1 X44.499 Y56.04 E1.09279
G1 X44.334 Y56.583 E0.02441
G1 X44.332 Y56.605 E0.00093
G1 X61.895 Y74.168 E1.06858
G1 X61.23 Y74.233 E0.02878
G1 X44.267 Y57.27 E1.03207
G1 X44.201 Y57.936 E0.02878
M73 P7 R14
G1 X60.564 Y74.299 E0.99555
G1 X59.898 Y74.364 E0.02878
G1 X44.136 Y58.602 E0.95903
G1 X44.07 Y59.267 E0.02878
G1 X59.233 Y74.43 E0.92251
G1 X59.001 Y74.453 E0.01001
G1 X58.472 Y74.401 E0.02287
G1 X44.099 Y60.028 E0.87446
G1 X44.179 Y60.839 E0.03506
G1 X57.661 Y74.321 E0.82026
G1 X56.85 Y74.241 E0.03506
G1 X44.259 Y61.65 E0.76607
G1 X44.334 Y62.417 E0.03316
G1 X44.351 Y62.474 E0.00256
G1 X56.026 Y74.149 E0.7103
G1 X54.977 Y73.831 E0.04717
G1 X44.669 Y63.523 E0.62712
G1 X44.987 Y64.572 E0.04717
G1 X53.928 Y73.513 E0.54393
M73 P8 R14
G1 X53.278 Y73.316 E0.02921
G1 X52.679 Y72.996 E0.0292
G1 X45.504 Y65.821 E0.43653
G1 X46.345 Y67.393 E0.07669
G1 X51.649 Y72.697 E0.32272
M204 S1500
G1 X49.309 Y70.574 F18000
M204 S1000
G1 X46.969 Y68.451
; custom gcode: feature_gcode
; External perimeter
;;GapFill
;SET_VELOCITY_LIMIT ACCEL=2000 ACCEL_TO_DECEL=2000 SQUARE_CORNER_VELOCITY=8

; Skirt
;
; custom gcode end: feature_gcode

;TYPE:Gap fill
;WIDTH:0.15492
G1 F1800
G1 X47.262 Y68.774 E0.00406
;WIDTH:0.204435
G1 X47.555 Y69.097 E0.00586
;WIDTH:0.253949
G1 X47.848 Y69.42 E0.00765
;WIDTH:0.303463
G1 X48.141 Y69.743 E0.00945
;WIDTH:0.352977
G1 X48.434 Y70.066 E0.01124
G1 X48.757 Y70.359 E0.01124
;WIDTH:0.303463
G1 X49.08 Y70.652 E0.00945
;WIDTH:0.253949
G1 X49.403 Y70.945 E0.00765
;WIDTH:0.204435
G1 X49.726 Y71.238 E0.00586
;WIDTH:0.15492
G1 X50.049 Y71.531 E0.00406
; INIT stop printing object dabge_gold(1).stl id:0 copy 0
M106 S84.15
;LAYER_CHANGE
;Z:0.4
;HEIGHT:0.2
; custom gcode: before_layer_gcode
;BEFORE_LAYER_CHANGE
;0.4

; custom gcode end: before_layer_gcode

; stop printing object dabge_gold(1).stl id:0 copy 0
M204 S3000
G1 Z0.4 F18000
; custom gcode: layer_gcode
;AFTER_LAYER_CHANGE
;0.4
; custom gcode end: layer_gcode

M104 S200 ; set temperature
; INIT printing object dabge_gold(1).stl id:0 copy 0
; printing object dabge_gold(1).stl id:0 copy 0
M204 S2000
G1 X50.252 Y72.59
; custom gcode: feature_gcode
; External perimeter
;;Perimeter
;SET_VELOCITY_LIMIT ACCEL=2000 ACCEL_TO_DECEL=2000 SQUARE_CORNER_VELOCITY=8

; Overhang perimeter
;
; custom gcode end: feature_gcode

;TYPE:Internal perimeter
;WIDTH:0.464
G1 F6000
G1 X47.867 Y70.633 E0.10803
G1 X45.91 Y68.248 E0.10803
G1 X44.453 Y65.525 E0.10812
G1 X43.558 Y62.571 E0.10806
G1 X43.256 Y59.499 E0.10809
G1 X43.558 Y56.429 E0.10802
G1 X44.453 Y53.475 E0.10806
G1 X45.91 Y50.752 E0.10812
G1 X47.867 Y48.367 E0.10803
G1 X50.252 Y46.41 E0.10803
G1 X52.975 Y44.953 E0.10812
G1 X55.929 Y44.058 E0.10806
G1 X59.001 Y43.756 E0.10809
G1 X62.071 Y44.058 E0.10802
G1 X65.025 Y44.953 E0.10806
G1 X67.748 Y46.41 E0.10812
G1 X70.133 Y48.367 E0.10803
G1 X72.09 Y50.752 E0.10803
G1 X73.547 Y53.475 E0.10812
G1 X74.442 Y56.429 E0.10806
G1 X74.744 Y59.499 E0.10802
G1 X74.442 Y62.571 E0.10809
G1 X73.547 Y65.525 E0.10806
G1 X72.09 Y68.248 E0.10812
G1 X70.133 Y70.633 E0.10803
G1 X67.748 Y72.59 E0.10803
G1 X65.025 Y74.047 E0.10812
G1 X62.071 Y74.942 E0.10806
G1 X59.001 Y75.244 E0.10802
G1 X55.929 Y74.942 E0.10809
G1 X52.975 Y74.047 E0.10806
G1 X50.305 Y72.619 E0.10602
G1 X50.106 Y72.99 F18000
G1 F6000
G1 X50.017 Y72.942 E0.00355
G1 X47.568 Y70.932 E0.11094
G1 X45.558 Y68.483 E0.11094
G1 X44.062 Y65.687 E0.11102
G1 X43.143 Y62.654 E0.11097
G1 X42.833 Y59.499 E0.11099
G1 X43.143 Y56.346 E0.11092
G1 X44.062 Y53.313 E0.11097
G1 X45.558 Y50.517 E0.11102
G1 X47.568 Y48.068 E0.11094
G1 X50.017 Y46.058 E0.11094
G1 X52.813 Y44.562 E0.11102
G1 X55.846 Y43.643 E0.11097
