; generated by SuperSlicer 2.3.57 on 2022-02-06 at 05:14:40 UTC


;
;

;
;
; TODO: check the size of the extruder and the y-bar clearance. Optimize & test supports.

; external perimeters extrusion width = 0.42mm
; perimeters extrusion width = 0.46mm
; infill extrusion width = 0.44mm
; solid infill extrusion width = 0.46mm
; top infill extrusion width = 0.44mm
; first layer extrusion width = 0.56mm

; object:{"name":"infillPercentage_split","id":"infillPercentage_split.stl id:0 copy 0","object_center":[60.000000,60.000000,0.000000],"boundingbox_center":[60.000000,60.000000,3.857143],"boundingbox_size":[90.000000,41.142857,7.714286]}
; plater:{"center":[60.000000,60.000000,0.000000],"boundingbox_center":[60.000000,60.000000,3.857143],"boundingbox_size":[90.000000,41.142857,7.714286]}

;TYPE:Custom
; M190 S0
; M109 S0 ; uncomment to remove set&wait temp gcode added automatically after this start gcode
print_start EXTRUDER=215 BED=55 CHAMBER=15
M107
G21 ; set units to millimeters
G90 ; use absolute coordinates
M83 ; use relative distances for extrusion
M104 S215 ; set temperature
M109 S215 ; set temperature and wait for it to be reached
M190 S55 ; set bed temperature and wait for it to be reached
M107
;LAYER_CHANGE
;Z:0.2
;HEIGHT:0.2
;BEFORE_LAYER_CHANGE
;0.2


G1 Z0.2 F18000
;AFTER_LAYER_CHANGE
;0.2
G1 E-2 F3000
G1 Z0.6 F18000
M204 S1500
G1 X9.045 Y30.571
G1 Z0.2
G1 E2 F1800
;TYPE:Skirt
;WIDTH:0.52
G1 X8.074 Y30.958 E0.04143
G1 X7.201 Y31.6 E0.04302
G1 X6.521 Y32.445 E0.04302
G1 X6.08 Y33.436 E0.04302
G1 X5.909 Y34.507 E0.04302
G1 X5.907 Y85.511 E2.0233
G1 X6.045 Y86.537 E0.04103
G1 X6.429 Y87.497 E0.04103
G1 X7.078 Y88.378 E0.04342
G1 X7.938 Y89.064 E0.04362
G1 X8.947 Y89.502 E0.04362
G1 X10.034 Y89.664 E0.04362
G1 X109.92 Y89.664 E3.96239
G1 X110.955 Y89.529 E0.04143
G1 X111.926 Y89.142 E0.04143
G1 X112.792 Y88.507 E0.04263
G1 X113.469 Y87.672 E0.04263
G1 X113.911 Y86.693 E0.04263
G1 X114.089 Y85.638 E0.04243
G1 X114.09 Y34.482 E2.02932
G1 X113.985 Y33.686 E0.03186
G1 X113.731 Y32.925 E0.03186
G1 X113.336 Y32.225 E0.03186
G1 X112.814 Y31.614 E0.03186
G1 X112.186 Y31.114 E0.03186
G1 X111.474 Y30.743 E0.03186
G1 X110.704 Y30.514 E0.03186
G1 X109.905 Y30.436 E0.03186
G1 X10.08 Y30.436 E3.95998
G1 X9.104 Y30.563 E0.03905
G1 X9.137 Y30.797 F18000
M204 S1000
G1 X9.169 Y31.031
G1 F1800
G1 X8.317 Y31.369 E0.03637
G1 X7.535 Y31.941 E0.03843
G1 X6.93 Y32.691 E0.03824
G1 X6.536 Y33.576 E0.03843
G1 X6.386 Y34.529 E0.03824
G1 X6.385 Y85.503 E2.02211
G1 X6.504 Y86.407 E0.03618
G1 X6.84 Y87.255 E0.03618
G1 X7.419 Y88.044 E0.0388
G1 X8.183 Y88.654 E0.0388
G1 X9.08 Y89.044 E0.0388
G1 X10.048 Y89.187 E0.0388
G1 X109.917 Y89.187 E3.96176
G1 X110.831 Y89.069 E0.03655
G1 X111.683 Y88.731 E0.03637
G1 X112.458 Y88.166 E0.03805
G1 X113.063 Y87.421 E0.03805
G1 X113.457 Y86.546 E0.03805
G1 X113.613 Y85.605 E0.03787
G1 X113.614 Y34.516 E2.02665
G1 X113.524 Y33.809 E0.02829
G1 X113.299 Y33.127 E0.02848
G1 X112.949 Y32.505 E0.02829
G1 X112.487 Y31.962 E0.02829
G1 X111.93 Y31.517 E0.02829
G1 X111.298 Y31.186 E0.02829
G1 X110.615 Y30.982 E0.02829
G1 X109.905 Y30.913 E0.02829
G1 X10.083 Y30.913 E3.95987
G1 X9.229 Y31.024 E0.03417
M204 S1500
G1 X9.261 Y31.258 F18000
M204 S1000
G1 X9.294 Y31.492
G1 F1800
G1 X8.555 Y31.782 E0.03149
G1 X7.87 Y32.28 E0.03359
G1 X7.338 Y32.938 E0.03359
G1 X6.994 Y33.712 E0.03359
G1 X6.862 Y34.553 E0.03376
G1 X6.862 Y85.495 E2.02082
G1 X6.963 Y86.277 E0.03132
G1 X7.254 Y87.016 E0.03149
G1 X7.758 Y87.708 E0.03394
G1 X8.425 Y88.243 E0.03394
G1 X9.209 Y88.585 E0.03394
G1 X10.06 Y88.71 E0.03411
G1 X109.914 Y88.71 E3.96115
G1 X110.706 Y88.608 E0.03167
G1 X111.445 Y88.318 E0.03149
G1 X112.123 Y87.826 E0.03324
G1 X112.655 Y87.173 E0.03341
G1 X113.001 Y86.405 E0.03341
G1 X113.137 Y85.574 E0.03341
G1 X113.137 Y34.539 E2.02452
G1 X113.06 Y33.918 E0.02483
G1 X112.866 Y33.327 E0.02465
G1 X112.56 Y32.781 E0.02483
G1 X112.158 Y32.307 E0.02465
G1 X111.673 Y31.918 E0.02465
G1 X111.123 Y31.63 E0.02465
G1 X110.527 Y31.451 E0.02465
G1 X109.904 Y31.39 E0.02483
G1 X10.086 Y31.39 E3.95974
G1 X9.354 Y31.484 E0.02929
G1 E-2 F3000
M204 S1500
G1 Z0.6 F18000
G1 X11.002 Y33.674
M204 S1000
G1 X12.65 Y35.863
G1 Z0.2
G1 E2 F1800
;WIDTH:0.56
G1 X14.17 Y35.233 E0.07076
G1 X105.83 Y35.233 E3.94095
G1 X107.35 Y35.863 E0.07076
G1 X108.665 Y37.178 E0.07996
G1 X109.295 Y38.699 E0.07076
G1 X109.295 Y81.401 E1.83602
G1 X108.665 Y82.922 E0.07076
G1 X107.35 Y84.237 E0.07996
G1 X105.83 Y84.867 E0.07076
G1 X14.17 Y84.867 E3.94095
G1 X12.65 Y84.237 E0.07076
G1 X11.335 Y82.922 E0.07996
G1 X10.705 Y81.401 E0.07076
G1 X10.705 Y38.699 E1.83602
G1 X11.335 Y37.178 E0.07076
G1 X12.607 Y35.906 E0.07738
M204 S1500
G1 X12.775 Y36.104 F18000
M204 S1000
G1 X12.943 Y36.302
G1 F1800
G1 X14.273 Y35.75 E0.06191
G1 X105.727 Y35.75 E3.9321
G1 X107.057 Y36.302 E0.06191
G1 X108.227 Y37.471 E0.07112
G1 X108.778 Y38.801 E0.06191
G1 X108.778 Y81.299 E1.82717
G1 X108.227 Y82.629 E0.06191
G1 X107.057 Y83.798 E0.07112
G1 X105.727 Y84.35 E0.06191
G1 X14.273 Y84.35 E3.9321
G1 X12.943 Y83.798 E0.06191
G1 X11.773 Y82.629 E0.07112
G1 X11.222 Y81.299 E0.06191
G1 X11.222 Y38.801 E1.82717
G1 X11.773 Y37.471 E0.06191
G1 X12.9 Y36.344 E0.06854
M204 S1500
G1 X13.068 Y36.542 F18000
M204 S1000
G1 X13.235 Y36.74
G1 F1800
G1 X14.376 Y36.268 E0.05307
G1 X105.624 Y36.268 E3.92326
G1 X106.765 Y36.74 E0.05307
G1 X107.789 Y37.764 E0.06228
G1 X108.261 Y38.904 E0.05307
G1 X108.261 Y81.196 E1.81833
G1 X107.789 Y82.336 E0.05307
G1 X106.765 Y83.36 E0.06228
G1 X105.624 Y83.832 E0.05307
G1 X14.376 Y83.832 E3.92326
G1 X13.235 Y83.36 E0.05307
G1 X12.211 Y82.336 E0.06228
G1 X11.739 Y81.196 E0.05307
G1 X11.739 Y38.904 E1.81833
G1 X12.211 Y37.764 E0.05307
G1 X13.193 Y36.782 E0.0597
M204 S1500
G1 X13.361 Y36.98 F18000
M204 S1000
G1 X13.528 Y37.178
G1 F1800
G1 X14.479 Y36.785 E0.04422
G1 X105.521 Y36.785 E3.91441
G1 X106.472 Y37.178 E0.04422
G1 X107.35 Y38.057 E0.05343
G1 X107.744 Y39.007 E0.04422
G1 X107.744 Y81.093 E1.80948
G1 X107.35 Y82.043 E0.04422
G1 X106.472 Y82.922 E0.05343
G1 X105.521 Y83.315 E0.04422
G1 X14.479 Y83.315 E3.91441
G1 X13.528 Y82.922 E0.04422
G1 X12.65 Y82.043 E0.05343
G1 X12.256 Y81.093 E0.04422
G1 X12.256 Y39.007 E1.80948
G1 X12.65 Y38.057 E0.04422
G1 X13.486 Y37.221 E0.05085
M204 S1500
G1 X13.654 Y37.419 F18000
M204 S1000
G1 X13.821 Y37.617
G1 F1800
G1 X14.581 Y37.302 E0.03538
G1 X105.419 Y37.302 E3.90557
G1 X106.179 Y37.617 E0.03538
G1 X106.912 Y38.35 E0.04459
G1 X107.227 Y39.11 E0.03538
G1 X107.227 Y80.99 E1.80064
G1 X106.912 Y81.75 E0.03538
G1 X106.179 Y82.483 E0.04459
G1 X105.419 Y82.798 E0.03538
G1 X14.581 Y82.798 E3.90557
G1 X13.821 Y82.483 E0.03538
G1 X13.088 Y81.75 E0.04459
G1 X12.773 Y80.99 E0.03538
G1 X12.773 Y39.11 E1.80064
G1 X13.088 Y38.35 E0.03538
G1 X13.779 Y37.659 E0.04201
M204 S1500
G1 X13.947 Y37.857 F18000
M204 S1000
G1 X14.114 Y38.055
G1 F1800
G1 X14.684 Y37.819 E0.02653
G1 X105.316 Y37.819 E3.89673
G1 X105.886 Y38.055 E0.02653
G1 X106.474 Y38.643 E0.03574
G1 X106.71 Y39.213 E0.02653
G1 X106.71 Y80.887 E1.7918
G1 X106.474 Y81.457 E0.02653
G1 X105.886 Y82.045 E0.03574
G1 X105.316 Y82.281 E0.02653
G1 X14.684 Y82.281 E3.89673
G1 X14.114 Y82.045 E0.02653
G1 X13.526 Y81.457 E0.03574
G1 X13.29 Y80.887 E0.02653
G1 X13.29 Y39.213 E1.7918
G1 X13.526 Y38.643 E0.02653
G1 X14.072 Y38.097 E0.03316
M204 S1500
G1 X14.239 Y38.295 F18000
M204 S1000
G1 X14.407 Y38.493
G1 F1800
G1 X14.787 Y38.336 E0.01769
G1 X105.213 Y38.336 E3.88788
G1 X105.593 Y38.493 E0.01769
G1 X106.035 Y38.936 E0.0269
G1 X106.193 Y39.316 E0.01769
G1 X106.193 Y80.784 E1.78295
G1 X106.035 Y81.164 E0.01769
G1 X105.593 Y81.607 E0.0269
G1 X105.213 Y81.764 E0.01769
G1 X14.787 Y81.764 E3.88788
G1 X14.407 Y81.607 E0.01769
G1 X13.965 Y81.164 E0.0269
G1 X13.807 Y80.784 E0.01769
G1 X13.807 Y39.316 E1.78295
G1 X13.965 Y38.936 E0.01769
G1 X14.365 Y38.536 E0.02432
M204 S1500
G1 X14.532 Y38.734 F18000
M204 S1000
G1 X14.7 Y38.932
G1 F1800
G1 X14.89 Y38.853 E0.00884
G1 X105.11 Y38.853 E3.87904
G1 X105.3 Y38.932 E0.00884
G1 X105.597 Y39.229 E0.01805
G1 X105.676 Y39.419 E0.00884
G1 X105.676 Y80.681 E1.77411
G1 X105.597 Y80.871 E0.00884
G1 X105.3 Y81.168 E0.01805
G1 X105.11 Y81.247 E0.00884
G1 X14.89 Y81.247 E3.87904
G1 X14.7 Y81.168 E0.00884
G1 X14.403 Y80.871 E0.01805
G1 X14.324 Y80.681 E0.00884
G1 X14.324 Y39.419 E1.77411
G1 X14.403 Y39.229 E0.00884
G1 X14.658 Y38.974 E0.01547
M204 S1500
G1 X14.825 Y39.172 F18000
M204 S1000
G1 X14.993 Y39.37
G1 F1800
G1 X105.007 Y39.37 E3.87019
G1 X105.159 Y39.521 E0.00921
G1 X105.159 Y80.579 E1.76526
G1 X105.007 Y80.73 E0.00921
G1 X14.993 Y80.73 E3.87019
G1 X14.841 Y80.579 E0.00921
G1 X14.841 Y39.521 E1.76526
G1 X14.95 Y39.412 E0.00663
; INIT printing object infillPercentage_split.stl id:0 copy 0
; printing object infillPercentage_split.stl id:0 copy 0
M204 S1500
G1 X15.165 Y39.661 F18000
M204 S1000
G1 X15.38 Y39.909
;TYPE:External perimeter
G1 F1800
G1 X104.62 Y39.909 E3.8369
G1 X104.62 Y80.191 E1.73198
G1 X15.38 Y80.191 E3.8369
G1 X15.38 Y39.969 E1.7294
;WIPE_START
M204 S1500
G1 X15.726 Y40.109 F18000
;WIPE_END
G1 X15.812 Y40.267
M204 S1000
G1 X15.897 Y40.426
;TYPE:Internal perimeter
G1 F1800
G1 X104.103 Y40.426 E3.79244
G1 X104.103 Y79.674 E1.68751
G1 X15.897 Y79.674 E3.79244
G1 X15.897 Y40.486 E1.68493
M204 S1500
G1 X16.156 Y40.714 F18000
M204 S1000
G1 X16.414 Y40.943
G1 F1800
G1 X103.586 Y40.943 E3.74798
G1 X103.586 Y79.157 E1.64305
G1 X16.414 Y79.157 E3.74798
G1 X16.414 Y41.003 E1.64047
M204 S1500
G1 X59.387 Y41.063 F18000
M204 S1000
G1 X102.36 Y41.124
;TYPE:Solid infill
;WIDTH:0.559789
G1 F1800
G1 X103.183 Y41.947 E0.05002
G1 X103.183 Y42.678 E0.03143
G1 X101.851 Y41.346 E0.08095
G1 X101.119 Y41.346 E0.03143
G1 X103.183 Y43.409 E0.1254
G1 X103.183 Y44.14 E0.03143
G1 X100.388 Y41.346 E0.16985
G1 X99.657 Y41.346 E0.03143
G1 X103.183 Y44.872 E0.21429
G1 X103.183 Y45.603 E0.03143
G1 X98.926 Y41.346 E0.25874
G1 X98.194 Y41.346 E0.03143
G1 X103.183 Y46.334 E0.30319
G1 X103.183 Y47.065 E0.03143
G1 X97.463 Y41.346 E0.34763
G1 X96.732 Y41.346 E0.03143
G1 X103.183 Y47.797 E0.39208
G1 X103.183 Y48.528 E0.03143
G1 X96.001 Y41.346 E0.43653
G1 X95.269 Y41.346 E0.03143
G1 X103.183 Y49.259 E0.48098
G1 X103.183 Y49.99 E0.03143
G1 X94.538 Y41.346 E0.52542
G1 X93.807 Y41.346 E0.03143
G1 X103.183 Y50.722 E0.56987
G1 X103.183 Y51.453 E0.03143
G1 X93.076 Y41.346 E0.61432
G1 X92.344 Y41.346 E0.03143
G1 X103.183 Y52.184 E0.65876
G1 X103.183 Y52.915 E0.03143
G1 X91.613 Y41.346 E0.70321
G1 X90.882 Y41.346 E0.03143
G1 X103.183 Y53.647 E0.74766
G1 X103.183 Y54.378 E0.03143
G1 X90.151 Y41.346 E0.79211
G1 X89.419 Y41.346 E0.03143
G1 X103.183 Y55.109 E0.83655
G1 X103.183 Y55.841 E0.03143
G1 X88.688 Y41.346 E0.881
G1 X87.957 Y41.346 E0.03143
G1 X103.183 Y56.572 E0.92545
G1 X103.183 Y57.303 E0.03143
G1 X87.226 Y41.346 E0.9699
G1 X86.494 Y41.346 E0.03143
G1 X103.183 Y58.034 E1.01434
G1 X103.183 Y58.766 E0.03143
G1 X85.763 Y41.346 E1.05879
G1 X85.032 Y41.346 E0.03143
G1 X103.183 Y59.497 E1.10324
G1 X103.183 Y60.228 E0.03143
G1 X84.3 Y41.346 E1.14768
G1 X83.569 Y41.346 E0.03143
G1 X103.183 Y60.959 E1.19213
G1 X103.183 Y61.691 E0.03143
G1 X82.838 Y41.346 E1.23658
G1 X82.107 Y41.346 E0.03143
G1 X103.183 Y62.422 E1.28103
G1 X103.183 Y63.153 E0.03143
G1 X81.375 Y41.346 E1.32547
G1 X80.644 Y41.346 E0.03143
G1 X103.183 Y63.884 E1.36992
G1 X103.183 Y64.616 E0.03143
G1 X79.913 Y41.346 E1.41437
G1 X79.182 Y41.346 E0.03143
G1 X103.183 Y65.347 E1.45882
G1 X103.183 Y66.078 E0.03143
G1 X78.45 Y41.346 E1.50326
G1 X77.719 Y41.346 E0.03143
G1 X103.183 Y66.809 E1.54771
G1 X103.183 Y67.541 E0.03143
G1 X76.988 Y41.346 E1.59216
G1 X76.257 Y41.346 E0.03143
G1 X103.183 Y68.272 E1.6366
G1 X103.183 Y69.003 E0.03143
G1 X75.525 Y41.346 E1.68105
G1 X74.794 Y41.346 E0.03143
G1 X103.183 Y69.734 E1.7255
G1 X103.183 Y70.466 E0.03143
G1 X74.063 Y41.346 E1.76995
G1 X73.332 Y41.346 E0.03143
G1 X103.183 Y71.197 E1.81439
G1 X103.183 Y71.928 E0.03143
G1 X72.6 Y41.346 E1.85884
G1 X71.869 Y41.346 E0.03143
G1 X103.183 Y72.66 E1.90329
G1 X103.183 Y73.391 E0.03143
G1 X71.138 Y41.346 E1.94774
G1 X70.407 Y41.346 E0.03143
G1 X103.183 Y74.122 E1.99218
G1 X103.183 Y74.853 E0.03143
G1 X69.675 Y41.346 E2.03663
G1 X68.944 Y41.346 E0.03143
G1 X103.183 Y75.585 E2.08108
G1 X103.183 Y76.316 E0.03143
G1 X68.213 Y41.346 E2.12552
G1 X67.481 Y41.346 E0.03143
G1 X103.183 Y77.047 E2.16997
G1 X103.183 Y77.778 E0.03143
G1 X66.75 Y41.346 E2.21442
G1 X66.019 Y41.346 E0.03143
G1 X103.183 Y78.51 E2.25887
G1 X103.183 Y78.754 E0.0105
G1 X102.696 Y78.754 E0.02093
G1 X65.288 Y41.346 E2.27372
G1 X64.556 Y41.346 E0.03143
G1 X101.964 Y78.754 E2.27372
G1 X101.233 Y78.754 E0.03143
G1 X63.825 Y41.346 E2.27372
G1 X63.094 Y41.346 E0.03143
G1 X100.502 Y78.754 E2.27372
G1 X99.771 Y78.754 E0.03143
G1 X62.363 Y41.346 E2.27372
G1 X61.631 Y41.346 E0.03143
G1 X99.039 Y78.754 E2.27372
G1 X98.308 Y78.754 E0.03143
G1 X60.9 Y41.346 E2.27372
G1 X60.169 Y41.346 E0.03143
G1 X97.577 Y78.754 E2.27372
G1 X96.846 Y78.754 E0.03143
G1 X59.438 Y41.346 E2.27372
G1 X58.706 Y41.346 E0.03143
G1 X96.114 Y78.754 E2.27372
G1 X95.383 Y78.754 E0.03143
G1 X57.975 Y41.346 E2.27372
G1 X57.244 Y41.346 E0.03143
G1 X94.652 Y78.754 E2.27372
G1 X93.921 Y78.754 E0.03143
G1 X56.513 Y41.346 E2.27372
G1 X55.781 Y41.346 E0.03143
G1 X93.189 Y78.754 E2.27372
G1 X92.458 Y78.754 E0.03143
G1 X55.05 Y41.346 E2.27372
G1 X54.319 Y41.346 E0.03143
G1 X91.727 Y78.754 E2.27372
G1 X90.995 Y78.754 E0.03143
G1 X53.588 Y41.346 E2.27372
G1 X52.856 Y41.346 E0.03143
G1 X90.264 Y78.754 E2.27372
G1 X89.533 Y78.754 E0.03143
G1 X52.125 Y41.346 E2.27372
G1 X51.394 Y41.346 E0.03143
G1 X88.802 Y78.754 E2.27372
G1 X88.07 Y78.754 E0.03143
G1 X50.663 Y41.346 E2.27372
G1 X49.931 Y41.346 E0.03143
G1 X87.339 Y78.754 E2.27372
G1 X86.608 Y78.754 E0.03143
G1 X49.2 Y41.346 E2.27372
G1 X48.469 Y41.346 E0.03143
G1 X85.877 Y78.754 E2.27372
G1 X85.145 Y78.754 E0.03143
G1 X47.737 Y41.346 E2.27372
G1 X47.006 Y41.346 E0.03143
G1 X84.414 Y78.754 E2.27372
G1 X83.683 Y78.754 E0.03143
G1 X46.275 Y41.346 E2.27372
G1 X45.544 Y41.346 E0.03143
G1 X82.952 Y78.754 E2.27372
G1 X82.22 Y78.754 E0.03143
G1 X44.812 Y41.346 E2.27372
G1 X44.081 Y41.346 E0.03143
G1 X81.489 Y78.754 E2.27372
G1 X80.758 Y78.754 E0.03143
G1 X43.35 Y41.346 E2.27372
G1 X42.619 Y41.346 E0.03143
G1 X80.027 Y78.754 E2.27372
G1 X79.295 Y78.754 E0.03143
G1 X41.887 Y41.346 E2.27372
G1 X41.156 Y41.346 E0.03143
G1 X78.564 Y78.754 E2.27372
G1 X77.833 Y78.754 E0.03143
G1 X40.425 Y41.346 E2.27372
G1 X39.694 Y41.346 E0.03143
G1 X77.102 Y78.754 E2.27372
G1 X76.37 Y78.754 E0.03143
G1 X38.962 Y41.346 E2.27372
G1 X38.231 Y41.346 E0.03143
G1 X75.639 Y78.754 E2.27372
G1 X74.908 Y78.754 E0.03143
G1 X37.5 Y41.346 E2.27372
G1 X36.769 Y41.346 E0.03143
G1 X74.176 Y78.754 E2.27372
G1 X73.445 Y78.754 E0.03143
G1 X36.037 Y41.346 E2.27372
G1 X35.306 Y41.346 E0.03143
G1 X72.714 Y78.754 E2.27372
G1 X71.983 Y78.754 E0.03143
G1 X34.575 Y41.346 E2.27372
G1 X33.844 Y41.346 E0.03143
G1 X71.251 Y78.754 E2.27372
G1 X70.52 Y78.754 E0.03143
G1 X33.112 Y41.346 E2.27372
G1 X32.381 Y41.346 E0.03143
G1 X69.789 Y78.754 E2.27372
G1 X69.058 Y78.754 E0.03143
G1 X31.65 Y41.346 E2.27372
G1 X30.918 Y41.346 E0.03143
G1 X68.326 Y78.754 E2.27372
G1 X67.595 Y78.754 E0.03143
G1 X30.187 Y41.346 E2.27372
G1 X29.456 Y41.346 E0.03143
G1 X66.864 Y78.754 E2.27372
G1 X66.133 Y78.754 E0.03143
G1 X28.725 Y41.346 E2.27372
G1 X27.993 Y41.346 E0.03143
G1 X65.401 Y78.754 E2.27372
G1 X64.67 Y78.754 E0.03143
G1 X27.262 Y41.346 E2.27372
G1 X26.531 Y41.346 E0.03143
G1 X63.939 Y78.754 E2.27372
G1 X63.208 Y78.754 E0.03143
G1 X25.8 Y41.346 E2.27372
G1 X25.068 Y41.346 E0.03143
G1 X62.476 Y78.754 E2.27372
G1 X61.745 Y78.754 E0.03143
G1 X24.337 Y41.346 E2.27372
G1 X23.606 Y41.346 E0.03143
G1 X61.014 Y78.754 E2.27372
G1 X60.283 Y78.754 E0.03143
G1 X22.875 Y41.346 E2.27372
G1 X22.143 Y41.346 E0.03143
G1 X59.551 Y78.754 E2.27372
G1 X58.82 Y78.754 E0.03143
G1 X21.412 Y41.346 E2.27372
G1 X20.681 Y41.346 E0.03143
G1 X58.089 Y78.754 E2.27372
G1 X57.358 Y78.754 E0.03143
G1 X19.95 Y41.346 E2.27372
G1 X19.218 Y41.346 E0.03143
G1 X56.626 Y78.754 E2.27372
G1 X55.895 Y78.754 E0.03143
