; generated by SuperSlicer 2.3.57 on 2022-02-06 at 04:01:17 UTC


;
;

;
;
; TODO: check the size of the extruder and the y-bar clearance. Optimize & test supports.

; external perimeters extrusion width = 0.43mm
; perimeters extrusion width = 0.48mm
; infill extrusion width = 0.44mm
; solid infill extrusion width = 0.48mm
; top infill extrusion width = 0.46mm
; first layer extrusion width = 0.56mm

; object:{"name":"infillPercentage_split","id":"infillPercentage_split.stl id:0 copy 0","object_center":[60.000000,60.000000,0.000000],"boundingbox_center":[60.000000,60.000000,3.750000],"boundingbox_size":[87.500000,40.000000,7.500000]}
; plater:{"center":[60.000000,60.000000,0.000000],"boundingbox_center":[60.000000,60.000000,3.750000],"boundingbox_size":[87.500000,40.000000,7.500000]}

;TYPE:Custom
; M190 S0
; M109 S0 ; uncomment to remove set&wait temp gcode added automatically after this start gcode
print_start EXTRUDER=210 BED=60 CHAMBER=15
M107
G21 ; set units to millimeters
G90 ; use absolute coordinates
M83 ; use relative distances for extrusion
M104 S210 ; set temperature
M109 S210 ; set temperature and wait for it to be reached
M190 S60 ; set bed temperature and wait for it to be reached
;LAYER_CHANGE
;Z:0.2
;HEIGHT:0.2
;BEFORE_LAYER_CHANGE
;0.2


G1 Z0.2 F18000
;AFTER_LAYER_CHANGE
;0.2
G1 E-2 F3000
G1 Z0.6 F18000
M204 S1500
G1 X10.29 Y31.144
G1 Z0.2
G1 E2 F1800
;TYPE:Skirt
;WIDTH:0.52
G1 X11.325 Y31.007 E0.04143
G1 X108.655 Y31.007 E3.86101
G1 X109.454 Y31.085 E0.03186
G1 X110.224 Y31.314 E0.03186
G1 X110.936 Y31.685 E0.03186
G1 X111.564 Y32.186 E0.03186
G1 X112.086 Y32.797 E0.03186
G1 X112.481 Y33.496 E0.03186
G1 X112.735 Y34.258 E0.03186
G1 X112.84 Y35.054 E0.03186
G1 X112.839 Y85.067 E1.98398
G1 X112.661 Y86.121 E0.04243
G1 X112.219 Y87.101 E0.04263
G1 X111.542 Y87.936 E0.04263
G1 X110.68 Y88.568 E0.04243
G1 X109.71 Y88.956 E0.04143
G1 X108.675 Y89.093 E0.04143
G1 X11.284 Y89.092 E3.86342
G1 X10.201 Y88.932 E0.04342
G1 X9.192 Y88.495 E0.04362
G1 X8.335 Y87.814 E0.04342
G1 X7.682 Y86.93 E0.04362
G1 X7.295 Y85.965 E0.04123
G1 X7.157 Y84.94 E0.04103
G1 X7.159 Y35.074 E1.97817
G1 X7.33 Y34.008 E0.04283
G1 X7.771 Y33.017 E0.04302
G1 X8.447 Y32.175 E0.04283
G1 X9.32 Y31.532 E0.04302
G1 X10.234 Y31.166 E0.03905
G1 X10.321 Y31.386 F18000
M204 S1000
G1 X10.409 Y31.607
G1 F1800
G1 X11.333 Y31.484 E0.03697
G1 X108.655 Y31.484 E3.86069
G1 X109.365 Y31.554 E0.02829
G1 X110.048 Y31.757 E0.02829
G1 X110.68 Y32.088 E0.02829
G1 X111.237 Y32.533 E0.02829
G1 X111.699 Y33.077 E0.02829
G1 X112.049 Y33.698 E0.02829
G1 X112.273 Y34.375 E0.02829
G1 X112.364 Y35.083 E0.02829
G1 X112.363 Y85.033 E1.9815
G1 X112.207 Y85.975 E0.03787
G1 X111.813 Y86.85 E0.03805
G1 X111.208 Y87.594 E0.03805
G1 X110.438 Y88.157 E0.03787
G1 X109.581 Y88.497 E0.03655
G1 X108.667 Y88.616 E0.03655
G1 X11.298 Y88.615 E3.86258
G1 X10.334 Y88.474 E0.03862
G1 X9.437 Y88.085 E0.0388
G1 X8.672 Y87.476 E0.0388
G1 X8.093 Y86.688 E0.0388
G1 X7.755 Y85.84 E0.03618
G1 X7.635 Y84.931 E0.03637
G1 X7.636 Y35.1 E1.97678
G1 X7.786 Y34.148 E0.03824
G1 X8.177 Y33.267 E0.03824
G1 X8.781 Y32.515 E0.03824
G1 X9.562 Y31.943 E0.03843
G1 X10.353 Y31.629 E0.03374
M204 S1500
G1 X10.44 Y31.85 F18000
M204 S1000
G1 X10.527 Y32.07
G1 F1800
G1 X10.544 Y32.063 E0.00073
G1 X11.336 Y31.961 E0.03167
G1 X108.654 Y31.961 E3.86057
G1 X109.277 Y32.023 E0.02483
G1 X109.873 Y32.201 E0.02465
G1 X110.423 Y32.49 E0.02465
G1 X110.908 Y32.878 E0.02465
G1 X111.31 Y33.353 E0.02465
G1 X111.616 Y33.899 E0.02483
G1 X111.81 Y34.489 E0.02465
G1 X111.887 Y35.11 E0.02483
G1 X111.887 Y85.002 E1.97918
G1 X111.752 Y85.829 E0.03324
G1 X111.408 Y86.598 E0.03341
G1 X110.877 Y87.252 E0.03341
G1 X110.199 Y87.744 E0.03324
G1 X109.456 Y88.037 E0.03167
G1 X108.664 Y88.139 E0.03167
G1 X11.31 Y88.138 E3.86198
G1 X10.463 Y88.015 E0.03394
G1 X9.679 Y87.674 E0.03394
G1 X9.011 Y87.139 E0.03394
G1 X8.506 Y86.449 E0.03394
G1 X8.214 Y85.71 E0.03149
G1 X8.112 Y84.923 E0.03149
G1 X8.112 Y35.124 E1.97548
G1 X8.243 Y34.288 E0.03359
G1 X8.585 Y33.513 E0.03359
G1 X9.117 Y32.854 E0.03359
G1 X9.801 Y32.356 E0.03359
G1 X10.471 Y32.092 E0.02855
G1 E-2 F3000
M204 S1500
G1 Z0.6 F18000
G1 X12.185 Y34.263
M204 S1000
G1 X13.9 Y36.435
G1 Z0.2
G1 E2 F1800
;WIDTH:0.56
G1 X15.42 Y35.805 E0.07076
G1 X104.58 Y35.805 E3.83346
G1 X106.1 Y36.435 E0.07076
G1 X107.415 Y37.75 E0.07996
G1 X108.045 Y39.27 E0.07076
G1 X108.045 Y80.83 E1.78688
G1 X107.415 Y82.35 E0.07076
G1 X106.1 Y83.665 E0.07996
G1 X104.58 Y84.295 E0.07076
G1 X15.42 Y84.295 E3.83346
G1 X13.9 Y83.665 E0.07076
G1 X12.585 Y82.35 E0.07996
G1 X11.955 Y80.83 E0.07076
G1 X11.955 Y39.27 E1.78688
G1 X12.585 Y37.75 E0.07076
G1 X13.857 Y36.477 E0.07738
M204 S1500
G1 X14.025 Y36.675 F18000
M204 S1000
G1 X14.193 Y36.873
G1 F1800
G1 X15.523 Y36.322 E0.06191
G1 X104.477 Y36.322 E3.82461
G1 X105.807 Y36.873 E0.06191
G1 X106.977 Y38.043 E0.07112
G1 X107.528 Y39.373 E0.06191
G1 X107.528 Y80.727 E1.77804
G1 X106.977 Y82.057 E0.06191
G1 X105.807 Y83.227 E0.07112
G1 X104.477 Y83.778 E0.06191
G1 X15.523 Y83.778 E3.82461
G1 X14.193 Y83.227 E0.06191
G1 X13.023 Y82.057 E0.07112
G1 X12.472 Y80.727 E0.06191
G1 X12.472 Y39.373 E1.77804
G1 X13.023 Y38.043 E0.06191
G1 X14.15 Y36.915 E0.06854
M204 S1500
G1 X14.318 Y37.113 F18000
M204 S1000
G1 X14.485 Y37.311
G1 F1800
G1 X15.626 Y36.839 E0.05307
G1 X104.374 Y36.839 E3.81577
G1 X105.515 Y37.311 E0.05307
G1 X106.539 Y38.335 E0.06228
G1 X107.011 Y39.476 E0.05307
G1 X107.011 Y80.624 E1.76919
G1 X106.539 Y81.765 E0.05307
G1 X105.515 Y82.789 E0.06228
G1 X104.374 Y83.261 E0.05307
G1 X15.626 Y83.261 E3.81577
G1 X14.485 Y82.789 E0.05307
G1 X13.461 Y81.765 E0.06228
G1 X12.989 Y80.624 E0.05307
G1 X12.989 Y39.476 E1.76919
G1 X13.461 Y38.335 E0.05307
G1 X14.443 Y37.354 E0.0597
M204 S1500
G1 X14.611 Y37.552 F18000
M204 S1000
G1 X14.778 Y37.75
G1 F1800
G1 X15.729 Y37.356 E0.04422
G1 X104.271 Y37.356 E3.80693
G1 X105.222 Y37.75 E0.04422
G1 X106.1 Y38.628 E0.05343
G1 X106.494 Y39.579 E0.04422
G1 X106.494 Y80.521 E1.76035
G1 X106.1 Y81.472 E0.04422
G1 X105.222 Y82.35 E0.05343
G1 X104.271 Y82.744 E0.04422
G1 X15.729 Y82.744 E3.80693
G1 X14.778 Y82.35 E0.04422
G1 X13.9 Y81.472 E0.05343
G1 X13.506 Y80.521 E0.04422
G1 X13.506 Y39.579 E1.76035
G1 X13.9 Y38.628 E0.04422
G1 X14.736 Y37.792 E0.05085
M204 S1500
G1 X14.904 Y37.99 F18000
M204 S1000
G1 X15.071 Y38.188
G1 F1800
G1 X15.831 Y37.873 E0.03538
G1 X104.169 Y37.873 E3.79808
G1 X104.929 Y38.188 E0.03538
G1 X105.662 Y38.921 E0.04459
G1 X105.977 Y39.681 E0.03538
G1 X105.977 Y80.419 E1.7515
G1 X105.662 Y81.179 E0.03538
G1 X104.929 Y81.912 E0.04459
G1 X104.169 Y82.227 E0.03538
G1 X15.831 Y82.227 E3.79808
G1 X15.071 Y81.912 E0.03538
G1 X14.338 Y81.179 E0.04459
G1 X14.023 Y80.419 E0.03538
G1 X14.023 Y39.681 E1.7515
G1 X14.338 Y38.921 E0.03538
G1 X15.029 Y38.23 E0.04201
M204 S1500
G1 X15.197 Y38.428 F18000
M204 S1000
G1 X15.364 Y38.626
G1 F1800
G1 X15.934 Y38.39 E0.02653
G1 X104.066 Y38.39 E3.78924
G1 X104.636 Y38.626 E0.02653
G1 X105.224 Y39.214 E0.03574
G1 X105.46 Y39.784 E0.02653
G1 X105.46 Y80.316 E1.74266
G1 X105.224 Y80.886 E0.02653
G1 X104.636 Y81.474 E0.03574
G1 X104.066 Y81.71 E0.02653
G1 X15.934 Y81.71 E3.78924
G1 X15.364 Y81.474 E0.02653
G1 X14.776 Y80.886 E0.03574
G1 X14.54 Y80.316 E0.02653
G1 X14.54 Y39.784 E1.74266
G1 X14.776 Y39.214 E0.02653
G1 X15.322 Y38.669 E0.03316
M204 S1500
G1 X15.489 Y38.867 F18000
M204 S1000
G1 X15.657 Y39.065
G1 F1800
G1 X16.037 Y38.907 E0.01769
G1 X103.963 Y38.907 E3.78039
G1 X104.343 Y39.065 E0.01769
G1 X104.785 Y39.507 E0.0269
G1 X104.943 Y39.887 E0.01769
G1 X104.943 Y80.213 E1.73381
G1 X104.785 Y80.593 E0.01769
G1 X104.343 Y81.035 E0.0269
G1 X103.963 Y81.193 E0.01769
G1 X16.037 Y81.193 E3.78039
G1 X15.657 Y81.035 E0.01769
G1 X15.215 Y80.593 E0.0269
G1 X15.057 Y80.213 E0.01769
G1 X15.057 Y39.887 E1.73381
G1 X15.215 Y39.507 E0.01769
G1 X15.615 Y39.107 E0.02432
M204 S1500
G1 X15.782 Y39.305 F18000
M204 S1000
G1 X15.95 Y39.503
G1 F1800
G1 X16.14 Y39.424 E0.00884
G1 X103.86 Y39.424 E3.77155
G1 X104.05 Y39.503 E0.00884
G1 X104.347 Y39.8 E0.01805
G1 X104.426 Y39.99 E0.00884
G1 X104.426 Y80.11 E1.72497
G1 X104.347 Y80.3 E0.00884
G1 X104.05 Y80.597 E0.01805
G1 X103.86 Y80.676 E0.00884
G1 X16.14 Y80.676 E3.77155
G1 X15.95 Y80.597 E0.00884
G1 X15.653 Y80.3 E0.01805
G1 X15.574 Y80.11 E0.00884
G1 X15.574 Y39.99 E1.72497
G1 X15.653 Y39.8 E0.00884
G1 X15.908 Y39.546 E0.01547
M204 S1500
G1 X16.075 Y39.743 F18000
M204 S1000
G1 X16.243 Y39.941
G1 F1800
G1 X103.757 Y39.941 E3.7627
G1 X103.909 Y40.093 E0.00921
G1 X103.909 Y80.007 E1.71612
G1 X103.757 Y80.159 E0.00921
G1 X16.243 Y80.159 E3.7627
G1 X16.091 Y80.007 E0.00921
G1 X16.091 Y40.093 E1.71612
G1 X16.2 Y39.984 E0.00663
; INIT printing object infillPercentage_split.stl id:0 copy 0
; printing object infillPercentage_split.stl id:0 copy 0
M204 S1500
G1 X16.415 Y40.232 F18000
M204 S1000
G1 X16.63 Y40.48
;TYPE:External perimeter
G1 F1800
G1 X103.37 Y40.48 E3.72942
G1 X103.37 Y79.62 E1.68284
G1 X16.63 Y79.62 E3.72942
G1 X16.63 Y40.54 E1.68026
;WIPE_START
M204 S1500
G1 X16.63 Y40.48 F18000
;WIPE_END
G1 E-2 F3000
G1 Z0.6 F18000
G1 X59.387 Y40.57
M204 S1000
G1 X102.144 Y40.661
G1 Z0.2
G1 E2 F1800
;TYPE:Solid infill
;WIDTH:0.55978
G1 X102.967 Y41.484 E0.05002
G1 X102.967 Y42.215 E0.03143
G1 X101.635 Y40.883 E0.08095
G1 X100.904 Y40.883 E0.03143
G1 X102.967 Y42.946 E0.1254
G1 X102.967 Y43.678 E0.03143
G1 X100.172 Y40.883 E0.16984
G1 X99.441 Y40.883 E0.03143
G1 X102.967 Y44.409 E0.21429
G1 X102.967 Y45.14 E0.03143
G1 X98.71 Y40.883 E0.25874
G1 X97.979 Y40.883 E0.03143
G1 X102.967 Y45.871 E0.30318
G1 X102.967 Y46.603 E0.03143
G1 X97.247 Y40.883 E0.34763
G1 X96.516 Y40.883 E0.03143
G1 X102.967 Y47.334 E0.39207
G1 X102.967 Y48.065 E0.03143
G1 X95.785 Y40.883 E0.43652
G1 X95.054 Y40.883 E0.03143
G1 X102.967 Y48.796 E0.48097
G1 X102.967 Y49.528 E0.03143
G1 X94.322 Y40.883 E0.52541
G1 X93.591 Y40.883 E0.03143
G1 X102.967 Y50.259 E0.56986
G1 X102.967 Y50.99 E0.03143
G1 X92.86 Y40.883 E0.61431
G1 X92.128 Y40.883 E0.03143
G1 X102.967 Y51.722 E0.65875
G1 X102.967 Y52.453 E0.03143
G1 X91.397 Y40.883 E0.7032
G1 X90.666 Y40.883 E0.03143
G1 X102.967 Y53.184 E0.74765
G1 X102.967 Y53.915 E0.03143
G1 X89.935 Y40.883 E0.79209
G1 X89.203 Y40.883 E0.03143
G1 X102.967 Y54.647 E0.83654
G1 X102.967 Y55.378 E0.03143
G1 X88.472 Y40.883 E0.88099
G1 X87.741 Y40.883 E0.03143
G1 X102.967 Y56.109 E0.92543
G1 X102.967 Y56.84 E0.03143
G1 X87.01 Y40.883 E0.96988
G1 X86.278 Y40.883 E0.03143
G1 X102.967 Y57.572 E1.01433
G1 X102.967 Y58.303 E0.03143
G1 X85.547 Y40.883 E1.05877
G1 X84.816 Y40.883 E0.03143
G1 X102.967 Y59.034 E1.10322
G1 X102.967 Y59.765 E0.03143
G1 X84.085 Y40.883 E1.14766
G1 X83.353 Y40.883 E0.03143
G1 X102.967 Y60.497 E1.19211
G1 X102.967 Y61.228 E0.03143
G1 X82.622 Y40.883 E1.23656
G1 X81.891 Y40.883 E0.03143
G1 X102.967 Y61.959 E1.281
G1 X102.967 Y62.69 E0.03143
G1 X81.16 Y40.883 E1.32545
G1 X80.428 Y40.883 E0.03143
G1 X102.967 Y63.422 E1.3699
G1 X102.967 Y64.153 E0.03143
G1 X79.697 Y40.883 E1.41434
G1 X78.966 Y40.883 E0.03143
G1 X102.967 Y64.884 E1.45879
G1 X102.967 Y65.615 E0.03143
G1 X78.235 Y40.883 E1.50324
G1 X77.503 Y40.883 E0.03143
G1 X102.967 Y66.347 E1.54768
G1 X102.967 Y67.078 E0.03143
G1 X76.772 Y40.883 E1.59213
G1 X76.041 Y40.883 E0.03143
G1 X102.967 Y67.809 E1.63658
G1 X102.967 Y68.54 E0.03143
G1 X75.31 Y40.883 E1.68102
G1 X74.578 Y40.883 E0.03143
G1 X102.967 Y69.272 E1.72547
G1 X102.967 Y70.003 E0.03143
G1 X73.847 Y40.883 E1.76992
G1 X73.116 Y40.883 E0.03143
G1 X102.967 Y70.734 E1.81436
G1 X102.967 Y71.466 E0.03143
G1 X72.384 Y40.883 E1.85881
G1 X71.653 Y40.883 E0.03143
G1 X102.967 Y72.197 E1.90325
G1 X102.967 Y72.928 E0.03143
G1 X70.922 Y40.883 E1.9477
G1 X70.191 Y40.883 E0.03143
G1 X102.967 Y73.659 E1.99215
G1 X102.967 Y74.391 E0.03143
G1 X69.459 Y40.883 E2.03659
G1 X68.728 Y40.883 E0.03143
G1 X102.967 Y75.122 E2.08104
G1 X102.967 Y75.853 E0.03143
G1 X67.997 Y40.883 E2.12549
G1 X67.266 Y40.883 E0.03143
G1 X102.967 Y76.584 E2.16993
G1 X102.967 Y77.316 E0.03143
G1 X66.534 Y40.883 E2.21438
G1 X65.803 Y40.883 E0.03143
G1 X102.967 Y78.047 E2.25883
G1 X102.967 Y78.778 E0.03143
G1 X65.072 Y40.883 E2.30327
G1 X64.341 Y40.883 E0.03143
G1 X102.674 Y79.217 E2.32993
G1 X101.943 Y79.217 E0.03143
G1 X63.609 Y40.883 E2.32993
G1 X62.878 Y40.883 E0.03143
G1 X101.211 Y79.217 E2.32993
G1 X100.48 Y79.217 E0.03143
G1 X62.147 Y40.883 E2.32993
G1 X61.416 Y40.883 E0.03143
G1 X99.749 Y79.217 E2.32993
G1 X99.018 Y79.217 E0.03143
G1 X60.684 Y40.883 E2.32993
G1 X59.953 Y40.883 E0.03143
G1 X98.286 Y79.217 E2.32993
G1 X97.555 Y79.217 E0.03143
G1 X59.222 Y40.883 E2.32993
G1 X58.491 Y40.883 E0.03143
G1 X96.824 Y79.217 E2.32993
G1 X96.093 Y79.217 E0.03143
G1 X57.759 Y40.883 E2.32993
G1 X57.028 Y40.883 E0.03143
G1 X95.361 Y79.217 E2.32993
G1 X94.63 Y79.217 E0.03143
G1 X56.297 Y40.883 E2.32993
G1 X55.565 Y40.883 E0.03143
G1 X93.899 Y79.217 E2.32993
G1 X93.168 Y79.217 E0.03143
G1 X54.834 Y40.883 E2.32993
G1 X54.103 Y40.883 E0.03143
G1 X92.436 Y79.217 E2.32993
G1 X91.705 Y79.217 E0.03143
G1 X53.372 Y40.883 E2.32993
G1 X52.64 Y40.883 E0.03143
G1 X90.974 Y79.217 E2.32993
G1 X90.243 Y79.217 E0.03143
G1 X51.909 Y40.883 E2.32993
G1 X51.178 Y40.883 E0.03143
G1 X89.511 Y79.217 E2.32993
G1 X88.78 Y79.217 E0.03143
G1 X50.447 Y40.883 E2.32993
G1 X49.715 Y40.883 E0.03143
G1 X88.049 Y79.217 E2.32993
G1 X87.318 Y79.217 E0.03143
G1 X48.984 Y40.883 E2.32993
G1 X48.253 Y40.883 E0.03143
G1 X86.586 Y79.217 E2.32993
G1 X85.855 Y79.217 E0.03143
G1 X47.522 Y40.883 E2.32993
G1 X46.79 Y40.883 E0.03143
G1 X85.124 Y79.217 E2.32993
G1 X84.392 Y79.217 E0.03143
G1 X46.059 Y40.883 E2.32993
G1 X45.328 Y40.883 E0.03143
G1 X83.661 Y79.217 E2.32993
G1 X82.93 Y79.217 E0.03143
G1 X44.597 Y40.883 E2.32993
G1 X43.865 Y40.883 E0.03143
G1 X82.199 Y79.217 E2.32993
G1 X81.467 Y79.217 E0.03143
G1 X43.134 Y40.883 E2.32993
G1 X42.403 Y40.883 E0.03143
G1 X80.736 Y79.217 E2.32993
G1 X80.005 Y79.217 E0.03143
G1 X41.672 Y40.883 E2.32993
G1 X40.94 Y40.883 E0.03143
G1 X79.274 Y79.217 E2.32993
G1 X78.542 Y79.217 E0.03143
G1 X40.209 Y40.883 E2.32993
G1 X39.478 Y40.883 E0.03143
G1 X77.811 Y79.217 E2.32993
G1 X77.08 Y79.217 E0.03143
G1 X38.747 Y40.883 E2.32993
G1 X38.015 Y40.883 E0.03143
G1 X76.349 Y79.217 E2.32993
G1 X75.617 Y79.217 E0.03143
G1 X37.284 Y40.883 E2.32993
G1 X36.553 Y40.883 E0.03143
G1 X74.886 Y79.217 E2.32993
G1 X74.155 Y79.217 E0.03143
G1 X35.821 Y40.883 E2.32993
G1 X35.09 Y40.883 E0.03143
G1 X73.424 Y79.217 E2.32993
G1 X72.692 Y79.217 E0.03143
G1 X34.359 Y40.883 E2.32993
G1 X33.628 Y40.883 E0.03143
G1 X71.961 Y79.217 E2.32993
G1 X71.23 Y79.217 E0.03143
G1 X32.896 Y40.883 E2.32993
G1 X32.165 Y40.883 E0.03143
G1 X70.499 Y79.217 E2.32993
G1 X69.767 Y79.217 E0.03143
G1 X31.434 Y40.883 E2.32993
G1 X30.703 Y40.883 E0.03143
G1 X69.036 Y79.217 E2.32993
G1 X68.305 Y79.217 E0.03143
G1 X29.971 Y40.883 E2.32993
G1 X29.24 Y40.883 E0.03143
G1 X67.574 Y79.217 E2.32993
G1 X66.842 Y79.217 E0.03143
G1 X28.509 Y40.883 E2.32993
G1 X27.778 Y40.883 E0.03143
G1 X66.111 Y79.217 E2.32993
G1 X65.38 Y79.217 E0.03143
G1 X27.046 Y40.883 E2.32993
G1 X26.315 Y40.883 E0.03143
G1 X64.648 Y79.217 E2.32993
G1 X63.917 Y79.217 E0.03143
G1 X25.584 Y40.883 E2.32993
G1 X24.853 Y40.883 E0.03143
G1 X63.186 Y79.217 E2.32993
G1 X62.455 Y79.217 E0.03143
G1 X24.121 Y40.883 E2.32993
G1 X23.39 Y40.883 E0.03143
G1 X61.723 Y79.217 E2.32993
G1 X60.992 Y79.217 E0.03143
G1 X22.659 Y40.883 E2.32993
G1 X21.928 Y40.883 E0.03143
G1 X60.261 Y79.217 E2.32993
G1 X59.53 Y79.217 E0.03143
G1 X21.196 Y40.883 E2.32993
G1 X20.465 Y40.883 E0.03143
G1 X58.798 Y79.217 E2.32993
G1 X58.067 Y79.217 E0.03143
G1 X19.734 Y40.883 E2.32993
G1 X19.002 Y40.883 E0.03143
G1 X57.336 Y79.217 E2.32993
G1 X56.605 Y79.217 E0.03143
G1 X18.271 Y40.883 E2.32993
G1 X17.54 Y40.883 E0.03143
G1 X55.873 Y79.217 E2.32993
G1 X55.142 Y79.217 E0.03143
G1 X17.033 Y41.108 E2.31628
G1 X17.033 Y41.839 E0.03143
G1 X54.411 Y79.217 E2.27183
G1 X53.68 Y79.217 E0.03143
G1 X17.033 Y42.57 E2.22738
G1 X17.033 Y43.302 E0.03143
G1 X52.948 Y79.217 E2.18294
G1 X52.217 Y79.217 E0.03143
G1 X17.033 Y44.033 E2.13849
G1 X17.033 Y44.764 E0.03143
