; generated by SuperSlicer 2.3.57 on 2022-01-31 at 04:18:07 UTC


;
;

;
;
; 

; external perimeters extrusion width = 0.42mm
; perimeters extrusion width = 0.46mm
; infill extrusion width = 0.44mm
; solid infill extrusion width = 0.46mm
; top infill extrusion width = 0.44mm
; first layer extrusion width = 0.60mm

; object:{"name":"KONGY","id":"KONGY.stl id:0 copy 0","object_center":[57.423048,60.741785,0.000000],"boundingbox_center":[57.423048,60.741785,16.370126],"boundingbox_size":[18.872800,17.600000,32.740251]}
; plater:{"center":[57.423048,60.741785,0.000000],"boundingbox_center":[57.423048,60.741785,16.370126],"boundingbox_size":[18.872800,17.600000,32.740251]}

M73 P0 R37
;TYPE:Custom
; custom gcode: start_gcode
; M190 S0
; M109 S0 ; uncomment to remove set&wait temp gcode added automatically after this start gcode
print_start EXTRUDER=210 BED=60 CHAMBER=15
; custom gcode end: start_gcode
G21 ; set units to millimeters
G90 ; use absolute coordinates
M83 ; use relative distances for extrusion
M104 S210 ; set temperature
M109 S210 ; set temperature and wait for it to be reached
M190 S60 ; set bed temperature and wait for it to be reached
;LAYER_CHANGE
;Z:0.3
;HEIGHT:0.3
; custom gcode: before_layer_gcode
;BEFORE_LAYER_CHANGE
;0.3

; custom gcode end: before_layer_gcode

G1 Z0.3 F7800
; custom gcode: layer_gcode
;AFTER_LAYER_CHANGE
;0.3
; custom gcode end: layer_gcode

G1 E-0.4 F3000
G1 Z0.5 F7800
G1 X49.678 Y53.108
G1 Z0.3
G1 E0.4 F1800
; custom gcode: feature_gcode
; External perimeter
;;Skirt
;SET_VELOCITY_LIMIT ACCEL=7000 ACCEL_TO_DECEL=7000 SQUARE_CORNER_VELOCITY=8

; Support material
;
; custom gcode end: feature_gcode

;TYPE:Skirt
;WIDTH:0.44
G1 F900
G1 X48.782 Y54.038 E0.06048
G1 X48.014 Y55.096 E0.06125
G1 X47.617 Y55.753 E0.03597
G1 X47.119 Y56.811 E0.05478
G1 X46.858 Y57.527 E0.03568
G1 X46.527 Y58.811 E0.06213
G1 X46.346 Y60.744 E0.09095
G1 X46.527 Y62.674 E0.09085
G1 X46.858 Y63.955 E0.06197
G1 X47.118 Y64.67 E0.03568
G1 X47.615 Y65.726 E0.05465
G1 X48.011 Y66.384 E0.03597
G1 X48.784 Y67.448 E0.06162
G1 X49.678 Y68.375 E0.06034
G1 X50.304 Y68.923 E0.03897
G1 X51.377 Y69.67 E0.06126
G1 X53.06 Y70.494 E0.08781
G1 X54.922 Y71.015 E0.09056
G1 X56.788 Y71.183 E0.0878
G1 X58.719 Y71.002 E0.09085
G1 X60 Y70.671 E0.06197
G1 X60.715 Y70.41 E0.03568
G1 X61.771 Y69.914 E0.05465
G1 X62.428 Y69.517 E0.03597
G1 X63.492 Y68.744 E0.06162
G1 X64.42 Y67.851 E0.06034
G1 X64.967 Y67.224 E0.03897
G1 X65.715 Y66.152 E0.06126
G1 X66.539 Y64.468 E0.08781
G1 X67.059 Y62.606 E0.09056
G1 X67.228 Y60.74 E0.0878
G1 X67.059 Y58.876 E0.08769
G1 X66.537 Y57.012 E0.09068
G1 X65.714 Y55.331 E0.08768
G1 X64.966 Y54.257 E0.06134
G1 X64.42 Y53.633 E0.03884
G1 X63.49 Y52.737 E0.06047
G1 X62.433 Y51.969 E0.06125
G1 X61.775 Y51.572 E0.03597
G1 X60.717 Y51.074 E0.05478
G1 X60.002 Y50.813 E0.03568
G1 X58.724 Y50.483 E0.06185
G1 X56.791 Y50.301 E0.09095
G1 X54.927 Y50.468 E0.0877
G1 X53.062 Y50.989 E0.09068
G1 X51.376 Y51.814 E0.08796
G1 X50.302 Y52.563 E0.06134
G1 X49.723 Y53.069 E0.03603
; INIT printing object KONGY.stl id:0 copy 0
G1 E-0.4 F3000
G1 Z0.5 F7800
; printing object KONGY.stl id:0 copy 0
G1 X53.919 Y57.845
G1 Z0.3
G1 E0.4 F1800
; custom gcode: feature_gcode
; External perimeter
;;ThinWall
;SET_VELOCITY_LIMIT ACCEL=2000 ACCEL_TO_DECEL=2000 SQUARE_CORNER_VELOCITY=8

; Other
;
; custom gcode end: feature_gcode

;TYPE:Thin wall
;WIDTH:0.4
G1 F900
G1 X53.89 Y57.875 E0.00176
G1 X53.669 Y58.126 E0.014
G1 X53.262 Y58.681 E0.02884
G1 X53.24 Y58.719 E0.00184
G1 X52.962 Y59.35 E0.02883
G1 X52.855 Y59.666 E0.01399
G1 X52.844 Y59.707 E0.00176
G1 X52.779 Y60.035 E0.01401
G1 X52.704 Y60.72 E0.02883
G1 X52.704 Y60.764 E0.00183
G1 X52.779 Y61.448 E0.02883
G1 X52.844 Y61.777 E0.01401
G1 X52.855 Y61.817 E0.00176
G1 X52.962 Y62.134 E0.01399
G1 X53.24 Y62.764 E0.02883
G1 X53.262 Y62.802 E0.00184
G1 X53.669 Y63.358 E0.02884
G1 X53.89 Y63.609 E0.014
G1 X53.919 Y63.639 E0.00176
G1 X54.171 Y63.859 E0.014
G1 X54.726 Y64.267 E0.02884
G1 X54.764 Y64.289 E0.00184
G1 X55.395 Y64.566 E0.02883
G1 X55.711 Y64.673 E0.01399
G1 X55.752 Y64.684 E0.00176
G1 X56.08 Y64.749 E0.01401
G1 X56.765 Y64.825 E0.02883
G1 X56.809 Y64.825 E0.00183
G1 X57.493 Y64.749 E0.02883
G1 X57.821 Y64.684 E0.01401
G1 X57.862 Y64.673 E0.00176
G1 X58.179 Y64.566 E0.01399
G1 X58.809 Y64.289 E0.02883
G1 X58.847 Y64.267 E0.00184
G1 X59.402 Y63.859 E0.02884
G1 X59.654 Y63.639 E0.014
G1 X59.684 Y63.609 E0.00176
G1 X59.904 Y63.358 E0.014
G1 X60.312 Y62.802 E0.02884
G1 X60.334 Y62.764 E0.00184
G1 X60.611 Y62.134 E0.02883
G1 X60.718 Y61.817 E0.01399
G1 X60.729 Y61.777 E0.00176
G1 X60.794 Y61.448 E0.01401
G1 X60.869 Y60.764 E0.02883
G1 X60.871 Y60.742 E0.00092
G1 X60.869 Y60.72 E0.00092
G1 X60.794 Y60.035 E0.02883
G1 X60.729 Y59.707 E0.01401
G1 X60.718 Y59.666 E0.00176
G1 X60.611 Y59.35 E0.01399
G1 X60.334 Y58.719 E0.02883
G1 X60.312 Y58.681 E0.00184
G1 X59.904 Y58.126 E0.02884
G1 X59.684 Y57.875 E0.014
G1 X59.654 Y57.845 E0.00176
G1 X59.402 Y57.624 E0.014
G1 X58.847 Y57.217 E0.02884
G1 X58.809 Y57.195 E0.00184
G1 X58.179 Y56.918 E0.02883
G1 X57.862 Y56.81 E0.01399
G1 X57.821 Y56.799 E0.00176
G1 X57.493 Y56.734 E0.01401
G1 X56.809 Y56.659 E0.02883
G1 X56.765 Y56.659 E0.00183
G1 X56.08 Y56.734 E0.02883
G1 X55.752 Y56.799 E0.01401
G1 X55.711 Y56.81 E0.00176
G1 X55.395 Y56.918 E0.01399
G1 X54.764 Y57.195 E0.02883
G1 X54.726 Y57.217 E0.00184
G1 X54.171 Y57.624 E0.02884
G1 X53.965 Y57.805 E0.01149
; INIT stop printing object KONGY.stl id:0 copy 0
M106 S84.15
;LAYER_CHANGE
;Z:0.5
;HEIGHT:0.2
; custom gcode: before_layer_gcode
;BEFORE_LAYER_CHANGE
;0.5

; custom gcode end: before_layer_gcode

; stop printing object KONGY.stl id:0 copy 0
G1 Z0.5 F7800
; custom gcode: layer_gcode
;AFTER_LAYER_CHANGE
;0.5
; custom gcode end: layer_gcode

M104 S200 ; set temperature
; INIT printing object KONGY.stl id:0 copy 0
; printing object KONGY.stl id:0 copy 0
G1 X53.95 Y57.786
; custom gcode: feature_gcode
; External perimeter
;;ExternalPerimeter
;SET_VELOCITY_LIMIT ACCEL=1000 ACCEL_TO_DECEL=1000 SQUARE_CORNER_VELOCITY=8

; Perimeter
;
; custom gcode end: feature_gcode

;TYPE:External perimeter
;WIDTH:0.42
G1 F900
M106 S255
G1 X53.883 Y57.838 E0.00266
G1 X53.23 Y58.688 E0.03362
G1 X52.82 Y59.679 E0.0336
G1 X52.68 Y60.742 E0.03362
G1 X52.82 Y61.805 E0.03362
G1 X53.024 Y62.298 E0.01674
G1 X53.23 Y62.795 E0.01687
G1 X53.883 Y63.646 E0.03362
G1 X54.733 Y64.299 E0.03362
G1 X55.723 Y64.709 E0.0336
G1 X56.787 Y64.849 E0.03362
G1 X57.85 Y64.709 E0.03362
G1 X58.343 Y64.505 E0.01674
G1 X58.84 Y64.299 E0.01687
G1 X59.691 Y63.646 E0.03362
G1 X60.344 Y62.795 E0.03362
G1 X60.754 Y61.805 E0.0336
G1 X60.894 Y60.742 E0.03362
G1 X60.754 Y59.679 E0.03362
M106 S170.85
G1 X60.549 Y59.185 E0.01674
G1 X60.344 Y58.688 E0.01687
G1 X59.691 Y57.838 E0.03362
G1 X58.84 Y57.185 E0.03362
G1 X57.85 Y56.775 E0.0336
G1 X56.787 Y56.635 E0.03362
G1 X56.257 Y56.705 E0.01675
G1 X55.723 Y56.775 E0.01687
G1 X54.733 Y57.185 E0.03361
G1 X53.997 Y57.75 E0.02908
;WIPE_START
G1 X53.871 Y57.754 F7800
;WIPE_END
G1 X53.665 Y57.547
; custom gcode: feature_gcode
; External perimeter
;;OverhangPerimeter
;SET_VELOCITY_LIMIT ACCEL=2000 ACCEL_TO_DECEL=2000 SQUARE_CORNER_VELOCITY=8

; Internal infill
;
; custom gcode end: feature_gcode

;TYPE:Overhang perimeter
;WIDTH:0.4
;HEIGHT:0.4
G1 F3600
G1 X53.905 Y57.307 E0.01772
G1 X54.545 Y56.859 E0.04083
G1 X55.253 Y56.528 E0.04084
G1 X56.008 Y56.326 E0.04083
G1 X56.787 Y56.258 E0.04084
G1 X57.565 Y56.326 E0.04084
G1 X58.32 Y56.528 E0.04083
G1 X59.029 Y56.859 E0.04084
G1 X59.669 Y57.307 E0.04083
G1 X60.221 Y57.86 E0.04083
G1 X60.67 Y58.5 E0.04083
G1 X61 Y59.208 E0.04084
G1 X61.202 Y59.963 E0.04083
G1 X61.271 Y60.742 E0.04084
G1 X61.202 Y61.52 E0.04084
G1 X61 Y62.275 E0.04083
G1 X60.67 Y62.984 E0.04084
G1 X60.221 Y63.624 E0.04083
G1 X59.669 Y64.177 E0.04083
G1 X59.029 Y64.625 E0.04083
G1 X58.32 Y64.955 E0.04084
G1 X57.565 Y65.157 E0.04083
G1 X56.787 Y65.226 E0.04084
G1 X56.008 Y65.157 E0.04084
G1 X55.253 Y64.955 E0.04083
G1 X54.545 Y64.625 E0.04084
G1 X53.905 Y64.177 E0.04083
G1 X53.352 Y63.624 E0.04083
G1 X52.903 Y62.984 E0.04083
G1 X52.573 Y62.275 E0.04084
G1 X52.371 Y61.52 E0.04083
G1 X52.303 Y60.742 E0.04084
G1 X52.371 Y59.963 E0.04084
G1 X52.573 Y59.208 E0.04083
G1 X52.903 Y58.5 E0.04084
G1 X53.352 Y57.86 E0.04083
G1 X53.622 Y57.589 E0.01998
; INIT stop printing object KONGY.stl id:0 copy 0
;LAYER_CHANGE
;Z:0.7
;HEIGHT:0.2
; custom gcode: before_layer_gcode
;BEFORE_LAYER_CHANGE
;0.7

; custom gcode end: before_layer_gcode

; stop printing object KONGY.stl id:0 copy 0
G1 Z0.7 F7800
; custom gcode: layer_gcode
;AFTER_LAYER_CHANGE
;0.7
; custom gcode end: layer_gcode

; INIT printing object KONGY.stl id:0 copy 0
; printing object KONGY.stl id:0 copy 0
G1 X53.895 Y57.85
; custom gcode: feature_gcode
; External perimeter
;;ExternalPerimeter
;SET_VELOCITY_LIMIT ACCEL=1000 ACCEL_TO_DECEL=1000 SQUARE_CORNER_VELOCITY=8

; Perimeter
;
; custom gcode end: feature_gcode

;TYPE:External perimeter
;WIDTH:0.42
G1 F900
M106 S255
G1 X53.244 Y58.697 E0.03348
G1 X52.836 Y59.683 E0.03346
G1 X52.697 Y60.742 E0.03348
G1 X52.836 Y61.801 E0.03348
G1 X53.244 Y62.787 E0.03346
G1 X53.895 Y63.634 E0.03348
G1 X54.742 Y64.284 E0.03348
G1 X55.728 Y64.692 E0.03346
G1 X56.787 Y64.832 E0.03348
G1 X57.845 Y64.692 E0.03348
G1 X58.832 Y64.284 E0.03346
G1 X59.679 Y63.634 E0.03348
G1 X60.329 Y62.787 E0.03348
G1 X60.737 Y61.801 E0.03346
G1 X60.876 Y60.742 E0.03348
G1 X60.737 Y59.683 E0.03348
G1 X60.329 Y58.697 E0.03346
G1 X59.679 Y57.85 E0.03348
G1 X58.832 Y57.2 E0.03348
G1 X57.845 Y56.791 E0.03346
G1 X56.787 Y56.652 E0.03348
G1 X55.728 Y56.791 E0.03348
G1 X54.742 Y57.2 E0.03346
G1 X53.942 Y57.813 E0.0316
M106 S170.85
;WIPE_START
G1 X53.504 Y57.763 F7800
;WIPE_END
G1 X53.255 Y57.514
; custom gcode: feature_gcode
; External perimeter
;;OverhangPerimeter
;SET_VELOCITY_LIMIT ACCEL=2000 ACCEL_TO_DECEL=2000 SQUARE_CORNER_VELOCITY=8

; Internal infill
;
; custom gcode end: feature_gcode

;TYPE:Overhang perimeter
;WIDTH:0.4
;HEIGHT:0.4
G1 F3600
G1 X53.703 Y57.066 E0.03307
G1 X54.388 Y56.587 E0.0437
G1 X55.146 Y56.233 E0.0437
G1 X55.953 Y56.017 E0.04369
G1 X56.787 Y55.943 E0.0437
G1 X57.62 Y56.017 E0.0437
G1 X58.428 Y56.233 E0.04369
G1 X59.186 Y56.587 E0.0437
G1 X59.871 Y57.066 E0.0437
G1 X60.462 Y57.658 E0.04369
G1 X60.942 Y58.343 E0.0437
G1 X61.295 Y59.101 E0.0437
G1 X61.512 Y59.909 E0.04369
G1 X61.585 Y60.742 E0.0437
G1 X61.512 Y61.575 E0.0437
G1 X61.295 Y62.383 E0.04369
G1 X60.942 Y63.141 E0.0437
G1 X60.462 Y63.826 E0.0437
G1 X59.871 Y64.417 E0.04369
G1 X59.186 Y64.897 E0.0437
G1 X58.428 Y65.25 E0.0437
G1 X57.62 Y65.467 E0.04369
G1 X56.787 Y65.54 E0.0437
G1 X55.953 Y65.467 E0.0437
G1 X55.146 Y65.25 E0.04369
G1 X54.388 Y64.897 E0.0437
G1 X53.703 Y64.417 E0.0437
G1 X53.111 Y63.826 E0.04369
G1 X52.631 Y63.141 E0.0437
G1 X52.278 Y62.383 E0.0437
G1 X52.062 Y61.575 E0.04369
G1 X51.988 Y60.742 E0.0437
G1 X52.062 Y59.909 E0.0437
G1 X52.278 Y59.101 E0.04369
G1 X52.631 Y58.343 E0.0437
G1 X53.111 Y57.658 E0.0437
G1 X53.212 Y57.556 E0.00748
G1 X53.484 Y57.794 F7800
; custom gcode: feature_gcode
; External perimeter
;;GapFill
;SET_VELOCITY_LIMIT ACCEL=2000 ACCEL_TO_DECEL=2000 SQUARE_CORNER_VELOCITY=8

; Skirt
;
; custom gcode end: feature_gcode

;TYPE:Gap fill
;WIDTH:0.436687
;HEIGHT:0.2
G1 F900
G1 X53.395 Y57.896 E0.00441
G1 X53.173 Y58.198 E0.01228
;WIDTH:0.403998

G1 X52.951 Y58.5 E0.01126
G1 X52.928 Y58.541 E0.00142
G1 X52.777 Y58.884 E0.01125
;WIDTH:0.436887

G1 X52.626 Y59.227 E0.01228
G1 X52.567 Y59.4 E0.00596
;WIDTH:0.389425

G1 X52.509 Y59.572 E0.00524
G1 X52.497 Y59.616 E0.0013
G1 X52.462 Y59.794 E0.00525
;WIDTH:0.437045

G1 X52.426 Y59.973 E0.00597
G1 X52.385 Y60.346 E0.01228
;WIDTH:0.404565

G1 X52.344 Y60.718 E0.01127
G1 X52.344 Y60.765 E0.00142
G1 X52.385 Y61.138 E0.01127
;WIDTH:0.437045

G1 X52.426 Y61.511 E0.01228
G1 X52.462 Y61.689 E0.00597
;WIDTH:0.389429

G1 X52.497 Y61.868 E0.00525
G1 X52.509 Y61.912 E0.0013
G1 X52.567 Y62.084 E0.00524
;WIDTH:0.436887

G1 X52.626 Y62.256 E0.00596
G1 X52.777 Y62.599 E0.01228
;WIDTH:0.403968

G1 X52.928 Y62.942 E0.01125
G1 X52.951 Y62.983 E0.00142
G1 X53.173 Y63.286 E0.01126
;WIDTH:0.436688

G1 X53.395 Y63.588 E0.01228
G1 X53.515 Y63.725 E0.00596
;WIDTH:0.389071

G1 X53.635 Y63.862 E0.00524
G1 X53.667 Y63.894 E0.0013
G1 X53.804 Y64.014 E0.00524
;WIDTH:0.436687

G1 X53.94 Y64.134 E0.00596
G1 X54.243 Y64.355 E0.01228
;WIDTH:0.404

G1 X54.545 Y64.577 E0.01126
G1 X54.586 Y64.601 E0.00142
G1 X54.929 Y64.752 E0.01125
;WIDTH:0.436889

G1 X55.272 Y64.903 E0.01228
G1 X55.445 Y64.961 E0.00596
;WIDTH:0.389425

G1 X55.617 Y65.019 E0.00524
G1 X55.66 Y65.031 E0.0013
G1 X55.839 Y65.067 E0.00525
;WIDTH:0.437046

G1 X56.018 Y65.102 E0.00597
G1 X56.39 Y65.143 E0.01228
;WIDTH:0.404564

G1 X56.763 Y65.184 E0.01127
G1 X56.81 Y65.184 E0.00142
G1 X57.183 Y65.143 E0.01127
;WIDTH:0.437047

G1 X57.555 Y65.102 E0.01228
G1 X57.734 Y65.067 E0.00597
;WIDTH:0.389429

G1 X57.913 Y65.031 E0.00525
G1 X57.957 Y65.019 E0.0013
G1 X58.129 Y64.961 E0.00524
;WIDTH:0.436889

G1 X58.301 Y64.903 E0.00596
G1 X58.644 Y64.752 E0.01228
;WIDTH:0.403971

G1 X58.987 Y64.601 E0.01125
G1 X59.028 Y64.577 E0.00142
G1 X59.33 Y64.355 E0.01126
;WIDTH:0.436688

G1 X59.633 Y64.134 E0.01228
G1 X59.77 Y64.014 E0.00596
;WIDTH:0.389071

G1 X59.907 Y63.894 E0.00524
G1 X59.939 Y63.862 E0.0013
G1 X60.059 Y63.725 E0.00524
;WIDTH:0.436687

G1 X60.179 Y63.588 E0.00596
G1 X60.4 Y63.286 E0.01228
;WIDTH:0.404

G1 X60.622 Y62.983 E0.01126
G1 X60.646 Y62.942 E0.00142
G1 X60.797 Y62.599 E0.01125
;WIDTH:0.436887

G1 X60.947 Y62.256 E0.01228
G1 X61.006 Y62.084 E0.00596
;WIDTH:0.389425

G1 X61.064 Y61.912 E0.00524
G1 X61.076 Y61.868 E0.0013
G1 X61.112 Y61.689 E0.00525
;WIDTH:0.437046

G1 X61.147 Y61.511 E0.00597
G1 X61.188 Y61.138 E0.01228
;WIDTH:0.404564

G1 X61.229 Y60.765 E0.01127
G1 X61.231 Y60.742 E0.00071
;WIDTH:0.404829

G1 X61.229 Y60.718 E0.00071
G1 X61.188 Y60.346 E0.01128
;WIDTH:0.437045

G1 X61.147 Y59.973 E0.01228
G1 X61.112 Y59.794 E0.00597
;WIDTH:0.389431

G1 X61.076 Y59.616 E0.00525
G1 X61.064 Y59.572 E0.0013
G1 X61.006 Y59.4 E0.00524
;WIDTH:0.436889

G1 X60.947 Y59.227 E0.00596
G1 X60.797 Y58.884 E0.01228
;WIDTH:0.40397

G1 X60.646 Y58.541 E0.01125
G1 X60.622 Y58.5 E0.00142
G1 X60.4 Y58.198 E0.01126
;WIDTH:0.436689

G1 X60.179 Y57.896 E0.01228
G1 X60.059 Y57.759 E0.00596
;WIDTH:0.389072

G1 X59.939 Y57.622 E0.00524
G1 X59.907 Y57.59 E0.0013
G1 X59.77 Y57.47 E0.00524
;WIDTH:0.436687

G1 X59.633 Y57.35 E0.00596
G1 X59.33 Y57.128 E0.01228
;WIDTH:0.404

G1 X59.028 Y56.906 E0.01126
G1 X58.987 Y56.883 E0.00142
G1 X58.644 Y56.732 E0.01125
;WIDTH:0.436887

G1 X58.301 Y56.581 E0.01228
G1 X58.129 Y56.523 E0.00596
;WIDTH:0.389425

G1 X57.957 Y56.464 E0.00524
G1 X57.913 Y56.452 E0.0013
G1 X57.734 Y56.417 E0.00525
;WIDTH:0.437045

G1 X57.555 Y56.381 E0.00597
G1 X57.183 Y56.34 E0.01228
;WIDTH:0.404565

G1 X56.81 Y56.299 E0.01127
G1 X56.763 Y56.299 E0.00142
G1 X56.39 Y56.34 E0.01127
;WIDTH:0.437045

G1 X56.018 Y56.381 E0.01228
G1 X55.839 Y56.417 E0.00597
;WIDTH:0.389429

G1 X55.66 Y56.452 E0.00525
G1 X55.617 Y56.464 E0.0013
G1 X55.445 Y56.523 E0.00524
;WIDTH:0.436887

G1 X55.272 Y56.581 E0.00596
G1 X54.929 Y56.732 E0.01228
;WIDTH:0.40397

G1 X54.586 Y56.883 E0.01125
G1 X54.545 Y56.906 E0.00142
G1 X54.243 Y57.128 E0.01126
;WIDTH:0.436687

G1 X53.94 Y57.35 E0.01228
G1 X53.804 Y57.47 E0.00596
;WIDTH:0.389072

G1 X53.667 Y57.59 E0.00524
G1 X53.635 Y57.622 E0.0013
G1 X53.523 Y57.749 E0.00487
; INIT stop printing object KONGY.stl id:0 copy 0
M106 S255
;LAYER_CHANGE
;Z:0.9
;HEIGHT:0.2
; custom gcode: before_layer_gcode
;BEFORE_LAYER_CHANGE
;0.9

; custom gcode end: before_layer_gcode

; stop printing object KONGY.stl id:0 copy 0
G1 Z0.9 F7800
; custom gcode: layer_gcode
;AFTER_LAYER_CHANGE
;0.9
; custom gcode end: layer_gcode

; INIT printing object KONGY.stl id:0 copy 0
; printing object KONGY.stl id:0 copy 0
G1 X53.819 Y57.976
; custom gcode: feature_gcode
; External perimeter
;;ExternalPerimeter
;SET_VELOCITY_LIMIT ACCEL=1000 ACCEL_TO_DECEL=1000 SQUARE_CORNER_VELOCITY=8

; Perimeter
