; generated by SuperSlicer 2.5.59 on 2022-12-10 at 18:15:15 UTC


;
;

;
;
; 

; external perimeters extrusion width = 0.40mm
; perimeters extrusion width = 0.45mm
; infill extrusion width = 0.72mm
; solid infill extrusion width = 0.56mm
; top infill extrusion width = 0.40mm
; first layer extrusion width = 0.48mm

; object:{"name":"Longer_probe_pressfit_helper","id":"Longer_probe_pressfit_helper.stl id:0 copy 0","object_center":[60.000000,60.000000,0.000000],"boundingbox_center":[60.000000,60.000000,7.250005],"boundingbox_size":[32.255005,22.000061,14.500010]}
; plater:{"center":[60.000000,60.000000,0.000000],"boundingbox_center":[60.000000,60.000000,7.250005],"boundingbox_size":[32.255005,22.000061,14.500010]}

;TYPE:Custom
; M190 S0
; M109 S0 ; uncomment to remove set&wait temp gcode added automatically after this start gcode
print_start EXTRUDER=230 BED=110 CHAMBER=50
M107
G21 ; set units to millimeters
G90 ; use absolute coordinates
M83 ; use relative distances for extrusion
;_TOOLCHANGE 0
M104 S230 ; set temperature
M109 S230 ; set temperature and wait for it to be reached
M190 S110 ; set bed temperature and wait for it to be reached
M107
;LAYER_CHANGE
;Z:0.25
;HEIGHT:0.25
;BEFORE_LAYER_CHANGE
;0.25


G1 Z0.25 F27000
;AFTER_LAYER_CHANGE
;0.25
G92 E0
G1 E-2 F3000
M204 S1500
G1 Z0.65 F27000
; printing object Longer_probe_pressfit_helper.stl id:0 copy 0
G1 X45.789 Y50.907
G1 Z0.25
G1 E2 F1800
;TYPE:Internal perimeter
;WIDTH:0.48
G1 F900
G1 X46.402 Y50.894 E0.02456
G1 X74.21 Y50.899 E1.11522
G1 X74.233 Y51.082 E0.00738
G1 X74.233 Y66.96 E0.63679
G1 X74.221 Y67.206 E0.00987
G1 X74.191 Y67.41 E0.00828
G1 X74.143 Y67.601 E0.00786
G1 X73.982 Y67.991 E0.01695
G1 X73.753 Y68.334 E0.01653
G1 X73.454 Y68.633 E0.01695
G1 X73.305 Y68.743 E0.00743
G1 X72.923 Y68.947 E0.01738
G1 X72.748 Y69.01 E0.00744
G1 X72.323 Y69.094 E0.01737
G1 X72.088 Y69.106 E0.00945
G1 X47.912 Y69.106 E0.96954
G1 X47.666 Y69.094 E0.00988
G1 X47.472 Y69.065 E0.00786
G1 X47.058 Y68.939 E0.01737
G1 X46.89 Y68.86 E0.00744
G1 X46.539 Y68.625 E0.01695
G1 X46.24 Y68.326 E0.01695
G1 X46.123 Y68.169 E0.00786
G1 X46.022 Y68.001 E0.00786
G1 X45.861 Y67.61 E0.01695
G1 X45.778 Y67.196 E0.01695
G1 X45.767 Y66.96 E0.00946
G1 X45.767 Y51.082 E0.63679
G1 X45.782 Y50.967 E0.00465
G1 X45.662 Y50.517 F27000
G1 F900
G1 X45.789 Y50.481 E0.00531
G1 X46.397 Y50.468 E0.02438
G1 X74.121 Y50.473 E1.11185
G1 X74.3 Y50.501 E0.00725
G1 X74.34 Y50.515 E0.00173
G1 X74.381 Y50.537 E0.00186
G1 X74.527 Y50.661 E0.00767
G1 X74.603 Y50.779 E0.00563
G1 X74.634 Y50.857 E0.00336
G1 X74.66 Y51.054 E0.00799
G1 X74.66 Y66.971 E0.63832
G1 X74.646 Y67.248 E0.01113
G1 X74.61 Y67.494 E0.00996
G1 X74.549 Y67.735 E0.00996
G1 X74.466 Y67.969 E0.00996
G1 X74.36 Y68.193 E0.00996
G1 X74.232 Y68.406 E0.00996
G1 X74.084 Y68.606 E0.00996
G1 X73.917 Y68.79 E0.00996
G1 X73.733 Y68.956 E0.00996
G1 X73.534 Y69.104 E0.00996
G1 X73.321 Y69.232 E0.00996
G1 X73.096 Y69.338 E0.00996
G1 X72.862 Y69.422 E0.00996
G1 X72.621 Y69.482 E0.00996
G1 X72.376 Y69.519 E0.00996
G1 X72.098 Y69.532 E0.01113
G1 X47.902 Y69.532 E0.97038
G1 X47.624 Y69.519 E0.01114
G1 X47.379 Y69.482 E0.00996
G1 X47.138 Y69.422 E0.00996
G1 X46.904 Y69.338 E0.00996
G1 X46.679 Y69.232 E0.00996
G1 X46.466 Y69.104 E0.00996
G1 X46.267 Y68.956 E0.00996
G1 X46.083 Y68.79 E0.00996
G1 X45.916 Y68.606 E0.00996
G1 X45.768 Y68.406 E0.00996
G1 X45.64 Y68.193 E0.00996
G1 X45.534 Y67.969 E0.00996
G1 X45.451 Y67.735 E0.00996
G1 X45.39 Y67.494 E0.00996
G1 X45.354 Y67.248 E0.00996
G1 X45.34 Y66.971 E0.01114
G1 X45.34 Y51.054 E0.63832
G1 X45.366 Y50.857 E0.00799
G1 X45.397 Y50.779 E0.00336
G1 X45.477 Y50.655 E0.0059
G1 X45.576 Y50.566 E0.00536
G1 X45.61 Y50.547 E0.00155
G1 X45.227 Y50.295 F27000
G1 F900
G1 X45.325 Y50.217 E0.00501
G1 X45.497 Y50.121 E0.00788
G1 X45.611 Y50.08 E0.00489
G1 X45.725 Y50.056 E0.00466
G1 X46.393 Y50.041 E0.02678
G1 X74.154 Y50.047 E1.11335
G1 X74.406 Y50.086 E0.01022
G1 X74.513 Y50.125 E0.00458
G1 X74.622 Y50.182 E0.00493
G1 X74.778 Y50.301 E0.00787
G1 X74.851 Y50.377 E0.00422
G1 X74.984 Y50.583 E0.00986
G1 X75.05 Y50.749 E0.00718
G1 X75.075 Y50.868 E0.00486
G1 X75.086 Y51.027 E0.00637
G1 X75.086 Y66.981 E0.63985
G1 X75.071 Y67.29 E0.01239
G1 X75.028 Y67.577 E0.01164
G1 X74.958 Y67.859 E0.01164
G1 X74.86 Y68.132 E0.01164
G1 X74.736 Y68.394 E0.01164
G1 X74.587 Y68.643 E0.01164
G1 X74.414 Y68.876 E0.01164
G1 X74.219 Y69.091 E0.01164
G1 X74.004 Y69.286 E0.01164
G1 X73.771 Y69.459 E0.01164
G1 X73.522 Y69.608 E0.01164
G1 X73.259 Y69.733 E0.01164
G1 X72.986 Y69.83 E0.01164
G1 X72.705 Y69.901 E0.01164
G1 X72.417 Y69.943 E0.01164
G1 X72.109 Y69.959 E0.01239
G1 X47.891 Y69.959 E0.97122
G1 X47.583 Y69.943 E0.0124
G1 X47.295 Y69.901 E0.01164
G1 X47.014 Y69.83 E0.01164
G1 X46.741 Y69.733 E0.01164
G1 X46.478 Y69.608 E0.01164
G1 X46.229 Y69.459 E0.01164
G1 X45.996 Y69.286 E0.01164
G1 X45.781 Y69.091 E0.01164
G1 X45.586 Y68.876 E0.01164
G1 X45.413 Y68.643 E0.01164
G1 X45.264 Y68.394 E0.01164
G1 X45.14 Y68.132 E0.01164
G1 X45.042 Y67.859 E0.01164
G1 X44.972 Y67.577 E0.01164
G1 X44.929 Y67.29 E0.01164
G1 X44.914 Y66.981 E0.0124
G1 X44.914 Y51.027 E0.63985
G1 X44.925 Y50.868 E0.00637
G1 X44.95 Y50.749 E0.00486
G1 X45.016 Y50.583 E0.00718
G1 X45.149 Y50.377 E0.00986
G1 X45.186 Y50.338 E0.00213
M204 S1000
G1 X44.94 Y49.979 F27000
;TYPE:External perimeter
G1 F900
G1 X45.087 Y49.862 E0.00754
G1 X45.318 Y49.732 E0.01064
G1 X45.494 Y49.669 E0.0075
G1 X45.676 Y49.63 E0.00745
G1 X46.388 Y49.615 E0.02857
G1 X74.187 Y49.62 E1.11485
G1 X74.512 Y49.671 E0.01319
G1 X74.686 Y49.734 E0.00742
G1 X74.851 Y49.821 E0.00751
G1 X75.063 Y49.981 E0.01063
G1 X75.187 Y50.111 E0.00719
G1 X75.365 Y50.387 E0.01318
G1 X75.46 Y50.626 E0.01033
G1 X75.498 Y50.809 E0.00748
G1 X75.512 Y51.012 E0.00815
G1 X75.512 Y66.992 E0.64086
G1 X75.496 Y67.332 E0.01365
G1 X75.447 Y67.66 E0.01332
G1 X75.366 Y67.982 E0.01332
G1 X75.254 Y68.295 E0.01332
G1 X75.112 Y68.595 E0.01332
G1 X74.942 Y68.88 E0.01332
G1 X74.744 Y69.147 E0.01332
G1 X74.521 Y69.393 E0.01332
G1 X74.275 Y69.616 E0.01332
G1 X74.008 Y69.814 E0.01332
G1 X73.723 Y69.985 E0.01332
G1 X73.423 Y70.127 E0.01332
G1 X73.11 Y70.239 E0.01332
G1 X72.788 Y70.32 E0.01332
G1 X72.459 Y70.368 E0.01332
G1 X72.119 Y70.385 E0.01365
G1 X47.881 Y70.385 E0.97206
G1 X47.541 Y70.368 E0.01366
G1 X47.212 Y70.32 E0.01332
G1 X46.89 Y70.239 E0.01332
G1 X46.577 Y70.127 E0.01332
G1 X46.277 Y69.985 E0.01332
G1 X45.992 Y69.814 E0.01332
G1 X45.725 Y69.616 E0.01332
G1 X45.479 Y69.393 E0.01332
G1 X45.256 Y69.147 E0.01332
G1 X45.058 Y68.88 E0.01332
G1 X44.888 Y68.595 E0.01332
G1 X44.746 Y68.295 E0.01332
G1 X44.634 Y67.982 E0.01332
G1 X44.553 Y67.66 E0.01332
G1 X44.504 Y67.332 E0.01332
G1 X44.487 Y66.992 E0.01366
G1 X44.488 Y51.012 E0.64086
G1 X44.502 Y50.809 E0.00815
G1 X44.54 Y50.626 E0.00748
G1 X44.635 Y50.387 E0.01033
G1 X44.813 Y50.111 E0.01318
G1 X44.898 Y50.022 E0.00493
;WIPE_START
M204 S1500
G1 X45.318 Y50.109 F27000
;WIPE_END
G1 E-2 F3000
G1 Z0.65 F27000
G1 X74.146 Y51.826
G1 Z0.25
G1 E2 F1800
;TYPE:Solid infill
;WIDTH:0.474023
G1 F1200
G1 X73.467 Y51.147 E0.03803
G1 X72.865 Y51.147 E0.02387
G1 X73.963 Y52.246 E0.06154
G1 X73.964 Y52.849 E0.0239
G1 X72.262 Y51.147 E0.09532
G1 X71.659 Y51.147 E0.02387
G1 X73.964 Y53.453 E0.12911
G1 X73.965 Y54.056 E0.0239
G1 X71.056 Y51.148 E0.1629
G1 X70.454 Y51.148 E0.02387
G1 X73.965 Y54.659 E0.19668
G1 X73.966 Y55.263 E0.0239
G1 X69.851 Y51.148 E0.23047
G1 X69.248 Y51.148 E0.02387
G1 X73.966 Y55.866 E0.26425
G1 X73.966 Y56.469 E0.0239
G1 X68.645 Y51.148 E0.29804
G1 X68.042 Y51.148 E0.02387
G1 X73.967 Y57.073 E0.33182
G1 X73.967 Y57.676 E0.0239
G1 X67.44 Y51.149 E0.36561
G1 X66.837 Y51.149 E0.02387
G1 X73.968 Y58.28 E0.3994
G1 X73.968 Y58.883 E0.0239
G1 X66.234 Y51.149 E0.43318
G1 X65.631 Y51.149 E0.02387
G1 X73.969 Y59.486 E0.46697
G1 X73.969 Y60.09 E0.0239
G1 X65.029 Y51.149 E0.50075
G1 X64.426 Y51.149 E0.02387
G1 X73.969 Y60.693 E0.53454
G1 X73.97 Y61.296 E0.0239
G1 X63.823 Y51.15 E0.56832
G1 X63.22 Y51.15 E0.02387
G1 X73.97 Y61.9 E0.60211
G1 X73.971 Y62.503 E0.0239
G1 X62.617 Y51.15 E0.6359
G1 X62.015 Y51.15 E0.02387
G1 X73.971 Y63.107 E0.66968
G1 X73.972 Y63.71 E0.0239
G1 X61.412 Y51.15 E0.70347
G1 X60.809 Y51.15 E0.02387
G1 X73.972 Y64.313 E0.73725
G1 X73.972 Y64.917 E0.0239
G1 X60.206 Y51.151 E0.77104
G1 X59.603 Y51.151 E0.02387
G1 X73.973 Y65.52 E0.80482
G1 X73.973 Y66.124 E0.0239
G1 X59.001 Y51.151 E0.83861
G1 X58.398 Y51.151 E0.02387
G1 X73.974 Y66.727 E0.8724
G1 X73.974 Y67.169 E0.01753
G1 X73.936 Y67.293 E0.0051
G1 X57.795 Y51.151 E0.90407
G1 X57.192 Y51.151 E0.02387
G1 X73.795 Y67.754 E0.92993
G1 X73.756 Y67.884 E0.00537
G1 X73.582 Y68.144 E0.01239
G1 X56.59 Y51.152 E0.95174
G1 X55.987 Y51.152 E0.02387
G1 X73.273 Y68.438 E0.96817
G1 X73.165 Y68.536 E0.00577
G1 X72.897 Y68.665 E0.01179
G1 X55.384 Y51.152 E0.98088
G1 X54.781 Y51.152 E0.02387
G1 X72.435 Y68.806 E0.98877
G1 X72.07 Y68.859 E0.0146
G1 X71.885 Y68.859 E0.00732
G1 X54.178 Y51.152 E0.99173
G1 X53.576 Y51.152 E0.02387
G1 X71.282 Y68.859 E0.99172
G1 X70.679 Y68.859 E0.02388
G1 X52.973 Y51.152 E0.99171
G1 X52.37 Y51.153 E0.02387
G1 X70.076 Y68.859 E0.99171
G1 X69.473 Y68.859 E0.02388
G1 X51.767 Y51.153 E0.9917
G1 X51.164 Y51.153 E0.02387
G1 X68.87 Y68.859 E0.99169
G1 X68.267 Y68.859 E0.02388
G1 X50.562 Y51.153 E0.99168
G1 X49.959 Y51.153 E0.02387
G1 X67.664 Y68.859 E0.99167
G1 X67.061 Y68.859 E0.02388
G1 X49.356 Y51.153 E0.99166
G1 X48.753 Y51.154 E0.02387
G1 X66.458 Y68.859 E0.99165
G1 X65.855 Y68.859 E0.02388
G1 X48.151 Y51.154 E0.99164
G1 X47.548 Y51.154 E0.02387
G1 X65.253 Y68.859 E0.99163
G1 X64.65 Y68.859 E0.02388
G1 X46.945 Y51.154 E0.99162
G1 X46.342 Y51.154 E0.02387
G1 X64.047 Y68.859 E0.99161
G1 X63.444 Y68.859 E0.02388
G1 X46.036 Y51.451 E0.97501
G1 X46.035 Y52.053 E0.02385
G1 X62.841 Y68.859 E0.94128
G1 X62.238 Y68.859 E0.02388
G1 X46.034 Y52.655 E0.90756
G1 X46.033 Y53.257 E0.02385
G1 X61.635 Y68.859 E0.87384
G1 X61.032 Y68.859 E0.02388
G1 X46.032 Y53.859 E0.84011
G1 X46.032 Y54.461 E0.02385
G1 X60.429 Y68.859 E0.80639
G1 X59.826 Y68.859 E0.02388
G1 X46.031 Y55.063 E0.77267
G1 X46.03 Y55.665 E0.02385
G1 X59.223 Y68.859 E0.73895
G1 X58.62 Y68.859 E0.02388
G1 X46.029 Y56.268 E0.70522
G1 X46.028 Y56.87 E0.02385
G1 X58.017 Y68.859 E0.6715
G1 X57.414 Y68.859 E0.02388
G1 X46.027 Y57.472 E0.63778
G1 X46.026 Y58.074 E0.02385
G1 X56.811 Y68.859 E0.60405
G1 X56.208 Y68.859 E0.02388
G1 X46.026 Y58.676 E0.57033
G1 X46.025 Y59.278 E0.02385
G1 X55.605 Y68.859 E0.53661
G1 X55.002 Y68.859 E0.02388
G1 X46.024 Y59.88 E0.50288
G1 X46.023 Y60.482 E0.02385
G1 X54.399 Y68.859 E0.46916
G1 X53.796 Y68.859 E0.02388
G1 X46.022 Y61.084 E0.43544
G1 X46.021 Y61.686 E0.02385
G1 X53.194 Y68.859 E0.40171
G1 X52.591 Y68.859 E0.02388
G1 X46.02 Y62.289 E0.36799
G1 X46.02 Y62.891 E0.02385
G1 X51.988 Y68.859 E0.33427
G1 X51.385 Y68.859 E0.02388
G1 X46.019 Y63.493 E0.30055
G1 X46.018 Y64.095 E0.02385
G1 X50.782 Y68.859 E0.26682
G1 X50.179 Y68.859 E0.02388
G1 X46.017 Y64.697 E0.2331
G1 X46.016 Y65.299 E0.02385
G1 X49.576 Y68.859 E0.19938
G1 X48.973 Y68.859 E0.02388
G1 X46.015 Y65.901 E0.16565
G1 X46.014 Y66.503 E0.02385
G1 X48.37 Y68.859 E0.13193
G1 X47.924 Y68.859 E0.01767
G1 X47.751 Y68.843 E0.00687
G1 X46.041 Y67.133 E0.09575
G1 X46.1 Y67.538 E0.01622
G1 X46.327 Y68.022 E0.02115
G1 X47.21 Y68.905 E0.04947
;LAYER_CHANGE
;Z:0.45
;HEIGHT:0.2
;BEFORE_LAYER_CHANGE
;0.45


; stop printing object Longer_probe_pressfit_helper.stl id:0 copy 0
G1 Z0.45 F27000
;AFTER_LAYER_CHANGE
;0.45
G92 E0
M104 S235 ; set temperature
; printing object Longer_probe_pressfit_helper.stl id:0 copy 0
G1 X47.054 Y69.343
;TYPE:Internal perimeter
;WIDTH:0.45
G1 F8106.5218
G1 X46.921 Y69.296 E0.0043
G1 X46.701 Y69.192 E0.00747
G1 X46.492 Y69.066 E0.00747
G1 X46.296 Y68.921 E0.00747
G1 X46.115 Y68.757 E0.00747
G1 X45.951 Y68.577 E0.00747
G1 X45.806 Y68.381 E0.00747
G1 X45.681 Y68.172 E0.00747
G1 X45.576 Y67.951 E0.00747
G1 X45.494 Y67.721 E0.00747
G1 X45.435 Y67.485 E0.00747
G1 X45.399 Y67.244 E0.00747
G1 X45.385 Y66.964 E0.00857
G1 X45.385 Y51.074 E0.48678
G1 X45.412 Y50.871 E0.00627
G1 X45.457 Y50.761 E0.00363
G1 X45.53 Y50.663 E0.00374
G1 X45.628 Y50.588 E0.00377
G1 X45.747 Y50.539 E0.00394
G1 X45.946 Y50.513 E0.00617
G1 X74.199 Y50.524 E0.86546
G1 X74.361 Y50.58 E0.00526
G1 X74.505 Y50.699 E0.00572
G1 X74.539 Y50.749 E0.00185
G1 X74.593 Y50.882 E0.00442
G1 X74.615 Y51.059 E0.00546
G1 X74.615 Y66.964 E0.48721
G1 X74.601 Y67.244 E0.00857
G1 X74.565 Y67.485 E0.00747
G1 X74.506 Y67.721 E0.00747
G1 X74.424 Y67.951 E0.00747
G1 X74.319 Y68.172 E0.00747
G1 X74.194 Y68.381 E0.00747
G1 X74.049 Y68.577 E0.00747
G1 X73.885 Y68.757 E0.00747
G1 X73.704 Y68.921 E0.00747
G1 X73.508 Y69.066 E0.00747
G1 X73.299 Y69.192 E0.00747
G1 X73.079 Y69.296 E0.00747
G1 X72.849 Y69.378 E0.00747
G1 X72.612 Y69.438 E0.00747
G1 X72.371 Y69.473 E0.00747
G1 X72.092 Y69.487 E0.00857
G1 X47.908 Y69.487 E0.74081
G1 X47.629 Y69.473 E0.00857
G1 X47.388 Y69.438 E0.00747
G1 X47.11 Y69.364 E0.0088
G1 X46.916 Y69.727 F27000
G1 F8106.5218
G1 X46.765 Y69.673 E0.00491
G1 X46.509 Y69.551 E0.0087
G1 X46.265 Y69.405 E0.0087
G1 X46.037 Y69.236 E0.00869
G1 X45.827 Y69.046 E0.0087
G1 X45.636 Y68.835 E0.0087
G1 X45.467 Y68.607 E0.0087
G1 X45.321 Y68.364 E0.0087
G1 X45.2 Y68.107 E0.0087
G1 X45.104 Y67.84 E0.0087
G1 X45.035 Y67.564 E0.0087
G1 X44.994 Y67.284 E0.0087
G1 X44.978 Y66.974 E0.00949
G1 X44.978 Y51.048 E0.48788
G1 X45.015 Y50.766 E0.00871
G1 X45.1 Y50.557 E0.00689
G1 X45.172 Y50.45 E0.00396
G1 X45.239 Y50.374 E0.0031
G1 X45.422 Y50.233 E0.00707
G1 X45.64 Y50.142 E0.00724
G1 X45.92 Y50.106 E0.00865
G1 X74.237 Y50.117 E0.86742
G1 X74.367 Y50.141 E0.00405
G1 X74.471 Y50.177 E0.0034
G1 X74.566 Y50.225 E0.00324
G1 X74.76 Y50.372 E0.00746
G1 X74.828 Y50.45 E0.00316
G1 X74.9 Y50.557 E0.00396
G1 X74.991 Y50.779 E0.00733
G1 X75.012 Y50.883 E0.00324
G1 X75.022 Y51.035 E0.00467
G1 X75.022 Y66.974 E0.48827
G1 X75.006 Y67.284 E0.00949
G1 X74.965 Y67.564 E0.0087
G1 X74.896 Y67.84 E0.0087
G1 X74.8 Y68.107 E0.0087
G1 X74.679 Y68.364 E0.0087
G1 X74.533 Y68.607 E0.0087
G1 X74.364 Y68.835 E0.0087
G1 X74.173 Y69.046 E0.0087
G1 X73.963 Y69.236 E0.0087
G1 X73.735 Y69.405 E0.00869
G1 X73.491 Y69.551 E0.0087
G1 X73.235 Y69.673 E0.0087
G1 X72.967 Y69.768 E0.00869
G1 X72.692 Y69.837 E0.0087
G1 X72.411 Y69.879 E0.0087
G1 X72.102 Y69.894 E0.00949
G1 X47.898 Y69.894 E0.74142
G1 X47.589 Y69.879 E0.00949
G1 X47.308 Y69.837 E0.0087
G1 X47.033 Y69.768 E0.0087
G1 X46.973 Y69.747 E0.00195
G1 X46.779 Y70.11 F27000
G1 F8106.5218
G1 X46.609 Y70.049 E0.00552
G1 X46.317 Y69.911 E0.00992
G1 X46.039 Y69.744 E0.00992
G1 X45.779 Y69.551 E0.00992
G1 X45.539 Y69.334 E0.00992
G1 X45.321 Y69.094 E0.00992
G1 X45.128 Y68.834 E0.00992
G1 X44.962 Y68.556 E0.00992
G1 X44.823 Y68.263 E0.00992
G1 X44.714 Y67.958 E0.00992
G1 X44.635 Y67.644 E0.00992
G1 X44.588 Y67.323 E0.00992
G1 X44.571 Y66.984 E0.01041
G1 X44.571 Y51.021 E0.48899
G1 X44.584 Y50.829 E0.00591
G1 X44.618 Y50.661 E0.00525
G1 X44.674 Y50.497 E0.0053
G1 X44.739 Y50.366 E0.00448
G1 X44.848 Y50.201 E0.00608
G1 X44.96 Y50.075 E0.00516
G1 X45.092 Y49.961 E0.00535
G1 X45.216 Y49.878 E0.00454
G1 X45.371 Y49.801 E0.00532
G1 X45.533 Y49.745 E0.00525
G1 X45.701 Y49.712 E0.00526
G1 X45.894 Y49.699 E0.00591
G1 X74.106 Y49.699 E0.86423
G1 X74.275 Y49.71 E0.00517
G1 X74.471 Y49.747 E0.00611
G1 X74.629 Y49.801 E0.00513
G1 X74.783 Y49.878 E0.00526
G1 X74.927 Y49.975 E0.00533
G1 X75.038 Y50.073 E0.00454
G1 X75.152 Y50.201 E0.00524
G1 X75.261 Y50.366 E0.00608
G1 X75.326 Y50.497 E0.00448
G1 X75.382 Y50.661 E0.0053
G1 X75.416 Y50.829 E0.00526
G1 X75.429 Y51.021 E0.00591
G1 X75.429 Y66.984 E0.48899
G1 X75.412 Y67.324 E0.01041
G1 X75.365 Y67.644 E0.00992
G1 X75.286 Y67.958 E0.00992
G1 X75.177 Y68.263 E0.00992
G1 X75.038 Y68.556 E0.00992
G1 X74.872 Y68.834 E0.00992
G1 X74.679 Y69.094 E0.00992
G1 X74.461 Y69.334 E0.00992
G1 X74.221 Y69.551 E0.00992
G1 X73.961 Y69.744 E0.00992
G1 X73.683 Y69.911 E0.00992
G1 X73.391 Y70.049 E0.00992
G1 X73.086 Y70.158 E0.00992
G1 X72.771 Y70.237 E0.00992
G1 X72.451 Y70.285 E0.00992
G1 X72.112 Y70.301 E0.01041
