; generated by SuperSlicer 2.5.59 on 2022-12-11 at 23:28:50 UTC


;
;

;
;
; 

; external perimeters extrusion width = 0.40mm
; perimeters extrusion width = 0.45mm
; infill extrusion width = 0.72mm
; solid infill extrusion width = 0.56mm
; top infill extrusion width = 0.40mm
; first layer extrusion width = 0.48mm

; external perimeters extrusion width = 0.40mm
; perimeters extrusion width = 0.45mm
; infill extrusion width = 0.72mm
; solid infill extrusion width = 0.56mm
; top infill extrusion width = 0.40mm
; first layer extrusion width = 0.48mm

; object:{"name":"MakerBeam_XL_Nut_v2","id":"MakerBeam_XL_Nut_v2 id:0 copy 0","object_center":[53.650000,60.000000,0.000000],"boundingbox_center":[53.650000,60.000000,1.050000],"boundingbox_size":[6.700000,15.000000,2.100000]}
; object:{"name":"MakerBeam_XL_Nut_v2","id":"MakerBeam_XL_Nut_v2 id:1 copy 0","object_center":[66.350000,60.000001,0.000000],"boundingbox_center":[66.350000,60.000001,1.050000],"boundingbox_size":[6.700000,15.000000,2.100000]}
; plater:{"center":[60.000000,60.000000,0.000000],"boundingbox_center":[60.000000,60.000000,1.050000],"boundingbox_size":[19.400000,15.000001,2.100000]}

;TYPE:Custom
; M190 S0
; M109 S0 ; uncomment to remove set&wait temp gcode added automatically after this start gcode
print_start EXTRUDER=230 BED=110 CHAMBER=50


; Pre-Processed for Cancel-Object support by preprocess_cancellation v0.2.0
; 2 known objects
EXCLUDE_OBJECT_DEFINE NAME=MakerBeam_XL_Nut_v2_id_0_copy_0 CENTER=53.638,60.006 POLYGON=[[50.5,52.701],[50.5,67.3],[56.8,67.3],[56.8,52.701]]
EXCLUDE_OBJECT_DEFINE NAME=MakerBeam_XL_Nut_v2_id_1_copy_0 CENTER=66.297,60.015 POLYGON=[[63.2,52.701],[63.2,67.3],[69.5,67.3],[69.5,52.701]]
M107
G21 ; set units to millimeters
G90 ; use absolute coordinates
M83 ; use relative distances for extrusion
;_TOOLCHANGE 0
M104 S230 ; set temperature
M109 S230 ; set temperature and wait for it to be reached
M190 S110 ; set bed temperature and wait for it to be reached
M107
;LAYER_CHANGE
;Z:0.25
;HEIGHT:0.25
;BEFORE_LAYER_CHANGE
;0.25


G1 Z0.25 F27000
;AFTER_LAYER_CHANGE
;0.25
G92 E0
G1 E-2 F3000
M204 S1500
G1 Z0.65 F27000
; printing object MakerBeam_XL_Nut_v2 id:0 copy 0
EXCLUDE_OBJECT_START NAME=MakerBeam_XL_Nut_v2_id_0_copy_0
G1 X51.92 Y63.06
G1 Z0.25
G1 E2 F1800
;TYPE:Internal perimeter
;WIDTH:0.48
G1 F900
G1 X52.443 Y63.315 E0.02337
G1 X53.145 Y63.49 E0.02901
G1 X53.787 Y63.524 E0.02579
G1 X54.503 Y63.423 E0.02901
G1 X55.38 Y63.104 E0.03742
G1 X55.381 Y65.876 E0.11118
G1 X51.92 Y65.88 E0.1388
G1 X51.92 Y63.12 E0.1107
G1 X51.493 Y62.238 F27000
G1 F900
G1 X52.017 Y62.633 E0.02631
G1 X52.59 Y62.912 E0.02556
G1 X53.208 Y63.067 E0.02556
G1 X53.769 Y63.096 E0.02249
G1 X54.4 Y63.007 E0.02556
G1 X54.999 Y62.789 E0.02556
G1 X55.48 Y62.5 E0.02249
G1 X55.806 Y62.206 E0.01764
G1 X55.807 Y66.302 E0.16427
G1 X51.493 Y66.307 E0.173
G1 X51.493 Y62.298 E0.16077
G1 X51.317 Y61.28 F27000
G1 F900
G1 X51.494 Y61.575 E0.0138
G1 X51.859 Y61.98 E0.02185
G1 X52.241 Y62.268 E0.0192
G1 X52.737 Y62.51 E0.02212
G1 X53.272 Y62.643 E0.02212
G1 X53.75 Y62.668 E0.0192
G1 X54.296 Y62.591 E0.02212
G1 X54.814 Y62.403 E0.02212
G1 X55.225 Y62.156 E0.0192
G1 X55.63 Y61.791 E0.02185
G1 X56 Y61.3 E0.02467
G1 X56.233 Y61.378 E0.00985
G1 X56.234 Y66.445 E0.2032
G1 X56.208 Y66.601 E0.00635
G1 X56.133 Y66.682 E0.00441
G1 X56.085 Y66.71 E0.00225
G1 X56.01 Y66.728 E0.00309
G1 X51.355 Y66.733 E0.18669
G1 X51.232 Y66.714 E0.005
G1 X51.168 Y66.681 E0.00286
G1 X51.096 Y66.609 E0.00412
G1 X51.067 Y66.461 E0.00603
G1 X51.067 Y61.349 E0.20502
G1 X51.259 Y61.296 E0.008
G1 E-2 F3000
G1 Z0.65 F27000
G1 X51.919 Y56.896
G1 Z0.25
G1 E2 F1800
G1 F900
G1 X51.919 Y54.125 E0.11114
G1 X55.379 Y54.126 E0.13874
G1 X55.379 Y56.94 E0.11282
G1 X54.857 Y56.685 E0.02331
G1 X54.155 Y56.51 E0.02901
G1 X53.513 Y56.476 E0.02579
G1 X52.797 Y56.577 E0.02901
G1 X51.976 Y56.876 E0.03503
G1 X51.493 Y57.795 F27000
G1 F900
G1 X51.493 Y53.698 E0.16428
G1 X55.805 Y53.7 E0.17293
G1 X55.806 Y57.761 E0.16285
G1 X55.283 Y57.367 E0.02625
G1 X54.71 Y57.088 E0.02556
G1 X54.092 Y56.933 E0.02556
G1 X53.531 Y56.904 E0.02249
G1 X52.9 Y56.993 E0.02556
G1 X52.301 Y57.211 E0.02556
G1 X51.82 Y57.5 E0.02249
G1 X51.538 Y57.754 E0.01527
G1 X51.3 Y58.701 F27000
G1 F900
G1 X51.067 Y58.623 E0.00985
G1 X51.066 Y53.555 E0.20323
G1 X51.092 Y53.399 E0.00635
G1 X51.167 Y53.318 E0.00441
G1 X51.215 Y53.29 E0.00225
G1 X51.29 Y53.272 E0.00309
G1 X55.965 Y53.267 E0.1875
G1 X56.035 Y53.274 E0.0028
G1 X56.114 Y53.306 E0.00343
G1 X56.181 Y53.368 E0.00367
G1 X56.231 Y53.476 E0.00477
G1 X56.232 Y58.649 E0.20745
G1 X55.982 Y58.718 E0.0104
G1 X55.806 Y58.425 E0.01372
G1 X55.441 Y58.02 E0.02185
G1 X55.059 Y57.732 E0.0192
G1 X54.563 Y57.49 E0.02212
G1 X54.028 Y57.357 E0.02212
G1 X53.55 Y57.332 E0.0192
G1 X53.004 Y57.409 E0.02212
G1 X52.486 Y57.597 E0.02212
G1 X52.075 Y57.844 E0.0192
G1 X51.67 Y58.209 E0.02185
G1 X51.336 Y58.653 E0.02231
M204 S1000
G1 X52.33 Y58.188 F27000
;TYPE:External perimeter
G1 F900
G1 X51.986 Y58.498 E0.01856
G1 X51.747 Y58.815 E0.01591
G1 X51.543 Y59.233 E0.01867
G1 X51.431 Y59.685 E0.01868
G1 X51.41 Y60.081 E0.01591
G1 X51.475 Y60.542 E0.01867
G1 X51.634 Y60.98 E0.01868
G1 X51.838 Y61.32 E0.01591
G1 X52.148 Y61.664 E0.01856
G1 X52.465 Y61.903 E0.01591
G1 X52.883 Y62.107 E0.01867
G1 X53.335 Y62.219 E0.01868
G1 X53.731 Y62.24 E0.01591
G1 X54.192 Y62.175 E0.01867
G1 X54.63 Y62.016 E0.01868
G1 X54.97 Y61.812 E0.01591
G1 X55.314 Y61.502 E0.01856
G1 X55.553 Y61.185 E0.01591
G1 X55.757 Y60.767 E0.01867
G1 X55.869 Y60.315 E0.01868
G1 X55.89 Y59.919 E0.01591
G1 X55.825 Y59.458 E0.01867
G1 X55.666 Y59.02 E0.01868
G1 X55.462 Y58.68 E0.01591
G1 X55.152 Y58.336 E0.01856
G1 X54.835 Y58.097 E0.01591
G1 X54.417 Y57.893 E0.01867
G1 X53.965 Y57.781 E0.01868
G1 X53.569 Y57.76 E0.01591
G1 X53.108 Y57.825 E0.01867
G1 X52.67 Y57.984 E0.01868
G1 X52.381 Y58.157 E0.0135
;WIPE_START
M204 S1500
G1 X51.958 Y58.041 F27000
;WIPE_END
M204 S1000
G1 X50.64 Y58.188
G1 F900
G1 X50.64 Y53.521 E0.18718
G1 X50.677 Y53.295 E0.00919
G1 X50.754 Y53.136 E0.00711
G1 X50.898 Y52.981 E0.00847
G1 X51.054 Y52.891 E0.00721
G1 X51.237 Y52.845 E0.00758
G1 X55.988 Y52.84 E0.19052
G1 X56.139 Y52.856 E0.0061
G1 X56.346 Y52.94 E0.00895
G1 X56.533 Y53.113 E0.0102
G1 X56.64 Y53.344 E0.0102
G1 X56.658 Y53.457 E0.00461
G1 X56.66 Y66.479 E0.52223
G1 X56.623 Y66.705 E0.00919
G1 X56.546 Y66.864 E0.00711
G1 X56.402 Y67.019 E0.00847
G1 X56.246 Y67.109 E0.00721
G1 X56.063 Y67.155 E0.00758
G1 X51.321 Y67.16 E0.19016
G1 X51.098 Y67.124 E0.00906
G1 X50.915 Y67.031 E0.00825
G1 X50.767 Y66.883 E0.00835
G1 X50.684 Y66.727 E0.00709
G1 X50.641 Y66.502 E0.0092
G1 X50.64 Y58.248 E0.33101
;WIPE_START
M204 S1500
G1 X50.987 Y57.988 F27000
;WIPE_END
G1 X51.147 Y58.856
;TYPE:Gap fill
;WIDTH:0.604713
G1 F900
G1 X51.138 Y58.94 E0.00438
;WIDTH:0.558082
G1 X51.099 Y59.118 E0.00861
G1 X51.069 Y59.362 E0.0117
;WIDTH:0.499528
G1 X51.054 Y59.485 E0.00517
;WIDTH:0.458866
G1 X51.036 Y59.646 E0.00617
G1 X51.031 Y59.863 E0.00828
;WIDTH:0.430949
G1 X51.025 Y60.08 E0.00771
G1 X51.026 Y60.116 E0.00129
G1 X51.043 Y60.369 E0.00899
;WIDTH:0.503156
G1 X51.061 Y60.621 E0.0107
G1 X51.067 Y60.669 E0.00203
;WIDTH:0.548861
G1 X51.101 Y60.862 E0.00912
;WIDTH:0.582848
G1 X51.131 Y60.991 E0.00659
;WIDTH:0.635767
G1 X51.161 Y61.12 E0.00725
G1 E-2 F3000
G1 Z0.65 F27000
G1 X56.152 Y61.145
G1 Z0.25
G1 E2 F1800
;WIDTH:0.601664
G1 F900
G1 X56.161 Y61.061 E0.00433
;WIDTH:0.557542
G1 X56.2 Y60.884 E0.00861
G1 X56.215 Y60.761 E0.00586
G1 X56.23 Y60.638 E0.00586
;WIDTH:0.498796
G1 X56.245 Y60.516 E0.00517
;WIDTH:0.458005
G1 X56.263 Y60.354 E0.00617
G1 X56.269 Y60.137 E0.00826
;WIDTH:0.430029
G1 X56.275 Y59.92 E0.00769
G1 X56.274 Y59.884 E0.00128
G1 X56.256 Y59.631 E0.00896
;WIDTH:0.502156
G1 X56.238 Y59.379 E0.01068
G1 X56.233 Y59.331 E0.00202
;WIDTH:0.548211
G1 X56.198 Y59.136 E0.00921
;WIDTH:0.582578
G1 X56.168 Y59.007 E0.00658
;WIDTH:0.63547
G1 X56.138 Y58.879 E0.00724
G1 E-2 F3000
G1 Z0.65 F27000
G1 X54.452 Y54.19
G1 Z0.25
G1 E2 F1800
;TYPE:Solid infill
;WIDTH:0.448743
G1 F1200
G1 X55.132 Y54.869 E0.03601
G1 X55.132 Y55.472 E0.02261
G1 X54.033 Y54.373 E0.05827
G1 X53.429 Y54.373 E0.02262
G1 X55.132 Y56.075 E0.09026
G1 X55.132 Y56.499 E0.01588
G1 X54.893 Y56.439 E0.00924
G1 X52.826 Y54.372 E0.10958
G1 X52.223 Y54.372 E0.02262
G1 X54.111 Y56.26 E0.1001
G1 X53.502 Y56.228 E0.02286
G1 X53.479 Y56.231 E0.00086
G1 X52.166 Y54.919 E0.0696
G1 X52.166 Y55.522 E0.02261
G1 X52.95 Y56.306 E0.04157
G1 X52.736 Y56.336 E0.0081
G1 X52.473 Y56.431 E0.0105
G1 X51.983 Y55.941 E0.02599
G1 E-2 F3000
G1 Z0.65 F27000
G1 X55.316 Y64.048
G1 Z0.25
G1 E2 F1800
;WIDTH:0.448951
G1 F1200
G1 X54.834 Y63.566 E0.02558
G1 X54.564 Y63.664 E0.0108
G1 X54.359 Y63.693 E0.00777
G1 X55.133 Y64.468 E0.0411
G1 X55.133 Y65.071 E0.02262
G1 X53.83 Y63.768 E0.06914
G1 X53.798 Y63.772 E0.0012
G1 X53.2 Y63.741 E0.02246
G1 X55.089 Y65.629 E0.10019
G1 X54.486 Y65.63 E0.02259
G1 X52.421 Y63.564 E0.10958
G1 X52.167 Y63.501 E0.00982
G1 X52.167 Y63.913 E0.01546
G1 X53.884 Y65.631 E0.0911
G1 X53.282 Y65.631 E0.02259
G1 X52.167 Y64.516 E0.05915
G1 X52.167 Y65.119 E0.02262
G1 X52.863 Y65.815 E0.03692
G1 E-2 F3000
G1 Z0.65 F27000
; stop printing object MakerBeam_XL_Nut_v2 id:0 copy 0
EXCLUDE_OBJECT_END NAME=MakerBeam_XL_Nut_v2_id_0_copy_0
; printing object MakerBeam_XL_Nut_v2 id:1 copy 0
EXCLUDE_OBJECT_START NAME=MakerBeam_XL_Nut_v2_id_1_copy_0
G1 X64.62 Y63.06
G1 Z0.25
G1 E2 F1800
;TYPE:Internal perimeter
;WIDTH:0.48
G1 F900
G1 X65.143 Y63.315 E0.02337
G1 X65.845 Y63.49 E0.02901
G1 X66.487 Y63.524 E0.02579
G1 X67.203 Y63.423 E0.02901
G1 X68.08 Y63.104 E0.03742
G1 X68.081 Y65.876 E0.11118
G1 X64.62 Y65.88 E0.1388
G1 X64.62 Y63.12 E0.1107
G1 X64.193 Y62.238 F27000
G1 F900
G1 X64.717 Y62.633 E0.02631
G1 X65.29 Y62.912 E0.02556
G1 X65.908 Y63.067 E0.02556
G1 X66.469 Y63.096 E0.02249
G1 X67.1 Y63.007 E0.02556
G1 X67.699 Y62.789 E0.02556
G1 X68.18 Y62.5 E0.02249
G1 X68.506 Y62.206 E0.01764
G1 X68.507 Y66.302 E0.16427
G1 X64.193 Y66.307 E0.173
G1 X64.193 Y62.298 E0.16077
G1 X64.017 Y61.28 F27000
G1 F900
G1 X64.194 Y61.575 E0.0138
G1 X64.559 Y61.98 E0.02185
G1 X64.941 Y62.268 E0.0192
G1 X65.437 Y62.51 E0.02212
G1 X65.972 Y62.643 E0.02212
G1 X66.45 Y62.668 E0.0192
G1 X66.996 Y62.591 E0.02212
G1 X67.514 Y62.403 E0.02212
G1 X67.925 Y62.156 E0.0192
G1 X68.33 Y61.791 E0.02185
G1 X68.7 Y61.3 E0.02467
G1 X68.933 Y61.378 E0.00985
G1 X68.934 Y66.445 E0.2032
G1 X68.908 Y66.601 E0.00635
G1 X68.833 Y66.682 E0.00441
G1 X68.785 Y66.71 E0.00225
G1 X68.71 Y66.728 E0.00309
G1 X64.055 Y66.733 E0.18669
G1 X63.932 Y66.714 E0.005
G1 X63.868 Y66.681 E0.00286
G1 X63.796 Y66.609 E0.00412
G1 X63.767 Y66.461 E0.00603
G1 X63.767 Y61.349 E0.20502
G1 X63.959 Y61.296 E0.008
G1 E-2 F3000
G1 Z0.65 F27000
G1 X64.619 Y56.896
G1 Z0.25
G1 E2 F1800
G1 F900
G1 X64.619 Y54.125 E0.11114
G1 X68.079 Y54.126 E0.13874
G1 X68.079 Y56.94 E0.11282
G1 X67.557 Y56.685 E0.02331
G1 X66.855 Y56.51 E0.02901
G1 X66.213 Y56.476 E0.02579
G1 X65.497 Y56.577 E0.02901
G1 X64.676 Y56.876 E0.03503
G1 X64.193 Y57.795 F27000
G1 F900
G1 X64.193 Y53.698 E0.16428
G1 X68.505 Y53.7 E0.17293
G1 X68.506 Y57.761 E0.16285
G1 X67.983 Y57.367 E0.02625
G1 X67.41 Y57.088 E0.02556
G1 X66.792 Y56.933 E0.02556
G1 X66.231 Y56.904 E0.02249
G1 X65.6 Y56.993 E0.02556
G1 X65.001 Y57.211 E0.02556
G1 X64.52 Y57.5 E0.02249
G1 X64.238 Y57.754 E0.01527
G1 X64 Y58.701 F27000
G1 F900
G1 X63.767 Y58.623 E0.00985
G1 X63.766 Y53.555 E0.20323
G1 X63.792 Y53.399 E0.00635
G1 X63.867 Y53.318 E0.00441
G1 X63.915 Y53.29 E0.00225
G1 X63.99 Y53.272 E0.00309
G1 X68.665 Y53.267 E0.1875
G1 X68.735 Y53.274 E0.0028
G1 X68.814 Y53.306 E0.00343
G1 X68.881 Y53.368 E0.00367
G1 X68.931 Y53.476 E0.00477
G1 X68.932 Y58.649 E0.20745
G1 X68.682 Y58.718 E0.0104
G1 X68.506 Y58.425 E0.01372
G1 X68.141 Y58.02 E0.02185
G1 X67.759 Y57.732 E0.0192
G1 X67.263 Y57.49 E0.02212
G1 X66.728 Y57.357 E0.02212
G1 X66.25 Y57.332 E0.0192
G1 X65.704 Y57.409 E0.02212
G1 X65.186 Y57.597 E0.02212
G1 X64.775 Y57.844 E0.0192
G1 X64.37 Y58.209 E0.02185
G1 X64.036 Y58.653 E0.02231
M204 S1000
G1 X64.432 Y58.846 F27000
;TYPE:External perimeter
G1 F900
G1 X64.243 Y59.233 E0.01727
G1 X64.131 Y59.685 E0.01868
G1 X64.11 Y60.081 E0.01591
G1 X64.175 Y60.542 E0.01867
G1 X64.334 Y60.98 E0.01868
G1 X64.538 Y61.32 E0.01591
G1 X64.848 Y61.664 E0.01856
G1 X65.165 Y61.903 E0.01591
G1 X65.583 Y62.107 E0.01867
G1 X66.035 Y62.219 E0.01868
G1 X66.431 Y62.24 E0.01591
G1 X66.892 Y62.175 E0.01867
G1 X67.33 Y62.016 E0.01868
G1 X67.67 Y61.812 E0.01591
G1 X68.014 Y61.502 E0.01856
G1 X68.253 Y61.185 E0.01591
G1 X68.457 Y60.767 E0.01867
G1 X68.569 Y60.315 E0.01868
G1 X68.59 Y59.919 E0.01591
G1 X68.525 Y59.458 E0.01867
G1 X68.366 Y59.02 E0.01868
G1 X68.162 Y58.68 E0.01591
G1 X67.852 Y58.336 E0.01856
G1 X67.535 Y58.097 E0.01591
G1 X67.117 Y57.893 E0.01867
G1 X66.665 Y57.781 E0.01868
G1 X66.269 Y57.76 E0.01591
G1 X65.808 Y57.825 E0.01867
G1 X65.37 Y57.984 E0.01868
G1 X65.03 Y58.188 E0.01591
G1 X64.686 Y58.498 E0.01856
G1 X64.462 Y58.795 E0.01491
;WIPE_START
M204 S1500
G1 X64.032 Y58.851 F27000
;WIPE_END
M204 S1000
G1 X63.34 Y58.851
G1 F900
G1 X63.34 Y53.521 E0.21374
G1 X63.377 Y53.295 E0.00919
G1 X63.454 Y53.136 E0.00711
G1 X63.598 Y52.981 E0.00847
G1 X63.754 Y52.891 E0.00721
G1 X63.937 Y52.845 E0.00758
G1 X68.688 Y52.84 E0.19052
G1 X68.839 Y52.856 E0.0061
G1 X69.046 Y52.94 E0.00895
G1 X69.233 Y53.113 E0.0102
G1 X69.34 Y53.344 E0.0102
G1 X69.358 Y53.457 E0.00461
G1 X69.36 Y66.479 E0.52223
G1 X69.323 Y66.705 E0.00919
G1 X69.246 Y66.864 E0.00711
G1 X69.102 Y67.019 E0.00847
G1 X68.946 Y67.109 E0.00721
G1 X68.763 Y67.155 E0.00758
G1 X64.021 Y67.16 E0.19016
G1 X63.798 Y67.124 E0.00906
G1 X63.615 Y67.031 E0.00825
G1 X63.467 Y66.883 E0.00835
G1 X63.384 Y66.727 E0.00709
G1 X63.341 Y66.502 E0.0092
G1 X63.34 Y58.911 E0.30445
;WIPE_START
M204 S1500
G1 X63.687 Y58.651 F27000
;WIPE_END
G1 X63.847 Y58.856
;TYPE:Gap fill
;WIDTH:0.604713
G1 F900
G1 X63.838 Y58.94 E0.00438
;WIDTH:0.558082
G1 X63.799 Y59.118 E0.00861
G1 X63.769 Y59.362 E0.0117
;WIDTH:0.499528
G1 X63.754 Y59.485 E0.00517
;WIDTH:0.458866
G1 X63.736 Y59.646 E0.00617
G1 X63.731 Y59.863 E0.00828
;WIDTH:0.430949
G1 X63.725 Y60.08 E0.00771
G1 X63.726 Y60.116 E0.00129
G1 X63.743 Y60.369 E0.00899
;WIDTH:0.503156
G1 X63.761 Y60.621 E0.0107
G1 X63.767 Y60.669 E0.00203
;WIDTH:0.548861
G1 X63.801 Y60.862 E0.00912
;WIDTH:0.582848
G1 X63.831 Y60.991 E0.00659
;WIDTH:0.635767
G1 X63.861 Y61.12 E0.00725
G1 E-2 F3000
G1 Z0.65 F27000
G1 X68.852 Y61.145
G1 Z0.25
G1 E2 F1800
;WIDTH:0.601664
G1 F900
G1 X68.861 Y61.061 E0.00433
;WIDTH:0.557542
G1 X68.9 Y60.884 E0.00861
G1 X68.915 Y60.761 E0.00586
G1 X68.93 Y60.638 E0.00586
;WIDTH:0.498796
G1 X68.945 Y60.516 E0.00517
;WIDTH:0.458005
G1 X68.963 Y60.354 E0.00617
G1 X68.969 Y60.137 E0.00826
;WIDTH:0.430029
G1 X68.975 Y59.92 E0.00769
G1 X68.974 Y59.884 E0.00128
G1 X68.956 Y59.631 E0.00896
;WIDTH:0.502156
G1 X68.938 Y59.379 E0.01068
G1 X68.933 Y59.331 E0.00202
;WIDTH:0.548211
G1 X68.898 Y59.136 E0.00921
;WIDTH:0.582578
G1 X68.868 Y59.007 E0.00658
;WIDTH:0.63547
G1 X68.838 Y58.879 E0.00724
G1 E-2 F3000
G1 Z0.65 F27000
G1 X67.152 Y54.19
G1 Z0.25
G1 E2 F1800
;TYPE:Solid infill
;WIDTH:0.448743
G1 F1200
G1 X67.832 Y54.869 E0.03601
G1 X67.832 Y55.472 E0.02261
G1 X66.733 Y54.373 E0.05827
G1 X66.129 Y54.373 E0.02262
G1 X67.832 Y56.075 E0.09026
G1 X67.832 Y56.499 E0.01588
G1 X67.593 Y56.439 E0.00924
G1 X65.526 Y54.372 E0.10958
G1 X64.923 Y54.372 E0.02262
G1 X66.811 Y56.26 E0.1001
G1 X66.202 Y56.228 E0.02286
G1 X66.179 Y56.231 E0.00086
G1 X64.866 Y54.919 E0.0696
G1 X64.866 Y55.522 E0.02261
G1 X65.65 Y56.306 E0.04157
G1 X65.436 Y56.336 E0.0081
G1 X65.173 Y56.431 E0.0105
G1 X64.683 Y55.941 E0.02599
G1 E-2 F3000
G1 Z0.65 F27000
G1 X68.016 Y64.048
G1 Z0.25
G1 E2 F1800
;WIDTH:0.448951
G1 F1200
G1 X67.534 Y63.566 E0.02558
G1 X67.264 Y63.664 E0.0108
G1 X67.059 Y63.693 E0.00777
G1 X67.833 Y64.468 E0.0411
G1 X67.833 Y65.071 E0.02262
G1 X66.53 Y63.768 E0.06914
G1 X66.498 Y63.772 E0.0012
G1 X65.9 Y63.741 E0.02246
G1 X67.789 Y65.629 E0.10019
G1 X67.186 Y65.63 E0.02259
G1 X65.121 Y63.564 E0.10958
