; generated by SuperSlicer 2.3.57 on 2022-02-06 at 01:28:11 UTC


;
;

;
;
; TODO: check the size of the extruder and the y-bar clearance. Optimize & test supports.

; external perimeters extrusion width = 0.43mm
; perimeters extrusion width = 0.48mm
; infill extrusion width = 0.44mm
; solid infill extrusion width = 0.48mm
; top infill extrusion width = 0.46mm
; first layer extrusion width = 0.56mm

; object:{"name":"AIl_In_One_3D_printer_test_nano","id":"AIl_In_One_3D_printer_test_nano.stl id:0 copy 0","object_center":[60.000000,60.000000,0.000000],"boundingbox_center":[60.000000,60.000000,24.306349],"boundingbox_size":[10.000000,50.000000,48.612698]}
; plater:{"center":[60.000000,60.000000,0.000000],"boundingbox_center":[60.000000,60.000000,24.306349],"boundingbox_size":[10.000000,50.000000,48.612698]}

;TYPE:Custom
; M190 S0
; M109 S0 ; uncomment to remove set&wait temp gcode added automatically after this start gcode
print_start EXTRUDER=210 BED=60 CHAMBER=15
M107
G21 ; set units to millimeters
G90 ; use absolute coordinates
M83 ; use relative distances for extrusion
M104 S210 ; set temperature
M109 S210 ; set temperature and wait for it to be reached
M190 S60 ; set bed temperature and wait for it to be reached
;LAYER_CHANGE
;Z:0.2
;HEIGHT:0.2
;BEFORE_LAYER_CHANGE
;0.2


G1 Z0.2 F18000
;AFTER_LAYER_CHANGE
;0.2
G1 E-2 F3000
G1 Z0.6 F18000
M204 S1500
G1 X46.611 Y27.776
G1 Z0.2
G1 E2 F1800
;TYPE:Skirt
;WIDTH:0.52
G1 X46.095 Y28.859 E0.0476
G1 X45.907 Y30.09 E0.04938
G1 X45.911 Y90.076 E2.37963
G1 X46.159 Y91.332 E0.05077
G1 X46.778 Y92.458 E0.05097
G1 X47.705 Y93.341 E0.05077
G1 X48.859 Y93.905 E0.05097
G1 X50.07 Y94.093 E0.04859
G1 X70.359 Y94.068 E0.80486
G1 X71.534 Y93.761 E0.04819
G1 X72.569 Y93.134 E0.04799
G1 X73.381 Y92.237 E0.04799
G1 X73.905 Y91.141 E0.04819
G1 X74.093 Y89.91 E0.04938
G1 X74.085 Y29.843 E2.38283
G1 X73.963 Y29.064 E0.03126
G1 X73.697 Y28.322 E0.03126
G1 X73.295 Y27.639 E0.03146
G1 X72.774 Y27.047 E0.03126
G1 X72.152 Y26.564 E0.03126
G1 X71.446 Y26.203 E0.03146
G1 X70.689 Y25.982 E0.03126
G1 X69.905 Y25.907 E0.03126
G1 X49.586 Y25.939 E0.80605
G1 X48.433 Y26.253 E0.0474
G1 X47.412 Y26.883 E0.0476
G1 X46.651 Y27.731 E0.04522
G1 X46.832 Y27.881 F18000
M204 S1000
G1 X47.014 Y28.03
G1 F1800
G1 X46.553 Y28.993 E0.04236
G1 X46.384 Y30.09 E0.04404
G1 X46.387 Y90.041 E2.37819
G1 X46.604 Y91.158 E0.04516
G1 X47.149 Y92.158 E0.04516
G1 X47.971 Y92.945 E0.04516
G1 X48.993 Y93.447 E0.04516
G1 X50.071 Y93.616 E0.04329
G1 X70.269 Y93.597 E0.80122
G1 X71.318 Y93.334 E0.04292
G1 X72.248 Y92.78 E0.04292
G1 X72.978 Y91.982 E0.04292
G1 X73.447 Y91.007 E0.04292
G1 X73.616 Y89.91 E0.04404
G1 X73.61 Y29.897 E2.38065
G1 X73.506 Y29.206 E0.02773
G1 X73.273 Y28.542 E0.02792
G1 X72.919 Y27.934 E0.02792
G1 X72.456 Y27.404 E0.02792
G1 X71.902 Y26.97 E0.02792
G1 X71.28 Y26.65 E0.02773
G1 X70.605 Y26.452 E0.02792
G1 X69.905 Y26.384 E0.02792
G1 X49.688 Y26.407 E0.80197
G1 X48.651 Y26.679 E0.04255
G1 X47.734 Y27.235 E0.04255
G1 X47.055 Y27.986 E0.04016
M204 S1500
G1 X47.238 Y28.132 F18000
M204 S1000
G1 X47.422 Y28.279
G1 F1800
G1 X47.011 Y29.128 E0.03743
G1 X46.861 Y30.091 E0.03865
G1 X46.863 Y90.008 E2.37685
G1 X47.048 Y90.982 E0.03935
G1 X47.521 Y91.859 E0.03953
G1 X48.235 Y92.548 E0.03935
G1 X49.128 Y92.989 E0.03953
G1 X50.078 Y93.138 E0.03813
G1 X70.185 Y93.126 E0.79764
G1 X71.107 Y92.905 E0.03761
G1 X71.929 Y92.424 E0.03778
G1 X72.573 Y91.728 E0.03761
G1 X72.989 Y90.872 E0.03778
G1 X73.139 Y89.909 E0.03865
G1 X73.135 Y29.944 E2.37879
G1 X73.046 Y29.333 E0.02448
G1 X72.846 Y28.754 E0.0243
G1 X72.539 Y28.223 E0.0243
G1 X72.136 Y27.757 E0.02448
G1 X71.651 Y27.375 E0.02448
G1 X71.106 Y27.094 E0.0243
G1 X70.519 Y26.921 E0.0243
G1 X69.904 Y26.861 E0.02448
G1 X49.779 Y26.877 E0.79834
G1 X48.864 Y27.107 E0.03743
G1 X48.057 Y27.587 E0.03726
G1 X47.463 Y28.235 E0.03488
G1 E-2 F3000
M204 S1500
G1 Z0.6 F18000
G1 X49.534 Y30.306
M204 S1000
G1 X51.606 Y32.378
G1 Z0.2
G1 E2 F1800
;WIDTH:0.56
G1 X52.65 Y31.335 E0.06346
G1 X54.17 Y30.705 E0.07076
G1 X65.83 Y30.705 E0.50132
G1 X67.35 Y31.335 E0.07076
G1 X68.665 Y32.65 E0.07996
G1 X69.295 Y34.17 E0.07076
G1 X69.295 Y85.83 E2.22113
G1 X68.665 Y87.35 E0.07076
G1 X67.35 Y88.665 E0.07996
G1 X65.83 Y89.295 E0.07076
G1 X54.17 Y89.295 E0.50132
G1 X52.65 Y88.665 E0.07076
G1 X51.335 Y87.35 E0.07996
G1 X50.705 Y85.83 E0.07076
G1 X50.705 Y34.17 E2.22113
G1 X51.335 Y32.65 E0.07076
G1 X51.564 Y32.421 E0.01393
M204 S1500
G1 X51.746 Y32.603 F18000
M204 S1000
G1 X51.929 Y32.786
G1 F1800
G1 X52.943 Y31.773 E0.06162
G1 X54.273 Y31.222 E0.06191
G1 X65.727 Y31.222 E0.49248
G1 X67.057 Y31.773 E0.06191
G1 X68.227 Y32.943 E0.07112
G1 X68.778 Y34.273 E0.06191
G1 X68.778 Y85.727 E2.21229
G1 X68.227 Y87.057 E0.06191
G1 X67.057 Y88.227 E0.07112
G1 X65.727 Y88.778 E0.06191
G1 X54.273 Y88.778 E0.49248
G1 X52.943 Y88.227 E0.06191
G1 X51.773 Y87.057 E0.07112
G1 X51.222 Y85.727 E0.06191
G1 X51.222 Y34.273 E2.21229
G1 X51.773 Y32.943 E0.06191
G1 X51.887 Y32.829 E0.00692
M204 S1500
G1 X52.07 Y33.012 F18000
M204 S1000
G1 X52.252 Y33.194
G1 F1800
G1 X53.235 Y32.211 E0.05977
G1 X54.376 Y31.739 E0.05307
G1 X65.624 Y31.739 E0.48363
G1 X66.765 Y32.211 E0.05307
G1 X67.789 Y33.235 E0.06228
G1 X68.261 Y34.376 E0.05307
G1 X68.261 Y85.624 E2.20344
G1 X67.789 Y86.765 E0.05307
G1 X66.765 Y87.789 E0.06228
G1 X65.624 Y88.261 E0.05307
G1 X54.376 Y88.261 E0.48363
G1 X53.235 Y87.789 E0.05307
G1 X52.211 Y86.765 E0.06228
G1 X51.739 Y85.624 E0.05307
G1 X51.739 Y34.376 E2.20344
G1 X52.211 Y33.237 E0.05299
M204 S1500
G1 X52.43 Y33.383 F18000
M204 S1000
G1 X52.65 Y33.528
G1 F1800
G1 X53.528 Y32.65 E0.05343
G1 X54.479 Y32.256 E0.04422
G1 X65.521 Y32.256 E0.47479
G1 X66.472 Y32.65 E0.04422
G1 X67.35 Y33.528 E0.05343
G1 X67.744 Y34.479 E0.04422
G1 X67.744 Y85.521 E2.1946
G1 X67.35 Y86.472 E0.04422
G1 X66.472 Y87.35 E0.05343
G1 X65.521 Y87.744 E0.04422
G1 X54.479 Y87.744 E0.47479
G1 X53.528 Y87.35 E0.04422
G1 X52.65 Y86.472 E0.05343
G1 X52.256 Y85.521 E0.04422
G1 X52.256 Y34.479 E2.1946
G1 X52.627 Y33.584 E0.04164
M204 S1500
G1 X52.857 Y33.703 F18000
M204 S1000
G1 X53.088 Y33.821
G1 F1800
G1 X53.821 Y33.088 E0.04459
G1 X54.581 Y32.773 E0.03538
G1 X65.419 Y32.773 E0.46594
G1 X66.179 Y33.088 E0.03538
G1 X66.912 Y33.821 E0.04459
G1 X67.227 Y34.581 E0.03538
G1 X67.227 Y85.419 E2.18576
G1 X66.912 Y86.179 E0.03538
G1 X66.179 Y86.912 E0.04459
G1 X65.419 Y87.227 E0.03538
G1 X54.581 Y87.227 E0.46594
G1 X53.821 Y86.912 E0.03538
G1 X53.088 Y86.179 E0.04459
G1 X52.773 Y85.419 E0.03538
G1 X52.773 Y34.581 E2.18576
G1 X53.065 Y33.877 E0.0328
M204 S1500
G1 X53.296 Y33.995 F18000
M204 S1000
G1 X53.526 Y34.114
G1 F1800
G1 X54.114 Y33.526 E0.03574
G1 X54.684 Y33.29 E0.02653
G1 X65.316 Y33.29 E0.4571
G1 X65.886 Y33.526 E0.02653
G1 X66.474 Y34.114 E0.03574
G1 X66.71 Y34.684 E0.02653
G1 X66.71 Y85.316 E2.17691
G1 X66.474 Y85.886 E0.02653
G1 X65.886 Y86.474 E0.03574
G1 X65.316 Y86.71 E0.02653
G1 X54.684 Y86.71 E0.4571
G1 X54.114 Y86.474 E0.02653
G1 X53.526 Y85.886 E0.03574
G1 X53.29 Y85.316 E0.02653
G1 X53.29 Y34.684 E2.17691
G1 X53.503 Y34.17 E0.02395
M204 S1500
G1 X53.734 Y34.288 F18000
M204 S1000
G1 X53.965 Y34.407
G1 F1800
G1 X54.407 Y33.965 E0.0269
G1 X54.787 Y33.807 E0.01769
G1 X65.213 Y33.807 E0.44825
G1 X65.593 Y33.965 E0.01769
G1 X66.035 Y34.407 E0.0269
G1 X66.193 Y34.787 E0.01769
G1 X66.193 Y85.213 E2.16807
G1 X66.035 Y85.593 E0.01769
G1 X65.593 Y86.035 E0.0269
G1 X65.213 Y86.193 E0.01769
G1 X54.787 Y86.193 E0.44825
G1 X54.407 Y86.035 E0.01769
G1 X53.965 Y85.593 E0.0269
G1 X53.807 Y85.213 E0.01769
G1 X53.807 Y34.787 E2.16807
G1 X53.942 Y34.463 E0.01511
M204 S1500
G1 X54.172 Y34.581 F18000
M204 S1000
G1 X54.403 Y34.7
G1 F1800
G1 X54.7 Y34.403 E0.01805
G1 X54.89 Y34.324 E0.00884
G1 X65.11 Y34.324 E0.43941
G1 X65.3 Y34.403 E0.00884
G1 X65.597 Y34.7 E0.01805
G1 X65.676 Y34.89 E0.00884
G1 X65.676 Y85.11 E2.15922
G1 X65.597 Y85.3 E0.00884
G1 X65.3 Y85.597 E0.01805
G1 X65.11 Y85.676 E0.00884
G1 X54.89 Y85.676 E0.43941
G1 X54.7 Y85.597 E0.00884
G1 X54.403 Y85.3 E0.01805
G1 X54.324 Y85.11 E0.00884
G1 X54.324 Y34.89 E2.15922
G1 X54.38 Y34.755 E0.00626
M204 S1500
G1 X54.611 Y34.874 F18000
M204 S1000
G1 X54.841 Y34.993
G1 F1800
G1 X54.993 Y34.841 E0.00921
G1 X65.007 Y34.841 E0.43056
G1 X65.159 Y34.993 E0.00921
G1 X65.159 Y85.007 E2.15038
G1 X65.007 Y85.159 E0.00921
G1 X54.993 Y85.159 E0.43056
G1 X54.841 Y85.007 E0.00921
G1 X54.841 Y35.053 E2.1478
; INIT printing object AIl_In_One_3D_printer_test_nano.stl id:0 copy 0
; printing object AIl_In_One_3D_printer_test_nano.stl id:0 copy 0
M204 S1500
G1 X55.111 Y35.216 F18000
M204 S1000
G1 X55.38 Y35.38
;TYPE:External perimeter
G1 F1800
G1 X64.62 Y35.38 E0.39728
G1 X64.62 Y84.62 E2.11709
G1 X55.38 Y84.62 E0.39728
G1 X55.38 Y35.44 E2.11451
;WIPE_START
M204 S1500
G1 X55.726 Y35.58 F18000
;WIPE_END
G1 X55.812 Y35.739
M204 S1000
G1 X55.897 Y35.897
;TYPE:Internal perimeter
G1 F1800
G1 X64.103 Y35.897 E0.35281
G1 X64.103 Y84.103 E2.07263
G1 X55.897 Y84.103 E0.35281
G1 X55.897 Y35.957 E2.07005
M204 S1500
G1 X56.156 Y36.186 F18000
M204 S1000
G1 X56.414 Y36.414
G1 F1800
G1 X63.586 Y36.414 E0.30835
G1 X63.586 Y83.586 E2.02816
G1 X56.414 Y83.586 E0.30835
G1 X56.414 Y36.474 E2.02558
M204 S1500
G1 X59.387 Y36.535 F18000
M204 S1000
G1 X62.36 Y36.595
;TYPE:Solid infill
;WIDTH:0.559335
G1 F1800
G1 X63.183 Y37.418 E0.04998
G1 X63.183 Y38.149 E0.0314
G1 X61.851 Y36.817 E0.08088
G1 X61.119 Y36.817 E0.0314
G1 X63.183 Y38.881 E0.1253
G1 X63.183 Y39.612 E0.0314
G1 X60.388 Y36.817 E0.16971
G1 X59.657 Y36.817 E0.0314
G1 X63.183 Y40.343 E0.21412
G1 X63.183 Y41.074 E0.0314
G1 X58.926 Y36.817 E0.25853
G1 X58.194 Y36.817 E0.0314
G1 X63.183 Y41.806 E0.30294
G1 X63.183 Y42.537 E0.0314
G1 X57.463 Y36.817 E0.34735
G1 X56.817 Y36.817 E0.02773
G1 X56.817 Y36.903 E0.00367
G1 X63.183 Y43.268 E0.38657
G1 X63.183 Y43.999 E0.0314
G1 X56.817 Y37.634 E0.38657
G1 X56.817 Y38.366 E0.0314
G1 X63.183 Y44.731 E0.38657
G1 X63.183 Y45.462 E0.0314
G1 X56.817 Y39.097 E0.38657
G1 X56.817 Y39.828 E0.0314
G1 X63.183 Y46.193 E0.38657
G1 X63.183 Y46.924 E0.0314
G1 X56.817 Y40.559 E0.38657
G1 X56.817 Y41.291 E0.0314
G1 X63.183 Y47.656 E0.38657
G1 X63.183 Y48.387 E0.0314
G1 X56.817 Y42.022 E0.38657
G1 X56.817 Y42.753 E0.0314
G1 X63.183 Y49.118 E0.38657
G1 X63.183 Y49.849 E0.0314
G1 X56.817 Y43.484 E0.38657
G1 X56.817 Y44.216 E0.0314
G1 X63.183 Y50.581 E0.38657
G1 X63.183 Y51.312 E0.0314
G1 X56.817 Y44.947 E0.38657
G1 X56.817 Y45.678 E0.0314
G1 X63.183 Y52.043 E0.38657
G1 X63.183 Y52.774 E0.0314
G1 X56.817 Y46.409 E0.38657
G1 X56.817 Y47.141 E0.0314
G1 X63.183 Y53.506 E0.38657
G1 X63.183 Y54.237 E0.0314
G1 X56.817 Y47.872 E0.38657
G1 X56.817 Y48.603 E0.0314
G1 X63.183 Y54.968 E0.38657
G1 X63.183 Y55.7 E0.0314
G1 X56.817 Y49.334 E0.38657
G1 X56.817 Y50.066 E0.0314
G1 X63.183 Y56.431 E0.38657
G1 X63.183 Y57.162 E0.0314
G1 X56.817 Y50.797 E0.38657
G1 X56.817 Y51.528 E0.0314
G1 X63.183 Y57.893 E0.38657
G1 X63.183 Y58.625 E0.0314
G1 X56.817 Y52.259 E0.38657
G1 X56.817 Y52.991 E0.0314
G1 X63.183 Y59.356 E0.38657
G1 X63.183 Y60.087 E0.0314
G1 X56.817 Y53.722 E0.38657
G1 X56.817 Y54.453 E0.0314
G1 X63.183 Y60.818 E0.38657
G1 X63.183 Y61.55 E0.0314
G1 X56.817 Y55.185 E0.38657
G1 X56.817 Y55.916 E0.0314
G1 X63.183 Y62.281 E0.38657
G1 X63.183 Y63.012 E0.0314
G1 X56.817 Y56.647 E0.38657
G1 X56.817 Y57.378 E0.0314
G1 X63.183 Y63.743 E0.38657
G1 X63.183 Y64.475 E0.0314
G1 X56.817 Y58.11 E0.38657
G1 X56.817 Y58.841 E0.0314
G1 X63.183 Y65.206 E0.38657
G1 X63.183 Y65.937 E0.0314
G1 X56.817 Y59.572 E0.38657
G1 X56.817 Y60.303 E0.0314
G1 X63.183 Y66.668 E0.38657
G1 X63.183 Y67.4 E0.0314
G1 X56.817 Y61.035 E0.38657
G1 X56.817 Y61.766 E0.0314
G1 X63.183 Y68.131 E0.38657
G1 X63.183 Y68.862 E0.0314
G1 X56.817 Y62.497 E0.38657
G1 X56.817 Y63.228 E0.0314
G1 X63.183 Y69.593 E0.38657
G1 X63.183 Y70.325 E0.0314
G1 X56.817 Y63.96 E0.38657
G1 X56.817 Y64.691 E0.0314
G1 X63.183 Y71.056 E0.38657
G1 X63.183 Y71.787 E0.0314
G1 X56.817 Y65.422 E0.38657
G1 X56.817 Y66.153 E0.0314
G1 X63.183 Y72.519 E0.38657
G1 X63.183 Y73.25 E0.0314
G1 X56.817 Y66.885 E0.38657
G1 X56.817 Y67.616 E0.0314
G1 X63.183 Y73.981 E0.38657
G1 X63.183 Y74.712 E0.0314
G1 X56.817 Y68.347 E0.38657
G1 X56.817 Y69.078 E0.0314
G1 X63.183 Y75.444 E0.38657
G1 X63.183 Y76.175 E0.0314
G1 X56.817 Y69.81 E0.38657
G1 X56.817 Y70.541 E0.0314
G1 X63.183 Y76.906 E0.38657
G1 X63.183 Y77.637 E0.0314
G1 X56.817 Y71.272 E0.38657
G1 X56.817 Y72.004 E0.0314
G1 X63.183 Y78.369 E0.38657
G1 X63.183 Y79.1 E0.0314
G1 X56.817 Y72.735 E0.38657
G1 X56.817 Y73.466 E0.0314
G1 X63.183 Y79.831 E0.38657
G1 X63.183 Y80.562 E0.0314
G1 X56.817 Y74.197 E0.38657
G1 X56.817 Y74.929 E0.0314
G1 X63.183 Y81.294 E0.38657
G1 X63.183 Y82.025 E0.0314
G1 X56.817 Y75.66 E0.38657
G1 X56.817 Y76.391 E0.0314
G1 X63.183 Y82.756 E0.38657
G1 X63.183 Y83.183 E0.01831
G1 X62.878 Y83.183 E0.01309
G1 X56.817 Y77.122 E0.36805
G1 X56.817 Y77.854 E0.0314
G1 X62.146 Y83.183 E0.32364
G1 X61.415 Y83.183 E0.0314
G1 X56.817 Y78.585 E0.27923
G1 X56.817 Y79.316 E0.0314
G1 X60.684 Y83.183 E0.23482
G1 X59.953 Y83.183 E0.0314
G1 X56.817 Y80.047 E0.19041
G1 X56.817 Y80.779 E0.0314
G1 X59.221 Y83.183 E0.146
G1 X58.49 Y83.183 E0.0314
G1 X56.817 Y81.51 E0.10158
G1 X56.817 Y82.241 E0.0314
G1 X57.759 Y83.183 E0.05717
G1 X57.028 Y83.183 E0.0314
G1 X56.595 Y82.75 E0.02627
; INIT stop printing object AIl_In_One_3D_printer_test_nano.stl id:0 copy 0
M106 S84.15
;LAYER_CHANGE
;Z:0.5
;HEIGHT:0.3
;BEFORE_LAYER_CHANGE
;0.5


; stop printing object AIl_In_One_3D_printer_test_nano.stl id:0 copy 0
M204 S1500
G1 Z0.5 F18000
;AFTER_LAYER_CHANGE
;0.5
M104 S200 ; set temperature
; INIT printing object AIl_In_One_3D_printer_test_nano.stl id:0 copy 0
; printing object AIl_In_One_3D_printer_test_nano.stl id:0 copy 0
G1 X56.029 Y83.971
;TYPE:Internal perimeter
;WIDTH:0.484
G1 F6000
G1 X56.029 Y36.029 E2.50913
G1 X63.971 Y36.029 E0.41564
G1 X63.971 Y83.971 E2.50913
G1 X56.089 Y83.971 E0.4125
G1 X55.61 Y84.39 F18000
G1 F6000
G1 X55.61 Y35.61 E2.55305
G1 X64.39 Y35.61 E0.45956
G1 X64.39 Y84.39 E2.55305
G1 X55.67 Y84.39 E0.45642
G1 X55.216 Y84.784 F18000
;TYPE:External perimeter
;WIDTH:0.432
G1 F2400
G1 X55.216 Y35.216 E2.27277
G1 X64.784 Y35.216 E0.43871
G1 X64.784 Y84.784 E2.27277
G1 X55.276 Y84.784 E0.43596
;WIPE_START
G1 X55.416 Y84.438 F18000
;WIPE_END
G1 X56.176 Y36.621
;TYPE:Solid infill
;WIDTH:0.486415
G1 F6165.331
G1 X56.441 Y36.357 E0.01969
G1 X57.034 Y36.357 E0.03121
G1 X56.357 Y37.034 E0.05041
G1 X56.357 Y37.628 E0.03121
G1 X57.628 Y36.357 E0.09456
G1 X58.221 Y36.357 E0.03121
G1 X56.357 Y38.221 E0.1387
G1 X56.357 Y38.815 E0.03121
G1 X58.815 Y36.357 E0.18284
G1 X59.408 Y36.357 E0.03121
G1 X56.357 Y39.408 E0.22698
G1 X56.357 Y40.001 E0.03121
G1 X60.001 Y36.357 E0.27113
G1 X60.595 Y36.357 E0.03121
G1 X56.357 Y40.595 E0.31527
G1 X56.357 Y41.188 E0.03121
G1 X61.188 Y36.357 E0.35941
G1 X61.782 Y36.357 E0.03121
G1 X56.357 Y41.782 E0.40355
G1 X56.357 Y42.375 E0.03121
G1 X62.375 Y36.357 E0.4477
G1 X62.969 Y36.357 E0.03121
G1 X56.357 Y42.969 E0.49184
G1 X56.357 Y43.562 E0.03121
G1 X63.562 Y36.357 E0.53598
G1 X63.643 Y36.357 E0.00429
G1 X63.643 Y36.868 E0.02693
G1 X56.357 Y44.155 E0.54204
G1 X56.357 Y44.749 E0.03121
G1 X63.643 Y37.462 E0.54204
G1 X63.643 Y38.055 E0.03121
G1 X56.357 Y45.342 E0.54204
G1 X56.357 Y45.936 E0.03121
G1 X63.643 Y38.649 E0.54204
G1 X63.643 Y39.242 E0.03121
G1 X56.357 Y46.529 E0.54204
G1 X56.357 Y47.123 E0.03121
G1 X63.643 Y39.836 E0.54204
G1 X63.643 Y40.429 E0.03121
G1 X56.357 Y47.716 E0.54204
G1 X56.357 Y48.309 E0.03121
G1 X63.643 Y41.023 E0.54204
G1 X63.643 Y41.616 E0.03121
G1 X56.357 Y48.903 E0.54204
G1 X56.357 Y49.496 E0.03121
G1 X63.643 Y42.209 E0.54204
G1 X63.643 Y42.803 E0.03121
G1 X56.357 Y50.09 E0.54204
G1 X56.357 Y50.683 E0.03121
G1 X63.643 Y43.396 E0.54204
G1 X63.643 Y43.99 E0.03121
G1 X56.357 Y51.277 E0.54204
G1 X56.357 Y51.87 E0.03121
G1 X63.643 Y44.583 E0.54204
G1 X63.643 Y45.177 E0.03121
G1 X56.357 Y52.463 E0.54204
G1 X56.357 Y53.057 E0.03121
G1 X63.643 Y45.77 E0.54204
G1 X63.643 Y46.363 E0.03121
G1 X56.357 Y53.65 E0.54204
G1 X56.357 Y54.244 E0.03121
G1 X63.643 Y46.957 E0.54204
