; generated by SuperSlicer 2.3.57 on 2022-02-11 at 22:30:41 UTC


;
;

;
;
; TODO: check the size of the extruder and the y-bar clearance. Optimize & test supports.

; external perimeters extrusion width = 0.41mm
; perimeters extrusion width = 0.44mm
; infill extrusion width = 0.44mm
; solid infill extrusion width = 0.44mm
; top infill extrusion width = 0.42mm
; first layer extrusion width = 0.56mm

; object:{"name":"Printable_Wrench_W_Longer_Screw","id":"Printable_Wrench_W_Longer_Screw.stl id:0 copy 0","object_center":[59.000000,59.500000,0.000000],"boundingbox_center":[59.000000,59.500000,1.000000],"boundingbox_size":[60.207617,28.476007,2.000000]}
; plater:{"center":[59.000000,59.500000,0.000000],"boundingbox_center":[59.000000,59.500000,1.000000],"boundingbox_size":[60.207617,28.476007,2.000000]}

M73 P0 R9
;TYPE:Custom
; custom gcode: start_gcode
; M190 S0
; M109 S0 ; uncomment to remove set&wait temp gcode added automatically after this start gcode
print_start EXTRUDER=210 BED=60 CHAMBER=15
; custom gcode end: start_gcode
G21 ; set units to millimeters
G90 ; use absolute coordinates
M83 ; use relative distances for extrusion
M104 S210 ; set temperature
M109 S210 ; set temperature and wait for it to be reached
M190 S60 ; set bed temperature and wait for it to be reached
;LAYER_CHANGE
;Z:0.2
;HEIGHT:0.2
; custom gcode: before_layer_gcode
;BEFORE_LAYER_CHANGE
;0.2

; custom gcode end: before_layer_gcode

G1 Z0.2 F18000
; custom gcode: layer_gcode
;AFTER_LAYER_CHANGE
;0.2
; custom gcode end: layer_gcode

G1 E-0.4 F3000
G1 Z0.4 F18000
M204 S1500
G1 X34.403 Y47.664
G1 Z0.2
G1 E0.4 F1800
; custom gcode: feature_gcode
; External perimeter
;;Skirt
;SET_VELOCITY_LIMIT ACCEL=7000 ACCEL_TO_DECEL=7000 SQUARE_CORNER_VELOCITY=8

; Support material
;
; custom gcode end: feature_gcode

;TYPE:Skirt
;WIDTH:0.52
G1 X30.244 Y50.666 E0.20349
G1 X29.44 Y51.413 E0.04353
G1 X28.919 Y52.167 E0.03637
G1 X25.099 Y59.228 E0.31846
G1 X24.802 Y60.05 E0.03468
G1 X24.663 Y60.913 E0.03468
G1 X24.635 Y66.303 E0.21382
G1 X24.79 Y67.416 E0.04458
G1 X25.264 Y68.671 E0.05318
G1 X25.961 Y69.971 E0.05853
G1 X26.628 Y70.936 E0.04652
G1 X31.001 Y76.612 E0.28427
G1 X31.533 Y77.159 E0.03025
G1 X32.143 Y77.608 E0.03004
G1 X33.162 Y78.081 E0.04458
G1 X34.265 Y78.296 E0.04458
G1 X39.853 Y78.307 E0.22167
G1 X40.697 Y78.221 E0.03363
G1 X41.741 Y77.886 E0.04353
G1 X88.834 Y56.249 E2.05587
G1 X90.126 Y55.477 E0.05972
G1 X91.049 Y54.691 E0.04807
G1 X91.854 Y53.757 E0.04892
G1 X92.599 Y52.533 E0.05685
G1 X93.114 Y51.19 E0.05706
G1 X93.36 Y49.987 E0.0487
G1 X93.418 Y48.777 E0.04807
G1 X93.242 Y47.294 E0.05924
G1 X92.834 Y45.967 E0.05509
G1 X92.26 Y44.822 E0.05081
G1 X91.262 Y43.507 E0.06547
G1 X90.363 Y42.674 E0.04861
G1 X89.35 Y41.991 E0.04849
G1 X88.198 Y41.456 E0.05039
G1 X86.648 Y41.046 E0.06357
G1 X85.379 Y40.943 E0.05052
G1 X84.392 Y41.004 E0.03922
G1 X36.865 Y46.602 E1.8984
M73 P1 R9
G1 X36.154 Y46.746 E0.02877
G1 X35.474 Y46.997 E0.02877
G1 X34.748 Y47.415 E0.03321
G1 X34.452 Y47.628 E0.0145
G1 X34.591 Y47.822 F18000
M204 S1000
G1 X34.731 Y48.015
G1 F1800
G1 X30.53 Y51.047 E0.20553
G1 X29.802 Y51.725 E0.03944
G1 X29.334 Y52.402 E0.03266
G1 X25.537 Y59.417 E0.31644
G1 X25.263 Y60.172 E0.03186
G1 X25.138 Y60.961 E0.03166
G1 X25.112 Y66.286 E0.21125
G1 X25.252 Y67.295 E0.04044
G1 X25.685 Y68.444 E0.04871
G1 X26.354 Y69.698 E0.05638
G1 X26.927 Y70.539 E0.04038
G1 X31.286 Y76.204 E0.28354
G1 X31.855 Y76.806 E0.03286
G1 X32.527 Y77.281 E0.03266
G1 X33.492 Y77.681 E0.04143
G1 X34.52 Y77.83 E0.04123
G1 X40.024 Y77.825 E0.21831
G1 X40.793 Y77.712 E0.03086
G1 X41.529 Y77.458 E0.03086
G1 X88.644 Y55.811 E2.05687
G1 X90.101 Y54.897 E0.06823
G1 X90.911 Y54.144 E0.04385
G1 X91.81 Y52.967 E0.05877
G1 X92.253 Y52.144 E0.03709
G1 X92.684 Y50.958 E0.05004
G1 X92.889 Y49.908 E0.04246
G1 X92.94 Y48.768 E0.04526
G1 X92.799 Y47.505 E0.05041
G1 X92.451 Y46.303 E0.04966
G1 X91.962 Y45.255 E0.04586
G1 X91.382 Y44.38 E0.04166
G1 X90.679 Y43.586 E0.04204
G1 X89.809 Y42.855 E0.04508
G1 X88.912 Y42.3 E0.04185
G1 X87.536 Y41.736 E0.05899
G1 X86.422 Y41.492 E0.04523
G1 X85.379 Y41.42 E0.04149
G1 X36.928 Y47.075 E1.93506
M73 P2 R9
G1 X35.7 Y47.418 E0.05057
G1 X35.02 Y47.806 E0.03106
G1 X34.779 Y47.98 E0.01178
M204 S1500
G1 X34.919 Y48.174 F18000
M204 S1000
G1 X35.059 Y48.367
G1 F1800
G1 X30.816 Y51.429 E0.20756
G1 X30.165 Y52.034 E0.03524
G1 X29.75 Y52.637 E0.02905
G1 X25.975 Y59.608 E0.31449
G1 X25.726 Y60.286 E0.02867
G1 X25.613 Y61.005 E0.02886
G1 X25.589 Y66.279 E0.2092
G1 X25.714 Y67.177 E0.03599
G1 X26.108 Y68.221 E0.04424
G1 X26.772 Y69.469 E0.0561
G1 X27.381 Y70.35 E0.04248
G1 X31.733 Y76 E0.28293
G1 X32.197 Y76.471 E0.02622
G1 X32.738 Y76.852 E0.02622
G1 X33.6 Y77.216 E0.03712
G1 X34.525 Y77.353 E0.03712
G1 X39.978 Y77.349 E0.2163
G1 X40.66 Y77.253 E0.02735
G1 X41.309 Y77.034 E0.02716
G1 X88.44 Y55.38 E2.05752
G1 X89.755 Y54.563 E0.06143
G1 X90.54 Y53.843 E0.04224
G1 X91.399 Y52.723 E0.05602
G1 X91.812 Y51.962 E0.03434
G1 X92.22 Y50.848 E0.04703
G1 X92.415 Y49.86 E0.03999
G1 X92.464 Y48.796 E0.04225
G1 X92.332 Y47.601 E0.04768
G1 X92.005 Y46.474 E0.04656
G1 X91.547 Y45.491 E0.04299
G1 X91.004 Y44.671 E0.03905
G1 X90.35 Y43.932 E0.03913
G1 X89.542 Y43.25 E0.04197
G1 X88.702 Y42.728 E0.03922
G1 X87.397 Y42.193 E0.05594
G1 X86.355 Y41.965 E0.04233
G1 X85.38 Y41.897 E0.03877
G1 X36.983 Y47.549 E1.93292
M73 P3 R9
G1 X35.922 Y47.842 E0.04367
G1 X35.293 Y48.198 E0.02867
G1 X35.107 Y48.332 E0.00909
M204 S1500
G1 X35.247 Y48.525 F18000
M204 S1000
G1 X35.386 Y48.719
G1 F1800
G1 X31.1 Y51.813 E0.20972
G1 X30.548 Y52.32 E0.02974
G1 X30.174 Y52.855 E0.02588
G1 X26.7 Y59.203 E0.28708
G1 X26.233 Y60.248 E0.0454
G1 X26.085 Y61.158 E0.03656
G1 X26.072 Y66.431 E0.20917
G1 X26.196 Y67.13 E0.02816
G1 X26.535 Y68.009 E0.03737
G1 X27.178 Y69.218 E0.05431
G1 X27.754 Y70.052 E0.04022
G1 X32.091 Y75.684 E0.282
G1 X32.953 Y76.426 E0.04509
G1 X33.71 Y76.752 E0.03272
G1 X34.53 Y76.876 E0.03289
G1 X39.934 Y76.874 E0.21434
G1 X40.528 Y76.794 E0.02378
G1 X41.093 Y76.608 E0.0236
G1 X88.239 Y54.947 E2.05821
G1 X89.417 Y54.222 E0.0549
G1 X90.088 Y53.628 E0.03554
G1 X90.703 Y52.905 E0.03765
G1 X91.287 Y51.956 E0.04421
G1 X91.661 Y51.049 E0.03891
G1 X91.922 Y49.939 E0.04524
G1 X91.992 Y49.01 E0.03695
G1 X91.927 Y48.063 E0.03768
G1 X91.701 Y47.06 E0.04078
G1 X91.195 Y45.846 E0.05215
G1 X90.708 Y45.074 E0.03623
G1 X90.065 Y44.321 E0.03926
G1 X89.357 Y43.704 E0.03727
G1 X88.519 Y43.17 E0.0394
G1 X87.272 Y42.654 E0.05356
G1 X86.288 Y42.437 E0.03996
G1 X85.377 Y42.374 E0.03622
G1 X37.046 Y48.022 E1.93034
M73 P4 R9
G1 X36.135 Y48.269 E0.03743
G1 X35.566 Y48.589 E0.02588
G1 X35.435 Y48.683 E0.00641
; INIT printing object Printable_Wrench_W_Longer_Screw.stl id:0 copy 0
G1 E-0.4 F3000
M204 S3000
G1 Z0.4 F18000
; printing object Printable_Wrench_W_Longer_Screw.stl id:0 copy 0
M204 S1500
G1 X35.158 Y60.301
M204 S1000
G1 X34.881 Y71.918
G1 Z0.2
G1 E0.4 F1800
; custom gcode: feature_gcode
; External perimeter
;;ExternalPerimeter
;SET_VELOCITY_LIMIT ACCEL=1000 ACCEL_TO_DECEL=1000 SQUARE_CORNER_VELOCITY=8

; Perimeter
;
; custom gcode end: feature_gcode

;TYPE:External perimeter
;WIDTH:0.56
G1 X39.521 Y71.918 E0.1995
G1 X39.521 Y73.358 E0.06191
G1 X34.881 Y73.358 E0.1995
G1 X34.881 Y71.978 E0.05933
;WIPE_START
M204 S3000
G1 X35.228 Y72.118 F18000
;WIPE_END
M204 S1500
G1 X37.255 Y72.378
M204 S1000
G1 X39.283 Y72.638
; custom gcode: feature_gcode
; External perimeter
;;GapFill
;SET_VELOCITY_LIMIT ACCEL=2000 ACCEL_TO_DECEL=2000 SQUARE_CORNER_VELOCITY=8

; Skirt
;
; custom gcode end: feature_gcode

;TYPE:Gap fill
;WIDTH:1.00616
G1 F1800
G1 X35.12 Y72.638 E0.33345
G1 E-0.4 F3000
M204 S3000
G1 Z0.4 F18000
M204 S1500
G1 X37.614 Y65.832
M204 S1000
G1 X40.108 Y59.027
G1 Z0.2
G1 E0.4 F1800
; custom gcode: feature_gcode
; External perimeter
;;ThinWall
;SET_VELOCITY_LIMIT ACCEL=2000 ACCEL_TO_DECEL=2000 SQUARE_CORNER_VELOCITY=8

; Other
;
; custom gcode end: feature_gcode

;TYPE:Thin wall
;WIDTH:0.243008
G1 X40.233 Y59.012 E0.0021
;WIDTH:0.49677
G1 X40.356 Y58.998 E0.00468
G1 X41.075 Y58.917 E0.02728
G1 X41.793 Y58.836 E0.02728
G1 X41.902 Y58.823 E0.00415
;WIDTH:0.293477
G1 X42.027 Y58.808 E0.00263
G1 E-0.4 F3000
M204 S3000
G1 Z0.4 F18000
M204 S1500
G1 X40.774 Y55.583
M204 S1000
G1 X39.521 Y52.358
G1 Z0.2
G1 E0.4 F1800
; custom gcode: feature_gcode
; External perimeter
;;ExternalPerimeter
;SET_VELOCITY_LIMIT ACCEL=1000 ACCEL_TO_DECEL=1000 SQUARE_CORNER_VELOCITY=8

; Perimeter
;
; custom gcode end: feature_gcode

;TYPE:External perimeter
;WIDTH:0.56
G1 X37.709 Y52.358 E0.07792
G1 X37.709 Y51.518 E0.03612
G1 X39.521 Y51.518 E0.07792
G1 X39.521 Y52.298 E0.03354
;WIPE_START
M204 S3000
G1 X39.175 Y52.158 F18000
;WIPE_END
M204 S1500
G1 X38.561 Y52.048
M204 S1000
G1 X37.947 Y51.938
; custom gcode: feature_gcode
; External perimeter
;;GapFill
;SET_VELOCITY_LIMIT ACCEL=2000 ACCEL_TO_DECEL=2000 SQUARE_CORNER_VELOCITY=8

; Skirt
;
; custom gcode end: feature_gcode

;TYPE:Gap fill
;WIDTH:0.406162
G1 F1800
G1 X39.101 Y51.938 E0.03486
G1 X39.283 Y51.938 E0.00549
G1 E-0.4 F3000
M204 S3000
G1 Z0.4 F18000
M204 S1500
G1 X36.902 Y53.326
M204 S1000
G1 X34.521 Y54.714
G1 Z0.2
G1 E0.4 F1800
; custom gcode: feature_gcode
; External perimeter
;;ExternalPerimeter
;SET_VELOCITY_LIMIT ACCEL=1000 ACCEL_TO_DECEL=1000 SQUARE_CORNER_VELOCITY=8

; Perimeter
;
; custom gcode end: feature_gcode

;TYPE:External perimeter
;WIDTH:0.56
G1 X34.521 Y55.754 E0.04472
G1 X33.281 Y55.754 E0.05331
G1 X33.281 Y54.714 E0.04472
G1 X34.461 Y54.714 E0.05073
;WIPE_START
M204 S3000
G1 X34.321 Y55.061 F18000
;WIPE_END
M204 S1500
G1 X33.921 Y55.147
M204 S1000
G1 X33.52 Y55.234
; custom gcode: feature_gcode
; External perimeter
;;GapFill
;SET_VELOCITY_LIMIT ACCEL=2000 ACCEL_TO_DECEL=2000 SQUARE_CORNER_VELOCITY=8

; Skirt
;
; custom gcode end: feature_gcode

;TYPE:Gap fill
;WIDTH:0.606162
G1 F1800
G1 X34.283 Y55.234 E0.03575
G1 E-0.4 F3000
M204 S3000
G1 Z0.4 F18000
M204 S1500
G1 X33.805 Y56.962
M204 S1000
G1 X33.327 Y58.69
G1 Z0.2
G1 E0.4 F1800
; custom gcode: feature_gcode
; External perimeter
;;Perimeter
;SET_VELOCITY_LIMIT ACCEL=2000 ACCEL_TO_DECEL=2000 SQUARE_CORNER_VELOCITY=8

; Overhang perimeter
;
; custom gcode end: feature_gcode

;TYPE:Internal perimeter
;WIDTH:0.56
G1 X33.586 Y58.935 E0.01532
G1 X33.126 Y59.905 E0.04615
G1 X31.705 Y59.905 E0.06112
G1 X32.383 Y59.309 E0.03881
G1 X32.85 Y58.968 E0.02486
G1 X33.063 Y58.833 E0.01086
G1 X33.274 Y58.718 E0.01031
M204 S1500
G1 X33.739 Y58.222 F18000
M204 S1000
G1 X34.204 Y57.726
G1 F1800
G1 X34.204 Y58.836 E0.04772
G1 X33.454 Y60.422 E0.07543
G1 X30.651 Y60.422 E0.1205
G1 X30.985 Y59.983 E0.02371
G1 X31.174 Y59.755 E0.01273
G1 X31.601 Y59.308 E0.02659
G1 X32.059 Y58.906 E0.02621
G1 X32.559 Y58.541 E0.02659
G1 X32.801 Y58.387 E0.01235
G1 X33.352 Y58.087 E0.02698
G1 X33.621 Y57.964 E0.01273
G1 X34.149 Y57.749 E0.02448
M204 S1500
G1 X34.435 Y57.411 F18000
M204 S1000
G1 X34.721 Y57.072
; custom gcode: feature_gcode
; External perimeter
;;ExternalPerimeter
;SET_VELOCITY_LIMIT ACCEL=1000 ACCEL_TO_DECEL=1000 SQUARE_CORNER_VELOCITY=8

; Perimeter
;
; custom gcode end: feature_gcode

;TYPE:External perimeter
G1 F1800
G1 X34.721 Y58.953 E0.08084
G1 X33.781 Y60.939 E0.0945
G1 X29.769 Y60.939 E0.17248
G1 X29.86 Y60.752 E0.00895
G1 X30.019 Y60.472 E0.01384
G1 X30.384 Y59.919 E0.02846
G1 X30.58 Y59.661 E0.01397
G1 X30.788 Y59.411 E0.01397
G1 X31.243 Y58.934 E0.02833
G1 X31.735 Y58.502 E0.02819
G1 X32.267 Y58.113 E0.02833
G1 X32.539 Y57.941 E0.01383
G1 X33.121 Y57.625 E0.02846
G1 X33.416 Y57.489 E0.01397
G1 X33.717 Y57.367 E0.01397
M73 P5 R9
G1 X34.341 Y57.16 E0.0283
G1 X34.663 Y57.086 E0.01418
;WIPE_START
M204 S3000
G1 X34.548 Y57.433 F18000
;WIPE_END
G1 E-0.4 F3000
G1 Z0.4 F18000
M204 S1500
G1 X36.193 Y61.017
M204 S1000
G1 X37.837 Y64.602
G1 Z0.2
G1 E0.4 F1800
; custom gcode: feature_gcode
; External perimeter
;;Perimeter
;SET_VELOCITY_LIMIT ACCEL=2000 ACCEL_TO_DECEL=2000 SQUARE_CORNER_VELOCITY=8

; Overhang perimeter
;
; custom gcode end: feature_gcode

;TYPE:Internal perimeter
G1 X42.871 Y64.602 E0.21643
G1 X42.194 Y65.204 E0.03897
G1 X41.41 Y66.003 E0.0481
G1 X41.023 Y66.434 E0.02488
G1 X40.043 Y67.62 E0.06617
G1 X39.665 Y68.002 E0.02313
G1 X39.492 Y68.155 E0.00989
G1 X39.067 Y68.48 E0.02304
G1 X38.626 Y68.757 E0.02238
G1 X38.161 Y68.992 E0.02238
G1 X37.677 Y69.183 E0.02238
G1 X37.163 Y69.333 E0.02304
G1 X36.938 Y69.382 E0.00989
G1 X36.408 Y69.46 E0.02304
G1 X35.888 Y69.488 E0.02238
G1 X35.367 Y69.468 E0.02238
G1 X34.851 Y69.4 E0.02238
G1 X34.344 Y69.284 E0.02238
G1 X33.849 Y69.123 E0.02238
G1 X33.371 Y68.916 E0.02238
G1 X32.914 Y68.667 E0.02238
G1 X32.482 Y68.376 E0.02238
G1 X32.078 Y68.047 E0.02238
G1 X31.555 Y67.533 E0.03154
G1 X34.875 Y67.533 E0.14273
G1 X36.716 Y63.743 E0.18115
G1 X36.716 Y54.791 E0.38489
G1 X37.38 Y54.983 E0.02972
G1 X37.619 Y55.07 E0.01095
G1 X38.162 Y55.307 E0.02546
G1 X39.346 Y55.93 E0.05754
G1 X40.218 Y56.31 E0.04089
G1 X40.657 Y56.466 E0.02004
G1 X40.587 Y56.874 E0.0178
G1 X37.837 Y56.874 E0.11824
G1 X37.837 Y64.542 E0.3297
G1 E-0.4 F3000
M204 S3000
G1 Z0.4 F18000
M204 S1500
G1 X41.501 Y63.703
M204 S1000
G1 X45.166 Y62.865
G1 Z0.2
G1 E0.4 F1800
G1 X45.166 Y58.397 E0.1921
G1 X45.061 Y57.887 E0.02239
G1 X44.628 Y57.24 E0.03345
G1 X45.339 Y57.242 E0.03059
G1 X46.277 Y57.195 E0.04035
G1 X47.208 Y57.081 E0.04035
G1 X47.699 Y56.994 E0.02143
G1 X48.59 Y56.787 E0.03931
G1 X82.37 Y47.666 E1.50441
G1 X82.158 Y48.61 E0.04163
G1 X82.133 Y49.16 E0.02367
G1 X82.206 Y49.706 E0.02367
G1 X82.374 Y50.23 E0.02367
G1 X82.618 Y50.691 E0.02241
G1 X82.811 Y50.962 E0.01434
G1 X83.148 Y51.322 E0.02115
G1 X83.515 Y51.622 E0.02042
G1 X50.392 Y60.567 E1.47513
G1 X49.346 Y60.883 E0.04699
M73 P5 R8
G1 X48.798 Y61.075 E0.02497
G1 X47.76 Y61.492 E0.0481
G1 X46.501 Y62.099 E0.06008
M73 P6 R8
G1 X45.218 Y62.835 E0.06361
G1 E-0.4 F3000
M204 S3000
G1 Z0.4 F18000
M204 S1500
G1 X41.786 Y60.113
M204 S1000
G1 X38.354 Y57.391
G1 Z0.2
G1 E0.4 F1800
G1 X38.354 Y64.085 E0.28782
G1 X43.787 Y64.085 E0.2336
G1 X43.901 Y64.418 E0.01512
G1 X43.568 Y64.674 E0.01807
G1 X42.55 Y65.579 E0.05854
G1 X41.787 Y66.357 E0.04686
G1 X41.415 Y66.771 E0.02393
G1 X40.427 Y67.967 E0.0667
G1 X40.02 Y68.379 E0.02489
G1 X39.82 Y68.554 E0.01143
G1 X39.362 Y68.905 E0.02483
G1 X38.88 Y69.207 E0.02444
G1 X38.373 Y69.464 E0.02444
G1 X37.845 Y69.673 E0.02444
G1 X37.29 Y69.835 E0.02483
G1 X37.03 Y69.891 E0.01143
G1 X36.459 Y69.975 E0.02483
G1 X35.891 Y70.006 E0.02444
G1 X35.324 Y69.983 E0.02444
G1 X34.76 Y69.909 E0.02444
G1 X34.206 Y69.783 E0.02444
G1 X33.666 Y69.607 E0.02444
G1 X33.144 Y69.382 E0.02444
G1 X32.645 Y69.109 E0.02444
G1 X32.173 Y68.792 E0.02444
G1 X31.733 Y68.433 E0.02444
G1 X31.328 Y68.034 E0.02444
G1 X30.961 Y67.6 E0.02444
G1 X30.552 Y67.016 E0.03065
G1 X34.551 Y67.016 E0.17193
G1 X36.198 Y63.624 E0.16212
G1 X36.198 Y54.173 E0.40636
G1 X36.943 Y54.319 E0.0326
G1 X37.539 Y54.491 E0.02671
G1 X37.811 Y54.589 E0.01242
G1 X38.386 Y54.841 E0.02698
G1 X39.57 Y55.463 E0.05753
G1 X40.408 Y55.829 E0.0393
G1 X41.269 Y56.134 E0.03927
G1 X42.143 Y56.375 E0.03897
G1 X42.603 Y56.476 E0.02025
G1 X43.49 Y56.622 E0.03867
G1 X43.958 Y56.673 E0.02025
G1 X44.856 Y56.724 E0.03867
G1 X45.327 Y56.725 E0.02025
G1 X46.232 Y56.679 E0.03897
G1 X47.132 Y56.569 E0.03897
G1 X47.596 Y56.487 E0.02025
G1 X48.464 Y56.286 E0.03832
G1 X83.195 Y46.907 E1.54675
G1 X83.386 Y47.225 E0.01595
G1 X83.2 Y47.424 E0.01169
G1 X82.951 Y47.809 E0.01972
G1 X82.773 Y48.231 E0.01972
G1 X82.672 Y48.679 E0.01972
G1 X82.652 Y49.137 E0.01972
G1 X82.713 Y49.592 E0.01972
G1 X82.852 Y50.029 E0.01972
G1 X83.059 Y50.419 E0.01896
G1 X83.212 Y50.634 E0.01138
G1 X83.502 Y50.943 E0.0182
G1 X83.706 Y51.111 E0.01138
G1 X84.082 Y51.343 E0.01896
G1 X84.553 Y51.529 E0.02181
G1 X84.534 Y51.883 E0.01525
G1 X50.534 Y61.064 E1.51416
G1 X49.507 Y61.374 E0.04617
G1 X48.98 Y61.559 E0.02399
G1 X47.969 Y61.965 E0.04686
G1 X46.742 Y62.557 E0.05854
G1 X45.561 Y63.234 E0.05854
G1 X44.456 Y63.971 E0.05714
G1 X44.648 Y63.026 E0.04149
G1 X44.648 Y58.449 E0.19678
M73 P7 R8
G1 X44.575 Y58.09 E0.01576
G1 X44.323 Y57.714 E0.01945
