; generated by SuperSlicer 2.3.57 on 2022-02-10 at 03:24:46 UTC


;
;

;
;
; TODO: check the size of the extruder and the y-bar clearance. Optimize & test supports.

; external perimeters extrusion width = 0.42mm
; perimeters extrusion width = 0.46mm
; infill extrusion width = 0.44mm
; solid infill extrusion width = 0.46mm
; top infill extrusion width = 0.44mm
; first layer extrusion width = 0.56mm

; object:{"name":"Printable_Wrench_W_Longer_Screw","id":"Printable_Wrench_W_Longer_Screw.stl id:0 copy 0","object_center":[59.000000,59.500000,0.000000],"boundingbox_center":[59.000000,59.500000,2.475000],"boundingbox_size":[67.733569,32.035508,4.950000]}
; plater:{"center":[59.000000,59.500000,0.000000],"boundingbox_center":[59.000000,59.500000,2.475000],"boundingbox_size":[67.733569,32.035508,4.950000]}

M73 P0 R13
;TYPE:Custom
; custom gcode: start_gcode
; M190 S0
; M109 S0 ; uncomment to remove set&wait temp gcode added automatically after this start gcode
print_start EXTRUDER=210 BED=60 CHAMBER=15
; custom gcode end: start_gcode
G21 ; set units to millimeters
G90 ; use absolute coordinates
M83 ; use relative distances for extrusion
M104 S210 ; set temperature
M109 S210 ; set temperature and wait for it to be reached
M190 S60 ; set bed temperature and wait for it to be reached
;LAYER_CHANGE
;Z:0.2
;HEIGHT:0.2
; custom gcode: before_layer_gcode
;BEFORE_LAYER_CHANGE
;0.2

; custom gcode end: before_layer_gcode

G1 Z0.2 F18000
; custom gcode: layer_gcode
;AFTER_LAYER_CHANGE
;0.2
; custom gcode end: layer_gcode

G1 E-0.4 F3000
G1 Z0.4 F18000
M204 S1500
G1 X27.307 Y41.764
G1 Z0.2
G1 E0.4 F1800
; custom gcode: feature_gcode
; External perimeter
;;Skirt
;SET_VELOCITY_LIMIT ACCEL=7000 ACCEL_TO_DECEL=7000 SQUARE_CORNER_VELOCITY=8

; Support material
;
; custom gcode end: feature_gcode

;TYPE:Skirt
;WIDTH:0.52
G1 X22.154 Y45.487 E0.2522
G1 X21.516 Y46.106 E0.03525
G1 X21.026 Y46.841 E0.03505
G1 X14.367 Y60.731 E0.61103
G1 X14.191 Y61.499 E0.03126
G1 X13.64 Y66.234 E0.18912
G1 X13.705 Y67.206 E0.03864
G1 X13.993 Y68.142 E0.03884
G1 X23.044 Y82.733 E0.68112
G1 X23.717 Y83.518 E0.04103
G1 X24.562 Y84.115 E0.04103
G1 X25.508 Y84.482 E0.04024
G1 X26.509 Y84.61 E0.04004
G1 X42.501 Y84.61 E0.63441
G1 X43.324 Y84.511 E0.03286
G1 X44.11 Y84.252 E0.03286
G1 X94.345 Y59.143 E2.22783
G1 X95.26 Y58.645 E0.04134
G1 X96.398 Y57.881 E0.05435
G1 X97.873 Y56.573 E0.07822
G1 X98.948 Y55.309 E0.06581
G1 X100.148 Y53.338 E0.09156
G1 X100.803 Y51.776 E0.06717
G1 X101.223 Y50.189 E0.06515
G1 X101.466 Y47.976 E0.08831
G1 X101.427 Y46.591 E0.05496
G1 X101.189 Y44.976 E0.06476
G1 X100.842 Y43.703 E0.05232
G1 X100.477 Y42.722 E0.04154
G1 X99.743 Y41.235 E0.06577
G1 X98.785 Y39.828 E0.06755
G1 X97.211 Y38.132 E0.09179
G1 X95.83 Y37.056 E0.06942
G1 X94.305 Y36.181 E0.06975
G1 X92.184 Y35.364 E0.09018
G1 X90.514 Y35.008 E0.06773
G1 X89.149 Y34.888 E0.05436
G1 X87.03 Y34.984 E0.08412
G1 X29.28 Y41.023 E2.30342
M73 P1 R13
G1 X28.024 Y41.359 E0.05157
G1 X27.36 Y41.734 E0.03028
G1 X27.476 Y41.941 F18000
M204 S1000
G1 X27.592 Y42.148
G1 F1800
G1 X22.46 Y45.854 E0.2511
G1 X21.892 Y46.401 E0.0313
G1 X21.454 Y47.052 E0.03111
G1 X14.827 Y60.859 E0.60754
G1 X14.664 Y61.563 E0.02867
G1 X14.118 Y66.232 E0.18649
G1 X14.17 Y67.1 E0.03449
G1 X14.422 Y67.932 E0.03449
G1 X23.434 Y82.458 E0.67811
G1 X24.028 Y83.156 E0.03637
G1 X24.775 Y83.688 E0.03637
G1 X25.615 Y84.017 E0.0358
G1 X26.51 Y84.133 E0.0358
G1 X42.479 Y84.133 E0.63347
G1 X43.202 Y84.049 E0.02886
G1 X43.899 Y83.824 E0.02905
G1 X94.123 Y58.721 E2.22736
G1 X95.01 Y58.238 E0.04008
G1 X96.107 Y57.503 E0.05239
G1 X97.491 Y56.283 E0.07317
G1 X98.551 Y55.044 E0.0647
G1 X99.723 Y53.122 E0.08926
G1 X100.35 Y51.624 E0.06446
G1 X100.752 Y50.111 E0.0621
G1 X100.99 Y47.951 E0.0862
G1 X100.953 Y46.646 E0.05178
G1 X100.727 Y45.095 E0.06219
G1 X100.039 Y42.912 E0.09077
G1 X99.333 Y41.481 E0.06333
G1 X98.416 Y40.131 E0.06474
G1 X96.884 Y38.48 E0.08936
G1 X95.563 Y37.451 E0.06639
G1 X94.102 Y36.613 E0.06681
G1 X92.04 Y35.819 E0.08767
G1 X90.444 Y35.48 E0.06473
G1 X89.149 Y35.365 E0.05158
G1 X87.079 Y35.459 E0.08217
G1 X29.331 Y41.498 E2.30333
G1 X28.235 Y41.787 E0.04497
G1 X27.645 Y42.119 E0.02686
M204 S1500
G1 X27.761 Y42.326 F18000
M204 S1000
G1 X27.877 Y42.533
G1 F1800
G1 X27.854 Y42.546 E0.00105
G1 X22.763 Y46.223 E0.24909
G1 X22.266 Y46.698 E0.02729
G1 X21.88 Y47.267 E0.02729
G1 X15.285 Y60.996 E0.60418
M73 P2 R13
G1 X15.137 Y61.626 E0.02571
G1 X14.596 Y66.238 E0.18419
G1 X14.636 Y66.996 E0.03009
G1 X14.851 Y67.723 E0.03009
G1 X23.827 Y82.188 E0.67531
G1 X24.342 Y82.797 E0.03167
G1 X24.991 Y83.262 E0.03167
G1 X25.73 Y83.554 E0.03149
G1 X26.517 Y83.656 E0.03149
G1 X42.466 Y83.656 E0.63269
G1 X43.092 Y83.584 E0.025
G1 X43.693 Y83.393 E0.025
G1 X93.901 Y58.299 E2.22664
G1 X95.821 Y57.121 E0.08934
G1 X97.116 Y55.986 E0.06833
G1 X98.16 Y54.77 E0.06358
G1 X99.297 Y52.907 E0.08655
G1 X99.898 Y51.472 E0.06173
G1 X100.282 Y50.027 E0.0593
G1 X100.513 Y47.927 E0.08383
G1 X100.478 Y46.692 E0.049
G1 X100.262 Y45.205 E0.05962
G1 X99.599 Y43.098 E0.08761
G1 X98.922 Y41.722 E0.06085
G1 X98.047 Y40.434 E0.06176
G1 X96.558 Y38.828 E0.08688
G1 X95.293 Y37.844 E0.06358
G1 X93.9 Y37.045 E0.0637
G1 X91.893 Y36.273 E0.08529
G1 X90.366 Y35.951 E0.06193
G1 X89.144 Y35.842 E0.04865
G1 X87.124 Y35.934 E0.08022
G1 X29.381 Y41.972 E2.30312
G1 X28.442 Y42.217 E0.03848
G1 X27.929 Y42.504 E0.02333
G1 E-0.4 F3000
M204 S3000
G1 Z0.4 F18000
M204 S1500
G1 X29.995 Y44.57
M204 S1000
G1 X32.061 Y46.636
G1 Z0.2
G1 E0.4 F1800
;WIDTH:0.56
G1 X32.27 Y46.427 E0.0127
G1 X33.79 Y45.798 E0.07076
G1 X38.344 Y45.798 E0.19579
G1 X39.864 Y46.427 E0.07076
G1 X41.179 Y47.742 E0.07996
G1 X41.809 Y49.263 E0.07076
G1 X41.809 Y51.141 E0.08077
G1 X42.245 Y51.213 E0.01897
G1 X42.498 Y51.241 E0.01095
G1 X43.24 Y51.282 E0.03197
G1 X43.495 Y51.283 E0.01095
G1 X44.198 Y51.248 E0.03029
G1 X44.898 Y51.162 E0.03029
G1 X45.148 Y51.118 E0.01095
M73 P3 R13
G1 X45.91 Y50.941 E0.03361
G1 X86.661 Y39.937 E1.81486
G1 X86.791 Y39.906 E0.00576
G1 X87.436 Y39.776 E0.02829
G1 X87.633 Y39.746 E0.00858
G1 X88.096 Y39.699 E0.01998
G1 X88.303 Y39.688 E0.00895
G1 X89.018 Y39.686 E0.03071
G1 X89.221 Y39.696 E0.00873
G1 X89.668 Y39.739 E0.01934
G1 X89.867 Y39.768 E0.00862
G1 X90.586 Y39.909 E0.03151
G1 X90.846 Y39.977 E0.01156
G1 X91.546 Y40.212 E0.03173
G1 X91.735 Y40.286 E0.00871
G1 X92.159 Y40.476 E0.01999
G1 X92.342 Y40.569 E0.00883
G1 X92.98 Y40.934 E0.03161
G1 X93.204 Y41.083 E0.01156
G1 X93.82 Y41.552 E0.03329
G1 X94.025 Y41.729 E0.01164
G1 X94.549 Y42.25 E0.03178
G1 X94.686 Y42.4 E0.00872
G1 X94.983 Y42.758 E0.01999
G1 X95.106 Y42.922 E0.00883
G1 X95.516 Y43.532 E0.03161
G1 X95.651 Y43.765 E0.01156
G1 X95.981 Y44.425 E0.03173
G1 X96.062 Y44.611 E0.00872
G1 X96.228 Y45.045 E0.01999
G1 X96.291 Y45.241 E0.00883
G1 X96.484 Y45.95 E0.03161
G1 X96.537 Y46.214 E0.01156
G1 X96.637 Y46.945 E0.03174
G1 X96.654 Y47.147 E0.00872
G1 X96.671 Y47.612 E0.01999
G1 X96.669 Y47.817 E0.00883
G1 X96.625 Y48.515 E0.03006
G1 X96.603 Y48.714 E0.00863
G1 X96.529 Y49.172 E0.01995
G1 X96.487 Y49.373 E0.00883
G1 X96.299 Y50.084 E0.03161
G1 X96.213 Y50.339 E0.01156
G1 X95.934 Y51.022 E0.03173
G1 X95.848 Y51.206 E0.00872
G1 X95.63 Y51.617 E0.01999
G1 X95.525 Y51.793 E0.00883
G1 X95.119 Y52.406 E0.03161
G1 X94.956 Y52.62 E0.01156
G1 X94.448 Y53.204 E0.03329
G1 X94.257 Y53.396 E0.01164
G1 X93.676 Y53.91 E0.03333
G1 X93.462 Y54.076 E0.01164
G1 X92.849 Y54.489 E0.03178
G1 X92.676 Y54.594 E0.00872
G1 X92.267 Y54.815 E0.01999
G1 X92.082 Y54.903 E0.00883
G1 X91.437 Y55.173 E0.03006
G1 X91.248 Y55.241 E0.00863
G1 X90.87 Y55.357 E0.01698
G1 X90.801 Y55.378 E0.00312
G1 X50.88 Y66.157 E1.77788
G1 X49.899 Y66.454 E0.04405
G1 X49.492 Y66.597 E0.01856
G1 X49.079 Y66.755 E0.01902
G1 X48.419 Y67.039 E0.03086
G1 X47.772 Y67.348 E0.03086
G1 X47.409 Y67.54 E0.01763
G1 X46.58 Y68.024 E0.0413
G1 X45.808 Y68.539 E0.0399
G1 X45.042 Y69.119 E0.0413
G1 X44.734 Y69.373 E0.01717
G1 X44.022 Y70.018 E0.0413
G1 X43.35 Y70.703 E0.0413
G1 X43.08 Y71.003 E0.01733
G1 X41.956 Y72.368 E0.07604
G1 X41.831 Y72.506 E0.00797
G1 X41.809 Y72.528 E0.00135
G1 X41.809 Y76.348 E0.16423
G1 X41.179 Y77.868 E0.07076
G1 X39.864 Y79.183 E0.07996
G1 X38.344 Y79.813 E0.07076
G1 X30.609 Y79.813 E0.33256
G1 X29.089 Y79.183 E0.07076
G1 X27.774 Y77.868 E0.07996
G1 X27.144 Y76.348 E0.07076
G1 X27.144 Y74.913 E0.06169
G1 X26.792 Y74.721 E0.01725
G1 X26.629 Y74.622 E0.00817
G1 X25.867 Y74.11 E0.03949
G1 X25.713 Y73.997 E0.0082
G1 X25.001 Y73.416 E0.0395
G1 X24.859 Y73.289 E0.0082
G1 X24.203 Y72.646 E0.0395
G1 X24.073 Y72.506 E0.0082
G1 X23.479 Y71.805 E0.0395
G1 X23.363 Y71.654 E0.0082
G1 X22.836 Y70.901 E0.0395
G1 X22.734 Y70.74 E0.0082
G1 X22.291 Y69.964 E0.03841
G1 X22.225 Y69.837 E0.00614
G1 X22.006 Y69.384 E0.02166
G1 X21.955 Y69.269 E0.0054
G1 X21.283 Y67.627 E0.07629
G1 X21.492 Y65.569 E0.08892
G1 X22.385 Y64.24 E0.06884
G1 X21.452 Y62.749 E0.07561
G1 X21.339 Y60.613 E0.09195
G1 X22.188 Y58.868 E0.08344
G1 X22.249 Y58.753 E0.00561
G1 X22.496 Y58.317 E0.02155
G1 X22.544 Y58.237 E0.00399
G1 X22.811 Y57.812 E0.02161
G1 X22.888 Y57.697 E0.00593
G1 X23.433 Y56.946 E0.03989
G1 X23.547 Y56.803 E0.00789
G1 X24.159 Y56.101 E0.04002
G1 X24.253 Y56 E0.00593
G1 X24.626 Y55.624 E0.02278
G1 X24.728 Y55.529 E0.00597
G1 X25.344 Y54.988 E0.03527
G1 X25.344 Y52.859 E0.09154
G1 X25.974 Y51.338 E0.07076
G1 X27.289 Y50.023 E0.07996
G1 X28.809 Y49.393 E0.07076
G1 X29.587 Y49.393 E0.03346
G1 X30.073 Y48.925 E0.029
G1 X30.539 Y48.747 E0.02144
G1 X30.955 Y47.742 E0.04673
G1 X32.019 Y46.679 E0.06469
M204 S1500
G1 X32.201 Y46.861 F18000
M204 S1000
G1 X32.384 Y47.044
G1 F1800
G1 X32.563 Y46.866 E0.01086
G1 X33.893 Y46.315 E0.06191
G1 X38.241 Y46.315 E0.18695
G1 X39.571 Y46.866 E0.06191
G1 X40.741 Y48.035 E0.07112
G1 X41.292 Y49.366 E0.06191
G1 X41.292 Y51.569 E0.09473
G1 X41.448 Y51.606 E0.00687
G1 X42.174 Y51.725 E0.03167
G1 X42.455 Y51.756 E0.01213
G1 X43.225 Y51.8 E0.03315
G1 X43.507 Y51.8 E0.01213
G1 X44.243 Y51.763 E0.03167
G1 X44.974 Y51.674 E0.03167
G1 X45.252 Y51.625 E0.01214
G1 X46.036 Y51.443 E0.0346
G1 X86.787 Y40.438 E1.81489
M73 P4 R12
G1 X86.902 Y40.412 E0.00504
G1 X87.526 Y40.286 E0.0274
G1 X87.699 Y40.259 E0.00751
G1 X88.136 Y40.214 E0.01888
G1 X88.317 Y40.205 E0.00783
G1 X89.006 Y40.204 E0.0296
G1 X89.183 Y40.212 E0.00764
G1 X89.606 Y40.253 E0.01826
G1 X89.78 Y40.278 E0.00754
G1 X90.47 Y40.413 E0.03025
G1 X90.698 Y40.473 E0.01012
G1 X91.37 Y40.698 E0.03047
G1 X91.535 Y40.763 E0.00763
G1 X91.936 Y40.942 E0.01889
G1 X92.096 Y41.024 E0.00773
G1 X92.708 Y41.375 E0.03034
G1 X92.904 Y41.505 E0.01012
G1 X93.494 Y41.953 E0.03184
G1 X93.673 Y42.109 E0.01019
G1 X94.176 Y42.608 E0.0305
G1 X94.296 Y42.739 E0.00763
G1 X94.576 Y43.077 E0.01889
G1 X94.684 Y43.221 E0.00773
G1 X95.078 Y43.807 E0.03034
G1 X95.196 Y44.01 E0.01011
G1 X95.512 Y44.644 E0.03047
G1 X95.583 Y44.807 E0.00763
G1 X95.74 Y45.217 E0.01889
G1 X95.796 Y45.388 E0.00773
G1 X95.98 Y46.069 E0.03034
G1 X96.027 Y46.3 E0.01011
G1 X96.122 Y47.002 E0.03047
G1 X96.138 Y47.179 E0.00763
G1 X96.154 Y47.618 E0.01889
G1 X96.152 Y47.798 E0.00773
G1 X96.11 Y48.47 E0.02897
G1 X96.09 Y48.645 E0.00755
G1 X96.021 Y49.078 E0.01885
G1 X95.984 Y49.253 E0.00773
G1 X95.803 Y49.936 E0.03034
G1 X95.728 Y50.159 E0.01011
G1 X95.46 Y50.814 E0.03047
G1 X95.385 Y50.975 E0.00763
G1 X95.179 Y51.363 E0.01889
G1 X95.087 Y51.518 E0.00773
G1 X94.697 Y52.106 E0.03034
G1 X94.555 Y52.293 E0.01012
G1 X94.069 Y52.852 E0.03184
G1 X93.902 Y53.02 E0.01019
G1 X93.346 Y53.511 E0.03188
G1 X93.159 Y53.656 E0.01019
G1 X92.571 Y54.053 E0.0305
G1 X92.419 Y54.145 E0.00763
G1 X92.032 Y54.354 E0.01889
G1 X91.87 Y54.431 E0.00773
G1 X91.249 Y54.691 E0.02896
G1 X91.084 Y54.751 E0.00755
G1 X90.723 Y54.862 E0.01624
G1 X90.661 Y54.88 E0.00273
G1 X50.738 Y65.66 E1.77801
G1 X49.739 Y65.962 E0.04487
G1 X49.313 Y66.111 E0.01938
G1 X48.884 Y66.276 E0.01979
G1 X48.206 Y66.568 E0.03173
G1 X47.54 Y66.886 E0.03173
G1 X47.158 Y67.087 E0.01856
G1 X46.306 Y67.586 E0.04244
G1 X45.508 Y68.118 E0.04121
G1 X44.721 Y68.713 E0.04244
G1 X44.396 Y68.982 E0.01815
G1 X43.664 Y69.645 E0.04244
G1 X42.972 Y70.349 E0.04244
G1 X42.688 Y70.666 E0.01829
G1 X41.564 Y72.03 E0.07602
G1 X41.455 Y72.151 E0.00698
G1 X41.292 Y72.316 E0.00998
G1 X41.292 Y76.245 E0.16893
G1 X40.741 Y77.575 E0.06191
G1 X39.571 Y78.745 E0.07112
G1 X38.241 Y79.296 E0.06191
G1 X30.712 Y79.296 E0.32372
G1 X29.382 Y78.745 E0.06191
G1 X28.212 Y77.575 E0.07112
G1 X27.661 Y76.245 E0.06191
G1 X27.661 Y74.606 E0.07046
G1 X27.05 Y74.273 E0.02993
G1 X26.908 Y74.186 E0.00715
G1 X26.165 Y73.688 E0.03847
G1 X26.031 Y73.588 E0.00718
G1 X25.337 Y73.023 E0.03848
G1 X25.213 Y72.912 E0.00718
G1 X24.574 Y72.285 E0.03848
G1 X24.46 Y72.163 E0.00718
G1 X23.882 Y71.48 E0.03848
G1 X23.78 Y71.348 E0.00718
G1 X23.267 Y70.614 E0.03848
G1 X23.177 Y70.473 E0.00718
G1 X22.745 Y69.715 E0.03751
G1 X22.687 Y69.605 E0.00538
G1 X22.475 Y69.166 E0.02094
G1 X22.431 Y69.066 E0.00472
G1 X21.811 Y67.55 E0.07039
G1 X21.994 Y65.75 E0.07781
G1 X23.001 Y64.25 E0.07769
G1 X21.962 Y62.588 E0.08427
G1 X21.862 Y60.72 E0.08046
G1 X22.65 Y59.102 E0.07735
G1 X22.703 Y59.001 E0.00491
G1 X22.943 Y58.577 E0.02095
G1 X22.985 Y58.508 E0.00349
G1 X23.244 Y58.094 E0.02099
G1 X23.312 Y57.994 E0.00519
G1 X23.845 Y57.259 E0.03903
G1 X23.945 Y57.134 E0.00691
G1 X24.543 Y56.447 E0.03915
G1 X24.625 Y56.358 E0.00519
G1 X24.987 Y55.995 E0.02204
G1 X25.075 Y55.912 E0.00522
G1 X25.741 Y55.327 E0.03811
G1 X25.834 Y55.251 E0.00517
G1 X25.861 Y55.23 E0.00145
G1 X25.861 Y52.961 E0.09754
G1 X26.412 Y51.631 E0.06191
G1 X27.582 Y50.461 E0.07112
G1 X28.912 Y49.91 E0.06191
G1 X29.796 Y49.91 E0.03802
G1 X30.356 Y49.37 E0.03345
G1 X30.931 Y49.15 E0.02648
G1 X31.393 Y48.035 E0.05188
G1 X32.342 Y47.087 E0.05768
M204 S1500
G1 X32.525 Y47.269 F18000
M204 S1000
G1 X32.707 Y47.452
G1 F1800
G1 X32.856 Y47.304 E0.00901
G1 X33.996 Y46.832 E0.05307
G1 X38.138 Y46.832 E0.1781
G1 X39.279 Y47.304 E0.05307
G1 X40.303 Y48.328 E0.06228
G1 X40.775 Y49.469 E0.05307
G1 X40.775 Y51.977 E0.10787
G1 X41.346 Y52.113 E0.02522
G1 X42.104 Y52.238 E0.03305
G1 X42.412 Y52.272 E0.01332
G1 X43.21 Y52.317 E0.03434
G1 X43.519 Y52.317 E0.01332
G1 X44.287 Y52.279 E0.03305
G1 X45.05 Y52.185 E0.03305
G1 X45.355 Y52.131 E0.01332
G1 X46.162 Y51.944 E0.03559
G1 X86.914 Y40.94 E1.81493
G1 X87.012 Y40.917 E0.00432
G1 X87.616 Y40.795 E0.0265
G1 X87.764 Y40.772 E0.00643
G1 X88.176 Y40.73 E0.01779
G1 X88.331 Y40.722 E0.00671
G1 X88.994 Y40.721 E0.0285
G1 X89.146 Y40.728 E0.00655
G1 X89.544 Y40.766 E0.01718
G1 X89.693 Y40.788 E0.00647
G1 X90.306 Y40.908 E0.02687
G1 X90.407 Y40.931 E0.00445
G1 X90.523 Y40.962 E0.00514
G1 X90.62 Y40.991 E0.00436
G1 X91.198 Y41.186 E0.02625
G1 X91.337 Y41.24 E0.00639
G1 X91.713 Y41.409 E0.01772
G1 X91.85 Y41.479 E0.00663
G1 X92.394 Y41.79 E0.02695
G1 X92.482 Y41.845 E0.00445
G1 X92.581 Y41.911 E0.00514
G1 X92.664 Y41.97 E0.00437
G1 X93.132 Y42.328 E0.02533
G1 X93.211 Y42.392 E0.00436
G1 X93.3 Y42.47 E0.00509
G1 X93.374 Y42.539 E0.00437
G1 X93.807 Y42.97 E0.02625
G1 X93.907 Y43.08 E0.00639
G1 X94.17 Y43.397 E0.01772
G1 X94.262 Y43.521 E0.00663
G1 X94.612 Y44.041 E0.02695
G1 X94.667 Y44.129 E0.00445
G1 X94.727 Y44.232 E0.00513
G1 X94.775 Y44.321 E0.00437
G1 X95.046 Y44.868 E0.02625
G1 X95.105 Y45.005 E0.00639
G1 X95.252 Y45.39 E0.01772
G1 X95.3 Y45.536 E0.00662
G1 X95.464 Y46.141 E0.02695
G1 X95.488 Y46.242 E0.00445
G1 X95.511 Y46.359 E0.00514
G1 X95.528 Y46.459 E0.00437
G1 X95.609 Y47.064 E0.02625
G1 X95.622 Y47.212 E0.00639
G1 X95.637 Y47.624 E0.01772
G1 X95.635 Y47.778 E0.00662
G1 X95.595 Y48.425 E0.02787
G1 X95.578 Y48.575 E0.00647
G1 X95.512 Y48.983 E0.01776
G1 X95.48 Y49.134 E0.00663
G1 X95.32 Y49.74 E0.02695
G1 X95.29 Y49.839 E0.00445
G1 X95.252 Y49.952 E0.00513
G1 X95.217 Y50.047 E0.00436
G1 X94.984 Y50.611 E0.02625
G1 X94.921 Y50.746 E0.00639
G1 X94.728 Y51.11 E0.01772
G1 X94.649 Y51.243 E0.00663
G1 X94.303 Y51.765 E0.02695
G1 X94.243 Y51.849 E0.00445
G1 X94.17 Y51.944 E0.00514
G1 X94.106 Y52.023 E0.00436
G1 X93.718 Y52.467 E0.02533
G1 X93.649 Y52.541 E0.00437
G1 X93.566 Y52.625 E0.00509
G1 X93.492 Y52.694 E0.00436
