; generated by SuperSlicer 2.3.57 on 2022-02-11 at 22:50:34 UTC


;
;

;
;
; TODO: check the size of the extruder and the y-bar clearance. Optimize & test supports.

; external perimeters extrusion width = 0.41mm
; perimeters extrusion width = 0.44mm
; infill extrusion width = 0.44mm
; solid infill extrusion width = 0.44mm
; top infill extrusion width = 0.42mm
; first layer extrusion width = 0.56mm

; object:{"name":"Printable_Wrench_W_Longer_Screw","id":"Printable_Wrench_W_Longer_Screw.stl id:0 copy 0","object_center":[59.000000,59.500000,0.000000],"boundingbox_center":[59.000000,59.500000,1.375000],"boundingbox_size":[72.249141,34.171208,2.750000]}
; plater:{"center":[59.000000,59.500000,0.000000],"boundingbox_center":[59.000000,59.500000,1.375000],"boundingbox_size":[72.249141,34.171208,2.750000]}

M73 P0 R15
;TYPE:Custom
; custom gcode: start_gcode
; M190 S0
; M109 S0 ; uncomment to remove set&wait temp gcode added automatically after this start gcode
print_start EXTRUDER=210 BED=60 CHAMBER=15
; custom gcode end: start_gcode
G21 ; set units to millimeters
G90 ; use absolute coordinates
M83 ; use relative distances for extrusion
M104 S210 ; set temperature
M109 S210 ; set temperature and wait for it to be reached
M190 S60 ; set bed temperature and wait for it to be reached
;LAYER_CHANGE
;Z:0.2
;HEIGHT:0.2
; custom gcode: before_layer_gcode
;BEFORE_LAYER_CHANGE
;0.2

; custom gcode end: before_layer_gcode

G1 Z0.2 F18000
; custom gcode: layer_gcode
;AFTER_LAYER_CHANGE
;0.2
; custom gcode end: layer_gcode

G1 E-0.4 F3000
G1 Z0.4 F18000
M204 S1500
G1 X30.682 Y46.137
G1 Z0.2
G1 E0.4 F1800
; custom gcode: feature_gcode
; External perimeter
;;Skirt
;SET_VELOCITY_LIMIT ACCEL=7000 ACCEL_TO_DECEL=7000 SQUARE_CORNER_VELOCITY=8

; Support material
;
; custom gcode end: feature_gcode

;TYPE:Skirt
;WIDTH:0.52
G1 X25.314 Y50.012 E0.26264
G1 X24.565 Y50.711 E0.04064
G1 X24.092 Y51.409 E0.03346
G1 X19.672 Y59.767 E0.37507
G1 X19.39 Y60.541 E0.03266
G1 X19.265 Y61.349 E0.03246
G1 X19.236 Y67.609 E0.24834
G1 X19.378 Y68.629 E0.04083
G1 X19.825 Y69.814 E0.05023
G1 X20.597 Y71.267 E0.06526
G1 X21.227 Y72.191 E0.04437
G1 X26.355 Y79.012 E0.33853
G1 X26.91 Y79.613 E0.03246
G1 X27.575 Y80.099 E0.03266
G1 X28.558 Y80.519 E0.04243
G1 X29.611 Y80.677 E0.04223
G1 X36.165 Y80.674 E0.25999
G1 X36.93 Y80.57 E0.03066
G1 X37.668 Y80.324 E0.03086
G1 X94.196 Y54.253 E2.46943
G1 X95.145 Y53.716 E0.04322
G1 X95.876 Y53.172 E0.03619
G1 X96.997 Y52.039 E0.06318
G1 X97.645 Y51.121 E0.04459
G1 X98.091 Y50.277 E0.03788
G1 X98.564 Y48.958 E0.05558
G1 X98.773 Y47.863 E0.04423
G1 X98.825 Y46.639 E0.04862
G1 X98.671 Y45.267 E0.05476
G1 X98.276 Y43.927 E0.05541
G1 X97.746 Y42.811 E0.04902
G1 X97.088 Y41.836 E0.04663
G1 X96.132 Y40.813 E0.05558
G1 X95.23 Y40.106 E0.04543
G1 X94.18 Y39.506 E0.04801
G1 X92.907 Y39.024 E0.05398
G1 X92.01 Y38.823 E0.03647
G1 X90.654 Y38.707 E0.05398
G1 X89.649 Y38.769 E0.03994
G1 X32.599 Y45.402 E2.27838
G1 X31.408 Y45.727 E0.04899
G1 X30.734 Y46.107 E0.03068
G1 X30.85 Y46.314 F18000
M204 S1000
G1 X30.966 Y46.522
G1 F1800
G1 X25.598 Y50.395 E0.2626
G1 X24.953 Y50.992 E0.03487
G1 X24.519 Y51.622 E0.03036
G1 X20.45 Y59.254 E0.3431
G1 X19.908 Y60.462 E0.05252
G1 X19.736 Y61.511 E0.04217
G1 X19.72 Y67.778 E0.24861
G1 X19.862 Y68.588 E0.03261
G1 X20.253 Y69.601 E0.04308
G1 X21.013 Y71.034 E0.06432
G1 X21.671 Y71.99 E0.04606
G1 X26.795 Y78.8 E0.33806
G1 X27.254 Y79.281 E0.02641
G1 X27.793 Y79.673 E0.02641
G1 X28.668 Y80.054 E0.03787
G1 X29.616 Y80.2 E0.03805
G1 X36.125 Y80.198 E0.25822
G1 X36.804 Y80.109 E0.02716
G1 X37.455 Y79.897 E0.02716
G1 X93.989 Y53.823 E2.46968
M73 P1 R15
G1 X95.132 Y53.143 E0.05274
G1 X96.067 Y52.36 E0.04838
G1 X96.802 Y51.52 E0.04429
G1 X97.514 Y50.381 E0.05328
G1 X97.943 Y49.369 E0.04362
G1 X98.269 Y48.019 E0.05508
G1 X98.354 Y46.954 E0.0424
G1 X98.284 Y45.842 E0.04418
G1 X98.04 Y44.711 E0.04589
G1 X97.427 Y43.226 E0.06376
G1 X96.831 Y42.287 E0.04409
G1 X96.057 Y41.397 E0.04682
G1 X95.088 Y40.591 E0.04999
G1 X94.024 Y39.96 E0.04907
G1 X92.805 Y39.492 E0.05178
G1 X91.955 Y39.297 E0.03461
G1 X90.655 Y39.184 E0.05178
G1 X32.658 Y45.876 E2.31594
G1 X31.623 Y46.154 E0.04255
G1 X31.019 Y46.492 E0.02746
M204 S1500
G1 X31.134 Y46.7 F18000
M204 S1000
G1 X31.25 Y46.907
G1 F1800
G1 X31.228 Y46.919 E0.00097
G1 X25.88 Y50.78 E0.26166
G1 X25.314 Y51.304 E0.03062
G1 X24.937 Y51.853 E0.02641
G1 X20.883 Y59.454 E0.34175
G1 X20.371 Y60.582 E0.04914
G1 X20.213 Y61.517 E0.03761
G1 X20.195 Y67.737 E0.24673
G1 X20.321 Y68.458 E0.02904
G1 X20.684 Y69.395 E0.03989
G1 X21.421 Y70.787 E0.06247
G1 X22.047 Y71.697 E0.04381
G1 X27.161 Y78.494 E0.33742
G1 X28.019 Y79.253 E0.04544
G1 X28.794 Y79.594 E0.03359
G1 X29.626 Y79.723 E0.03341
G1 X36.092 Y79.722 E0.25649
G1 X36.682 Y79.647 E0.0236
G1 X37.249 Y79.466 E0.0236
G1 X93.785 Y53.391 E2.4698
G1 X94.813 Y52.786 E0.04731
G1 X95.724 Y52.028 E0.04702
G1 X96.409 Y51.249 E0.04117
G1 X96.967 Y50.393 E0.04049
G1 X97.487 Y49.226 E0.05072
G1 X97.799 Y47.941 E0.05244
G1 X97.877 Y46.951 E0.03941
G1 X97.812 Y45.91 E0.04137
G1 X97.589 Y44.865 E0.04237
G1 X97.001 Y43.441 E0.06111
G1 X96.447 Y42.569 E0.04098
G1 X95.725 Y41.739 E0.04366
G1 X94.807 Y40.976 E0.04734
G1 X93.81 Y40.386 E0.04594
M73 P2 R15
G1 X92.657 Y39.946 E0.04896
G1 X91.881 Y39.768 E0.03157
G1 X90.652 Y39.661 E0.04895
G1 X32.716 Y46.349 E2.31356
G1 X31.829 Y46.585 E0.03639
G1 X31.302 Y46.878 E0.02394
; INIT printing object Printable_Wrench_W_Longer_Screw.stl id:0 copy 0
G1 E-0.4 F3000
M204 S3000
G1 Z0.4 F18000
; printing object Printable_Wrench_W_Longer_Screw.stl id:0 copy 0
M204 S1500
G1 X30.9 Y60.86
M204 S1000
G1 X30.499 Y74.843
G1 Z0.2
G1 E0.4 F1800
; custom gcode: feature_gcode
; External perimeter
;;Perimeter
;SET_VELOCITY_LIMIT ACCEL=2000 ACCEL_TO_DECEL=2000 SQUARE_CORNER_VELOCITY=8

; Overhang perimeter
;
; custom gcode end: feature_gcode

;TYPE:Internal perimeter
;WIDTH:0.56
G1 X35.185 Y74.843 E0.20147
G1 X35.185 Y75.689 E0.03637
G1 X30.499 Y75.689 E0.20147
G1 X30.499 Y74.903 E0.03379
M204 S1500
G1 X30.24 Y74.614 F18000
M204 S1000
G1 X29.982 Y74.326
; custom gcode: feature_gcode
; External perimeter
;;ExternalPerimeter
;SET_VELOCITY_LIMIT ACCEL=1000 ACCEL_TO_DECEL=1000 SQUARE_CORNER_VELOCITY=8

; Perimeter
;
; custom gcode end: feature_gcode

;TYPE:External perimeter
G1 F1800
G1 X35.702 Y74.326 E0.24593
G1 X35.702 Y76.206 E0.08083
G1 X29.982 Y76.206 E0.24593
G1 X29.982 Y74.386 E0.07825
;WIPE_START
M204 S3000
G1 X30.328 Y74.526 F18000
;WIPE_END
M204 S1500
G1 X32.637 Y74.896
M204 S1000
G1 X34.946 Y75.266
; custom gcode: feature_gcode
; External perimeter
;;GapFill
;SET_VELOCITY_LIMIT ACCEL=2000 ACCEL_TO_DECEL=2000 SQUARE_CORNER_VELOCITY=8

; Skirt
;
; custom gcode end: feature_gcode

;TYPE:Gap fill
;WIDTH:0.412004
M73 P2 R14
G1 F1800
G1 X30.737 Y75.266 E0.12917
G1 E-0.4 F3000
M204 S3000
G1 Z0.4 F18000
M204 S1500
G1 X33.981 Y69.296
M204 S1000
G1 X37.226 Y63.326
G1 Z0.2
G1 E0.4 F1800
; custom gcode: feature_gcode
; External perimeter
;;ExternalPerimeter
;SET_VELOCITY_LIMIT ACCEL=1000 ACCEL_TO_DECEL=1000 SQUARE_CORNER_VELOCITY=8

; Perimeter
;
; custom gcode end: feature_gcode

;TYPE:External perimeter
;WIDTH:0.56
G1 X37.226 Y63.29 E0.00156
G1 X38.804 Y63.115 E0.06829
G1 X38.804 Y63.151 E0.00157
G1 X37.285 Y63.32 E0.06571
;WIPE_START
M204 S3000
G1 X37.243 Y63.294 F18000
;WIPE_END
M204 S1500
G1 X37.166 Y62.569
M204 S1000
G1 X37.089 Y61.843
G1 F1800
G1 X36.716 Y61.883 E0.01612
G1 X36.716 Y61.846 E0.00159
G1 X38.809 Y61.624 E0.09047
G1 X38.809 Y61.661 E0.00159
G1 X37.149 Y61.837 E0.07177
;WIPE_START
M204 S3000
G1 X36.869 Y61.54 F18000
;WIPE_END
M204 S1500
G1 X36.808 Y60.966
M204 S1000
G1 X36.747 Y60.391
G1 F1800
G1 X36.714 Y60.395 E0.00144
G1 X36.714 Y60.358 E0.00159
G1 X38.808 Y60.136 E0.09053
G1 X38.808 Y60.173 E0.00159
G1 X36.807 Y60.385 E0.08651
;WIPE_START
M204 S3000
G1 X36.727 Y60.364 F18000
;WIPE_END
M204 S1500
G1 X36.721 Y59.635
M204 S1000
G1 X36.714 Y58.905
G1 F1800
G1 X36.714 Y58.869 E0.00157
G1 X38.298 Y58.694 E0.06852
G1 X38.298 Y58.73 E0.00157
G1 X36.773 Y58.899 E0.06594
;WIPE_START
M204 S3000
G1 X36.731 Y58.873 F18000
;WIPE_END
G1 E-0.4 F3000
G1 Z0.4 F18000
M204 S1500
G1 X36.216 Y54.939
M204 S1000
G1 X35.702 Y51.006
G1 Z0.2
G1 E0.4 F1800
G1 X33.375 Y51.006 E0.10004
G1 X33.375 Y49.846 E0.04987
G1 X35.702 Y49.846 E0.10004
G1 X35.702 Y50.946 E0.04729
;WIPE_START
M204 S3000
G1 X35.355 Y50.806 F18000
;WIPE_END
M204 S1500
G1 X34.484 Y50.616
M204 S1000
G1 X33.613 Y50.426
; custom gcode: feature_gcode
; External perimeter
;;GapFill
;SET_VELOCITY_LIMIT ACCEL=2000 ACCEL_TO_DECEL=2000 SQUARE_CORNER_VELOCITY=8

; Skirt
;
; custom gcode end: feature_gcode

;TYPE:Gap fill
;WIDTH:0.726159
G1 F1800
G1 X33.784 Y50.426 E0.0097
G1 X33.955 Y50.426 E0.0097
G1 X35.463 Y50.426 E0.0857
G1 E-0.4 F3000
M204 S3000
G1 Z0.4 F18000
M204 S1500
G1 X32.582 Y52.053
M204 S1000
G1 X29.702 Y53.681
G1 Z0.2
G1 E0.4 F1800
; custom gcode: feature_gcode
; External perimeter
;;ExternalPerimeter
;SET_VELOCITY_LIMIT ACCEL=1000 ACCEL_TO_DECEL=1000 SQUARE_CORNER_VELOCITY=8

; Perimeter
;
; custom gcode end: feature_gcode

;TYPE:External perimeter
;WIDTH:0.56
G1 X29.702 Y55.081 E0.06019
G1 X28.062 Y55.081 E0.07051
G1 X28.062 Y53.681 E0.06019
G1 X29.642 Y53.681 E0.06793
;WIPE_START
M204 S3000
G1 X29.502 Y54.027 F18000
;WIPE_END
M204 S1500
G1 X28.901 Y54.204
M204 S1000
G1 X28.3 Y54.381
; custom gcode: feature_gcode
; External perimeter
;;GapFill
;SET_VELOCITY_LIMIT ACCEL=2000 ACCEL_TO_DECEL=2000 SQUARE_CORNER_VELOCITY=8

; Skirt
;
; custom gcode end: feature_gcode

;TYPE:Gap fill
;WIDTH:0.966161
G1 F1800
G1 X29.463 Y54.381 E0.0893
G1 E-0.4 F3000
M204 S3000
G1 Z0.4 F18000
M204 S1500
G1 X29.185 Y56.169
M204 S1000
G1 X28.908 Y57.956
G1 Z0.2
G1 E0.4 F1800
; custom gcode: feature_gcode
; External perimeter
;;Perimeter
;SET_VELOCITY_LIMIT ACCEL=2000 ACCEL_TO_DECEL=2000 SQUARE_CORNER_VELOCITY=8

; Overhang perimeter
;
; custom gcode end: feature_gcode

;TYPE:Internal perimeter
;WIDTH:0.56
G1 X28.908 Y58.628 E0.02887
G1 X28.131 Y60.269 E0.07806
G1 X25.78 Y60.269 E0.10107
G1 X26.17 Y59.821 E0.02553
G1 X26.681 Y59.331 E0.03046
G1 X26.925 Y59.126 E0.01366
G1 X27.508 Y58.699 E0.03109
G1 X27.777 Y58.529 E0.01366
G1 X28.412 Y58.184 E0.03109
G1 X28.853 Y57.981 E0.02086
M204 S1500
G1 X29.139 Y57.612 F18000
M204 S1000
G1 X29.425 Y57.242
G1 F1800
G1 X29.425 Y58.744 E0.06458
G1 X28.458 Y60.786 E0.09713
G1 X24.775 Y60.786 E0.15833
G1 X25.09 Y60.309 E0.02457
G1 X25.303 Y60.028 E0.01515
G1 X25.795 Y59.464 E0.03219
G1 X26.336 Y58.945 E0.03219
G1 X26.605 Y58.719 E0.01515
G1 X27.217 Y58.272 E0.03258
G1 X27.515 Y58.083 E0.01515
G1 X28.18 Y57.722 E0.03258
G1 X28.509 Y57.571 E0.01553
G1 X28.843 Y57.435 E0.01553
G1 X29.368 Y57.261 E0.02376
M204 S1500
G1 X29.655 Y56.92 F18000
M204 S1000
G1 X29.942 Y56.58
; custom gcode: feature_gcode
; External perimeter
;;ExternalPerimeter
;SET_VELOCITY_LIMIT ACCEL=1000 ACCEL_TO_DECEL=1000 SQUARE_CORNER_VELOCITY=8

; Perimeter
;
; custom gcode end: feature_gcode

;TYPE:External perimeter
G1 F1800
G1 X29.942 Y58.86 E0.09806
G1 X28.785 Y61.303 E0.1162
G1 X23.897 Y61.303 E0.21015
G1 X24.04 Y61.007 E0.01412
G1 X24.232 Y60.671 E0.01664
G1 X24.668 Y60.01 E0.03406
G1 X24.902 Y59.702 E0.01663
G1 X25.421 Y59.107 E0.03393
G1 X25.99 Y58.56 E0.03393
G1 X26.286 Y58.312 E0.01663
G1 X26.926 Y57.844 E0.03406
G1 X27.253 Y57.637 E0.01663
G1 X27.949 Y57.259 E0.03406
G1 X28.303 Y57.096 E0.01677
G1 X28.664 Y56.949 E0.01677
G1 X29.413 Y56.701 E0.0339
G1 X29.883 Y56.593 E0.02076
;WIPE_START
M204 S3000
G1 X29.768 Y56.94 F18000
;WIPE_END
M204 S1500
G1 X28.304 Y58.224
M204 S1000
G1 X26.84 Y59.508
; custom gcode: feature_gcode
; External perimeter
;;GapFill
;SET_VELOCITY_LIMIT ACCEL=2000 ACCEL_TO_DECEL=2000 SQUARE_CORNER_VELOCITY=8

; Skirt
;
; custom gcode end: feature_gcode

;TYPE:Gap fill
;WIDTH:0.189877
G1 F1800
G1 X26.913 Y59.589 E0.00133
;WIDTH:0.482319
G1 X27.041 Y59.731 E0.00697
;WIDTH:0.66717
G1 X27.152 Y59.69 E0.00615
;WIDTH:0.793862
G1 X27.319 Y59.63 E0.0111
;WIDTH:0.844538
G1 X27.386 Y59.608 E0.00473
;WIDTH:0.927164
G1 X27.521 Y59.563 E0.01044
;WIDTH:1.06487
G1 X27.656 Y59.519 E0.01206
G1 X27.701 Y59.465 E0.006
;WIDTH:0.999689
G1 X27.791 Y59.356 E0.01124
;WIDTH:0.912776
G1 X27.881 Y59.247 E0.01022
;WIDTH:0.864371
G1 X27.977 Y59.139 E0.00982
;WIDTH:0.730986
G1 X28.072 Y59.032 E0.00823
G1 X28.123 Y58.978 E0.00427
;WIDTH:0.652833
G1 X28.226 Y58.869 E0.00757
;WIDTH:0.548628
G1 X28.328 Y58.761 E0.00628
;WIDTH:0.444423
G1 X28.431 Y58.652 E0.00498
;WIDTH:0.340219
G1 X28.534 Y58.544 E0.00369
;WIDTH:0.241261
G1 X28.519 Y58.397 E0.00243
G1 E-0.4 F3000
M204 S3000
G1 Z0.4 F18000
M204 S1500
G1 X31.464 Y57.776
M204 S1000
G1 X34.41 Y57.154
G1 Z0.2
G1 E0.4 F1800
; custom gcode: feature_gcode
; External perimeter
;;Perimeter
;SET_VELOCITY_LIMIT ACCEL=2000 ACCEL_TO_DECEL=2000 SQUARE_CORNER_VELOCITY=8

; Overhang perimeter
;
; custom gcode end: feature_gcode

;TYPE:Internal perimeter
;WIDTH:0.56
G1 X34.41 Y64.817 E0.3295
M73 P3 R14
G1 X40.489 Y64.819 E0.2614
G1 X40.827 Y64.75 E0.01481
G1 X41.102 Y64.603 E0.01343
G1 X41.379 Y64.326 E0.01683
G1 X41.526 Y64.051 E0.01343
G1 X41.595 Y63.713 E0.01482
G1 X41.588 Y58.109 E0.24094
G1 X41.423 Y57.711 E0.01854
G1 X41.249 Y57.499 E0.01181
G1 X41.037 Y57.324 E0.01181
G1 X40.64 Y57.16 E0.01846
G1 X39.258 Y57.152 E0.0594
G1 X34.47 Y57.154 E0.20589
M204 S1500
G1 X34.698 Y57.412 F18000
M204 S1000
G1 X34.927 Y57.671
; custom gcode: feature_gcode
; External perimeter
;;ExternalPerimeter
;SET_VELOCITY_LIMIT ACCEL=1000 ACCEL_TO_DECEL=1000 SQUARE_CORNER_VELOCITY=8

; Perimeter
;
; custom gcode end: feature_gcode

;TYPE:External perimeter
G1 F1800
G1 X34.927 Y64.301 E0.28505
G1 X40.437 Y64.302 E0.23693
G1 X40.65 Y64.259 E0.00932
G1 X40.791 Y64.183 E0.00689
G1 X40.959 Y64.015 E0.01023
G1 X41.035 Y63.874 E0.00689
G1 X41.078 Y63.661 E0.00932
G1 X41.071 Y58.212 E0.23427
G1 X40.975 Y57.979 E0.01083
G1 X40.881 Y57.866 E0.00632
G1 X40.768 Y57.773 E0.00632
G1 X40.536 Y57.677 E0.01081
G1 X39.257 Y57.669 E0.05497
G1 X34.987 Y57.671 E0.1836
;WIPE_START
M204 S3000
G1 X34.527 Y57.671 F18000
;WIPE_END
M204 S1500
G1 X34.21 Y57.154
M204 S1000
G1 X33.893 Y56.637
; custom gcode: feature_gcode
; External perimeter
;;Perimeter
;SET_VELOCITY_LIMIT ACCEL=2000 ACCEL_TO_DECEL=2000 SQUARE_CORNER_VELOCITY=8

; Overhang perimeter
;
; custom gcode end: feature_gcode

;TYPE:Internal perimeter
G1 F1800
G1 X33.893 Y65.334 E0.37395
G1 X40.244 Y65.336 E0.27307
G1 X38.965 Y66.494 E0.07415
G1 X38.036 Y67.44 E0.057
G1 X37.579 Y67.949 E0.02944
G1 X36.398 Y69.376 E0.07962
G1 X35.934 Y69.846 E0.02841
G1 X35.715 Y70.038 E0.01252
G1 X35.192 Y70.438 E0.0283
G1 X34.648 Y70.78 E0.02764
G1 X34.074 Y71.07 E0.02764
G1 X33.476 Y71.306 E0.02764
G1 X32.859 Y71.486 E0.02764
G1 X32.228 Y71.609 E0.02764
G1 X31.588 Y71.673 E0.02764
G1 X30.945 Y71.677 E0.02764
G1 X30.305 Y71.623 E0.02764
G1 X29.657 Y71.507 E0.02829
G1 X29.374 Y71.436 E0.01252
G1 X28.749 Y71.232 E0.0283
G1 X28.158 Y70.977 E0.02764
G1 X27.594 Y70.669 E0.02764
G1 X27.061 Y70.31 E0.02764
G1 X26.563 Y69.903 E0.02764
G1 X26.104 Y69.453 E0.02764
G1 X25.6 Y68.857 E0.03355
G1 X29.873 Y68.857 E0.1837
G1 X31.976 Y64.527 E0.20697
G1 X31.976 Y53.605 E0.46957
G1 X32.431 Y53.695 E0.01996
G1 X33.102 Y53.888 E0.03
G1 X33.766 Y54.145 E0.03062
G1 X34.067 Y54.284 E0.01426
G1 X35.502 Y55.037 E0.06968
G1 X36.534 Y55.487 E0.04843
G1 X37.596 Y55.864 E0.04842
G1 X38.851 Y56.21 E0.05599
G1 X38.794 Y56.635 E0.01845
G1 X33.953 Y56.637 E0.20814
M204 S1500
G1 X37.643 Y56.768 F18000
M204 S1000
G1 X41.333 Y56.899
G1 F1800
G1 X41.458 Y56.569 E0.01518
G1 X42.027 Y56.591 E0.02447
G1 X42.598 Y56.592 E0.02455
G1 X43.434 Y56.555 E0.03598
G1 X44.267 Y56.478 E0.03598
G1 X44.833 Y56.399 E0.02455
G1 X45.399 Y56.299 E0.02471
G1 X46.461 Y56.052 E0.04687
G1 X87.554 Y44.956 E1.83008
G1 X87.172 Y45.864 E0.04236
G1 X87.036 Y46.465 E0.02651
G1 X87.009 Y47.081 E0.02651
G1 X87.091 Y47.692 E0.02651
G1 X87.279 Y48.28 E0.02651
G1 X87.553 Y48.799 E0.02525
G1 X87.766 Y49.097 E0.01576
G1 X88.167 Y49.526 E0.02525
G1 X88.948 Y50.109 E0.04192
G1 X48.726 Y60.971 E1.7913
G1 X47.476 Y61.348 E0.05614
