; generated by SuperSlicer 2.3.57 on 2022-02-11 at 21:07:47 UTC


;
;

;
;
; TODO: check the size of the extruder and the y-bar clearance. Optimize & test supports.

; external perimeters extrusion width = 0.41mm
; perimeters extrusion width = 0.44mm
; infill extrusion width = 0.44mm
; solid infill extrusion width = 0.44mm
; top infill extrusion width = 0.42mm
; first layer extrusion width = 0.56mm

; object:{"name":"Printable_Wrench_W_Longer_Screw","id":"Printable_Wrench_W_Longer_Screw.stl id:0 copy 0","object_center":[59.000000,59.500000,0.000000],"boundingbox_center":[59.000000,59.500000,3.025000],"boundingbox_size":[82.785474,39.154510,6.050000]}
; plater:{"center":[59.000000,59.500000,0.000000],"boundingbox_center":[59.000000,59.500000,3.025000],"boundingbox_size":[82.785474,39.154510,6.050000]}

M73 P0 R37
;TYPE:Custom
; custom gcode: start_gcode
; M190 S0
; M109 S0 ; uncomment to remove set&wait temp gcode added automatically after this start gcode
print_start EXTRUDER=210 BED=60 CHAMBER=15
; custom gcode end: start_gcode
G21 ; set units to millimeters
G90 ; use absolute coordinates
M83 ; use relative distances for extrusion
M104 S210 ; set temperature
M109 S210 ; set temperature and wait for it to be reached
M190 S60 ; set bed temperature and wait for it to be reached
;LAYER_CHANGE
;Z:0.2
;HEIGHT:0.2
; custom gcode: before_layer_gcode
;BEFORE_LAYER_CHANGE
;0.2

; custom gcode end: before_layer_gcode

G1 Z0.2 F18000
; custom gcode: layer_gcode
;AFTER_LAYER_CHANGE
;0.2
; custom gcode end: layer_gcode

G1 E-0.4 F3000
G1 Z0.4 F18000
M204 S1500
G1 X26.89 Y44.673
G1 Z0.2
G1 E0.4 F1800
; custom gcode: feature_gcode
; External perimeter
;;Skirt
;SET_VELOCITY_LIMIT ACCEL=7000 ACCEL_TO_DECEL=7000 SQUARE_CORNER_VELOCITY=8

; Support material
;
; custom gcode end: feature_gcode

;TYPE:Skirt
;WIDTH:0.52
G1 X20.748 Y49.107 E0.30047
G1 X19.97 Y49.841 E0.04243
G1 X19.488 Y50.575 E0.03485
G1 X14.686 Y60.086 E0.42265
G1 X14.403 Y60.864 E0.03286
G1 X14.278 Y61.683 E0.03286
G1 X14.24 Y68.756 E0.28057
G1 X14.381 Y69.781 E0.04103
G1 X14.826 Y70.958 E0.04993
G1 X15.836 Y72.815 E0.08386
G1 X22.02 Y81.438 E0.42094
G1 X22.57 Y82.057 E0.03286
G1 X23.231 Y82.557 E0.03286
G1 X24.227 Y82.998 E0.04322
G1 X25.308 Y83.169 E0.04342
G1 X32.794 Y83.167 E0.29697
G1 X33.556 Y83.069 E0.03046
G1 X34.286 Y82.833 E0.03046
G1 X98.99 Y52.761 E2.83043
G1 X100.47 Y51.854 E0.06884
G1 X101.378 Y51.052 E0.04806
G1 X102.21 Y50.064 E0.05125
G1 X102.968 Y48.808 E0.05819
G1 X103.506 Y47.404 E0.05965
G1 X103.774 Y46.094 E0.05303
G1 X103.829 Y44.667 E0.05665
G1 X103.686 Y43.429 E0.04945
G1 X103.406 Y42.354 E0.04405
G1 X102.904 Y41.153 E0.05163
G1 X102.104 Y39.874 E0.05985
G1 X101.271 Y38.927 E0.05004
G1 X100.207 Y38.044 E0.05484
G1 X99.032 Y37.345 E0.05423
G1 X97.729 Y36.841 E0.05544
G1 X96.513 Y36.568 E0.04942
G1 X95.557 Y36.485 E0.03809
G1 X94.227 Y36.541 E0.05281
G1 X28.827 Y43.937 E2.61091
G1 X27.657 Y44.246 E0.04799
G1 X26.942 Y44.644 E0.03247
G1 X27.057 Y44.852 F18000
M204 S1000
G1 X27.172 Y45.059
G1 F1800
G1 X21.029 Y49.492 E0.30053
G1 X20.335 Y50.149 E0.03787
G1 X19.911 Y50.797 E0.03074
G1 X15.119 Y60.286 E0.4217
G1 X14.864 Y60.987 E0.02961
G1 X14.754 Y61.726 E0.02961
G1 X14.717 Y68.748 E0.27858
G1 X14.845 Y69.67 E0.03693
G1 X15.257 Y70.752 E0.04592
G1 X16.231 Y72.548 E0.08102
G1 X22.401 Y81.151 E0.41999
G1 X22.879 Y81.693 E0.02867
G1 X23.457 Y82.135 E0.02886
G1 X24.349 Y82.537 E0.0388
G1 X25.319 Y82.692 E0.03899
G1 X32.761 Y82.691 E0.2952
G1 X33.435 Y82.607 E0.02698
G1 X34.079 Y82.403 E0.02679
G1 X98.789 Y52.328 E2.8307
G1 X100.149 Y51.498 E0.0632
G1 X101.024 Y50.732 E0.04613
G1 X101.812 Y49.801 E0.04838
G1 X102.538 Y48.601 E0.05565
G1 X103.047 Y47.273 E0.05642
G1 X103.301 Y46.039 E0.04998
G1 X103.352 Y44.679 E0.05397
G1 X103.216 Y43.515 E0.04649
G1 X102.955 Y42.509 E0.04122
G1 X102.481 Y41.372 E0.04885
G1 X101.721 Y40.159 E0.0568
G1 X100.936 Y39.267 E0.04716
G1 X99.925 Y38.429 E0.05209
G1 X98.817 Y37.771 E0.0511
G1 X97.579 Y37.293 E0.05265
G1 X96.437 Y37.039 E0.04639
G1 X95.557 Y36.962 E0.03506
G1 X94.28 Y37.015 E0.0507
G1 X28.88 Y44.411 E2.61091
G1 X27.861 Y44.678 E0.0418
G1 X27.225 Y45.03 E0.02886
M204 S1500
G1 X27.338 Y45.239 F18000
M204 S1000
G1 X27.452 Y45.447
G1 F1800
G1 X27.436 Y45.456 E0.00073
G1 X21.25 Y49.922 E0.30265
G1 X20.728 Y50.422 E0.02869
G1 X20.329 Y51.026 E0.02869
G1 X15.922 Y59.727 E0.38692
G1 X15.33 Y61.089 E0.05893
G1 X15.227 Y61.845 E0.03026
G1 X15.194 Y68.735 E0.27334
G1 X15.256 Y69.336 E0.02395
G1 X15.431 Y69.919 E0.02413
G1 X15.98 Y71.163 E0.05395
G1 X16.635 Y72.294 E0.05188
G1 X22.819 Y80.915 E0.42086
G1 X23.641 Y81.687 E0.04474
G1 X24.447 Y82.068 E0.03534
G1 X25.321 Y82.214 E0.03516
G1 X32.728 Y82.215 E0.29383
G1 X33.858 Y81.978 E0.04579
G1 X98.588 Y51.896 E2.83155
G1 X99.839 Y51.133 E0.05812
G1 X100.677 Y50.404 E0.04408
G1 X101.417 Y49.534 E0.0453
G1 X102.108 Y48.394 E0.0529
G1 X102.59 Y47.137 E0.05337
G1 X102.827 Y45.979 E0.04691
G1 X102.875 Y44.687 E0.05126
G1 X102.746 Y43.597 E0.04354
G1 X102.503 Y42.664 E0.03827
G1 X102.059 Y41.596 E0.04586
G1 X101.336 Y40.441 E0.05408
G1 X100.604 Y39.61 E0.04393
G1 X99.643 Y38.814 E0.0495
G1 X98.607 Y38.199 E0.04779
G1 X97.426 Y37.745 E0.0502
G1 X96.358 Y37.509 E0.04339
G1 X95.552 Y37.439 E0.03206
G1 X94.333 Y37.489 E0.0484
G1 X28.938 Y44.884 E2.61071
M73 P1 R37
G1 X28.086 Y45.101 E0.03489
G1 X27.505 Y45.418 E0.02628
; INIT printing object Printable_Wrench_W_Longer_Screw.stl id:0 copy 0
G1 E-0.4 F3000
M204 S3000
G1 Z0.4 F18000
; printing object Printable_Wrench_W_Longer_Screw.stl id:0 copy 0
M204 S1500
G1 X26.858 Y61.184
M204 S1000
G1 X26.211 Y76.949
G1 Z0.2
G1 E0.4 F1800
; custom gcode: feature_gcode
; External perimeter
;;Perimeter
;SET_VELOCITY_LIMIT ACCEL=2000 ACCEL_TO_DECEL=2000 SQUARE_CORNER_VELOCITY=8

; Overhang perimeter
;
; custom gcode end: feature_gcode

;TYPE:Internal perimeter
;WIDTH:0.56
G1 X31.842 Y76.949 E0.2421
G1 X31.842 Y78.18 E0.05292
G1 X26.211 Y78.18 E0.2421
G1 X26.211 Y77.009 E0.05034
M204 S1500
G1 X25.953 Y76.721 F18000
M204 S1000
G1 X25.694 Y76.432
; custom gcode: feature_gcode
; External perimeter
;;ExternalPerimeter
;SET_VELOCITY_LIMIT ACCEL=1000 ACCEL_TO_DECEL=1000 SQUARE_CORNER_VELOCITY=8

; Perimeter
;
; custom gcode end: feature_gcode

;TYPE:External perimeter
G1 F1800
G1 X32.359 Y76.432 E0.28656
G1 X32.359 Y78.697 E0.09738
G1 X25.694 Y78.697 E0.28656
G1 X25.694 Y76.492 E0.0948
;WIPE_START
M204 S3000
G1 X26.041 Y76.632 F18000
;WIPE_END
M204 S1500
G1 X28.822 Y77.099
M204 S1000
G1 X31.604 Y77.565
; custom gcode: feature_gcode
; External perimeter
;;GapFill
;SET_VELOCITY_LIMIT ACCEL=2000 ACCEL_TO_DECEL=2000 SQUARE_CORNER_VELOCITY=8

; Skirt
;
; custom gcode end: feature_gcode

;TYPE:Gap fill
;WIDTH:0.797005
G1 F1800
G1 X29.027 Y77.565 E0.16159
G1 X26.827 Y77.565 E0.13795
G1 X26.638 Y77.565 E0.01182
G1 X26.45 Y77.565 E0.01182
G1 E-0.4 F3000
M204 S3000
G1 Z0.4 F18000
M204 S1500
G1 X30.29 Y70.738
M204 S1000
G1 X34.129 Y63.912
G1 Z0.2
G1 E0.4 F1800
; custom gcode: feature_gcode
; External perimeter
;;ExternalPerimeter
;SET_VELOCITY_LIMIT ACCEL=1000 ACCEL_TO_DECEL=1000 SQUARE_CORNER_VELOCITY=8

; Perimeter
;
; custom gcode end: feature_gcode

;TYPE:External perimeter
;WIDTH:0.56
G1 X34.129 Y63.787 E0.00538
G1 X35.705 Y63.618 E0.06815
G1 X35.705 Y63.742 E0.00535
G1 X34.189 Y63.906 E0.06558
;WIPE_START
M204 S3000
G1 X34.188 Y63.802 F18000
;WIPE_END
M204 S1500
G1 X34.105 Y63.007
M204 S1000
G1 X34.022 Y62.212
G1 F1800
G1 X33.622 Y62.253 E0.01731
G1 X33.622 Y62.129 E0.00535
G1 X35.71 Y61.911 E0.09029
G1 X35.71 Y62.036 E0.00535
G1 X34.082 Y62.205 E0.0704
;WIPE_START
M204 S3000
G1 X33.787 Y61.888 F18000
;WIPE_END
M204 S1500
G1 X33.717 Y61.217
M204 S1000
G1 X33.647 Y60.545
G1 F1800
G1 X33.618 Y60.548 E0.00128
G1 X33.618 Y60.424 E0.00535
G1 X35.711 Y60.206 E0.09048
G1 X35.711 Y60.33 E0.00535
G1 X33.707 Y60.539 E0.08662
;WIPE_START
M204 S3000
G1 X33.63 Y60.521 F18000
;WIPE_END
M204 S1500
G1 X33.623 Y59.682
M204 S1000
G1 X33.616 Y58.843
G1 F1800
G1 X33.616 Y58.718 E0.00535
G1 X35.199 Y58.548 E0.06846
G1 X35.199 Y58.673 E0.00538
G1 X33.676 Y58.836 E0.06588
;WIPE_START
M204 S3000
G1 X33.675 Y58.733 F18000
;WIPE_END
G1 E-0.4 F3000
G1 Z0.4 F18000
M204 S1500
G1 X33.017 Y54.278
M204 S1000
G1 X32.359 Y49.822
M73 P1 R36
G1 Z0.2
G1 E0.4 F1800
G1 X29.582 Y49.822 E0.1194
G1 X29.582 Y48.382 E0.06191
G1 X32.359 Y48.382 E0.1194
G1 X32.359 Y49.762 E0.05933
;WIPE_START
M204 S3000
G1 X32.013 Y49.622 F18000
;WIPE_END
M204 S1500
G1 X30.917 Y49.362
M204 S1000
G1 X29.821 Y49.102
; custom gcode: feature_gcode
; External perimeter
;;GapFill
;SET_VELOCITY_LIMIT ACCEL=2000 ACCEL_TO_DECEL=2000 SQUARE_CORNER_VELOCITY=8

; Skirt
;
; custom gcode end: feature_gcode

;TYPE:Gap fill
;WIDTH:1.00616
G1 F1800
G1 X32.121 Y49.102 E0.18424
G1 E-0.4 F3000
M204 S3000
G1 Z0.4 F18000
M204 S1500
G1 X28.544 Y51.198
M204 S1000
G1 X24.967 Y53.294
G1 Z0.2
G1 E0.4 F1800
; custom gcode: feature_gcode
; External perimeter
;;Perimeter
;SET_VELOCITY_LIMIT ACCEL=2000 ACCEL_TO_DECEL=2000 SQUARE_CORNER_VELOCITY=8

; Overhang perimeter
;
; custom gcode end: feature_gcode

;TYPE:Internal perimeter
;WIDTH:0.56
G1 X24.967 Y53.975 E0.02927
G1 X24.011 Y53.975 E0.0411
G1 X24.011 Y53.294 E0.02927
G1 X24.907 Y53.294 E0.03852
M204 S1500
G1 X25.196 Y53.036 F18000
M204 S1000
G1 X25.484 Y52.777
; custom gcode: feature_gcode
; External perimeter
;;ExternalPerimeter
;SET_VELOCITY_LIMIT ACCEL=1000 ACCEL_TO_DECEL=1000 SQUARE_CORNER_VELOCITY=8

; Perimeter
;
; custom gcode end: feature_gcode

;TYPE:External perimeter
G1 F1800
G1 X25.484 Y54.492 E0.07374
G1 X23.494 Y54.492 E0.08556
G1 X23.494 Y52.777 E0.07374
G1 X25.424 Y52.777 E0.08298
;WIPE_START
M204 S3000
G1 X25.284 Y53.123 F18000
;WIPE_END
G1 E-0.4 F3000
G1 Z0.4 F18000
M204 S1500
G1 X25.005 Y55.388
M204 S1000
G1 X24.725 Y57.653
G1 Z0.2
G1 E0.4 F1800
; custom gcode: feature_gcode
; External perimeter
;;Perimeter
;SET_VELOCITY_LIMIT ACCEL=2000 ACCEL_TO_DECEL=2000 SQUARE_CORNER_VELOCITY=8

; Overhang perimeter
;
; custom gcode end: feature_gcode

;TYPE:Internal perimeter
G1 X24.725 Y58.547 E0.03842
G1 X23.759 Y60.587 E0.09705
G1 X20.77 Y60.587 E0.12854
G1 X21.111 Y60.159 E0.02355
G1 X21.66 Y59.583 E0.0342
G1 X22.268 Y59.048 E0.03483
G1 X22.561 Y58.824 E0.01585
G1 X23.236 Y58.376 E0.03483
G1 X23.935 Y57.996 E0.0342
G1 X24.67 Y57.677 E0.03447
M204 S1500
G1 X24.956 Y57.31 F18000
M204 S1000
G1 X25.242 Y56.944
G1 F1800
G1 X25.242 Y58.663 E0.07393
G1 X24.087 Y61.104 E0.11612
G1 X19.782 Y61.104 E0.18506
G1 X20.196 Y60.477 E0.03232
G1 X20.721 Y59.818 E0.03618
G1 X21.301 Y59.209 E0.03618
G1 X21.94 Y58.648 E0.03656
G1 X22.26 Y58.403 E0.01733
G1 X22.968 Y57.932 E0.03656
G1 X23.708 Y57.531 E0.03618
G1 X24.48 Y57.196 E0.03618
G1 X25.185 Y56.963 E0.03195
M204 S1500
G1 X25.472 Y56.626 F18000
M204 S1000
G1 X25.759 Y56.29
; custom gcode: feature_gcode
; External perimeter
;;ExternalPerimeter
;SET_VELOCITY_LIMIT ACCEL=1000 ACCEL_TO_DECEL=1000 SQUARE_CORNER_VELOCITY=8

; Perimeter
;
; custom gcode end: feature_gcode

;TYPE:External perimeter
G1 F1800
G1 X25.759 Y58.779 E0.10703
G1 X24.414 Y61.621 E0.13519
G1 X18.913 Y61.621 E0.23652
G1 X19.07 Y61.297 E0.0155
G1 X19.287 Y60.916 E0.01883
G1 X19.778 Y60.173 E0.0383
G1 X20.33 Y59.478 E0.03816
G1 X20.943 Y58.836 E0.03816
G1 X21.612 Y58.248 E0.0383
G1 X21.96 Y57.982 E0.01882
G1 X22.701 Y57.489 E0.0383
G1 X23.481 Y57.065 E0.03816
G1 X24.296 Y56.712 E0.03816
G1 X25.138 Y56.434 E0.03814
G1 X25.701 Y56.303 E0.02485
;WIPE_START
M204 S3000
G1 X25.586 Y56.651 F18000
;WIPE_END
M204 S1500
G1 X24.671 Y57.475
M204 S1000
G1 X23.756 Y58.299
; custom gcode: feature_gcode
; External perimeter
;;SolidInfill
;SET_VELOCITY_LIMIT ACCEL=4000 ACCEL_TO_DECEL=4000 SQUARE_CORNER_VELOCITY=8

; Bridge infill
;
; custom gcode end: feature_gcode

;TYPE:Solid infill
;WIDTH:0.606929
G1 F1800
G1 X24.191 Y58.734 E0.02865
G1 X23.956 Y59.23 E0.02559
G1 X23.446 Y58.72 E0.03358
G1 X23.007 Y59.012 E0.02458
G1 X23.721 Y59.726 E0.04705
G1 X23.504 Y60.184 E0.02358
G1 X23.447 Y60.184 E0.00267
G1 X22.58 Y59.317 E0.05709
G1 X22.524 Y59.36 E0.0033
G1 X22.188 Y59.656 E0.02087
G1 X22.716 Y60.184 E0.03478
G1 X21.984 Y60.184 E0.03408
G1 X21.641 Y59.84 E0.02264
G1 E-0.4 F3000
M204 S3000
G1 Z0.4 F18000
M204 S1500
G1 X26.272 Y58.365
M204 S1000
G1 X30.903 Y56.891
G1 Z0.2
G1 E0.4 F1800
; custom gcode: feature_gcode
; External perimeter
;;Perimeter
;SET_VELOCITY_LIMIT ACCEL=2000 ACCEL_TO_DECEL=2000 SQUARE_CORNER_VELOCITY=8

; Overhang perimeter
;
; custom gcode end: feature_gcode

;TYPE:Internal perimeter
;WIDTH:0.56
G1 X30.903 Y65.514 E0.37075
G1 X37.777 Y65.515 E0.29555
G1 X38.15 Y65.439 E0.01639
G1 X38.442 Y65.283 E0.01424
G1 X38.745 Y64.98 E0.01841
G1 X38.901 Y64.688 E0.01424
G1 X38.977 Y64.314 E0.01641
G1 X38.968 Y57.922 E0.27482
G1 X38.789 Y57.49 E0.02012
G1 X38.578 Y57.233 E0.01431
G1 X38.19 Y56.973 E0.02007
G1 X37.777 Y56.89 E0.01812
G1 X37.236 Y56.89 E0.02324
G1 X30.963 Y56.891 E0.26973
M204 S1500
G1 X31.191 Y57.149 F18000
M204 S1000
G1 X31.42 Y57.408
; custom gcode: feature_gcode
; External perimeter
;;ExternalPerimeter
;SET_VELOCITY_LIMIT ACCEL=1000 ACCEL_TO_DECEL=1000 SQUARE_CORNER_VELOCITY=8

; Perimeter
;
; custom gcode end: feature_gcode

;TYPE:External perimeter
G1 F1800
G1 X31.42 Y64.997 E0.32629
G1 X37.725 Y64.998 E0.27109
G1 X37.973 Y64.947 E0.0109
G1 X38.131 Y64.863 E0.00769
G1 X38.325 Y64.669 E0.01181
G1 X38.41 Y64.511 E0.00769
G1 X38.46 Y64.263 E0.01091
G1 X38.451 Y58.026 E0.26816
G1 X38.341 Y57.759 E0.01241
G1 X38.227 Y57.62 E0.00771
G1 X37.987 Y57.46 E0.0124
G1 X37.725 Y57.407 E0.01151
G1 X37.236 Y57.407 E0.021
G1 X31.48 Y57.408 E0.2475
;WIPE_START
M204 S3000
G1 X31.02 Y57.408 F18000
;WIPE_END
M204 S1500
G1 X30.703 Y56.891
M204 S1000
G1 X30.386 Y56.374
; custom gcode: feature_gcode
; External perimeter
;;Perimeter
;SET_VELOCITY_LIMIT ACCEL=2000 ACCEL_TO_DECEL=2000 SQUARE_CORNER_VELOCITY=8

; Overhang perimeter
;
; custom gcode end: feature_gcode

;TYPE:Internal perimeter
G1 F1800
G1 X30.386 Y66.031 E0.41521
G1 X37.222 Y66.032 E0.29393
G1 X37.338 Y66.36 E0.01496
G1 X37.179 Y66.488 E0.00875
G1 X36.044 Y67.515 E0.06579
G1 X34.979 Y68.6 E0.06537
G1 X34.456 Y69.182 E0.03366
G1 X33.105 Y70.82 E0.0913
G1 X32.575 Y71.356 E0.03242
G1 X32.321 Y71.58 E0.01455
G1 X31.723 Y72.037 E0.03235
G1 X31.099 Y72.429 E0.03169
G1 X30.441 Y72.762 E0.03169
G1 X29.755 Y73.033 E0.03169
G1 X29.048 Y73.239 E0.03169
G1 X28.324 Y73.38 E0.03169
G1 X27.591 Y73.453 E0.03169
G1 X26.854 Y73.458 E0.03169
G1 X26.119 Y73.396 E0.03169
G1 X25.394 Y73.266 E0.03169
G1 X24.683 Y73.07 E0.03169
G1 X23.979 Y72.804 E0.03235
G1 X23.672 Y72.662 E0.01455
G1 X23.012 Y72.302 E0.03235
G1 X22.4 Y71.89 E0.03169
G1 X21.829 Y71.424 E0.03169
G1 X21.303 Y70.908 E0.03169
G1 X20.548 Y70.015 E0.05025
G1 X25.496 Y70.015 E0.21272
G1 X27.829 Y65.213 E0.22957
G1 X27.829 Y52.701 E0.53796
G1 X28.558 Y52.843 E0.03196
G1 X29.327 Y53.065 E0.03439
G1 X30.086 Y53.359 E0.03501
G1 X30.432 Y53.519 E0.0164
G1 X32.075 Y54.384 E0.07983
G1 X33.259 Y54.901 E0.05553
G1 X34.475 Y55.332 E0.05548
G1 X35.708 Y55.672 E0.05497
G1 X36.349 Y55.813 E0.02824
G1 X36.968 Y55.926 E0.02705
G1 X36.928 Y56.373 E0.01929
G1 X30.446 Y56.374 E0.2787
M204 S1500
G1 X34.401 Y56.419 F18000
M204 S1000
G1 X38.357 Y56.463
G1 F1800
G1 X38.483 Y56.104 E0.01638
G1 X38.899 Y56.14 E0.01796
G1 X39.552 Y56.165 E0.02808
G1 X40.209 Y56.167 E0.02824
G1 X41.486 Y56.102 E0.05497
G1 X42.755 Y55.947 E0.05497
G1 X43.413 Y55.831 E0.02875
G1 X44.635 Y55.547 E0.05393
G1 X91.83 Y42.803 E2.10183
G1 X91.378 Y43.876 E0.05007
G1 X91.273 Y44.266 E0.01735
G1 X91.185 Y44.921 E0.02842
G1 X91.216 Y45.61 E0.02968
G1 X91.367 Y46.284 E0.02968
G1 X91.635 Y46.92 E0.02968
G1 X91.994 Y47.475 E0.02842
G1 X92.257 Y47.781 E0.01735
G1 X92.749 Y48.222 E0.02842
G1 X93.507 Y48.69 E0.03829
G1 X47.231 Y61.186 E2.0609
G1 X45.795 Y61.619 E0.06451
G1 X45.055 Y61.879 E0.03373
G1 X43.644 Y62.446 E0.06537
G1 X42.269 Y63.094 E0.06537
G1 X41.574 Y63.46 E0.03373
G1 X40.262 Y64.228 E0.06537
G1 X39.495 Y64.739 E0.03964
G1 X39.485 Y57.819 E0.29754
G1 X39.237 Y57.221 E0.02782
G1 X38.929 Y56.845 E0.0209
G1 X38.407 Y56.497 E0.02699
