; generated by SuperSlicer 2.3.57 on 2022-02-11 at 22:08:41 UTC


;
;

;
;
; TODO: check the size of the extruder and the y-bar clearance. Optimize & test supports.

; external perimeters extrusion width = 0.41mm
; perimeters extrusion width = 0.44mm
; infill extrusion width = 0.44mm
; solid infill extrusion width = 0.44mm
; top infill extrusion width = 0.42mm
; first layer extrusion width = 0.56mm

; object:{"name":"Printable_Wrench_W_Longer_Screw","id":"Printable_Wrench_W_Longer_Screw.stl id:0 copy 0","object_center":[59.000000,59.500000,0.000000],"boundingbox_center":[59.000000,59.500000,0.975000],"boundingbox_size":[26.682921,12.620049,1.950000]}
; plater:{"center":[59.000000,59.500000,0.000000],"boundingbox_center":[59.000000,59.500000,0.975000],"boundingbox_size":[26.682921,12.620049,1.950000]}

M73 P0 R4
;TYPE:Custom
; custom gcode: start_gcode
; M190 S0
; M109 S0 ; uncomment to remove set&wait temp gcode added automatically after this start gcode
print_start EXTRUDER=210 BED=60 CHAMBER=15
; custom gcode end: start_gcode
G21 ; set units to millimeters
G90 ; use absolute coordinates
M83 ; use relative distances for extrusion
M104 S210 ; set temperature
M109 S210 ; set temperature and wait for it to be reached
M190 S60 ; set bed temperature and wait for it to be reached
;LAYER_CHANGE
;Z:0.2
;HEIGHT:0.2
; custom gcode: before_layer_gcode
;BEFORE_LAYER_CHANGE
;0.2

; custom gcode end: before_layer_gcode

G1 Z0.2 F18000
; custom gcode: layer_gcode
;AFTER_LAYER_CHANGE
;0.2
; custom gcode end: layer_gcode

G1 E-0.4 F3000
G1 Z0.4 F18000
M204 S1500
G1 X43.929 Y52.812
G1 Z0.2
G1 E0.4 F1800
; custom gcode: feature_gcode
; External perimeter
;;Skirt
;SET_VELOCITY_LIMIT ACCEL=7000 ACCEL_TO_DECEL=7000 SQUARE_CORNER_VELOCITY=8

; Support material
;
; custom gcode end: feature_gcode

;TYPE:Skirt
;WIDTH:0.52
G1 X43.014 Y53.733 E0.05148
G1 X42.435 Y54.633 E0.04247
G1 X40.587 Y58.439 E0.16782
G1 X40.306 Y59.896 E0.05886
G1 X40.316 Y63.121 E0.12793
G1 X40.643 Y64.496 E0.0561
G1 X41.404 Y66.021 E0.06761
G1 X43.879 Y69.477 E0.16862
G1 X44.623 Y70.197 E0.04108
G1 X45.487 Y70.768 E0.04108
G1 X46.497 Y71.188 E0.04339
G1 X47.569 Y71.405 E0.04339
G1 X50.588 Y71.434 E0.11975
G1 X51.382 Y71.37 E0.03158
G1 X52.13 Y71.203 E0.03042
G1 X52.849 Y70.936 E0.03042
G1 X74.355 Y60.992 E0.9399
M73 P1 R4
G1 X75.192 Y60.416 E0.04033
G1 X76.008 Y59.642 E0.04459
G1 X76.651 Y58.812 E0.04167
G1 X77.271 Y57.673 E0.05144
G1 X77.603 Y56.719 E0.04005
G1 X77.827 Y55.483 E0.04982
G1 X77.839 Y54.392 E0.0433
G1 X77.636 Y53.085 E0.05247
G1 X77.289 Y52.043 E0.04358
G1 X76.763 Y51.036 E0.04506
G1 X76.121 Y50.168 E0.04284
G1 X75.193 Y49.267 E0.05131
G1 X74.243 Y48.616 E0.04567
G1 X73.186 Y48.124 E0.04622
G1 X72.12 Y47.822 E0.04399
G1 X70.793 Y47.677 E0.05293
G1 X69.847 Y47.724 E0.03758
G1 X48.63 Y50.223 E0.84749
G1 X47.477 Y50.508 E0.04709
G1 X46.415 Y51.025 E0.04686
G1 X43.978 Y52.777 E0.11909
G1 X44.116 Y52.97 F18000
M204 S1000
G1 X44.254 Y53.164
G1 F1800
G1 X43.404 Y54.009 E0.04754
M73 P1 R3
G1 X42.863 Y54.845 E0.03951
G1 X41.058 Y58.536 E0.16299
G1 X40.783 Y59.911 E0.05563
G1 X40.786 Y63.028 E0.12366
M73 P2 R3
G1 X41.076 Y64.292 E0.05145
G1 X41.77 Y65.706 E0.06247
G1 X44.212 Y69.133 E0.16693
G1 X44.895 Y69.803 E0.03797
G1 X45.686 Y70.333 E0.03774
G1 X46.63 Y70.729 E0.04062
G1 X47.633 Y70.932 E0.04062
G1 X50.586 Y70.957 E0.11713
G1 X51.334 Y70.895 E0.02977
G1 X52.656 Y70.5 E0.05475
G1 X74.04 Y60.626 E0.93434
G1 X74.849 Y60.08 E0.0387
G1 X75.615 Y59.365 E0.04158
G1 X76.223 Y58.595 E0.03892
G1 X76.811 Y57.537 E0.048
G1 X77.132 Y56.634 E0.03804
G1 X77.348 Y55.483 E0.04645
G1 X77.366 Y54.463 E0.04048
G1 X77.185 Y53.243 E0.0489
G1 X76.859 Y52.253 E0.04137
G1 X76.373 Y51.312 E0.04202
G1 X75.776 Y50.498 E0.04004
G1 X74.91 Y49.651 E0.04802
G1 X74.019 Y49.038 E0.04292
G1 X73.04 Y48.578 E0.04291
G1 X72.043 Y48.293 E0.04114
G1 X70.795 Y48.154 E0.04978
G1 X69.896 Y48.199 E0.03571
G1 X48.713 Y50.693 E0.84613
M73 P3 R3
G1 X47.69 Y50.938 E0.04173
G1 X46.734 Y51.389 E0.04195
G1 X44.303 Y53.129 E0.11859
M204 S1500
G1 X44.441 Y53.322 F18000
M204 S1000
G1 X44.579 Y53.516
G1 F1800
G1 X43.791 Y54.289 E0.04378
G1 X43.29 Y55.057 E0.03637
G1 X41.525 Y58.645 E0.15864
G1 X41.26 Y59.932 E0.05214
G1 X41.258 Y62.947 E0.11959
G1 X41.516 Y64.106 E0.0471
G1 X42.146 Y65.405 E0.05725
G1 X44.556 Y68.801 E0.16521
G1 X45.177 Y69.417 E0.03468
G1 X45.896 Y69.904 E0.03447
G1 X46.77 Y70.273 E0.03763
G1 X47.7 Y70.459 E0.03763
G1 X50.59 Y70.479 E0.11464
G1 X51.286 Y70.419 E0.02772
G1 X52.463 Y70.063 E0.04878
G1 X73.735 Y60.252 E0.92928
M73 P4 R3
G1 X74.513 Y59.738 E0.03698
G1 X75.229 Y59.081 E0.03857
G1 X75.806 Y58.361 E0.03658
G1 X76.356 Y57.387 E0.04437
G1 X76.662 Y56.545 E0.03553
G1 X76.87 Y55.474 E0.04331
G1 X76.893 Y54.525 E0.03764
G1 X76.729 Y53.388 E0.04555
G1 X76.427 Y52.456 E0.03889
G1 X75.981 Y51.586 E0.03878
G1 X75.43 Y50.827 E0.03722
G1 X74.627 Y50.036 E0.04471
G1 X73.795 Y49.459 E0.04016
G1 X72.882 Y49.029 E0.04005
G1 X71.96 Y48.762 E0.03806
G1 X70.793 Y48.632 E0.0466
G1 X69.952 Y48.673 E0.0334
G1 X48.784 Y51.165 E0.8455
G1 X47.881 Y51.377 E0.03679
G1 X47.038 Y51.763 E0.03679
G1 X44.628 Y53.481 E0.11743
M204 S1500
G1 X44.765 Y53.675 F18000
M204 S1000
G1 X44.902 Y53.869
G1 F1800
G1 X44.887 Y53.88 E0.00072
G1 X44.184 Y54.561 E0.03884
G1 X43.722 Y55.261 E0.03326
G1 X42.02 Y58.685 E0.15171
G1 X41.74 Y59.914 E0.04998
G1 X41.722 Y62.755 E0.11271
G1 X41.904 Y63.763 E0.04064
G1 X42.367 Y64.829 E0.04612
G1 X44.864 Y68.424 E0.17364
M73 P5 R3
G1 X45.404 Y68.985 E0.03086
G1 X46.037 Y69.436 E0.03086
G1 X46.849 Y69.798 E0.03525
G1 X47.723 Y69.982 E0.03545
G1 X51.193 Y69.951 E0.13763
G1 X52.265 Y69.629 E0.04442
G1 X73.405 Y59.891 E0.9233
G1 X74.168 Y59.401 E0.03597
G1 X74.836 Y58.803 E0.03556
G1 X75.382 Y58.137 E0.03418
G1 X75.894 Y57.251 E0.04057
G1 X76.191 Y56.459 E0.03358
G1 X76.391 Y55.471 E0.03997
G1 X76.419 Y54.59 E0.03498
G1 X76.278 Y53.551 E0.04159
G1 X75.998 Y52.667 E0.03678
G1 X75.592 Y51.862 E0.03576
G1 X75.082 Y51.155 E0.03458
G1 X74.346 Y50.422 E0.04119
G1 X73.57 Y49.88 E0.03758
G1 X72.733 Y49.482 E0.03676
G1 X71.882 Y49.233 E0.03518
G1 X70.795 Y49.109 E0.04338
G1 X70.007 Y49.147 E0.03132
G1 X48.86 Y51.636 E0.84467
M73 P6 R3
G1 X48.091 Y51.81 E0.03126
G1 X47.369 Y52.124 E0.03126
G1 X44.951 Y53.835 E0.11749
M204 S1500
G1 X45.088 Y54.029 F18000
M204 S1000
G1 X45.226 Y54.224
G1 F1800
G1 X45.188 Y54.25 E0.00182
G1 X44.559 Y54.857 E0.03468
G1 X44.144 Y55.483 E0.0298
G1 X42.477 Y58.825 E0.14814
G1 X42.215 Y59.952 E0.04591
G1 X42.197 Y62.704 E0.10916
G1 X42.353 Y63.602 E0.03618
G1 X42.758 Y64.55 E0.04087
G1 X45.221 Y68.106 E0.17159
G1 X45.699 Y68.609 E0.02754
G1 X46.262 Y69.015 E0.02754
G1 X47 Y69.345 E0.03205
G1 X47.796 Y69.509 E0.03224
G1 X51.145 Y69.475 E0.13287
G1 X52.071 Y69.193 E0.03843
G1 X73.126 Y59.5 E0.91947
G1 X73.855 Y59.04 E0.0342
G1 X74.463 Y58.503 E0.03218
G1 X74.971 Y57.892 E0.03152
G1 X75.446 Y57.083 E0.03721
G1 X75.725 Y56.354 E0.03096
G1 X75.914 Y55.445 E0.03683
G1 X75.944 Y54.642 E0.0319
M73 P7 R3
G1 X75.82 Y53.686 E0.03825
G1 X75.563 Y52.863 E0.0342
G1 X75.195 Y52.129 E0.03256
G1 X74.731 Y51.478 E0.03171
G1 X74.053 Y50.799 E0.03806
G1 X73.34 Y50.298 E0.03458
G1 X72.574 Y49.932 E0.03369
G1 X71.798 Y49.703 E0.03209
G1 X70.793 Y49.586 E0.04012
G1 X48.926 Y52.108 E0.87321
G1 X48.267 Y52.254 E0.02679
G1 X47.645 Y52.517 E0.02679
G1 X45.275 Y54.189 E0.11507
M204 S1500
G1 X45.412 Y54.384 F18000
M204 S1000
G1 X45.549 Y54.579
G1 F1800
G1 X45.489 Y54.621 E0.00288
G1 X44.932 Y55.154 E0.03062
G1 X44.564 Y55.709 E0.02641
G1 X42.933 Y58.973 E0.14474
G1 X42.69 Y59.993 E0.04162
G1 X42.672 Y62.655 E0.10558
G1 X42.803 Y63.442 E0.03167
G1 X43.157 Y64.284 E0.03622
G1 X45.58 Y67.79 E0.16906
G1 X45.995 Y68.234 E0.02413
G1 X46.487 Y68.593 E0.02413
G1 X47.145 Y68.891 E0.02869
G1 X47.858 Y69.036 E0.02886
G1 X51.094 Y69 E0.12834
G1 X51.877 Y68.758 E0.03254
G1 X72.86 Y59.101 E0.91627
M73 P8 R3
G1 X73.547 Y58.674 E0.03211
G1 X74.102 Y58.19 E0.0292
G1 X74.57 Y57.634 E0.02882
G1 X75.003 Y56.904 E0.03369
G1 X75.263 Y56.235 E0.02847
G1 X75.438 Y55.408 E0.03351
G1 X75.468 Y54.678 E0.029
G1 X75.36 Y53.814 E0.03454
G1 X75.125 Y53.053 E0.03158
G1 X74.793 Y52.386 E0.02956
G1 X74.376 Y51.797 E0.02865
G1 X73.76 Y51.175 E0.03471
G1 X73.105 Y50.714 E0.03176
G1 X72.414 Y50.382 E0.03043
G1 X71.714 Y50.173 E0.02899
G1 X70.792 Y50.063 E0.03681
G1 X48.995 Y52.581 E0.87044
G1 X47.913 Y52.915 E0.04492
G1 X45.598 Y54.544 E0.11229
; INIT printing object Printable_Wrench_W_Longer_Screw.stl id:0 copy 0
G1 E-0.4 F3000
M204 S3000
G1 Z0.4 F18000
; printing object Printable_Wrench_W_Longer_Screw.stl id:0 copy 0
M204 S1500
G1 X47.01 Y59.83
M204 S1000
G1 X48.423 Y65.115
G1 Z0.2
G1 E0.4 F1800
; custom gcode: feature_gcode
; External perimeter
;;ExternalPerimeter
;SET_VELOCITY_LIMIT ACCEL=1000 ACCEL_TO_DECEL=1000 SQUARE_CORNER_VELOCITY=8

; Perimeter
;
; custom gcode end: feature_gcode

;TYPE:External perimeter
;WIDTH:0.56
M73 P9 R3
G1 X50.256 Y65.115 E0.07882
G1 X50.256 Y65.53 E0.01784
G1 X48.423 Y65.53 E0.07882
G1 X48.423 Y65.175 E0.01526
;WIPE_START
M204 S3000
G1 X48.769 Y65.315 F18000
;WIPE_END
G1 E-0.4 F3000
G1 Z0.4 F18000
M204 S1500
G1 X49.222 Y60.769
M204 S1000
G1 X49.676 Y56.223
G1 Z0.2
G1 E0.4 F1800
G1 X49.676 Y56.074 E0.00641
G1 X50.256 Y56.074 E0.02494
G1 X50.256 Y56.223 E0.00641
G1 X49.736 Y56.223 E0.02236
;WIPE_START
M204 S3000
G1 X49.75 Y56.094 F18000
;WIPE_END
M204 S1500
G1 X48.895 Y56.792
M204 S1000
G1 X48.04 Y57.491
G1 F1800
G1 X48.04 Y57.728 E0.01022
G1 X47.714 Y57.728 E0.01403
G1 X47.714 Y57.491 E0.01022
G1 X47.98 Y57.491 E0.01145
;WIPE_START
M204 S3000
G1 X47.921 Y57.696 F18000
;WIPE_END
G1 E-0.4 F3000
G1 Z0.4 F18000
M204 S1500
G1 X48.511 Y59.87
M204 S1000
G1 X49.101 Y62.044
G1 Z0.2
G1 E0.4 F1800
; custom gcode: feature_gcode
; External perimeter
;;Perimeter
;SET_VELOCITY_LIMIT ACCEL=2000 ACCEL_TO_DECEL=2000 SQUARE_CORNER_VELOCITY=8

; Overhang perimeter
;
; custom gcode end: feature_gcode

;TYPE:Internal perimeter
G1 X51.27 Y61.941 E0.09335
G1 X50.841 Y62.387 E0.02662
G1 X50.406 Y62.911 E0.02926
G1 X50.169 Y63.14 E0.01416
G1 X50.013 Y63.26 E0.00846
G1 X49.846 Y63.364 E0.00846
G1 X49.551 Y63.505 E0.01407
G1 X49.365 Y63.569 E0.00846
G1 X49.165 Y63.617 E0.00886
G1 X48.961 Y63.647 E0.00886
G1 X48.755 Y63.658 E0.00886
G1 X48.323 Y63.642 E0.0186
G1 X49.075 Y62.098 E0.07383
G1 E-0.4 F3000
M204 S3000
G1 Z0.4 F18000
M204 S1500
G1 X51.08 Y61.321
M204 S1000
G1 X53.085 Y60.544
G1 Z0.2
G1 E0.4 F1800
G1 X53.111 Y60.064 E0.02068
G1 X53.09 Y58.761 E0.05601
G1 X53.817 Y58.693 E0.03142
G1 X54.445 Y58.559 E0.0276
G1 X68.174 Y54.851 E0.61145
M73 P10 R3
G1 X69 Y54.598 E0.03713
G1 X69.081 Y55.207 E0.0264
G1 X69.167 Y55.472 E0.01196
G1 X69.386 Y55.893 E0.02042
G1 X68.488 Y56.104 E0.03967
G1 X55.106 Y59.717 E0.59595
G1 X54.389 Y59.945 E0.03237
G1 X53.687 Y60.242 E0.03276
G1 X53.138 Y60.517 E0.02641
G1 E-0.4 F3000
M204 S3000
G1 Z0.4 F18000
M204 S1500
G1 X51.524 Y61.003
M204 S1000
G1 X49.91 Y61.488
G1 Z0.2
G1 E0.4 F1800
; custom gcode: feature_gcode
; External perimeter
;;ExternalPerimeter
;SET_VELOCITY_LIMIT ACCEL=1000 ACCEL_TO_DECEL=1000 SQUARE_CORNER_VELOCITY=8

; Perimeter
;
; custom gcode end: feature_gcode

;TYPE:External perimeter
G1 X50.587 Y61.456 E0.02911
G1 X50.858 Y61.392 E0.01199
G1 X52.188 Y61.392 E0.05716
G1 X52.395 Y61.306 E0.00964
G1 X52.489 Y61.128 E0.00865
G1 X52.566 Y60.563 E0.02453
G1 X52.593 Y60.054 E0.0219
G1 X52.576 Y58.988 E0.04582
G1 X52.446 Y58.777 E0.01068
G1 X52.229 Y58.672 E0.01038
G1 X51.678 Y58.636 E0.02372
G1 X49.89 Y58.599 E0.07689
G1 X49.89 Y59.412 E0.03493
G1 X49.91 Y61.428 E0.08669
;WIPE_START
M204 S3000
G1 X49.924 Y61.888 F18000
;WIPE_END
M204 S1500
G1 X59.785 Y58.579
M204 S1000
G1 X69.646 Y55.271
G1 F1800
G1 X69.739 Y55.45 E0.00869
G1 X69.899 Y55.618 E0.00995
G1 X70.348 Y55.828 E0.02133
G1 X70.698 Y55.866 E0.01515
G1 X71.038 Y55.782 E0.01505
G1 X71.265 Y55.642 E0.0115
G1 X71.406 Y55.504 E0.00847
G1 X71.574 Y55.218 E0.01423
G1 X71.626 Y55.028 E0.00847
G1 X71.638 Y54.761 E0.0115
G1 X71.547 Y54.429 E0.01478
G1 X71.402 Y54.205 E0.0115
G1 X71.265 Y54.072 E0.0082
G1 X71.049 Y53.938 E0.01096
G1 X70.862 Y53.873 E0.00847
G1 X70.519 Y53.851 E0.01478
G1 X70.178 Y53.952 E0.01532
G1 X69.895 Y54.163 E0.01514
G1 X69.607 Y54.581 E0.02184
G1 X69.56 Y54.889 E0.01341
G1 X69.587 Y55.092 E0.00881
G1 X69.627 Y55.214 E0.00551
;WIPE_START
M204 S3000
G1 X69.528 Y55.435 F18000
;WIPE_END
G1 E-0.4 F3000
G1 Z0.4 F18000
M204 S1500
G1 X59.138 Y56.932
M204 S1000
G1 X48.748 Y58.43
M73 P11 R3
G1 Z0.2
G1 E0.4 F1800
G1 X48.843 Y57.728 E0.03047
G1 X48.865 Y57.13 E0.0257
G1 X49.098 Y57.156 E0.01009
G1 X49.492 Y57.26 E0.0175
G1 X49.877 Y57.419 E0.01792
G1 X50.579 Y57.776 E0.03386
G1 X50.961 Y57.924 E0.01761
G1 X51.355 Y58.038 E0.01762
G1 X51.757 Y58.112 E0.01757
G1 X52.329 Y58.167 E0.02472
G1 X52.716 Y58.226 E0.01685
G1 X53.133 Y58.238 E0.01794
G1 X53.739 Y58.181 E0.02615
G1 X54.324 Y58.056 E0.02571
G1 X68.031 Y54.354 E0.61048
G1 X68.985 Y54.062 E0.0429
G1 X69.436 Y53.872 E0.02102
G1 X70.353 Y53.624 E0.04085
G1 X70.519 Y53.591 E0.00729
G1 X70.771 Y53.582 E0.01083
G1 X71.02 Y53.623 E0.01083
G1 X71.172 Y53.674 E0.0069
G1 X71.316 Y53.745 E0.0069
G1 X71.521 Y53.891 E0.01083
G1 X71.693 Y54.074 E0.01083
G1 X71.782 Y54.207 E0.0069
G1 X71.854 Y54.351 E0.0069
G1 X71.927 Y54.592 E0.01083
G1 X71.952 Y54.843 E0.01083
G1 X71.942 Y54.998 E0.0067
G1 X71.885 Y55.248 E0.01102
G1 X71.825 Y55.392 E0.0067
G1 X71.69 Y55.61 E0.01102
G1 X71.585 Y55.731 E0.0069
G1 X71.464 Y55.837 E0.0069
G1 X71.251 Y55.97 E0.01083
G1 X71.007 Y56.063 E0.01122
G1 X70.085 Y56.312 E0.04107
G1 X69.595 Y56.375 E0.02123
G1 X68.615 Y56.605 E0.0433
G1 X55.252 Y60.213 E0.59509
G1 X54.568 Y60.431 E0.03086
G1 X53.904 Y60.711 E0.03101
G1 X53.676 Y60.826 E0.01097
G1 X53.252 Y61.09 E0.02149
G1 X52.89 Y61.399 E0.02046
G1 X52.518 Y61.663 E0.0196
G1 X52.172 Y61.94 E0.01905
G1 X51.961 Y62.053 E0.01029
G1 X51.568 Y62.378 E0.0219
G1 X51.227 Y62.732 E0.02117
G1 X50.786 Y63.263 E0.02967
G1 X50.507 Y63.533 E0.01667
G1 X50.308 Y63.685 E0.01077
G1 X50.096 Y63.818 E0.01077
G1 X49.747 Y63.985 E0.01663
G1 X49.51 Y64.066 E0.01077
G1 X49.263 Y64.126 E0.01091
G1 X49.012 Y64.162 E0.01091
G1 X48.759 Y64.176 E0.01091
G1 X48.509 Y64.166 E0.01077
G1 X48.126 Y64.107 E0.01663
G1 X47.885 Y64.04 E0.01077
G1 X47.65 Y63.952 E0.01077
G1 X47.307 Y63.774 E0.01663
G1 X47.099 Y63.634 E0.01077
G1 X46.902 Y63.474 E0.01091
G1 X46.721 Y63.296 E0.01091
G1 X46.557 Y63.102 E0.01091
G1 X46.412 Y62.894 E0.01092
G1 X46.337 Y62.762 E0.00652
G1 X46.638 Y62.716 E0.01308
G1 X47.47 Y62.8 E0.03597
G1 X48.15 Y62.816 E0.02926
G1 X48.878 Y61.323 E0.07138
M73 P12 R3
G1 X48.872 Y60.253 E0.04602
G1 X48.843 Y59.747 E0.02178
G1 X48.748 Y59.056 E0.02998
G1 X48.3 Y58.955 E0.01976
G1 X47.958 Y59.44 E0.02551
G1 X47.696 Y59.938 E0.02419
G1 X47.481 Y59.946 E0.00924
G1 X46.647 Y60.024 E0.03603
G1 X46.374 Y59.982 E0.01185
G1 X46.412 Y59.914 E0.00333
G1 X46.562 Y59.695 E0.0114
G1 X46.776 Y59.463 E0.0136
G1 X46.821 Y59.376 E0.00419
G1 X46.91 Y59.334 E0.00422
G1 X47.151 Y59.126 E0.01371
G1 X47.871 Y58.66 E0.03684
G1 X48.107 Y58.567 E0.01093
G1 X48.69 Y58.442 E0.02562
;WIPE_START
M204 S3000
G1 X49.148 Y58.437 F18000
;WIPE_END
G1 E-0.4 F3000
G1 Z0.4 F18000
M204 S1500
G1 X50.417 Y59.356
M204 S1000
G1 X51.685 Y60.275
G1 Z0.2
G1 E0.4 F1800
; custom gcode: feature_gcode
; External perimeter
;;ThinWall
;SET_VELOCITY_LIMIT ACCEL=2000 ACCEL_TO_DECEL=2000 SQUARE_CORNER_VELOCITY=8

; Other
;
; custom gcode end: feature_gcode

;TYPE:Thin wall
;WIDTH:0.191523
G1 X51.575 Y60.287 E0.00138
;WIDTH:0.4
G1 X51.546 Y60.29 E0.00084
G1 X51.386 Y60.306 E0.00478
G1 X50.764 Y60.374 E0.01853
;WIDTH:0.191142
G1 X50.735 Y60.377 E0.00044
G1 X50.624 Y60.39 E0.00171
M204 S1500
G1 X51.156 Y60.057 F18000
M204 S1000
G1 X51.687 Y59.725
;WIDTH:0.228129
G1 F1800
G1 X51.548 Y59.74 E0.00216
;WIDTH:0.4
G1 X51.395 Y59.755 E0.00456
G1 X50.763 Y59.824 E0.01886
;WIDTH:0.191143
G1 X50.735 Y59.828 E0.00044
G1 X50.624 Y59.84 E0.00171
M204 S1500
G1 X51.021 Y59.091 F18000
M204 S1000
G1 X51.417 Y58.342
; custom gcode: feature_gcode
; External perimeter
;;GapFill
