; generated by SuperSlicer 2.3.57 on 2022-02-11 at 19:46:36 UTC


;
;

;
;
; TODO: check the size of the extruder and the y-bar clearance. Optimize & test supports.

; external perimeters extrusion width = 0.42mm
; perimeters extrusion width = 0.46mm
; infill extrusion width = 0.44mm
; solid infill extrusion width = 0.46mm
; top infill extrusion width = 0.44mm
; first layer extrusion width = 0.56mm

; object:{"name":"Printable_Wrench_W_Longer_Screw","id":"Printable_Wrench_W_Longer_Screw.stl id:0 copy 0","object_center":[59.000000,59.500000,0.000000],"boundingbox_center":[59.000000,59.500000,2.640000],"boundingbox_size":[72.249141,34.171208,5.280000]}
; plater:{"center":[59.000000,59.500000,0.000000],"boundingbox_center":[59.000000,59.500000,2.640000],"boundingbox_size":[72.249141,34.171208,5.280000]}

M73 P0 R14
;TYPE:Custom
; custom gcode: start_gcode
; M190 S0
; M109 S0 ; uncomment to remove set&wait temp gcode added automatically after this start gcode
print_start EXTRUDER=210 BED=60 CHAMBER=15
; custom gcode end: start_gcode
G21 ; set units to millimeters
G90 ; use absolute coordinates
M83 ; use relative distances for extrusion
M104 S210 ; set temperature
M109 S210 ; set temperature and wait for it to be reached
M190 S60 ; set bed temperature and wait for it to be reached
;LAYER_CHANGE
;Z:0.2
;HEIGHT:0.2
; custom gcode: before_layer_gcode
;BEFORE_LAYER_CHANGE
;0.2

; custom gcode end: before_layer_gcode

G1 Z0.2 F18000
; custom gcode: layer_gcode
;AFTER_LAYER_CHANGE
;0.2
; custom gcode end: layer_gcode

G1 E-0.4 F3000
G1 Z0.4 F18000
M204 S1500
G1 X25.686 Y41.134
G1 Z0.2
G1 E0.4 F1800
; custom gcode: feature_gcode
; External perimeter
;;Skirt
;SET_VELOCITY_LIMIT ACCEL=7000 ACCEL_TO_DECEL=7000 SQUARE_CORNER_VELOCITY=8

; Support material
;
; custom gcode end: feature_gcode

;TYPE:Skirt
;WIDTH:0.52
G1 X20.207 Y45.092 E0.26811
G1 X19.574 Y45.701 E0.03485
G1 X19.082 Y46.428 E0.03485
G1 X12.163 Y61.211 E0.64749
G1 X11.987 Y61.954 E0.03026
G1 X11.434 Y66.348 E0.1757
G1 X11.493 Y67.321 E0.03864
G1 X11.772 Y68.248 E0.03844
G1 X21.179 Y83.759 E0.71958
G1 X21.839 Y84.549 E0.04083
G1 X22.671 Y85.154 E0.04083
G1 X23.636 Y85.541 E0.04123
G1 X24.666 Y85.678 E0.04123
G1 X41.062 Y85.678 E0.65041
G1 X41.87 Y85.583 E0.03226
G1 X42.649 Y85.333 E0.03246
G1 X96.418 Y58.568 E2.38263
G1 X97.355 Y58.058 E0.04235
G1 X98.51 Y57.283 E0.05516
G1 X99.969 Y56.001 E0.07704
G1 X101.025 Y54.781 E0.06403
G1 X101.943 Y53.389 E0.06616
G1 X102.895 Y51.343 E0.08952
G1 X103.312 Y49.969 E0.05697
G1 X103.655 Y47.738 E0.08952
G1 X103.664 Y46.07 E0.06618
G1 X103.429 Y44.29 E0.07123
G1 X102.921 Y42.483 E0.07443
G1 X101.939 Y40.372 E0.09237
G1 X100.98 Y38.927 E0.06878
G1 X99.832 Y37.636 E0.06856
G1 X98.041 Y36.147 E0.09239
G1 X96.418 Y35.198 E0.07455
G1 X94.334 Y34.388 E0.08872
G1 X92.977 Y34.063 E0.05536
G1 X91.224 Y33.867 E0.06996
G1 X88.977 Y33.965 E0.08923
G1 X27.654 Y40.396 E2.44596
G1 X26.431 Y40.717 E0.05018
G1 X25.738 Y41.105 E0.03148
G1 X25.854 Y41.312 F18000
M204 S1000
G1 X25.97 Y41.52
G1 F1800
G1 X20.515 Y45.457 E0.26688
G1 X19.951 Y45.995 E0.03092
G1 X19.508 Y46.643 E0.03111
G1 X12.622 Y61.343 E0.64396
M73 P1 R14
G1 X12.46 Y62.023 E0.02773
G1 X11.912 Y66.35 E0.17303
G1 X11.958 Y67.213 E0.0343
G1 X12.203 Y68.043 E0.0343
G1 X21.573 Y83.49 E0.71671
G1 X22.156 Y84.192 E0.03618
G1 X22.892 Y84.731 E0.03618
G1 X23.75 Y85.077 E0.03674
G1 X24.668 Y85.201 E0.03674
G1 X41.046 Y85.201 E0.64968
G1 X41.759 Y85.119 E0.02848
G1 X42.439 Y84.904 E0.02829
G1 X96.196 Y58.146 E2.38209
G1 X97.102 Y57.653 E0.04088
G1 X98.22 Y56.904 E0.05341
G1 X99.592 Y55.704 E0.07232
G1 X100.639 Y54.5 E0.06327
G1 X101.52 Y53.169 E0.06331
G1 X102.45 Y51.171 E0.08744
G1 X102.843 Y49.881 E0.05351
G1 X103.179 Y47.702 E0.08745
G1 X103.188 Y46.104 E0.06341
G1 X102.964 Y44.395 E0.06836
G1 X102.483 Y42.671 E0.07099
G1 X101.521 Y40.602 E0.09051
G1 X100.606 Y39.223 E0.06567
G1 X99.502 Y37.98 E0.06595
G1 X97.764 Y36.535 E0.08966
G1 X96.214 Y35.629 E0.07122
G1 X94.186 Y34.842 E0.08631
G1 X92.897 Y34.533 E0.05257
G1 X91.224 Y34.344 E0.06679
G1 X89.026 Y34.439 E0.08728
G1 X27.707 Y40.87 E2.44581
G1 X26.636 Y41.148 E0.04391
G1 X26.022 Y41.49 E0.02786
M204 S1500
G1 X26.137 Y41.698 F18000
M204 S1000
G1 X26.252 Y41.906
G1 F1800
G1 X26.228 Y41.919 E0.00109
G1 X20.815 Y45.828 E0.26486
G1 X20.319 Y46.298 E0.02711
G1 X19.933 Y46.861 E0.02711
G1 X13.08 Y61.478 E0.6404
G1 X12.932 Y62.091 E0.025
G1 X12.389 Y66.355 E0.17051
G1 X12.424 Y67.108 E0.02991
G1 X12.634 Y67.837 E0.03009
G1 X21.97 Y83.226 E0.71402
M73 P2 R14
G1 X22.476 Y83.838 E0.03149
G1 X23.115 Y84.309 E0.03149
G1 X23.871 Y84.616 E0.03237
G1 X24.675 Y84.724 E0.03219
G1 X41.028 Y84.724 E0.64873
G1 X41.646 Y84.655 E0.02465
G1 X42.235 Y84.472 E0.02448
G1 X95.979 Y57.721 E2.38148
G1 X96.852 Y57.247 E0.0394
G1 X97.938 Y56.52 E0.05185
G1 X99.226 Y55.397 E0.06778
G1 X100.256 Y54.216 E0.06215
G1 X101.101 Y52.941 E0.06069
G1 X102.006 Y50.996 E0.08511
G1 X102.376 Y49.783 E0.05031
G1 X102.704 Y47.658 E0.08529
G1 X102.712 Y46.129 E0.06065
G1 X102.497 Y44.492 E0.0655
G1 X102.04 Y42.85 E0.0676
G1 X101.104 Y40.834 E0.08819
G1 X100.229 Y39.515 E0.06277
G1 X99.175 Y38.328 E0.06298
G1 X97.483 Y36.921 E0.08728
G1 X96.005 Y36.059 E0.06789
G1 X94.034 Y35.294 E0.08388
G1 X92.818 Y35.004 E0.04961
G1 X91.22 Y34.821 E0.06381
G1 X89.075 Y34.914 E0.08515
G1 X27.757 Y41.345 E2.44578
G1 X26.842 Y41.579 E0.03749
G1 X26.305 Y41.877 E0.02434
G1 E-0.4 F3000
M204 S3000
G1 Z0.4 F18000
M204 S1500
G1 X28.371 Y43.942
M204 S1000
G1 X30.436 Y46.008
G1 Z0.2
G1 E0.4 F1800
;WIDTH:0.56
G1 X30.644 Y45.8 E0.01265
G1 X32.165 Y45.17 E0.07076
G1 X36.912 Y45.17 E0.20409
G1 X38.432 Y45.8 E0.07076
G1 X39.747 Y47.115 E0.07996
G1 X40.377 Y48.636 E0.07076
G1 X40.377 Y50.844 E0.09495
G1 X40.661 Y50.896 E0.0124
G1 X41.23 Y50.972 E0.0247
G1 X41.802 Y51.021 E0.0247
G1 X42.142 Y51.034 E0.0146
G1 X42.481 Y51.035 E0.0146
G1 X43.055 Y51.01 E0.0247
G1 X43.627 Y50.957 E0.0247
G1 X43.963 Y50.91 E0.0146
G1 X44.285 Y50.853 E0.01404
G1 X45.11 Y50.661 E0.03643
G1 X88.579 Y38.924 E1.93587
M73 P3 R14
G1 X88.709 Y38.893 E0.00576
G1 X89.384 Y38.757 E0.02961
G1 X89.582 Y38.727 E0.00859
G1 X90.06 Y38.678 E0.02067
G1 X90.269 Y38.667 E0.00901
G1 X91.054 Y38.666 E0.03374
G1 X91.322 Y38.683 E0.01157
G1 X92.066 Y38.78 E0.03223
G1 X92.261 Y38.814 E0.00853
G1 X92.727 Y38.921 E0.02055
G1 X92.925 Y38.977 E0.00883
G1 X93.616 Y39.209 E0.03137
G1 X93.803 Y39.282 E0.00864
G1 X94.24 Y39.478 E0.0206
G1 X94.423 Y39.571 E0.00883
G1 X95.088 Y39.952 E0.03292
G1 X95.312 Y40.101 E0.01157
G1 X95.924 Y40.566 E0.03305
G1 X96.079 Y40.697 E0.00871
G1 X96.431 Y41.023 E0.02064
G1 X96.574 Y41.17 E0.00883
G1 X97.081 Y41.744 E0.03292
G1 X97.245 Y41.957 E0.01157
G1 X97.675 Y42.595 E0.03305
G1 X97.78 Y42.768 E0.00872
G1 X98.008 Y43.191 E0.02064
G1 X98.096 Y43.376 E0.00883
G1 X98.391 Y44.082 E0.03292
G1 X98.479 Y44.337 E0.01157
G1 X98.69 Y45.113 E0.0346
G1 X98.744 Y45.379 E0.01164
G1 X98.852 Y46.177 E0.03464
G1 X98.871 Y46.447 E0.01164
G1 X98.874 Y47.217 E0.03309
G1 X98.865 Y47.419 E0.00872
G1 X98.82 Y47.897 E0.02064
G1 X98.791 Y48.101 E0.00883
G1 X98.651 Y48.817 E0.03137
G1 X98.603 Y49.012 E0.00864
G1 X98.465 Y49.471 E0.0206
G1 X98.397 Y49.664 E0.00883
G1 X98.12 Y50.339 E0.03137
G1 X98.035 Y50.521 E0.00864
G1 X97.811 Y50.945 E0.0206
G1 X97.706 Y51.121 E0.00883
G1 X97.282 Y51.759 E0.03292
G1 X97.119 Y51.973 E0.01157
G1 X96.591 Y52.58 E0.0346
G1 X96.4 Y52.773 E0.01165
G1 X95.797 Y53.306 E0.03464
G1 X95.582 Y53.472 E0.01164
G1 X94.944 Y53.902 E0.03309
G1 X94.771 Y54.007 E0.00872
G1 X94.348 Y54.235 E0.02064
G1 X94.163 Y54.324 E0.00883
G1 X93.49 Y54.605 E0.03137
G1 X93.301 Y54.673 E0.00863
G1 X92.909 Y54.794 E0.01763
G1 X92.84 Y54.814 E0.00311
G1 X50.256 Y66.313 E1.89647
G1 X49.199 Y66.632 E0.04747
G1 X48.785 Y66.777 E0.01888
G1 X47.82 Y67.165 E0.04472
G1 X46.909 Y67.595 E0.04332
G1 X46.015 Y68.083 E0.04379
G1 X45.381 Y68.475 E0.03203
G1 X44.737 Y68.909 E0.03342
G1 X44.374 Y69.175 E0.01934
G1 X43.563 Y69.826 E0.04472
G1 X42.792 Y70.524 E0.04472
G1 X42.48 Y70.833 E0.01888
G1 X41.772 Y71.598 E0.04478
G1 X40.612 Y73.009 E0.07856
G1 X40.52 Y73.114 E0.00601
G1 X40.377 Y73.265 E0.00895
G1 X40.377 Y77.416 E0.17844
G1 X39.747 Y78.936 E0.07076
G1 X38.432 Y80.251 E0.07996
G1 X36.912 Y80.881 E0.07076
G1 X28.772 Y80.881 E0.34998
G1 X27.251 Y80.251 E0.07076
G1 X25.936 Y78.936 E0.07996
G1 X25.306 Y77.416 E0.07076
G1 X25.306 Y75.757 E0.07131
G1 X24.794 Y75.478 E0.02509
G1 X24.631 Y75.379 E0.0082
G1 X23.83 Y74.841 E0.0415
G1 X23.676 Y74.727 E0.0082
G1 X22.928 Y74.117 E0.0415
G1 X22.786 Y73.99 E0.0082
G1 X22.097 Y73.314 E0.0415
G1 X21.967 Y73.174 E0.0082
G1 X21.343 Y72.438 E0.0415
G1 X21.227 Y72.287 E0.0082
G1 X20.673 Y71.496 E0.0415
G1 X20.571 Y71.335 E0.0082
G1 X20.106 Y70.518 E0.04041
G1 X20.039 Y70.392 E0.00614
G1 X19.81 Y69.917 E0.02266
G1 X19.759 Y69.802 E0.00541
G1 X19.072 Y68.122 E0.07802
G1 X19.282 Y66.065 E0.08891
G1 X20.291 Y64.562 E0.07787
G1 X19.243 Y62.886 E0.08498
G1 X19.13 Y60.751 E0.09194
G1 X20 Y58.961 E0.08554
G1 X20.061 Y58.846 E0.00563
G1 X20.332 Y58.367 E0.02367
G1 X20.405 Y58.249 E0.00596
G1 X20.943 Y57.432 E0.04203
G1 X21.051 Y57.284 E0.00789
G1 X21.676 Y56.497 E0.0432
G1 X21.797 Y56.359 E0.00792
G1 X22.49 Y55.631 E0.04321
G1 X22.623 Y55.503 E0.00792
G1 X23.359 Y54.856 E0.04215
G1 X23.386 Y54.834 E0.00152
G1 X23.386 Y52.471 E0.10157
G1 X24.016 Y50.951 E0.07076
G1 X25.331 Y49.636 E0.07996
G1 X26.852 Y49.006 E0.07076
G1 X27.75 Y49.006 E0.03863
G1 X28.295 Y48.481 E0.03253
G1 X28.852 Y48.267 E0.02568
G1 X29.329 Y47.115 E0.05359
G1 X30.394 Y46.051 E0.06473
M204 S1500
G1 X30.577 Y46.233 F18000
M204 S1000
G1 X30.76 Y46.416
G1 F1800
G1 X30.937 Y46.239 E0.01081
G1 X32.268 Y45.688 E0.06191
G1 X36.809 Y45.688 E0.19524
G1 X38.139 Y46.239 E0.06191
G1 X39.309 Y47.408 E0.07112
G1 X39.86 Y48.739 E0.06191
G1 X39.86 Y51.253 E0.10812
G1 X40.259 Y51.348 E0.01763
G1 X40.58 Y51.407 E0.01404
G1 X41.173 Y51.486 E0.02575
G1 X41.77 Y51.538 E0.02575
G1 X42.131 Y51.551 E0.01552
G1 X42.492 Y51.552 E0.01552
G1 X43.09 Y51.526 E0.02575
G1 X43.687 Y51.471 E0.02575
G1 X44.044 Y51.421 E0.01552
G1 X44.388 Y51.36 E0.01503
G1 X45.236 Y51.163 E0.03742
G1 X88.705 Y39.425 E1.93591
G1 X88.819 Y39.398 E0.00504
G1 X89.474 Y39.266 E0.02871
G1 X89.647 Y39.24 E0.00751
G1 X90.1 Y39.193 E0.01957
G1 X90.283 Y39.184 E0.00789
G1 X91.038 Y39.183 E0.03246
G1 X91.273 Y39.198 E0.01012
G1 X91.987 Y39.291 E0.03097
G1 X92.158 Y39.321 E0.00746
G1 X92.599 Y39.422 E0.01946
G1 X92.772 Y39.471 E0.00772
G1 X93.44 Y39.695 E0.03028
G1 X93.603 Y39.759 E0.00756
G1 X94.017 Y39.945 E0.01951
G1 X94.177 Y40.026 E0.00773
G1 X94.816 Y40.392 E0.03165
G1 X95.012 Y40.522 E0.01012
G1 X95.6 Y40.97 E0.03178
G1 X95.736 Y41.084 E0.00762
G1 X96.069 Y41.393 E0.01954
G1 X96.195 Y41.522 E0.00773
G1 X96.682 Y42.074 E0.03165
G1 X96.826 Y42.26 E0.01012
G1 X97.239 Y42.873 E0.03178
G1 X97.331 Y43.025 E0.00763
G1 X97.547 Y43.425 E0.01954
G1 X97.624 Y43.587 E0.00773
G1 X97.908 Y44.266 E0.03165
G1 X97.984 Y44.489 E0.01012
G1 X98.187 Y45.233 E0.03315
G1 X98.234 Y45.465 E0.01019
G1 X98.338 Y46.23 E0.03319
G1 X98.354 Y46.466 E0.01019
G1 X98.357 Y47.206 E0.03181
G1 X98.349 Y47.383 E0.00763
G1 X98.307 Y47.836 E0.01954
G1 X98.281 Y48.014 E0.00773
G1 X98.146 Y48.705 E0.03028
G1 X98.104 Y48.876 E0.00756
G1 X97.974 Y49.31 E0.01951
G1 X97.914 Y49.48 E0.00772
G1 X97.646 Y50.131 E0.03027
G1 X97.572 Y50.29 E0.00756
G1 X97.36 Y50.691 E0.01951
G1 X97.268 Y50.846 E0.00773
G1 X96.861 Y51.459 E0.03165
G1 X96.718 Y51.646 E0.01012
G1 X96.212 Y52.228 E0.03315
G1 X96.045 Y52.396 E0.01019
G1 X95.467 Y52.908 E0.03319
G1 X95.279 Y53.053 E0.01019
G1 X94.666 Y53.466 E0.03182
G1 X94.514 Y53.558 E0.00763
G1 X94.114 Y53.774 E0.01954
G1 X93.952 Y53.851 E0.00772
G1 X93.302 Y54.123 E0.03027
G1 X93.137 Y54.183 E0.00756
G1 X92.761 Y54.298 E0.0169
G1 X92.701 Y54.316 E0.00272
G1 X50.114 Y65.816 E1.8966
M73 P4 R14
G1 X49.039 Y66.14 E0.04829
G1 X48.603 Y66.293 E0.01986
G1 X47.613 Y66.691 E0.04586
G1 X46.674 Y67.134 E0.04463
G1 X45.755 Y67.636 E0.04504
G1 X45.1 Y68.04 E0.03307
G1 X44.439 Y68.486 E0.0343
G1 X44.059 Y68.765 E0.02027
G1 X43.227 Y69.433 E0.04586
G1 X42.436 Y70.149 E0.04586
G1 X42.108 Y70.474 E0.01986
G1 X41.383 Y71.258 E0.04592
G1 X40.218 Y72.674 E0.07884
G1 X40.137 Y72.766 E0.00526
G1 X39.814 Y73.108 E0.02025
G1 X39.86 Y73.219 E0.00512
G1 X39.86 Y77.313 E0.17603
G1 X39.309 Y78.643 E0.06191
G1 X38.139 Y79.813 E0.07112
G1 X36.809 Y80.364 E0.06191
G1 X28.875 Y80.364 E0.34113
G1 X27.544 Y79.813 E0.06191
G1 X26.375 Y78.643 E0.07112
G1 X25.824 Y77.313 E0.06191
G1 X25.824 Y75.45 E0.08008
G1 X25.052 Y75.029 E0.03778
G1 X24.909 Y74.943 E0.00718
G1 X24.128 Y74.418 E0.04048
G1 X23.994 Y74.319 E0.00718
G1 X23.264 Y73.724 E0.04048
G1 X23.139 Y73.613 E0.00718
G1 X22.467 Y72.953 E0.04048
G1 X22.354 Y72.831 E0.00718
G1 X21.745 Y72.113 E0.04048
G1 X21.643 Y71.98 E0.00718
G1 X21.104 Y71.209 E0.04048
G1 X21.014 Y71.068 E0.00718
G1 X20.559 Y70.27 E0.03951
G1 X20.501 Y70.159 E0.00538
G1 X20.279 Y69.699 E0.02194
G1 X20.235 Y69.599 E0.00474
G1 X19.6 Y68.046 E0.07212
G1 X19.783 Y66.246 E0.0778
G1 X20.913 Y64.563 E0.08716
G1 X20.897 Y64.554 E0.00081
G1 X19.752 Y62.725 E0.09277
G1 X19.653 Y60.857 E0.08045
G1 X20.461 Y59.195 E0.07944
G1 X20.515 Y59.094 E0.00493
G1 X20.778 Y58.629 E0.02295
G1 X20.841 Y58.526 E0.00522
G1 X21.368 Y57.727 E0.04117
G1 X21.463 Y57.597 E0.00691
G1 X22.074 Y56.828 E0.04221
G1 X22.179 Y56.707 E0.00693
G1 X22.857 Y55.996 E0.04222
G1 X22.973 Y55.884 E0.00693
G1 X23.694 Y55.25 E0.04129
G1 X23.787 Y55.173 E0.00519
G1 X23.904 Y55.084 E0.0063
G1 X23.904 Y52.574 E0.10793
G1 X24.455 Y51.244 E0.06191
G1 X25.624 Y50.074 E0.07112
G1 X26.955 Y49.523 E0.06191
G1 X27.959 Y49.523 E0.04319
G1 X28.578 Y48.926 E0.03698
G1 X29.245 Y48.67 E0.03072
G1 X29.768 Y47.408 E0.05872
G1 X30.717 Y46.459 E0.05773
M204 S1500
G1 X30.9 Y46.642 F18000
M204 S1000
G1 X31.083 Y46.824
G1 F1800
G1 X31.23 Y46.677 E0.00897
G1 X32.371 Y46.205 E0.05307
G1 X36.706 Y46.205 E0.1864
G1 X37.846 Y46.677 E0.05307
G1 X38.87 Y47.701 E0.06228
G1 X39.343 Y48.841 E0.05307
G1 X39.343 Y51.662 E0.12125
G1 X40.152 Y51.854 E0.03578
G1 X40.499 Y51.918 E0.01516
G1 X41.117 Y52 E0.0268
G1 X41.738 Y52.054 E0.0268
G1 X42.12 Y52.068 E0.01645
G1 X42.503 Y52.07 E0.01645
G1 X43.126 Y52.042 E0.0268
G1 X43.746 Y51.985 E0.0268
G1 X44.125 Y51.931 E0.01644
G1 X44.492 Y51.867 E0.01602
G1 X45.362 Y51.665 E0.03841
G1 X88.832 Y39.926 E1.93594
G1 X88.93 Y39.903 E0.00432
G1 X89.564 Y39.775 E0.02781
G1 X89.712 Y39.753 E0.00644
G1 X90.138 Y39.709 E0.0184
G1 X90.292 Y39.701 E0.00662
G1 X90.949 Y39.699 E0.02826
G1 X91.052 Y39.702 E0.00444
G1 X91.171 Y39.71 E0.00513
G1 X91.272 Y39.719 E0.00437
G1 X91.908 Y39.802 E0.02756
G1 X92.055 Y39.828 E0.0064
G1 X92.471 Y39.923 E0.01838
G1 X92.62 Y39.965 E0.00662
G1 X93.263 Y40.181 E0.02918
G1 X93.403 Y40.236 E0.00648
G1 X93.794 Y40.411 E0.01842
G1 X93.931 Y40.481 E0.00662
G1 X94.502 Y40.808 E0.02826
G1 X94.59 Y40.862 E0.00445
G1 X94.689 Y40.929 E0.00513
G1 X94.772 Y40.988 E0.00437
G1 X95.281 Y41.377 E0.02756
G1 X95.395 Y41.473 E0.0064
G1 X95.708 Y41.764 E0.01838
G1 X95.815 Y41.874 E0.00662
G1 X96.25 Y42.367 E0.02826
G1 X96.316 Y42.446 E0.00445
G1 X96.389 Y42.541 E0.00513
G1 X96.448 Y42.623 E0.00437
G1 X96.806 Y43.156 E0.02756
G1 X96.882 Y43.283 E0.0064
G1 X97.085 Y43.659 E0.01838
G1 X97.152 Y43.798 E0.00662
G1 X97.405 Y44.405 E0.02826
G1 X97.442 Y44.501 E0.00445
G1 X97.481 Y44.614 E0.00513
G1 X97.51 Y44.711 E0.00436
G1 X97.672 Y45.31 E0.02664
G1 X97.695 Y45.408 E0.00436
G1 X97.718 Y45.524 E0.00509
G1 X97.735 Y45.625 E0.00437
G1 X97.817 Y46.239 E0.02664
G1 X97.827 Y46.34 E0.00437
G1 X97.835 Y46.458 E0.00509
G1 X97.839 Y46.559 E0.00437
G1 X97.84 Y47.201 E0.02756
G1 X97.833 Y47.349 E0.0064
G1 X97.793 Y47.775 E0.01838
G1 X97.771 Y47.927 E0.00662
G1 X97.641 Y48.593 E0.02919
G1 X97.605 Y48.74 E0.00648
G1 X97.482 Y49.15 E0.01842
G1 X97.431 Y49.295 E0.00662
G1 X97.173 Y49.923 E0.02918
G1 X97.109 Y50.06 E0.00648
G1 X96.909 Y50.438 E0.01842
G1 X96.83 Y50.571 E0.00662
G1 X96.466 Y51.118 E0.02826
G1 X96.406 Y51.202 E0.00445
G1 X96.334 Y51.297 E0.00513
G1 X96.27 Y51.376 E0.00436
G1 X95.862 Y51.842 E0.02664
