; generated by SuperSlicer 2.5.59 on 2022-12-10 at 20:07:35 UTC


;
;

;
;
; TODO: check the size of the extruder and the y-bar clearance. Optimize & test supports.

; external perimeters extrusion width = 0.42mm
; perimeters extrusion width = 0.46mm
; infill extrusion width = 0.44mm
; solid infill extrusion width = 0.46mm
; top infill extrusion width = 0.44mm
; first layer extrusion width = 0.56mm

; external perimeters extrusion width = 0.42mm
; perimeters extrusion width = 0.46mm
; infill extrusion width = 0.44mm
; solid infill extrusion width = 0.46mm
; top infill extrusion width = 0.44mm
; first layer extrusion width = 0.56mm

; object:{"name":"Probe_Dock_v2","id":"Probe_Dock_v2.1.stl id:0 copy 0","object_center":[60.000000,51.749987,0.000000],"boundingbox_center":[60.000000,51.749987,8.500027],"boundingbox_size":[36.255023,10.500043,17.000054]}
; object:{"name":"Probe_Dock_v2","id":"Probe_Dock_v2.1.stl id:1 copy 0","object_center":[60.000001,68.250015,0.000000],"boundingbox_center":[60.000001,68.250015,8.500027],"boundingbox_size":[36.255023,10.500043,17.000054]}
; plater:{"center":[60.000001,60.000001,0.000000],"boundingbox_center":[60.000001,60.000001,8.500027],"boundingbox_size":[36.255024,27.000071,17.000054]}

;TYPE:Custom
; M190 S0
; M109 S0 ; uncomment to remove set&wait temp gcode added automatically after this start gcode
print_start EXTRUDER=230 BED=110 CHAMBER=50


; Pre-Processed for Cancel-Object support by preprocess_cancellation v0.2.0
; 2 known objects
EXCLUDE_OBJECT_DEFINE NAME=Probe_Dock_v2_1_stl_id_0_copy_0 CENTER=60.918,51.044 POLYGON=[[44.459,46.71],[42.082,49.087],[42.082,55.988],[42.104,56.176],[42.256,56.492],[42.53,56.711],[42.697,56.769],[42.884,56.79],[77.116,56.79],[77.303,56.769],[77.47,56.711],[77.619,56.617],[77.744,56.492],[77.896,56.175],[77.918,55.988],[77.918,49.087],[75.541,46.71],[44.459,46.71]]
EXCLUDE_OBJECT_DEFINE NAME=Probe_Dock_v2_1_stl_id_1_copy_0 CENTER=60.921,67.538 POLYGON=[[44.459,63.21],[42.082,65.587],[42.082,72.488],[42.104,72.676],[42.256,72.992],[42.53,73.211],[42.697,73.269],[42.884,73.29],[77.116,73.29],[77.303,73.269],[77.47,73.211],[77.619,73.117],[77.744,72.992],[77.896,72.676],[77.918,72.488],[77.918,65.587],[75.541,63.21],[44.459,63.21]]
M107
G21 ; set units to millimeters
G90 ; use absolute coordinates
M83 ; use relative distances for extrusion
;_TOOLCHANGE 0
M104 S230 ; set temperature
M109 S230 ; set temperature and wait for it to be reached
M190 S110 ; set bed temperature and wait for it to be reached
M107
;LAYER_CHANGE
;Z:0.2
;HEIGHT:0.2
;BEFORE_LAYER_CHANGE
;0.2


G1 Z0.2 F18000
;AFTER_LAYER_CHANGE
;0.2
G92 E0
G1 E-2 F3000
G1 Z0.6 F18000
M204 S1000
G1 X41.236 Y43.598
G1 Z0.2
G1 E2 F1800
;TYPE:Skirt
;WIDTH:0.52
G1 X38.97 Y45.864 E0.11503
G1 X37.998 Y47.284 E0.0618
G1 X37.603 Y49.166 E0.06902
G1 X37.603 Y72.494 E0.8375
G1 X37.658 Y73.229 E0.02647
G1 X37.946 Y74.356 E0.04175
G1 X38.79 Y75.817 E0.0606
G1 X39.739 Y76.73 E0.04725
G1 X40.801 Y77.341 E0.04401
G1 X41.856 Y77.661 E0.03958
G1 X42.857 Y77.77 E0.03612
G1 X65.709 Y77.87 E0.82043
G1 X77.162 Y77.77 E0.41119
G1 X77.856 Y77.714 E0.025
G1 X78.983 Y77.427 E0.04176
G1 X80.445 Y76.583 E0.06058
G1 X81.357 Y75.634 E0.04725
G1 X81.969 Y74.571 E0.04403
G1 X82.288 Y73.516 E0.03958
G1 X82.397 Y72.491 E0.03701
G1 X82.397 Y49.166 E0.8374
G1 X82.08 Y47.474 E0.0618
G1 X81.03 Y45.864 E0.06902
G1 X78.764 Y43.598 E0.11503
G1 X77.343 Y42.626 E0.0618
G1 X75.462 Y42.23 E0.06902
G1 X44.538 Y42.23 E1.11018
G1 X42.846 Y42.548 E0.0618
G1 X41.286 Y43.565 E0.06686
G1 X41.573 Y43.935 F18000
G1 F1800
G1 X39.308 Y46.201 E0.11503
G1 X38.475 Y47.389 E0.05207
G1 X38.08 Y49.166 E0.06536
G1 X38.08 Y72.494 E0.8375
G1 X38.132 Y73.17 E0.02433
G1 X38.39 Y74.181 E0.03748
G1 X39.166 Y75.524 E0.05566
G1 X40.018 Y76.343 E0.04243
G1 X40.984 Y76.901 E0.04005
G1 X41.94 Y77.191 E0.03589
G1 X42.859 Y77.293 E0.03319
G1 X65.709 Y77.393 E0.82034
G1 X77.158 Y77.293 E0.41104
G1 X77.797 Y77.241 E0.02301
G1 X78.809 Y76.983 E0.0375
G1 X80.151 Y76.207 E0.05565
G1 X80.97 Y75.355 E0.04242
G1 X81.528 Y74.389 E0.04007
G1 X81.819 Y73.432 E0.03588
G1 X81.92 Y72.491 E0.03399
G1 X81.92 Y49.166 E0.8374
G1 X81.669 Y47.737 E0.05207
G1 X80.692 Y46.201 E0.06536
G1 X78.427 Y43.935 E0.11503
G1 X77.239 Y43.103 E0.05207
G1 X75.462 Y42.707 E0.06536
G1 X44.538 Y42.707 E1.11018
G1 X43.11 Y42.958 E0.05207
G1 X41.624 Y43.903 E0.0632
G1 X41.911 Y44.273 F18000
G1 F1800
G1 X39.645 Y46.538 E0.11503
G1 X38.952 Y47.499 E0.04255
G1 X38.557 Y49.166 E0.06148
G1 X38.557 Y72.494 E0.8375
G1 X38.605 Y73.11 E0.02219
G1 X38.834 Y74.007 E0.03322
G1 X39.541 Y75.23 E0.05073
G1 X40.296 Y75.956 E0.0376
G1 X41.166 Y76.46 E0.03609
G1 X42.024 Y76.721 E0.03219
G1 X42.862 Y76.816 E0.03027
G1 X65.709 Y76.916 E0.82025
G1 X77.154 Y76.815 E0.41089
G1 X77.737 Y76.767 E0.02102
G1 X78.634 Y76.539 E0.03323
G1 X79.857 Y75.831 E0.05071
G1 X80.583 Y75.076 E0.0376
G1 X81.087 Y74.206 E0.03611
G1 X81.349 Y73.349 E0.03218
G1 X81.443 Y72.491 E0.03097
G1 X81.443 Y49.166 E0.8374
G1 X81.254 Y47.996 E0.04255
G1 X80.355 Y46.538 E0.06148
G1 X78.089 Y44.273 E0.11503
G1 X77.128 Y43.579 E0.04255
G1 X75.462 Y43.184 E0.06148
G1 X44.538 Y43.184 E1.11018
G1 X43.368 Y43.373 E0.04255
G1 X41.962 Y44.241 E0.05932
G1 X42.248 Y44.61 F18000
G1 F1800
G1 X39.983 Y46.876 E0.11503
G1 X39.428 Y47.618 E0.03326
G1 X39.034 Y49.166 E0.05734
G1 X39.034 Y72.494 E0.8375
G1 X39.078 Y73.051 E0.02006
G1 X39.278 Y73.832 E0.02895
G1 X39.917 Y74.936 E0.0458
G1 X40.575 Y75.568 E0.03277
G1 X41.349 Y76.019 E0.03214
G1 X42.108 Y76.252 E0.02849
G1 X42.864 Y76.338 E0.02734
G1 X65.709 Y76.439 E0.82016
G1 X77.15 Y76.338 E0.41074
G1 X77.678 Y76.294 E0.01904
G1 X78.46 Y76.095 E0.02896
G1 X79.563 Y75.455 E0.04578
G1 X80.196 Y74.797 E0.03277
G1 X80.647 Y74.024 E0.03215
G1 X80.879 Y73.265 E0.02849
G1 X80.966 Y72.491 E0.02796
G1 X80.966 Y49.166 E0.8374
G1 X80.833 Y48.249 E0.03326
G1 X80.017 Y46.876 E0.05734
G1 X77.752 Y44.61 E0.11503
G1 X77.01 Y44.055 E0.03327
G1 X75.462 Y43.661 E0.05734
G1 X44.538 Y43.662 E1.11018
G1 X43.621 Y43.794 E0.03326
G1 X42.3 Y44.579 E0.05518
G1 E-2 F3000
M204 S1500
G1 Z0.6 F18000
; printing object Probe_Dock_v2.1.stl id:0 copy 0
EXCLUDE_OBJECT_START NAME=Probe_Dock_v2_1_stl_id_0_copy_0
; acceleration to travel
G1 X51.993 Y48.225
; decel to extrusion
M204 S1000
G1 X58.456 Y50.656
; end travel
G1 Z0.2
G1 E2 F1800
;TYPE:Internal perimeter
;WIDTH:0.56
G1 X58.236 Y51.273 E0.0255
G1 X58.077 Y52.129 E0.0339
G1 X58.03 Y52.756 E0.02444
G1 X58.073 Y53.517 E0.02969
G1 X58.215 Y54.252 E0.02911
G1 X48.756 Y54.252 E0.36803
G1 X48.676 Y53.942 E0.01244
G1 X48.838 Y53.852 E0.00723
G1 X49.398 Y53.4 E0.028
G1 X49.815 Y52.946 E0.024
G1 X50.22 Y52.347 E0.02811
G1 X50.528 Y51.667 E0.02906
G1 X50.716 Y50.944 E0.02906
G1 X50.779 Y50.2 E0.02906
G1 X50.698 Y49.248 E0.03716
G1 X59.263 Y49.248 E0.33327
G1 X58.784 Y49.968 E0.03364
G1 X58.499 Y50.533 E0.02461
G1 X58.476 Y50.599 E0.00273
G1 X58.943 Y50.829 F18000
G1 F1800
G1 X58.737 Y51.408 E0.02391
G1 X58.59 Y52.196 E0.03121
G1 X58.548 Y52.76 E0.02201
G1 X58.587 Y53.453 E0.02702
G1 X58.718 Y54.131 E0.02687
G1 X58.928 Y54.769 E0.02612
G1 X44.104 Y54.769 E0.57681
G1 X44.104 Y53.37 E0.05444
G1 X44.796 Y53.757 E0.03086
G1 X45.502 Y53.983 E0.02882
G1 X46.047 Y54.074 E0.02152
G1 X46.702 Y54.074 E0.02547
G1 X47.351 Y53.963 E0.02564
G1 X47.972 Y53.743 E0.02563
G1 X48.547 Y53.422 E0.02564
G1 X49.043 Y53.021 E0.0248
G1 X49.409 Y52.624 E0.02101
G1 X49.767 Y52.094 E0.02489
G1 X50.038 Y51.494 E0.02563
G1 X50.204 Y50.856 E0.02564
G1 X50.26 Y50.2 E0.02564
G1 X50.204 Y49.544 E0.02563
G1 X49.993 Y48.731 E0.03266
G1 X60.434 Y48.731 E0.40627
G1 X59.679 Y49.556 E0.04349
G1 X59.232 Y50.229 E0.03144
G1 X58.976 Y50.737 E0.02215
G1 X58.963 Y50.772 E0.00146
G1 X59.43 Y51.002 F18000
G1 F1800
G1 X59.238 Y51.543 E0.02232
G1 X59.104 Y52.263 E0.02852
G1 X59.066 Y52.765 E0.01958
G1 X59.102 Y53.39 E0.02435
G1 X59.219 Y54.001 E0.02424
G1 X59.377 Y54.481 E0.01964
G1 X59.75 Y55.286 E0.03453
G1 X43.587 Y55.286 E0.62893
G1 X43.587 Y52.133 E0.12266
G1 X44.056 Y52.643 E0.02695
G1 X44.488 Y52.992 E0.0216
G1 X45.003 Y53.28 E0.02299
G1 X45.624 Y53.479 E0.02535
G1 X46.09 Y53.557 E0.01838
G1 X46.657 Y53.557 E0.02209
G1 X47.22 Y53.461 E0.02221
G1 X47.758 Y53.27 E0.02221
G1 X48.256 Y52.992 E0.02221
G1 X48.688 Y52.643 E0.0216
G1 X49.002 Y52.302 E0.01801
G1 X49.314 Y51.841 E0.02167
G1 X49.549 Y51.321 E0.02221
G1 X49.693 Y50.769 E0.02221
G1 X49.741 Y50.2 E0.02221
G1 X49.693 Y49.631 E0.02221
G1 X49.549 Y49.079 E0.02221
G1 X49.314 Y48.559 E0.02221
G1 X49.081 Y48.214 E0.01619
G1 X61.73 Y48.214 E0.49219
G1 X61.803 Y48.536 E0.01284
G1 X61.509 Y48.677 E0.0127
G1 X60.9 Y49.078 E0.02838
G1 X60.514 Y49.409 E0.01978
G1 X60.088 Y49.876 E0.02458
G1 X59.68 Y50.489 E0.02869
G1 X59.45 Y50.946 E0.01988
G1 E-2 F3000
M204 S1500
G1 Z0.6 F18000
; acceleration to travel
G1 X65.314 Y50.479
; decel to extrusion
M204 S1000
G1 X69.223 Y50.168
; end travel
G1 Z0.2
G1 E2 F1800
G1 X68.911 Y50.223 E0.01235
G1 X68.804 Y49.995 E0.00981
G1 X68.298 Y49.248 E0.03509
G1 X69.302 Y49.248 E0.03903
G1 X69.228 Y50.108 E0.03356
G1 X69.816 Y52.401 F18000
G1 F1800
G1 X70.184 Y52.946 E0.02558
G1 X70.602 Y53.4 E0.024
G1 X71.162 Y53.852 E0.028
G1 X71.325 Y53.943 E0.00728
G1 X71.245 Y54.252 E0.01244
G1 X69.35 Y54.253 E0.07373
G1 X69.49 Y53.532 E0.02855
G1 X69.534 Y52.791 E0.0289
G1 X69.518 Y52.502 E0.01127
G1 X69.759 Y52.42 E0.00992
G1 X69.795 Y50.857 F18000
G1 F1800
G1 X69.961 Y51.494 E0.02563
G1 X70.233 Y52.094 E0.02563
G1 X70.591 Y52.624 E0.02488
G1 X70.957 Y53.021 E0.02101
G1 X71.452 Y53.422 E0.0248
G1 X72.052 Y53.757 E0.0267
G1 X72.757 Y53.983 E0.02882
G1 X73.302 Y54.074 E0.02152
G1 X73.957 Y54.074 E0.02547
G1 X74.606 Y53.963 E0.02564
G1 X75.227 Y53.743 E0.02564
G1 X75.896 Y53.369 E0.02981
G1 X75.896 Y54.769 E0.05445
G1 X68.623 Y54.77 E0.28301
G1 X68.839 Y54.168 E0.02487
G1 X68.976 Y53.467 E0.02778
G1 X69.016 Y52.79 E0.0264
G1 X68.984 Y52.216 E0.02238
G1 X68.832 Y51.433 E0.03102
G1 X68.653 Y50.89 E0.02224
G1 X68.353 Y50.252 E0.02746
G1 X67.901 Y49.584 E0.03137
G1 X67.531 Y49.154 E0.02209
G1 X67.061 Y48.731 E0.02458
G1 X70.007 Y48.731 E0.11462
G1 X69.795 Y49.543 E0.03266
G1 X69.739 Y50.2 E0.02564
G1 X69.79 Y50.797 E0.0233
G1 X70.307 Y50.769 F18000
G1 F1800
G1 X70.451 Y51.321 E0.02221
G1 X70.686 Y51.841 E0.02221
G1 X70.998 Y52.302 E0.02166
G1 X71.311 Y52.643 E0.01802
G1 X71.743 Y52.992 E0.0216
G1 X72.259 Y53.28 E0.02298
G1 X72.879 Y53.479 E0.02535
G1 X73.345 Y53.557 E0.01838
G1 X73.913 Y53.557 E0.02209
G1 X74.476 Y53.46 E0.02221
G1 X75.014 Y53.27 E0.02221
G1 X75.512 Y52.992 E0.02221
G1 X75.944 Y52.643 E0.0216
G1 X76.413 Y52.133 E0.02698
G1 X76.413 Y55.286 E0.12268
G1 X67.806 Y55.287 E0.33492
G1 X68.089 Y54.726 E0.02446
G1 X68.339 Y54.031 E0.02875
G1 X68.462 Y53.402 E0.0249
G1 X68.498 Y52.789 E0.0239
G1 X68.469 Y52.28 E0.01985
G1 X68.33 Y51.564 E0.02839
G1 X68.172 Y51.082 E0.01974
G1 X67.902 Y50.508 E0.02467
G1 X67.49 Y49.899 E0.02863
G1 X67.16 Y49.516 E0.01964
G1 X66.697 Y49.099 E0.02424
G1 X66.181 Y48.746 E0.02435
G1 X65.756 Y48.532 E0.0185
G1 X65.832 Y48.214 E0.01271
G1 X70.913 Y48.214 E0.1977
G1 X70.681 Y48.569 E0.01648
G1 X70.451 Y49.079 E0.02179
G1 X70.307 Y49.631 E0.02221
G1 X70.258 Y50.2 E0.02221
G1 X70.302 Y50.709 E0.01988
G1 E-2 F3000
M204 S1500
G1 Z0.6 F18000
; acceleration to travel
G1 X64.071 Y50.989
; decel to extrusion
M204 S1000
G1 X59.917 Y51.176
; end travel
G1 Z0.2
G1 E2 F1800
G1 X59.739 Y51.677 E0.02072
G1 X59.617 Y52.33 E0.02582
G1 X59.584 Y52.769 E0.01715
G1 X59.616 Y53.326 E0.02168
G1 X59.721 Y53.871 E0.02161
G1 X59.859 Y54.291 E0.01719
G1 X60.139 Y54.896 E0.02594
G1 X60.456 Y55.367 E0.0221
G1 X60.861 Y55.823 E0.02372
G1 X60.261 Y55.803 E0.02333
G1 X43.07 Y55.803 E0.66895
G1 X43.07 Y49.496 E0.24541
G1 X43.389 Y49.177 E0.01756
G1 X43.663 Y49.334 E0.01231
G1 X43.563 Y49.719 E0.01548
G1 X43.522 Y50.2 E0.01878
G1 X43.563 Y50.681 E0.01878
G1 X43.685 Y51.148 E0.01878
G1 X43.883 Y51.588 E0.01878
G1 X44.149 Y51.981 E0.01844
G1 X44.41 Y52.265 E0.01502
G1 X44.778 Y52.562 E0.01841
G1 X45.211 Y52.804 E0.01927
G1 X45.746 Y52.975 E0.02188
G1 X46.133 Y53.04 E0.01525
G1 X46.613 Y53.04 E0.01871
G1 X47.089 Y52.958 E0.01878
G1 X47.544 Y52.797 E0.01878
G1 X47.966 Y52.562 E0.01878
G1 X48.334 Y52.265 E0.0184
G1 X48.595 Y51.981 E0.01502
G1 X48.861 Y51.588 E0.01844
G1 X49.06 Y51.148 E0.01878
G1 X49.181 Y50.681 E0.01879
G1 X49.222 Y50.2 E0.01878
G1 X49.181 Y49.719 E0.01878
G1 X49.06 Y49.252 E0.01879
G1 X48.861 Y48.812 E0.01878
G1 X48.595 Y48.419 E0.01844
G1 X48.334 Y48.135 E0.01502
G1 X48.133 Y47.973 E0.01005
G1 X48.23 Y47.697 E0.01138
G1 X71.769 Y47.697 E0.91592
G1 X71.867 Y47.973 E0.01138
G1 X71.658 Y48.141 E0.01042
G1 X71.347 Y48.495 E0.01833
G1 X71.136 Y48.818 E0.01502
G1 X70.94 Y49.252 E0.01852
G1 X70.818 Y49.719 E0.01878
G1 X70.777 Y50.2 E0.01879
G1 X70.818 Y50.681 E0.01879
G1 X70.94 Y51.148 E0.01878
G1 X71.139 Y51.588 E0.01878
G1 X71.404 Y51.981 E0.01844
G1 X71.666 Y52.265 E0.01503
G1 X72.034 Y52.562 E0.01841
G1 X72.466 Y52.803 E0.01926
G1 X73.001 Y52.975 E0.02188
G1 X73.388 Y53.04 E0.01525
G1 X73.869 Y53.04 E0.01871
G1 X74.345 Y52.958 E0.01878
G1 X74.8 Y52.797 E0.01878
G1 X75.221 Y52.562 E0.01878
G1 X75.589 Y52.265 E0.0184
G1 X75.851 Y51.981 E0.01502
G1 X76.116 Y51.588 E0.01844
G1 X76.315 Y51.148 E0.01878
G1 X76.437 Y50.681 E0.01878
G1 X76.478 Y50.2 E0.01878
G1 X76.437 Y49.719 E0.01878
G1 X76.336 Y49.333 E0.01551
G1 X76.611 Y49.176 E0.01231
G1 X76.93 Y49.496 E0.01759
G1 X76.93 Y55.803 E0.24541
G1 X66.691 Y55.804 E0.39842
G1 X67.093 Y55.392 E0.02238
G1 X67.413 Y54.917 E0.0223
G1 X67.613 Y54.521 E0.01727
G1 X67.839 Y53.893 E0.02598
G1 X67.947 Y53.337 E0.02202
G1 X67.98 Y52.788 E0.0214
G1 X67.955 Y52.344 E0.01732
G1 X67.829 Y51.695 E0.02575
G1 X67.69 Y51.273 E0.01725
G1 X67.451 Y50.764 E0.02188
G1 X67.078 Y50.213 E0.0259
G1 X66.79 Y49.878 E0.01719
G1 X66.377 Y49.507 E0.02161
G1 X65.917 Y49.192 E0.02168
G1 X65.524 Y48.994 E0.01715
G1 X64.902 Y48.761 E0.02582
G1 X64.345 Y48.648 E0.02211
G1 X63.793 Y48.61 E0.02154
G1 X63.351 Y48.635 E0.01723
G1 X62.694 Y48.754 E0.02597
G1 X62.165 Y48.936 E0.02176
G1 X61.765 Y49.128 E0.0173
G1 X61.211 Y49.492 E0.02575
G1 X60.875 Y49.781 E0.01727
G1 X60.496 Y50.195 E0.02182
G1 X60.127 Y50.75 E0.02593
G1 X59.94 Y51.12 E0.01614
G1 X60.404 Y51.349 F18000
;TYPE:External perimeter
G1 F1800
G1 X60.239 Y51.812 E0.01913
G1 X60.131 Y52.397 E0.02313
G1 X60.102 Y52.774 E0.01472
G1 X60.13 Y53.262 E0.01901
G1 X60.222 Y53.741 E0.01899
G1 X60.341 Y54.101 E0.01474
G1 X60.591 Y54.641 E0.02318
G1 X60.866 Y55.05 E0.01916
G1 X61.121 Y55.337 E0.01494
G1 X61.355 Y55.53 E0.01183
G1 X61.599 Y55.715 E0.01189
G1 X62.339 Y56.084 E0.03218
G1 X62.785 Y56.247 E0.01847
G1 X63.356 Y56.361 E0.02266
G1 X63.722 Y56.388 E0.01427
G1 X64.198 Y56.365 E0.01856
G1 X64.768 Y56.246 E0.02263
G1 X65.116 Y56.132 E0.01428
G1 X65.954 Y55.724 E0.03626
G1 X66.269 Y55.496 E0.01511
G1 X66.69 Y55.064 E0.02347
G1 X66.967 Y54.655 E0.01922
G1 X67.138 Y54.316 E0.01477
G1 X67.339 Y53.755 E0.0232
G1 X67.433 Y53.272 E0.01914
G1 X67.462 Y52.788 E0.0189
G1 X67.441 Y52.408 E0.01479
G1 X67.327 Y51.825 E0.02311
G1 X67.209 Y51.465 E0.01476
G1 X67 Y51.021 E0.01909
G1 X66.667 Y50.528 E0.02317
G1 X66.42 Y50.241 E0.01473
G1 X66.057 Y49.914 E0.01899
G1 X65.654 Y49.639 E0.01901
G1 X65.316 Y49.468 E0.01472
G1 X64.759 Y49.259 E0.02313
G1 X64.276 Y49.161 E0.01918
G1 X63.79 Y49.128 E0.01896
G1 X63.411 Y49.15 E0.01475
G1 X62.825 Y49.255 E0.0232
G1 X62.362 Y49.415 E0.01904
G1 X62.02 Y49.579 E0.01478
G1 X61.523 Y49.905 E0.02311
G1 X61.236 Y50.153 E0.01477
G1 X60.905 Y50.515 E0.01906
G1 X60.575 Y51.011 E0.02318
G1 X60.431 Y51.295 E0.01241
;WIPE_START
M204 S1500
G1 X60.008 Y51.405 F18000
;WIPE_END
G1 E-2 F3000
G1 Z0.6 F18000
; acceleration to travel
G1 X66.793 Y50.827
; decel to extrusion
M204 S1000
G1 X71.317 Y50.442
; end travel
G1 Z0.2
G1 E2 F1800
G1 X71.33 Y50.593 E0.00593
G1 X71.429 Y50.975 E0.01536
G1 X71.592 Y51.335 E0.01536
G1 X71.811 Y51.659 E0.01522
G1 X72.02 Y51.887 E0.01203
G1 X72.324 Y52.132 E0.01521
G1 X72.673 Y52.327 E0.01554
G1 X73.124 Y52.472 E0.01841
G1 X73.431 Y52.523 E0.01212
G1 X73.825 Y52.523 E0.01533
