; generated by SuperSlicer 2.3.57 on 2022-02-06 at 02:24:38 UTC


;
;

;
;
; TODO: check the size of the extruder and the y-bar clearance. Optimize & test supports.

; external perimeters extrusion width = 0.43mm
; perimeters extrusion width = 0.48mm
; infill extrusion width = 0.44mm
; solid infill extrusion width = 0.48mm
; top infill extrusion width = 0.46mm
; first layer extrusion width = 0.56mm

; object:{"name":"ROCKET_V1_by_Spannerhands","id":"ROCKET_V1_by_Spannerhands.stl id:0 copy 0","object_center":[60.000000,60.000000,0.000000],"boundingbox_center":[60.000000,60.000000,50.003483],"boundingbox_size":[76.000000,76.000000,100.006966]}
; plater:{"center":[60.000000,60.000000,0.000000],"boundingbox_center":[60.000000,60.000000,50.003483],"boundingbox_size":[76.000000,76.000000,100.006966]}

;TYPE:Custom
; M190 S0
; M109 S0 ; uncomment to remove set&wait temp gcode added automatically after this start gcode
print_start EXTRUDER=210 BED=60 CHAMBER=15
M107
G21 ; set units to millimeters
G90 ; use absolute coordinates
M83 ; use relative distances for extrusion
M104 S210 ; set temperature
M109 S210 ; set temperature and wait for it to be reached
M190 S60 ; set bed temperature and wait for it to be reached
;LAYER_CHANGE
;Z:0.2
;HEIGHT:0.2
;BEFORE_LAYER_CHANGE
;0.2


G1 Z0.2 F18000
;AFTER_LAYER_CHANGE
;0.2
G1 E-2 F3000
G1 Z0.6 F18000
M204 S1500
G1 X34.445 Y34.45
G1 Z0.2
G1 E2 F1800
;TYPE:Skirt
;WIDTH:0.52
G1 X54.91 Y13.989 E1.148
G1 X55.933 Y13.307 E0.04879
G1 X57.111 Y12.952 E0.04879
G1 X62.285 Y12.907 E0.20526
G1 X63.079 Y12.984 E0.03166
G1 X63.844 Y13.21 E0.03166
G1 X64.557 Y13.58 E0.03186
G1 X65.183 Y14.075 E0.03166
G1 X106.011 Y54.91 E2.29066
G1 X106.697 Y55.942 E0.04918
G1 X107.051 Y57.131 E0.04918
G1 X107.087 Y62.492 E0.21268
G1 X106.983 Y63.232 E0.02966
G1 X106.747 Y63.947 E0.02986
G1 X106.387 Y64.608 E0.02986
G1 X105.918 Y65.19 E0.02966
G1 X65.083 Y106.018 E2.29066
G1 X64.048 Y106.701 E0.04918
G1 X62.864 Y107.052 E0.04899
G1 X57.508 Y107.087 E0.21249
G1 X56.768 Y106.983 E0.02966
G1 X56.053 Y106.747 E0.02986
G1 X55.392 Y106.387 E0.02986
G1 X54.81 Y105.918 E0.02966
G1 X13.982 Y65.083 E2.29066
G1 X13.299 Y64.048 E0.04918
G1 X12.948 Y62.864 E0.04899
G1 X12.913 Y57.508 E0.21249
G1 X13.017 Y56.768 E0.02966
G1 X13.253 Y56.053 E0.02986
G1 X13.613 Y55.392 E0.02986
G1 X14.082 Y54.81 E0.02966
G1 X34.402 Y34.493 E1.13988
G1 X34.571 Y34.661 F18000
M204 S1000
G1 X34.739 Y34.83
G1 F1800
G1 X55.231 Y14.341 E1.14951
G1 X56.157 Y13.729 E0.04404
G1 X57.223 Y13.418 E0.04404
G1 X62.284 Y13.384 E0.2008
G1 X62.994 Y13.454 E0.02829
G1 X63.673 Y13.656 E0.02811
G1 X64.302 Y13.983 E0.02811
G1 X64.86 Y14.427 E0.02829
G1 X105.659 Y55.231 E2.289
G1 X106.273 Y56.161 E0.04423
G1 X106.584 Y57.237 E0.04441
G1 X106.611 Y62.47 E0.2076
G1 X106.517 Y63.129 E0.02641
G1 X106.307 Y63.761 E0.02641
G1 X105.986 Y64.349 E0.0266
G1 X105.567 Y64.867 E0.02641
G1 X64.765 Y105.662 E2.28881
G1 X63.834 Y106.275 E0.04423
G1 X62.763 Y106.584 E0.04423
G1 X57.53 Y106.611 E0.2076
G1 X56.871 Y106.517 E0.02641
G1 X56.239 Y106.307 E0.02641
G1 X55.651 Y105.986 E0.0266
G1 X55.133 Y105.567 E0.02641
G1 X14.338 Y64.765 E2.28881
G1 X13.725 Y63.834 E0.04423
G1 X13.416 Y62.763 E0.04423
G1 X13.389 Y57.53 E0.2076
G1 X13.483 Y56.871 E0.02641
G1 X13.693 Y56.239 E0.02641
G1 X14.014 Y55.651 E0.0266
G1 X14.433 Y55.133 E0.02641
G1 X34.697 Y34.872 E1.13673
M204 S1500
G1 X34.866 Y35.041 F18000
M204 S1000
G1 X35.034 Y35.209
G1 F1800
G1 X55.55 Y14.697 E1.15086
G1 X56.371 Y14.156 E0.039
G1 X57.321 Y13.886 E0.03918
G1 X62.284 Y13.861 E0.19689
G1 X62.903 Y13.922 E0.02465
G1 X63.498 Y14.099 E0.02465
G1 X64.049 Y14.387 E0.02465
G1 X64.534 Y14.775 E0.02465
G1 X105.303 Y55.55 E2.28732
G1 X105.848 Y56.379 E0.03935
G1 X106.115 Y57.334 E0.03935
G1 X106.134 Y62.444 E0.20271
G1 X106.052 Y63.024 E0.02325
G1 X105.868 Y63.576 E0.02307
G1 X105.588 Y64.086 E0.02307
G1 X105.222 Y64.538 E0.02307
G1 X64.447 Y105.306 E2.28732
G1 X63.617 Y105.849 E0.03935
G1 X62.666 Y106.115 E0.03918
G1 X57.556 Y106.134 E0.20271
G1 X56.976 Y106.052 E0.02325
G1 X56.424 Y105.868 E0.02307
G1 X55.914 Y105.588 E0.02307
G1 X55.462 Y105.222 E0.02307
G1 X14.694 Y64.447 E2.28732
G1 X14.151 Y63.617 E0.03935
G1 X13.885 Y62.666 E0.03918
G1 X13.866 Y57.556 E0.20271
G1 X13.948 Y56.976 E0.02325
G1 X14.132 Y56.424 E0.02307
G1 X14.412 Y55.914 E0.02307
G1 X14.778 Y55.462 E0.02307
G1 X34.992 Y35.252 E1.1339
G1 E-2 F3000
M204 S1500
G1 Z0.6 F18000
G1 X34.992 Y44.853
M204 S1000
G1 X34.992 Y54.455
G1 Z0.2
G1 E2 F1800
;WIDTH:0.56
G1 X49.569 Y54.455 E0.62675
G1 X49.695 Y54.209 E0.01187
G1 X49.786 Y54.051 E0.00786
G1 X50.247 Y53.322 E0.03708
G1 X50.351 Y53.172 E0.00786
G1 X50.873 Y52.488 E0.03698
G1 X50.99 Y52.348 E0.00784
G1 X51.57 Y51.714 E0.03692
G1 X51.699 Y51.585 E0.00785
G1 X52.334 Y51.002 E0.03708
G1 X52.474 Y50.885 E0.00786
G1 X53.157 Y50.362 E0.03699
G1 X53.307 Y50.257 E0.00786
G1 X54.035 Y49.795 E0.03708
G1 X54.194 Y49.704 E0.00786
G1 X54.455 Y49.569 E0.01262
G1 X54.455 Y22.583 E1.16029
G1 X54.614 Y21.783 E0.03504
G1 X54.965 Y20.936 E0.03946
G1 X55.418 Y20.258 E0.03503
G1 X57.008 Y18.668 E0.0967
G1 X57.686 Y18.215 E0.03503
G1 X58.533 Y17.864 E0.03946
G1 X59.333 Y17.705 E0.03504
G1 X60.667 Y17.705 E0.05739
G1 X61.467 Y17.864 E0.03504
G1 X62.314 Y18.215 E0.03946
G1 X62.992 Y18.668 E0.03503
G1 X63.62 Y19.296 E0.03822
G1 X64.582 Y20.258 E0.05848
G1 X65.035 Y20.936 E0.03503
G1 X65.386 Y21.783 E0.03946
G1 X65.545 Y22.583 E0.03503
G1 X65.545 Y49.569 E1.16028
G1 X65.792 Y49.696 E0.01195
G1 X65.951 Y49.787 E0.00784
G1 X66.677 Y50.246 E0.03698
G1 X66.828 Y50.351 E0.00786
G1 X67.513 Y50.874 E0.03708
G1 X67.653 Y50.992 E0.00786
G1 X68.287 Y51.571 E0.03695
G1 X68.416 Y51.7 E0.00783
G1 X68.997 Y52.333 E0.03695
G1 X69.115 Y52.474 E0.00786
G1 X69.639 Y53.158 E0.03708
G1 X69.744 Y53.308 E0.00786
G1 X70.205 Y54.034 E0.03698
G1 X70.295 Y54.192 E0.00784
G1 X70.431 Y54.455 E0.0127
G1 X97.417 Y54.455 E1.16029
G1 X98.217 Y54.614 E0.03504
G1 X99.064 Y54.965 E0.03946
G1 X99.742 Y55.418 E0.03503
G1 X101.332 Y57.008 E0.0967
G1 X101.785 Y57.686 E0.03503
G1 X102.136 Y58.533 E0.03946
G1 X102.295 Y59.333 E0.03503
G1 X102.295 Y60.667 E0.05739
G1 X102.136 Y61.467 E0.03503
G1 X101.785 Y62.314 E0.03946
G1 X101.332 Y62.992 E0.03503
G1 X99.742 Y64.582 E0.0967
G1 X99.064 Y65.035 E0.03503
G1 X98.217 Y65.386 E0.03946
G1 X97.417 Y65.545 E0.03503
G1 X70.431 Y65.545 E1.16028
G1 X70.305 Y65.791 E0.01187
G1 X70.214 Y65.949 E0.00786
G1 X69.753 Y66.678 E0.03708
G1 X69.649 Y66.828 E0.00786
G1 X69.127 Y67.512 E0.03698
G1 X69.01 Y67.652 E0.00784
G1 X68.43 Y68.286 E0.03692
G1 X68.301 Y68.415 E0.00785
G1 X67.666 Y68.998 E0.03708
G1 X67.526 Y69.115 E0.00786
G1 X66.843 Y69.638 E0.03699
G1 X66.693 Y69.743 E0.00786
G1 X65.965 Y70.205 E0.03708
G1 X65.806 Y70.296 E0.00786
G1 X65.545 Y70.431 E0.01262
G1 X65.545 Y97.417 E1.16029
G1 X65.386 Y98.217 E0.03503
G1 X65.035 Y99.064 E0.03946
G1 X64.582 Y99.742 E0.03503
G1 X62.992 Y101.332 E0.0967
G1 X62.314 Y101.785 E0.03503
G1 X61.467 Y102.136 E0.03946
G1 X60.667 Y102.295 E0.03503
G1 X59.333 Y102.295 E0.05739
G1 X58.533 Y102.136 E0.03503
G1 X57.686 Y101.785 E0.03946
G1 X57.008 Y101.332 E0.03503
G1 X55.418 Y99.742 E0.0967
G1 X54.965 Y99.064 E0.03503
G1 X54.614 Y98.217 E0.03946
G1 X54.455 Y97.417 E0.03504
G1 X54.455 Y70.431 E1.16028
G1 X54.208 Y70.304 E0.01195
G1 X54.049 Y70.213 E0.00784
G1 X53.323 Y69.754 E0.03698
G1 X53.172 Y69.649 E0.00786
G1 X52.487 Y69.126 E0.03708
G1 X52.347 Y69.008 E0.00786
G1 X51.713 Y68.429 E0.03695
G1 X51.584 Y68.3 E0.00783
G1 X51.003 Y67.667 E0.03695
G1 X50.885 Y67.526 E0.00786
G1 X50.361 Y66.842 E0.03708
G1 X50.256 Y66.692 E0.00786
G1 X49.795 Y65.966 E0.03698
G1 X49.705 Y65.808 E0.00784
G1 X49.569 Y65.545 E0.0127
G1 X22.583 Y65.545 E1.16029
G1 X21.783 Y65.386 E0.03503
G1 X20.936 Y65.035 E0.03946
G1 X20.258 Y64.582 E0.03503
G1 X18.668 Y62.992 E0.0967
G1 X18.215 Y62.314 E0.03503
G1 X17.864 Y61.467 E0.03946
G1 X17.705 Y60.667 E0.03504
G1 X17.705 Y59.333 E0.05739
G1 X17.864 Y58.533 E0.03504
G1 X18.215 Y57.686 E0.03946
G1 X18.668 Y57.008 E0.03503
G1 X20.258 Y55.418 E0.0967
G1 X20.936 Y54.965 E0.03503
G1 X21.783 Y54.614 E0.03946
G1 X22.583 Y54.455 E0.03504
G1 X34.932 Y54.455 E0.53095
M204 S1500
G1 X34.932 Y54.713 F18000
M204 S1000
G1 X34.932 Y54.972
G1 F1800
G1 X49.884 Y54.972 E0.64288
G1 X50.15 Y54.456 E0.02494
G1 X50.229 Y54.317 E0.00688
G1 X50.678 Y53.608 E0.0361
G1 X50.769 Y53.476 E0.00688
G1 X51.277 Y52.811 E0.036
G1 X51.38 Y52.689 E0.00686
G1 X51.944 Y52.072 E0.03594
G1 X52.057 Y51.958 E0.00687
G1 X52.675 Y51.391 E0.03609
G1 X52.798 Y51.288 E0.00688
G1 X53.463 Y50.779 E0.03601
G1 X53.594 Y50.687 E0.00688
G1 X54.303 Y50.238 E0.0361
G1 X54.442 Y50.158 E0.00688
G1 X54.972 Y49.884 E0.02567
G1 X54.972 Y22.633 E1.17164
G1 X55.111 Y21.934 E0.03066
G1 X55.423 Y21.18 E0.03508
G1 X55.819 Y20.588 E0.03065
G1 X57.338 Y19.069 E0.09232
G1 X57.93 Y18.673 E0.03065
G1 X58.684 Y18.361 E0.03508
G1 X59.383 Y18.222 E0.03066
G1 X60.617 Y18.222 E0.05301
G1 X61.316 Y18.361 E0.03066
G1 X62.07 Y18.673 E0.03508
G1 X62.662 Y19.069 E0.03065
G1 X63.255 Y19.662 E0.03603
G1 X64.181 Y20.588 E0.05629
G1 X64.577 Y21.18 E0.03066
G1 X64.889 Y21.934 E0.03508
G1 X65.028 Y22.633 E0.03066
G1 X65.028 Y49.884 E1.17164
G1 X65.545 Y50.15 E0.02502
G1 X65.684 Y50.23 E0.00686
G1 X66.391 Y50.677 E0.036
G1 X66.523 Y50.769 E0.00688
G1 X67.19 Y51.278 E0.0361
G1 X67.313 Y51.381 E0.00688
G1 X67.93 Y51.945 E0.03597
G1 X68.043 Y52.058 E0.00685
G1 X68.608 Y52.675 E0.03597
G1 X68.711 Y52.797 E0.00688
G1 X69.222 Y53.464 E0.0361
G1 X69.313 Y53.595 E0.00688
G1 X69.762 Y54.302 E0.036
G1 X69.841 Y54.44 E0.00686
G1 X70.116 Y54.972 E0.02574
G1 X97.367 Y54.972 E1.17163
G1 X98.066 Y55.111 E0.03066
G1 X98.82 Y55.423 E0.03508
G1 X99.412 Y55.819 E0.03065
G1 X100.931 Y57.338 E0.09232
G1 X101.327 Y57.93 E0.03066
G1 X101.639 Y58.684 E0.03508
G1 X101.778 Y59.383 E0.03066
G1 X101.778 Y60.617 E0.05301
G1 X101.639 Y61.316 E0.03066
G1 X101.327 Y62.07 E0.03508
G1 X100.931 Y62.662 E0.03066
G1 X99.412 Y64.181 E0.09232
G1 X98.82 Y64.577 E0.03066
G1 X98.066 Y64.889 E0.03508
G1 X97.367 Y65.028 E0.03066
G1 X70.116 Y65.028 E1.17165
G1 X69.85 Y65.544 E0.02494
G1 X69.771 Y65.683 E0.00688
G1 X69.322 Y66.392 E0.0361
G1 X69.231 Y66.524 E0.00688
G1 X68.723 Y67.189 E0.036
G1 X68.62 Y67.311 E0.00686
G1 X68.056 Y67.928 E0.03594
G1 X67.943 Y68.042 E0.00687
G1 X67.325 Y68.609 E0.03609
G1 X67.202 Y68.712 E0.00688
G1 X66.537 Y69.221 E0.03601
G1 X66.406 Y69.313 E0.00688
G1 X65.697 Y69.762 E0.0361
G1 X65.558 Y69.842 E0.00688
G1 X65.028 Y70.116 E0.02567
G1 X65.028 Y97.367 E1.17163
G1 X64.889 Y98.066 E0.03066
G1 X64.577 Y98.82 E0.03508
G1 X64.181 Y99.412 E0.03066
G1 X62.662 Y100.931 E0.09232
G1 X62.07 Y101.327 E0.03066
G1 X61.316 Y101.639 E0.03508
G1 X60.617 Y101.778 E0.03066
G1 X59.383 Y101.778 E0.05301
G1 X58.684 Y101.639 E0.03066
G1 X57.93 Y101.327 E0.03508
G1 X57.338 Y100.931 E0.03066
G1 X55.819 Y99.412 E0.09232
G1 X55.423 Y98.82 E0.03065
G1 X55.111 Y98.066 E0.03508
G1 X54.972 Y97.367 E0.03066
G1 X54.972 Y70.116 E1.17164
G1 X54.455 Y69.85 E0.02502
G1 X54.316 Y69.77 E0.00686
G1 X53.609 Y69.323 E0.036
G1 X53.477 Y69.231 E0.00688
G1 X52.81 Y68.722 E0.0361
G1 X52.687 Y68.619 E0.00688
G1 X52.07 Y68.055 E0.03597
G1 X51.957 Y67.942 E0.00685
G1 X51.392 Y67.325 E0.03597
G1 X51.289 Y67.203 E0.00688
G1 X50.778 Y66.536 E0.0361
G1 X50.687 Y66.405 E0.00688
G1 X50.238 Y65.698 E0.036
G1 X50.159 Y65.56 E0.00686
G1 X49.884 Y65.028 E0.02574
G1 X22.633 Y65.028 E1.17163
G1 X21.934 Y64.889 E0.03066
G1 X21.18 Y64.577 E0.03508
G1 X20.588 Y64.181 E0.03066
G1 X19.069 Y62.662 E0.09232
G1 X18.673 Y62.07 E0.03065
G1 X18.361 Y61.316 E0.03508
G1 X18.222 Y60.617 E0.03066
G1 X18.222 Y59.383 E0.05301
G1 X18.361 Y58.684 E0.03066
G1 X18.673 Y57.93 E0.03508
G1 X19.069 Y57.338 E0.03065
G1 X20.588 Y55.819 E0.09232
G1 X21.18 Y55.423 E0.03065
G1 X21.934 Y55.111 E0.03508
G1 X22.633 Y54.972 E0.03066
G1 X34.872 Y54.972 E0.52618
M204 S1500
G1 X34.872 Y55.23 F18000
M204 S1000
G1 X34.872 Y55.489
G1 F1800
G1 X50.203 Y55.489 E0.65917
G1 X50.232 Y55.427 E0.00296
G1 X50.604 Y54.703 E0.03499
G1 X50.672 Y54.584 E0.0059
G1 X51.109 Y53.894 E0.03512
G1 X51.187 Y53.781 E0.00589
G1 X51.681 Y53.134 E0.03502
G1 X51.769 Y53.029 E0.00588
G1 X52.318 Y52.429 E0.03496
G1 X52.415 Y52.332 E0.00589
G1 X53.016 Y51.78 E0.03511
G1 X53.121 Y51.692 E0.00589
G1 X53.768 Y51.196 E0.03503
G1 X53.881 Y51.118 E0.00589
G1 X54.57 Y50.68 E0.03512
G1 X54.689 Y50.612 E0.0059
G1 X55.412 Y50.238 E0.03499
G1 X55.489 Y50.203 E0.00364
G1 X55.489 Y22.684 E1.18316
G1 X55.608 Y22.085 E0.02628
G1 X55.881 Y21.425 E0.0307
G1 X56.221 Y20.917 E0.02628
G1 X57.667 Y19.471 E0.08794
G1 X58.175 Y19.131 E0.02628
G1 X58.835 Y18.858 E0.0307
G1 X59.434 Y18.739 E0.02628
G1 X60.566 Y18.739 E0.04863
G1 X61.165 Y18.858 E0.02628
G1 X61.825 Y19.131 E0.0307
G1 X62.333 Y19.471 E0.02628
G1 X62.889 Y20.027 E0.03384
G1 X63.779 Y20.917 E0.0541
G1 X64.119 Y21.425 E0.02628
G1 X64.392 Y22.085 E0.0307
G1 X64.511 Y22.684 E0.02628
G1 X64.511 Y50.203 E1.18316
G1 X64.575 Y50.232 E0.00305
G1 X65.298 Y50.605 E0.03496
G1 X65.417 Y50.673 E0.00588
G1 X66.105 Y51.108 E0.03502
G1 X66.218 Y51.187 E0.00589
G1 X66.867 Y51.682 E0.03512
G1 X66.972 Y51.77 E0.0059
G1 X67.573 Y52.319 E0.03499
G1 X67.669 Y52.416 E0.00587
G1 X68.219 Y53.016 E0.03499
G1 X68.308 Y53.121 E0.0059
G1 X68.804 Y53.769 E0.03512
G1 X68.883 Y53.881 E0.00589
G1 X69.319 Y54.569 E0.03502
G1 X69.387 Y54.688 E0.00588
G1 X69.761 Y55.41 E0.03496
G1 X69.797 Y55.489 E0.00374
G1 X97.316 Y55.489 E1.18316
G1 X97.915 Y55.608 E0.02628
G1 X98.575 Y55.881 E0.0307
G1 X99.083 Y56.221 E0.02628
G1 X100.529 Y57.667 E0.08794
G1 X100.869 Y58.175 E0.02628
G1 X101.142 Y58.835 E0.0307
G1 X101.261 Y59.434 E0.02628
G1 X101.261 Y60.566 E0.04863
G1 X101.142 Y61.165 E0.02628
G1 X100.869 Y61.825 E0.0307
G1 X100.529 Y62.333 E0.02628
G1 X99.083 Y63.779 E0.08794
G1 X98.575 Y64.119 E0.02628
G1 X97.915 Y64.392 E0.0307
G1 X97.316 Y64.511 E0.02628
G1 X69.797 Y64.511 E1.18316
G1 X69.768 Y64.573 E0.00296
G1 X69.396 Y65.297 E0.03499
G1 X69.328 Y65.416 E0.0059
G1 X68.891 Y66.106 E0.03512
G1 X68.813 Y66.219 E0.00589
G1 X68.319 Y66.866 E0.03502
G1 X68.231 Y66.971 E0.00588
G1 X67.682 Y67.571 E0.03496
G1 X67.585 Y67.668 E0.00589
G1 X66.984 Y68.22 E0.03511
G1 X66.879 Y68.308 E0.00589
G1 X66.232 Y68.804 E0.03503
G1 X66.119 Y68.882 E0.00589
G1 X65.43 Y69.32 E0.03512
G1 X65.311 Y69.388 E0.0059
G1 X64.588 Y69.762 E0.03499
G1 X64.511 Y69.797 E0.00364
G1 X64.511 Y97.316 E1.18316
G1 X64.392 Y97.915 E0.02628
G1 X64.119 Y98.575 E0.0307
G1 X63.779 Y99.083 E0.02628
G1 X62.333 Y100.529 E0.08794
G1 X61.825 Y100.869 E0.02628
G1 X61.165 Y101.142 E0.0307
G1 X60.566 Y101.261 E0.02628
G1 X59.434 Y101.261 E0.04863
G1 X58.835 Y101.142 E0.02628
G1 X58.175 Y100.869 E0.0307
G1 X57.667 Y100.529 E0.02628
G1 X56.221 Y99.083 E0.08794
G1 X55.881 Y98.575 E0.02628
G1 X55.608 Y97.915 E0.0307
G1 X55.489 Y97.316 E0.02628
G1 X55.489 Y69.797 E1.18316
G1 X55.425 Y69.768 E0.00305
G1 X54.702 Y69.395 E0.03496
G1 X54.583 Y69.327 E0.00588
G1 X53.895 Y68.892 E0.03502
G1 X53.782 Y68.813 E0.00589
G1 X53.133 Y68.318 E0.03512
G1 X53.028 Y68.23 E0.0059
G1 X52.427 Y67.681 E0.03499
G1 X52.331 Y67.584 E0.00587
G1 X51.781 Y66.984 E0.03499
G1 X51.692 Y66.879 E0.0059
G1 X51.196 Y66.231 E0.03512
G1 X51.117 Y66.119 E0.00589
G1 X50.681 Y65.431 E0.03502
G1 X50.613 Y65.312 E0.00588
G1 X50.239 Y64.59 E0.03496
G1 X50.203 Y64.511 E0.00374
G1 X22.684 Y64.511 E1.18316
G1 X22.085 Y64.392 E0.02628
G1 X21.425 Y64.119 E0.0307
G1 X20.917 Y63.779 E0.02628
G1 X19.471 Y62.333 E0.08794
G1 X19.131 Y61.825 E0.02628
G1 X18.858 Y61.165 E0.0307
G1 X18.739 Y60.566 E0.02628
G1 X18.739 Y59.434 E0.04863
G1 X18.858 Y58.835 E0.02628
G1 X19.131 Y58.175 E0.0307
G1 X19.471 Y57.667 E0.02628
G1 X20.917 Y56.221 E0.08794
G1 X21.425 Y55.881 E0.02628
G1 X22.085 Y55.608 E0.0307
G1 X22.684 Y55.489 E0.02628
G1 X34.812 Y55.489 E0.52141
M204 S1500
G1 X34.812 Y55.748 F18000
M204 S1000
G1 X34.812 Y56.006
G1 F1800
G1 X50.547 Y56.006 E0.67655
G1 X50.649 Y55.757 E0.01159
G1 X50.696 Y55.653 E0.00489
G1 X51.059 Y54.95 E0.03401
G1 X51.115 Y54.851 E0.00491
G1 X51.54 Y54.18 E0.03413
G1 X51.605 Y54.086 E0.00491
