; generated by SuperSlicer 2.3.57 on 2022-02-13 at 20:29:24 UTC


;
;

;
;
; TODO: check the size of the extruder and the y-bar clearance. Optimize & test supports.

; external perimeters extrusion width = 0.42mm
; perimeters extrusion width = 0.46mm
; infill extrusion width = 0.44mm
; solid infill extrusion width = 0.46mm
; top infill extrusion width = 0.44mm
; first layer extrusion width = 0.56mm

; object:{"name":"SpongeBob_-_Arm-Leg-Shoe","id":"SpongeBob_-_Arm-Leg-Shoe.stl id:0 copy 0","object_center":[58.999437,59.537292,0.000000],"boundingbox_center":[58.999437,59.537292,5.763428],"boundingbox_size":[100.188063,48.566109,11.526855]}
; plater:{"center":[58.999437,59.537292,0.000000],"boundingbox_center":[58.999437,59.537292,5.763428],"boundingbox_size":[100.188063,48.566109,11.526855]}

M73 P0 R21
;TYPE:Custom
; custom gcode: start_gcode
; M190 S0
; M109 S0 ; uncomment to remove set&wait temp gcode added automatically after this start gcode
print_start EXTRUDER=210 BED=60 CHAMBER=15
; custom gcode end: start_gcode
G21 ; set units to millimeters
G90 ; use absolute coordinates
M83 ; use relative distances for extrusion
M104 S210 ; set temperature
M109 S210 ; set temperature and wait for it to be reached
M190 S60 ; set bed temperature and wait for it to be reached
;LAYER_CHANGE
;Z:0.2
;HEIGHT:0.2
; custom gcode: before_layer_gcode
;BEFORE_LAYER_CHANGE
;0.2

; custom gcode end: before_layer_gcode

G1 Z0.2 F18000
; custom gcode: layer_gcode
;AFTER_LAYER_CHANGE
;0.2
; custom gcode end: layer_gcode

G1 E-0.4 F3000
G1 Z0.4 F18000
M204 S1500
G1 X11.92 Y28.814
G1 Z0.2
G1 E0.4 F1800
; custom gcode: feature_gcode
; External perimeter
;;Skirt
;SET_VELOCITY_LIMIT ACCEL=7000 ACCEL_TO_DECEL=7000 SQUARE_CORNER_VELOCITY=8

; Support material
;
; custom gcode end: feature_gcode

;TYPE:Skirt
;WIDTH:0.52
G1 X10.945 Y29.217 E0.04185
G1 X9.876 Y29.754 E0.04745
G1 X8.55 Y30.573 E0.06183
G1 X4.225 Y33.745 E0.21275
G1 X3.604 Y34.304 E0.03316
G1 X3.107 Y34.974 E0.03306
G1 X2.777 Y35.661 E0.03026
G1 X2.577 Y36.397 E0.03026
G1 X1.406 Y43.607 E0.28976
G1 X1.188 Y45.886 E0.09082
G1 X0.989 Y48.682 E0.11117
G1 X0.854 Y57.963 E0.36821
G1 X0.922 Y58.732 E0.03066
G1 X1.133 Y59.481 E0.03086
G1 X1.778 Y60.604 E0.05137
G1 X2.731 Y61.473 E0.05117
G1 X43.404 Y87.496 E1.91543
G1 X44.793 Y88.165 E0.06117
G1 X45.973 Y88.581 E0.04961
G1 X57.071 Y91.544 E0.45568
G1 X58.792 Y91.801 E0.06906
G1 X60.067 Y91.855 E0.05062
G1 X95.014 Y91.599 E1.38635
G1 X96.73 Y91.521 E0.06812
G1 X99.471 Y91.107 E0.10997
G1 X101.346 Y90.621 E0.07685
G1 X102.997 Y90.042 E0.06942
G1 X104.583 Y89.342 E0.06878
G1 X106.481 Y88.294 E0.086
G1 X108.178 Y87.129 E0.08164
G1 X109.494 Y86.053 E0.06744
G1 X110.784 Y84.817 E0.07087
G1 X112.734 Y82.484 E0.12062
G1 X113.77 Y80.924 E0.07427
G1 X114.658 Y79.308 E0.07315
G1 X115.706 Y76.807 E0.10759
G1 X116.421 Y74.311 E0.10298
G1 X116.762 Y72.435 E0.07566
G1 X116.954 Y69.61 E0.11231
G1 X116.93 Y60.337 E0.36786
G1 X116.451 Y56.202 E0.16511
G1 X116.167 Y54.919 E0.05214
G1 X115.493 Y52.697 E0.09213
G1 X115.113 Y52 E0.03146
G1 X114.297 Y50.926 E0.05352
G1 X112.754 Y49.277 E0.08959
G1 X111.938 Y48.667 E0.04044
G1 X107.826 Y46.773 E0.1796
G1 X107.147 Y46.539 E0.02846
G1 X31.187 Y28.314 E3.09881
G1 X27.196 Y27.75 E0.15989
G1 X25.324 Y27.567 E0.07463
G1 X20.301 Y27.387 E0.19938
G1 X18.864 Y27.427 E0.05702
G1 X16.314 Y27.708 E0.10178
G1 X14.455 Y28.04 E0.07493
G1 X12.339 Y28.64 E0.08726
G1 X11.975 Y28.791 E0.0156
G1 X12.066 Y29.011 F18000
M204 S1000
G1 X12.157 Y29.23
G1 F1800
G1 X11.143 Y29.651 E0.04354
G1 X10.094 Y30.179 E0.04661
G1 X8.703 Y31.048 E0.06505
G1 X4.376 Y34.23 E0.21308
G1 X3.9 Y34.689 E0.02622
G1 X3.513 Y35.225 E0.02622
G1 X3.22 Y35.839 E0.02698
G1 X3.045 Y36.491 E0.02679
G1 X1.879 Y43.676 E0.28875
G1 X1.663 Y45.928 E0.08974
G1 X1.466 Y48.697 E0.11012
G1 X1.331 Y57.956 E0.36733
G1 X1.394 Y58.661 E0.02811
G1 X1.59 Y59.342 E0.02811
G1 X2.16 Y60.317 E0.04479
G1 X3 Y61.078 E0.04497
G1 X43.654 Y87.09 E1.91459
M73 P1 R21
G1 X44.984 Y87.728 E0.05849
G1 X46.103 Y88.122 E0.04709
G1 X57.183 Y91.08 E0.45492
G1 X58.831 Y91.325 E0.06608
G1 X60.064 Y91.378 E0.04897
G1 X95.011 Y91.122 E1.38634
G1 X96.682 Y91.047 E0.06639
G1 X99.38 Y90.638 E0.10823
G1 X101.192 Y90.17 E0.07426
G1 X102.822 Y89.598 E0.0685
G1 X104.386 Y88.908 E0.06783
G1 X106.229 Y87.888 E0.08356
G1 X107.877 Y86.759 E0.07926
G1 X109.177 Y85.696 E0.06662
G1 X110.448 Y84.478 E0.06981
G1 X112.358 Y82.191 E0.11818
G1 X113.364 Y80.673 E0.07226
G1 X114.227 Y79.105 E0.07101
G1 X115.257 Y76.646 E0.10575
G1 X115.958 Y74.199 E0.10096
G1 X116.291 Y72.36 E0.07416
G1 X116.477 Y69.602 E0.10963
G1 X116.454 Y60.377 E0.36596
G1 X115.984 Y56.297 E0.16292
G1 X115.708 Y55.048 E0.05075
G1 X115.063 Y52.905 E0.08878
G1 X114.719 Y52.269 E0.02867
G1 X113.941 Y51.243 E0.05111
G1 X112.428 Y49.626 E0.08781
G1 X111.686 Y49.072 E0.03674
G1 X107.636 Y47.21 E0.17684
G1 X107.033 Y47.002 E0.02528
G1 X31.08 Y28.779 E3.09852
G1 X27.133 Y28.223 E0.15812
G1 X25.284 Y28.043 E0.07372
G1 X20.302 Y27.864 E0.19776
G1 X18.9 Y27.903 E0.05562
G1 X16.364 Y28.183 E0.10122
G1 X14.548 Y28.508 E0.07319
G1 X12.489 Y29.093 E0.08492
G1 X12.213 Y29.207 E0.01186
M204 S1500
G1 X12.304 Y29.427 F18000
M204 S1000
G1 X12.395 Y29.647
G1 F1800
G1 X11.342 Y30.085 E0.04525
G1 X10.334 Y30.591 E0.04477
G1 X8.992 Y31.428 E0.06271
G1 X4.685 Y34.594 E0.21205
G1 X4.262 Y35 E0.02325
G1 X3.919 Y35.475 E0.02325
G1 X3.666 Y36.008 E0.02342
G1 X3.513 Y36.583 E0.0236
G1 X2.351 Y43.744 E0.28777
G1 X2.138 Y45.969 E0.08866
G1 X1.943 Y48.711 E0.10907
G1 X1.808 Y57.953 E0.36666
G1 X1.865 Y58.585 E0.02518
G1 X2.045 Y59.194 E0.02518
G1 X2.546 Y60.035 E0.03883
G1 X3.271 Y60.686 E0.03865
G1 X43.941 Y86.703 E1.91524
G1 X45.177 Y87.291 E0.05429
G1 X46.238 Y87.664 E0.04462
G1 X57.3 Y90.618 E0.45417
G1 X58.881 Y90.851 E0.06343
G1 X60.061 Y90.901 E0.04683
G1 X95.014 Y90.644 E1.38658
G1 X97.581 Y90.472 E0.10207
G1 X99.345 Y90.159 E0.07109
G1 X100.843 Y89.776 E0.06133
G1 X102.666 Y89.146 E0.07653
G1 X104.422 Y88.356 E0.07637
G1 X105.966 Y87.49 E0.07022
G1 X107.41 Y86.514 E0.06915
G1 X108.949 Y85.257 E0.07882
G1 X110.148 Y84.102 E0.06607
G1 X111.255 Y82.838 E0.06664
G1 X112.844 Y80.61 E0.10855
M73 P2 R21
G1 X113.709 Y79.072 E0.07001
G1 X114.442 Y77.455 E0.07041
G1 X115.144 Y75.432 E0.08495
G1 X115.513 Y74.001 E0.05863
G1 X115.833 Y72.185 E0.07318
G1 X116 Y69.591 E0.10311
G1 X115.973 Y60.323 E0.36764
G1 X115.514 Y56.383 E0.15737
G1 X115.249 Y55.177 E0.049
G1 X114.625 Y53.093 E0.08629
G1 X114.318 Y52.527 E0.02553
G1 X113.575 Y51.549 E0.0487
G1 X112.096 Y49.969 E0.08588
G1 X111.398 Y49.458 E0.03429
G1 X106.915 Y47.464 E0.19465
G1 X30.97 Y29.243 E3.09817
G1 X27.071 Y28.696 E0.15619
G1 X25.244 Y28.518 E0.07282
G1 X20.302 Y28.341 E0.19617
G1 X18.937 Y28.378 E0.0542
G1 X16.415 Y28.657 E0.10062
G1 X14.642 Y28.975 E0.07147
G1 X12.636 Y29.547 E0.08274
G1 X12.451 Y29.624 E0.00796
G1 E-0.4 F3000
M204 S3000
G1 Z0.4 F18000
M204 S1500
G1 X28.774 Y50.58
M204 S1000
G1 X45.097 Y71.536
G1 Z0.2
G1 E0.4 F1800
;WIDTH:0.56
G1 X45.506 Y71.254 E0.02135
G1 X45.673 Y71.15 E0.00845
G1 X46.213 Y70.849 E0.02657
G1 X46.475 Y70.726 E0.01248
G1 X47.118 Y70.478 E0.02962
G1 X47.397 Y70.392 E0.01256
G1 X48.178 Y70.211 E0.03447
G1 X48.492 Y70.164 E0.01364
G1 X49.111 Y70.118 E0.0267
G1 X49.26 Y70.112 E0.00638
G1 X52.824 Y70.104 E0.15324
G1 X53.171 Y70.247 E0.01613
G1 X53.193 Y70.222 E0.00144
G1 X53.313 Y70.101 E0.00734
G1 X53.923 Y69.531 E0.03588
G1 X54.087 Y69.394 E0.00918
G1 X54.499 Y69.082 E0.02222
G1 X54.67 Y68.965 E0.00891
G1 X55.594 Y68.402 E0.04652
G1 X55.786 Y68.298 E0.00939
G1 X56.227 Y68.089 E0.02098
G1 X56.387 Y68.022 E0.00746
G1 X57.091 Y67.758 E0.03234
G1 X57.3 Y67.692 E0.00942
G1 X58.047 Y67.5 E0.03316
G1 X58.263 Y67.456 E0.00947
G1 X59.033 Y67.343 E0.03349
G1 X59.291 Y67.321 E0.01113
G1 X60.396 Y67.298 E0.04748
G1 X60.668 Y67.311 E0.01171
G1 X61.375 Y67.389 E0.03061
G1 X61.532 Y67.413 E0.00679
G1 X61.973 Y67.496 E0.0193
G1 X62.147 Y67.537 E0.00769
G1 X62.827 Y67.728 E0.03038
G1 X62.994 Y67.783 E0.00754
G1 X63.643 Y68.026 E0.02984
G1 X63.835 Y68.109 E0.00898
G1 X64.495 Y68.436 E0.03168
G1 X64.646 Y68.518 E0.00737
G1 X65.05 Y68.762 E0.02032
G1 X65.219 Y68.876 E0.00873
G1 X66.01 Y69.465 E0.04243
G1 X66.148 Y69.578 E0.00763
G1 X66.297 Y69.709 E0.00854
G1 X66.423 Y69.832 E0.00756
G1 X67.139 Y70.586 E0.04471
G1 X67.297 Y70.774 E0.01059
G1 X67.717 Y71.337 E0.0302
G1 X67.814 Y71.48 E0.00742
G1 X68.134 Y71.993 E0.02598
G1 X68.226 Y72.157 E0.00809
G1 X68.61 Y72.919 E0.03671
G1 X68.695 Y73.114 E0.00914
G1 X68.856 Y73.538 E0.01949
G1 X68.888 Y73.626 E0.00403
G1 X69.052 Y74.126 E0.02264
G1 X69.098 Y74.286 E0.00717
G1 X69.28 Y75.04 E0.03334
G1 X69.319 Y75.244 E0.00892
G1 X69.455 Y76.232 E0.04288
G1 X69.475 Y76.508 E0.01192
G1 X69.479 Y77.769 E0.05419
G1 X69.462 Y78.041 E0.01176
G1 X69.334 Y79.027 E0.04272
G1 X69.302 Y79.207 E0.00788
G1 X69.194 Y79.698 E0.0216
G1 X69.165 Y79.814 E0.00516
G1 X69.011 Y80.358 E0.02429
G1 X68.966 Y80.498 E0.00631
G1 X68.739 Y81.127 E0.02878
G1 X68.66 Y81.315 E0.00878
G1 X68.366 Y81.932 E0.02938
G1 X68.298 Y82.062 E0.00632
G1 X68.051 Y82.498 E0.02151
G1 X67.964 Y82.638 E0.00712
G1 X67.637 Y83.119 E0.02498
G1 X67.548 Y83.241 E0.00652
G1 X67.071 Y83.844 E0.03305
G1 X66.917 Y84.018 E0.00998
G1 X66.346 Y84.593 E0.03484
G1 X66.156 Y84.762 E0.01093
G1 X65.558 Y85.232 E0.0327
G1 X65.411 Y85.337 E0.00779
G1 X64.801 Y85.736 E0.0313
G1 X64.63 Y85.836 E0.00855
G1 X64.248 Y86.036 E0.01854
G1 X64.139 Y86.089 E0.00522
G1 X63.501 Y86.377 E0.03006
G1 X63.318 Y86.449 E0.00848
G1 X62.62 Y86.687 E0.03171
G1 X62.391 Y86.751 E0.01021
G1 X61.657 Y86.91 E0.03229
G1 X61.457 Y86.943 E0.00872
G1 X60.748 Y87.026 E0.03069
G1 X60.581 Y87.038 E0.00719
G1 X60.137 Y87.054 E0.01913
G1 X59.973 Y87.053 E0.00702
G1 X59.27 Y87.022 E0.03025
G1 X59.076 Y87.004 E0.00841
G1 X58.329 Y86.9 E0.0324
G1 X58.112 Y86.858 E0.00951
G1 X57.343 Y86.665 E0.0341
G1 X57.097 Y86.587 E0.01109
G1 X56.169 Y86.226 E0.04282
G1 X55.961 Y86.133 E0.00978
G1 X55.442 Y85.862 E0.02518
G1 X55.282 Y85.77 E0.00794
G1 X54.647 Y85.363 E0.03243
G1 X54.526 Y85.28 E0.00631
G1 X54.137 Y84.99 E0.02085
G1 X53.971 Y84.851 E0.00932
G1 X53.335 Y84.265 E0.03719
G1 X53.199 Y84.125 E0.00839
G1 X52.853 Y84.269 E0.01611
G1 X49.148 Y84.276 E0.15932
G1 X48.921 Y84.265 E0.00974
G1 X48.273 Y84.195 E0.02803
G1 X47.988 Y84.144 E0.01243
G1 X47.388 Y83.992 E0.02661
G1 X47.207 Y83.938 E0.00813
G1 X46.77 Y83.783 E0.01996
G1 X46.573 Y83.703 E0.00914
G1 X46.049 Y83.455 E0.02489
G1 X45.89 Y83.371 E0.00776
G1 X45.716 Y83.27 E0.00863
G1 X45.568 Y83.174 E0.0076
G1 X45.002 Y82.776 E0.02977
G1 X44.811 Y82.623 E0.01051
G1 X44.433 Y82.284 E0.02181
G1 X44.268 Y82.118 E0.01006
G1 X43.836 Y81.631 E0.02801
G1 X43.647 Y81.382 E0.01343
G1 X43.197 Y80.687 E0.0356
G1 X43.044 Y80.404 E0.01383
G1 X42.759 Y79.765 E0.03009
G1 X42.662 Y79.501 E0.0121
G1 X42.479 Y78.873 E0.0281
G1 X42.423 Y78.623 E0.01103
G1 X42.32 Y77.981 E0.02797
G1 X42.295 Y77.71 E0.0117
G1 X42.277 Y77.08 E0.02706
G1 X42.285 Y76.834 E0.01059
G1 X42.329 Y76.358 E0.02056
G1 X42.349 Y76.203 E0.00673
G1 X42.421 Y75.774 E0.0187
G1 X42.47 Y75.558 E0.00953
G1 X42.646 Y74.931 E0.02799
G1 X42.756 Y74.631 E0.01372
G1 X43.079 Y73.925 E0.0334
G1 X43.168 Y73.751 E0.0084
G1 X43.276 Y73.564 E0.00928
G1 X43.378 Y73.405 E0.00813
G1 X43.782 Y72.831 E0.03018
G1 X43.935 Y72.639 E0.01054
G1 X44.266 Y72.271 E0.02129
G1 X44.428 Y72.11 E0.00981
G1 X44.895 Y71.694 E0.0269
G1 X45.05 Y71.573 E0.00845
M204 S1500
G1 X45.21 Y71.776 F18000
M204 S1000
G1 X45.369 Y71.979
G1 F1800
G1 X45.404 Y71.952 E0.00189
G1 X45.789 Y71.686 E0.02013
G1 X45.935 Y71.596 E0.0074
G1 X46.395 Y71.339 E0.02263
G1 X46.512 Y71.28 E0.00564
G1 X46.646 Y71.217 E0.00637
G1 X46.765 Y71.167 E0.00553
G1 X47.238 Y70.986 E0.02181
G1 X47.359 Y70.944 E0.00547
G1 X47.498 Y70.902 E0.00625
G1 X47.62 Y70.87 E0.00547
G1 X48.218 Y70.733 E0.02634
G1 X48.355 Y70.707 E0.00602
G1 X48.514 Y70.684 E0.00688
G1 X48.653 Y70.668 E0.00602
G1 X49.151 Y70.634 E0.02148
G1 X49.274 Y70.629 E0.00527
G1 X52.722 Y70.622 E0.14826
G1 X53.31 Y70.864 E0.02732
G1 X53.569 Y70.578 E0.01659
G1 X53.674 Y70.472 E0.00642
G1 X54.266 Y69.918 E0.03485
G1 X54.409 Y69.798 E0.00803
G1 X54.8 Y69.502 E0.02109
G1 X54.95 Y69.4 E0.00779
G1 X55.851 Y68.851 E0.04538
G1 X56.019 Y68.76 E0.00822
G1 X56.438 Y68.561 E0.01993
G1 X56.578 Y68.502 E0.00653
G1 X57.26 Y68.247 E0.03129
G1 X57.442 Y68.19 E0.00824
G1 X58.163 Y68.004 E0.03198
G1 X58.352 Y67.966 E0.00829
G1 X59.093 Y67.857 E0.0322
G1 X59.318 Y67.838 E0.00974
G1 X60.389 Y67.816 E0.04605
G1 X60.627 Y67.826 E0.01025
G1 X61.308 Y67.902 E0.02945
G1 X61.445 Y67.923 E0.00594
G1 X61.865 Y68.002 E0.01839
G1 X62.018 Y68.038 E0.00673
G1 X62.677 Y68.223 E0.02942
G1 X62.822 Y68.271 E0.0066
G1 X63.45 Y68.506 E0.0288
G1 X63.617 Y68.579 E0.00786
G1 X64.256 Y68.895 E0.03065
G1 X64.388 Y68.967 E0.00645
G1 X64.773 Y69.199 E0.01932
G1 X64.92 Y69.298 E0.00764
G1 X65.692 Y69.873 E0.04141
G1 X65.813 Y69.971 E0.00668
G1 X65.945 Y70.089 E0.00759
G1 X66.056 Y70.196 E0.00662
G1 X66.753 Y70.931 E0.04357
G1 X66.892 Y71.095 E0.00926
G1 X67.296 Y71.638 E0.02907
G1 X67.381 Y71.762 E0.00649
G1 X67.689 Y72.256 E0.02501
G1 X67.769 Y72.4 E0.00708
G1 X68.142 Y73.14 E0.03563
G1 X68.217 Y73.31 E0.00799
G1 X68.371 Y73.716 E0.01867
G1 X68.398 Y73.793 E0.00352
G1 X68.558 Y74.278 E0.02194
G1 X68.598 Y74.418 E0.00627
G1 X68.775 Y75.149 E0.03233
G1 X68.809 Y75.327 E0.00781
G1 X68.941 Y76.285 E0.04158
G1 X68.958 Y76.527 E0.01043
G1 X68.962 Y77.753 E0.05271
G1 X68.947 Y77.992 E0.01029
G1 X68.823 Y78.949 E0.04149
G1 X68.795 Y79.107 E0.00689
G1 X68.691 Y79.579 E0.02079
G1 X68.665 Y79.681 E0.00451
G1 X68.516 Y80.208 E0.02357
G1 X68.477 Y80.331 E0.00552
G1 X68.257 Y80.94 E0.02783
G1 X68.188 Y81.104 E0.00768
G1 X67.903 Y81.701 E0.02843
G1 X67.844 Y81.815 E0.00553
G1 X67.606 Y82.233 E0.02067
G1 X67.53 Y82.356 E0.00623
G1 X67.215 Y82.821 E0.02413
G1 X67.136 Y82.928 E0.0057
G1 X66.674 Y83.512 E0.03202
G1 X66.539 Y83.664 E0.00873
G1 X65.99 Y84.217 E0.03353
G1 X65.824 Y84.365 E0.00957
G1 X65.247 Y84.818 E0.03153
G1 X65.118 Y84.911 E0.00681
G1 X64.529 Y85.296 E0.03028
G1 X64.379 Y85.384 E0.00748
G1 X64.014 Y85.575 E0.01768
G1 X63.919 Y85.621 E0.00457
G1 X63.3 Y85.901 E0.0292
G1 X63.139 Y85.964 E0.00742
G1 X62.467 Y86.193 E0.03054
G1 X62.267 Y86.249 E0.00894
G1 X61.56 Y86.402 E0.0311
G1 X61.385 Y86.431 E0.00763
G1 X60.699 Y86.511 E0.0297
G1 X60.553 Y86.522 E0.00629
G1 X60.129 Y86.537 E0.01824
G1 X59.986 Y86.536 E0.00614
G1 X59.305 Y86.506 E0.02929
G1 X59.135 Y86.49 E0.00736
G1 X58.414 Y86.39 E0.03128
G1 X58.224 Y86.353 E0.00832
G1 X57.484 Y86.167 E0.03281
G1 X57.269 Y86.099 E0.0097
G1 X56.369 Y85.75 E0.04152
G1 X56.188 Y85.668 E0.00855
G1 X55.691 Y85.409 E0.02407
G1 X55.551 Y85.328 E0.00695
G1 X54.934 Y84.933 E0.03154
G1 X54.828 Y84.86 E0.00552
G1 X54.457 Y84.583 E0.01988
G1 X54.311 Y84.462 E0.00816
G1 X53.696 Y83.895 E0.03599
G1 X53.557 Y83.751 E0.0086
G1 X53.343 Y83.505 E0.01402
G1 X52.749 Y83.752 E0.02765
G1 X49.161 Y83.759 E0.15429
G1 X48.963 Y83.749 E0.00852
G1 X48.407 Y83.689 E0.02403
G1 X48.277 Y83.67 E0.00565
G1 X48.132 Y83.644 E0.00635
G1 X48.007 Y83.616 E0.00549
G1 X47.518 Y83.491 E0.02171
G1 X47.365 Y83.445 E0.00685
G1 X46.954 Y83.3 E0.01875
G1 X46.782 Y83.229 E0.008
G1 X46.28 Y82.993 E0.02384
G1 X46.141 Y82.919 E0.00679
G1 X45.987 Y82.829 E0.00767
G1 X45.857 Y82.745 E0.00665
G1 X45.312 Y82.362 E0.02863
G1 X45.145 Y82.228 E0.0092
G1 X44.79 Y81.909 E0.02053
G1 X44.646 Y81.764 E0.0088
G1 X44.28 Y81.352 E0.0237
G1 X44.19 Y81.242 E0.00607
G1 X44.095 Y81.116 E0.00683
G1 X44.016 Y81.003 E0.00591
G1 X43.674 Y80.472 E0.02713
G1 X43.603 Y80.35 E0.00609
G1 X43.526 Y80.208 E0.00696
G1 X43.464 Y80.081 E0.00609
G1 X43.234 Y79.56 E0.02444
G1 X43.153 Y79.336 E0.01028
G1 X42.98 Y78.744 E0.0265
G1 X42.931 Y78.525 E0.00965
G1 X42.833 Y77.915 E0.02655
G1 X42.811 Y77.678 E0.01024
G1 X42.795 Y77.081 E0.02567
G1 X42.801 Y76.866 E0.00926
G1 X42.843 Y76.415 E0.01948
G1 X42.86 Y76.279 E0.00589
G1 X42.929 Y75.874 E0.01768
G1 X42.971 Y75.684 E0.00834
G1 X43.12 Y75.155 E0.02363
G1 X43.165 Y75.018 E0.00619
G1 X43.221 Y74.866 E0.00698
