; generated by SuperSlicer 2.3.57 on 2022-02-06 at 05:37:37 UTC


;
;

;
;
; TODO: check the size of the extruder and the y-bar clearance. Optimize & test supports.

; external perimeters extrusion width = 0.42mm
; perimeters extrusion width = 0.46mm
; infill extrusion width = 0.44mm
; solid infill extrusion width = 0.46mm
; top infill extrusion width = 0.44mm
; first layer extrusion width = 0.56mm

; object:{"name":"support","id":"support.stl id:0 copy 0","object_center":[60.000000,60.000000,0.000000],"boundingbox_center":[60.000000,60.000000,20.103584],"boundingbox_size":[96.250000,44.000000,40.207169]}
; plater:{"center":[60.000000,60.000000,0.000000],"boundingbox_center":[60.000000,60.000000,20.103584],"boundingbox_size":[96.250000,44.000000,40.207169]}

;TYPE:Custom
; M190 S0
; M109 S0 ; uncomment to remove set&wait temp gcode added automatically after this start gcode
print_start EXTRUDER=215 BED=55 CHAMBER=15
M107
G21 ; set units to millimeters
G90 ; use absolute coordinates
M83 ; use relative distances for extrusion
M104 S215 ; set temperature
M109 S215 ; set temperature and wait for it to be reached
M190 S55 ; set bed temperature and wait for it to be reached
M107
;LAYER_CHANGE
;Z:0.2
;HEIGHT:0.2
;BEFORE_LAYER_CHANGE
;0.2


G1 Z0.2 F18000
;AFTER_LAYER_CHANGE
;0.2
G1 E-2 F3000
G1 Z0.6 F18000
M204 S1500
G1 X5.929 Y29.14
G1 Z0.2
G1 E2 F1800
;TYPE:Skirt
;WIDTH:0.52
G1 X4.967 Y29.519 E0.04103
G1 X4.087 Y30.161 E0.04322
G1 X3.401 Y31.008 E0.04322
G1 X2.955 Y32.008 E0.04342
G1 X2.784 Y33.084 E0.04322
G1 X2.782 Y86.94 E2.13644
G1 X2.917 Y87.955 E0.04064
G1 X3.294 Y88.908 E0.04064
G1 X3.946 Y89.799 E0.04382
G1 X4.809 Y90.49 E0.04382
G1 X5.822 Y90.931 E0.04382
G1 X6.914 Y91.092 E0.04382
G1 X113.045 Y91.093 E4.21012
G1 X114.071 Y90.96 E0.04103
G1 X115.033 Y90.581 E0.04103
G1 X115.906 Y89.946 E0.04283
G1 X116.588 Y89.109 E0.04283
G1 X117.036 Y88.121 E0.04302
G1 X117.215 Y87.057 E0.04283
G1 X117.215 Y33.064 E2.14186
G1 X117.113 Y32.267 E0.03186
G1 X116.86 Y31.505 E0.03186
G1 X116.466 Y30.805 E0.03186
G1 X115.943 Y30.189 E0.03206
G1 X115.315 Y29.688 E0.03186
G1 X114.599 Y29.314 E0.03206
G1 X113.829 Y29.085 E0.03186
G1 X113.03 Y29.007 E0.03186
G1 X6.955 Y29.007 E4.20792
G1 X5.989 Y29.132 E0.03865
G1 X6.021 Y29.366 F18000
M204 S1000
G1 X6.053 Y29.601
G1 F1800
G1 X5.204 Y29.933 E0.03618
G1 X4.417 Y30.506 E0.03862
G1 X3.807 Y31.258 E0.03843
G1 X3.411 Y32.148 E0.03862
G1 X3.261 Y33.105 E0.03843
G1 X3.26 Y86.931 E2.13527
G1 X3.378 Y87.831 E0.03599
G1 X3.708 Y88.671 E0.0358
G1 X4.287 Y89.465 E0.03899
G1 X5.054 Y90.08 E0.03899
G1 X5.955 Y90.473 E0.03899
G1 X6.927 Y90.615 E0.03899
G1 X113.042 Y90.616 E4.2095
G1 X113.947 Y90.499 E0.03618
G1 X114.796 Y90.167 E0.03618
G1 X115.577 Y89.601 E0.03824
G1 X116.183 Y88.858 E0.03805
G1 X116.58 Y87.98 E0.03824
G1 X116.738 Y87.029 E0.03824
G1 X116.739 Y33.092 E2.13961
G1 X116.65 Y32.385 E0.02829
G1 X116.426 Y31.703 E0.02848
G1 X116.077 Y31.081 E0.02829
G1 X115.616 Y30.537 E0.02829
G1 X115.059 Y30.091 E0.02829
G1 X114.423 Y29.757 E0.02848
G1 X113.74 Y29.554 E0.02829
G1 X113.03 Y29.484 E0.02829
G1 X6.958 Y29.484 E4.2078
G1 X6.113 Y29.593 E0.0338
M204 S1500
G1 X6.145 Y29.827 F18000
M204 S1000
G1 X6.178 Y30.061
G1 F1800
G1 X5.442 Y30.347 E0.03132
G1 X4.752 Y30.845 E0.03376
G1 X4.215 Y31.506 E0.03376
G1 X3.869 Y32.283 E0.03376
G1 X3.737 Y33.129 E0.03394
G1 X3.737 Y86.923 E2.13398
G1 X3.837 Y87.702 E0.03114
G1 X4.122 Y88.433 E0.03114
G1 X4.626 Y89.13 E0.03411
G1 X5.296 Y89.669 E0.03411
G1 X6.084 Y90.014 E0.03411
G1 X6.935 Y90.138 E0.03411
G1 X113.035 Y90.139 E4.20891
G1 X113.822 Y90.039 E0.03149
G1 X114.558 Y89.753 E0.03132
G1 X115.245 Y89.258 E0.03359
G1 X115.78 Y88.602 E0.03359
G1 X116.127 Y87.829 E0.03359
G1 X116.262 Y86.998 E0.03342
G1 X116.263 Y33.119 E2.13733
G1 X116.186 Y32.498 E0.02483
G1 X115.994 Y31.907 E0.02465
G1 X115.692 Y31.363 E0.02465
G1 X115.289 Y30.885 E0.02483
G1 X114.802 Y30.492 E0.02483
G1 X114.248 Y30.201 E0.02483
G1 X113.652 Y30.023 E0.02465
G1 X113.029 Y29.961 E0.02483
G1 X6.965 Y29.961 E4.2075
G1 X6.237 Y30.054 E0.02911
G1 E-2 F3000
M204 S1500
G1 Z0.6 F18000
G1 X7.881 Y32.244
M204 S1000
G1 X9.525 Y34.435
G1 Z0.2
G1 E2 F1800
;WIDTH:0.56
G1 X11.045 Y33.805 E0.07076
G1 X108.955 Y33.805 E4.20967
G1 X110.475 Y34.435 E0.07076
G1 X111.79 Y35.75 E0.07996
G1 X112.42 Y37.27 E0.07076
G1 X112.42 Y82.83 E1.95886
G1 X111.79 Y84.35 E0.07076
G1 X110.475 Y85.665 E0.07996
G1 X108.955 Y86.295 E0.07076
G1 X11.045 Y86.295 E4.20967
G1 X9.525 Y85.665 E0.07076
G1 X8.21 Y84.35 E0.07996
G1 X7.58 Y82.83 E0.07076
G1 X7.58 Y37.27 E1.95886
G1 X8.21 Y35.75 E0.07076
G1 X9.482 Y34.477 E0.07738
M204 S1500
G1 X9.65 Y34.675 F18000
M204 S1000
G1 X9.818 Y34.873
G1 F1800
G1 X11.148 Y34.322 E0.06191
G1 X108.852 Y34.322 E4.20082
G1 X110.182 Y34.873 E0.06191
G1 X111.352 Y36.043 E0.07112
G1 X111.903 Y37.373 E0.06191
G1 X111.903 Y82.727 E1.95002
G1 X111.352 Y84.057 E0.06191
G1 X110.182 Y85.227 E0.07112
G1 X108.852 Y85.778 E0.06191
G1 X11.148 Y85.778 E4.20082
G1 X9.818 Y85.227 E0.06191
G1 X8.648 Y84.057 E0.07112
G1 X8.097 Y82.727 E0.06191
G1 X8.097 Y37.373 E1.95002
G1 X8.648 Y36.043 E0.06191
G1 X9.775 Y34.915 E0.06854
M204 S1500
G1 X9.943 Y35.113 F18000
M204 S1000
G1 X10.11 Y35.311
G1 F1800
G1 X11.251 Y34.839 E0.05307
G1 X108.749 Y34.839 E4.19198
G1 X109.89 Y35.311 E0.05307
G1 X110.914 Y36.335 E0.06228
G1 X111.386 Y37.476 E0.05307
G1 X111.386 Y82.624 E1.94117
G1 X110.914 Y83.765 E0.05307
G1 X109.89 Y84.789 E0.06228
G1 X108.749 Y85.261 E0.05307
G1 X11.251 Y85.261 E4.19198
G1 X10.11 Y84.789 E0.05307
G1 X9.086 Y83.765 E0.06228
G1 X8.614 Y82.624 E0.05307
G1 X8.614 Y37.476 E1.94117
G1 X9.086 Y36.335 E0.05307
G1 X10.068 Y35.354 E0.0597
M204 S1500
G1 X10.236 Y35.552 F18000
M204 S1000
G1 X10.403 Y35.75
G1 F1800
G1 X11.354 Y35.356 E0.04422
G1 X108.646 Y35.356 E4.18314
G1 X109.597 Y35.75 E0.04422
G1 X110.475 Y36.628 E0.05343
G1 X110.869 Y37.579 E0.04422
G1 X110.869 Y82.521 E1.93233
G1 X110.475 Y83.472 E0.04422
G1 X109.597 Y84.35 E0.05343
G1 X108.646 Y84.744 E0.04422
G1 X11.354 Y84.744 E4.18313
G1 X10.403 Y84.35 E0.04422
G1 X9.525 Y83.472 E0.05343
G1 X9.131 Y82.521 E0.04422
G1 X9.131 Y37.579 E1.93233
G1 X9.525 Y36.628 E0.04422
G1 X10.361 Y35.792 E0.05085
M204 S1500
G1 X10.529 Y35.99 F18000
M204 S1000
G1 X10.696 Y36.188
G1 F1800
G1 X11.456 Y35.873 E0.03538
G1 X108.544 Y35.873 E4.17429
G1 X109.304 Y36.188 E0.03538
G1 X110.037 Y36.921 E0.04459
G1 X110.352 Y37.681 E0.03538
G1 X110.352 Y82.419 E1.92348
G1 X110.037 Y83.179 E0.03538
G1 X109.304 Y83.912 E0.04459
G1 X108.544 Y84.227 E0.03538
G1 X11.456 Y84.227 E4.17429
G1 X10.696 Y83.912 E0.03538
G1 X9.963 Y83.179 E0.04459
G1 X9.648 Y82.419 E0.03538
G1 X9.648 Y37.681 E1.92348
G1 X9.963 Y36.921 E0.03538
G1 X10.654 Y36.23 E0.04201
M204 S1500
G1 X10.822 Y36.428 F18000
M204 S1000
G1 X10.989 Y36.626
G1 F1800
G1 X11.559 Y36.39 E0.02653
G1 X108.441 Y36.39 E4.16545
G1 X109.011 Y36.626 E0.02653
G1 X109.599 Y37.214 E0.03574
G1 X109.835 Y37.784 E0.02653
G1 X109.835 Y82.316 E1.91464
G1 X109.599 Y82.886 E0.02653
G1 X109.011 Y83.474 E0.03574
G1 X108.441 Y83.71 E0.02653
G1 X11.559 Y83.71 E4.16545
G1 X10.989 Y83.474 E0.02653
G1 X10.401 Y82.886 E0.03574
G1 X10.165 Y82.316 E0.02653
G1 X10.165 Y37.784 E1.91464
G1 X10.401 Y37.214 E0.02653
G1 X10.947 Y36.669 E0.03316
M204 S1500
G1 X11.114 Y36.867 F18000
M204 S1000
G1 X11.282 Y37.065
G1 F1800
G1 X11.662 Y36.907 E0.01769
G1 X108.338 Y36.907 E4.1566
G1 X108.718 Y37.065 E0.01769
G1 X109.16 Y37.507 E0.0269
G1 X109.318 Y37.887 E0.01769
G1 X109.318 Y82.213 E1.9058
G1 X109.16 Y82.593 E0.01769
G1 X108.718 Y83.035 E0.0269
G1 X108.338 Y83.193 E0.01769
G1 X11.662 Y83.193 E4.1566
G1 X11.282 Y83.035 E0.01769
G1 X10.84 Y82.593 E0.0269
G1 X10.682 Y82.213 E0.01769
G1 X10.682 Y37.887 E1.9058
G1 X10.84 Y37.507 E0.01769
G1 X11.24 Y37.107 E0.02432
M204 S1500
G1 X11.407 Y37.305 F18000
M204 S1000
G1 X11.575 Y37.503
G1 F1800
G1 X11.765 Y37.424 E0.00884
G1 X108.235 Y37.424 E4.14776
G1 X108.425 Y37.503 E0.00884
G1 X108.722 Y37.8 E0.01805
G1 X108.801 Y37.99 E0.00884
G1 X108.801 Y82.11 E1.89695
G1 X108.722 Y82.3 E0.00884
G1 X108.425 Y82.597 E0.01805
G1 X108.235 Y82.676 E0.00884
G1 X11.765 Y82.676 E4.14776
G1 X11.575 Y82.597 E0.00884
G1 X11.278 Y82.3 E0.01805
G1 X11.199 Y82.11 E0.00884
G1 X11.199 Y37.99 E1.89695
G1 X11.278 Y37.8 E0.00884
G1 X11.533 Y37.546 E0.01547
M204 S1500
G1 X11.7 Y37.743 F18000
M204 S1000
G1 X11.868 Y37.941
G1 F1800
G1 X108.132 Y37.941 E4.13891
G1 X108.284 Y38.093 E0.00921
G1 X108.284 Y82.007 E1.88811
G1 X108.132 Y82.159 E0.00921
G1 X11.868 Y82.159 E4.13891
G1 X11.716 Y82.007 E0.00921
G1 X11.716 Y38.093 E1.88811
G1 X11.825 Y37.984 E0.00663
; INIT printing object support.stl id:0 copy 0
; printing object support.stl id:0 copy 0
M204 S1500
G1 X12.04 Y38.232 F18000
M204 S1000
G1 X12.255 Y38.48
;TYPE:External perimeter
G1 F1800
G1 X107.745 Y38.48 E4.10563
G1 X107.745 Y81.62 E1.85482
G1 X12.255 Y81.62 E4.10563
G1 X12.255 Y38.54 E1.85224
;WIPE_START
M204 S1500
G1 X12.601 Y38.68 F18000
;WIPE_END
G1 X12.687 Y38.839
M204 S1000
G1 X12.772 Y38.997
;TYPE:Internal perimeter
G1 F1800
G1 X107.228 Y38.997 E4.06116
G1 X107.228 Y81.103 E1.81036
G1 X12.772 Y81.103 E4.06116
G1 X12.772 Y39.057 E1.80778
M204 S1500
G1 X13.031 Y39.286 F18000
M204 S1000
G1 X13.289 Y39.514
G1 F1800
G1 X106.711 Y39.514 E4.0167
G1 X106.711 Y80.586 E1.76589
G1 X13.289 Y80.586 E4.0167
G1 X13.289 Y39.574 E1.76331
M204 S1500
G1 X59.91 Y40.157 F18000
M204 S1000
G1 X106.53 Y40.74
;TYPE:Solid infill
;WIDTH:0.559827
G1 F1800
G1 X105.707 Y39.917 E0.05002
G1 X104.976 Y39.917 E0.03143
G1 X106.308 Y41.249 E0.08096
G1 X106.308 Y41.981 E0.03143
G1 X104.244 Y39.917 E0.12541
G1 X103.513 Y39.917 E0.03143
G1 X106.308 Y42.712 E0.16986
G1 X106.308 Y43.443 E0.03143
G1 X102.782 Y39.917 E0.21431
G1 X102.051 Y39.917 E0.03143
G1 X106.308 Y44.174 E0.25876
G1 X106.308 Y44.906 E0.03143
G1 X101.319 Y39.917 E0.30321
G1 X100.588 Y39.917 E0.03143
G1 X106.308 Y45.637 E0.34766
G1 X106.308 Y46.368 E0.03143
G1 X99.857 Y39.917 E0.39211
G1 X99.126 Y39.917 E0.03143
G1 X106.308 Y47.099 E0.43656
G1 X106.308 Y47.831 E0.03143
G1 X98.394 Y39.917 E0.48101
G1 X97.663 Y39.917 E0.03143
G1 X106.308 Y48.562 E0.52546
G1 X106.308 Y49.293 E0.03143
G1 X96.932 Y39.917 E0.56991
G1 X96.201 Y39.917 E0.03143
G1 X106.308 Y50.024 E0.61436
G1 X106.308 Y50.756 E0.03143
G1 X95.469 Y39.917 E0.65881
G1 X94.738 Y39.917 E0.03143
G1 X106.308 Y51.487 E0.70326
G1 X106.308 Y52.218 E0.03143
G1 X94.007 Y39.917 E0.74771
G1 X93.276 Y39.917 E0.03143
G1 X106.308 Y52.949 E0.79216
G1 X106.308 Y53.681 E0.03143
G1 X92.544 Y39.917 E0.83661
G1 X91.813 Y39.917 E0.03143
G1 X106.308 Y54.412 E0.88106
G1 X106.308 Y55.143 E0.03143
G1 X91.082 Y39.917 E0.92551
G1 X90.351 Y39.917 E0.03143
G1 X106.308 Y55.874 E0.96996
G1 X106.308 Y56.606 E0.03143
G1 X89.619 Y39.917 E1.01441
G1 X88.888 Y39.917 E0.03143
G1 X106.308 Y57.337 E1.05886
G1 X106.308 Y58.068 E0.03143
G1 X88.157 Y39.917 E1.10331
G1 X87.425 Y39.917 E0.03143
G1 X106.308 Y58.8 E1.14776
G1 X106.308 Y59.531 E0.03143
G1 X86.694 Y39.917 E1.19221
G1 X85.963 Y39.917 E0.03143
G1 X106.308 Y60.262 E1.23666
G1 X106.308 Y60.993 E0.03143
G1 X85.232 Y39.917 E1.28111
G1 X84.5 Y39.917 E0.03143
G1 X106.308 Y61.725 E1.32556
G1 X106.308 Y62.456 E0.03143
G1 X83.769 Y39.917 E1.37001
G1 X83.038 Y39.917 E0.03143
G1 X106.308 Y63.187 E1.41446
G1 X106.308 Y63.918 E0.03143
G1 X82.307 Y39.917 E1.45891
G1 X81.575 Y39.917 E0.03143
G1 X106.308 Y64.65 E1.50336
G1 X106.308 Y65.381 E0.03143
G1 X80.844 Y39.917 E1.54781
G1 X80.113 Y39.917 E0.03143
G1 X106.308 Y66.112 E1.59226
G1 X106.308 Y66.843 E0.03143
G1 X79.382 Y39.917 E1.63671
G1 X78.65 Y39.917 E0.03143
G1 X106.308 Y67.575 E1.68116
G1 X106.308 Y68.306 E0.03143
G1 X77.919 Y39.917 E1.72562
G1 X77.188 Y39.917 E0.03143
G1 X106.308 Y69.037 E1.77007
G1 X106.308 Y69.768 E0.03143
G1 X76.457 Y39.917 E1.81452
G1 X75.725 Y39.917 E0.03143
G1 X106.308 Y70.5 E1.85897
G1 X106.308 Y71.231 E0.03143
G1 X74.994 Y39.917 E1.90342
G1 X74.263 Y39.917 E0.03143
G1 X106.308 Y71.962 E1.94787
G1 X106.308 Y72.693 E0.03143
G1 X73.532 Y39.917 E1.99232
G1 X72.8 Y39.917 E0.03143
G1 X106.308 Y73.425 E2.03677
G1 X106.308 Y74.156 E0.03143
G1 X72.069 Y39.917 E2.08122
G1 X71.338 Y39.917 E0.03143
G1 X106.308 Y74.887 E2.12567
G1 X106.308 Y75.619 E0.03143
G1 X70.606 Y39.917 E2.17012
G1 X69.875 Y39.917 E0.03143
G1 X106.308 Y76.35 E2.21457
G1 X106.308 Y77.081 E0.03143
G1 X69.144 Y39.917 E2.25902
G1 X68.413 Y39.917 E0.03143
G1 X106.308 Y77.812 E2.30347
G1 X106.308 Y78.544 E0.03143
G1 X67.681 Y39.917 E2.34792
G1 X66.95 Y39.917 E0.03143
G1 X106.308 Y79.275 E2.39237
G1 X106.308 Y80.006 E0.03143
G1 X66.219 Y39.917 E2.43682
G1 X65.488 Y39.917 E0.03143
G1 X105.753 Y80.183 E2.44755
G1 X105.021 Y80.183 E0.03143
G1 X64.756 Y39.917 E2.44755
G1 X64.025 Y39.917 E0.03143
G1 X104.29 Y80.183 E2.44755
G1 X103.559 Y80.183 E0.03143
G1 X63.294 Y39.917 E2.44755
G1 X62.563 Y39.917 E0.03143
G1 X102.828 Y80.183 E2.44755
G1 X102.096 Y80.183 E0.03143
G1 X61.831 Y39.917 E2.44755
G1 X61.1 Y39.917 E0.03143
G1 X101.365 Y80.183 E2.44755
G1 X100.634 Y80.183 E0.03143
G1 X60.369 Y39.917 E2.44755
G1 X59.638 Y39.917 E0.03143
G1 X99.903 Y80.183 E2.44755
G1 X99.171 Y80.183 E0.03143
G1 X58.906 Y39.917 E2.44755
G1 X58.175 Y39.917 E0.03143
G1 X98.44 Y80.183 E2.44755
G1 X97.709 Y80.183 E0.03143
G1 X57.444 Y39.917 E2.44755
G1 X56.713 Y39.917 E0.03143
G1 X96.978 Y80.183 E2.44755
G1 X96.246 Y80.183 E0.03143
G1 X55.981 Y39.917 E2.44755
G1 X55.25 Y39.917 E0.03143
G1 X95.515 Y80.183 E2.44755
G1 X94.784 Y80.183 E0.03143
G1 X54.519 Y39.917 E2.44755
G1 X53.788 Y39.917 E0.03143
G1 X94.053 Y80.183 E2.44755
G1 X93.321 Y80.183 E0.03143
G1 X53.056 Y39.917 E2.44755
G1 X52.325 Y39.917 E0.03143
G1 X92.59 Y80.183 E2.44755
G1 X91.859 Y80.183 E0.03143
G1 X51.594 Y39.917 E2.44755
G1 X50.862 Y39.917 E0.03143
G1 X91.128 Y80.183 E2.44755
G1 X90.396 Y80.183 E0.03143
G1 X50.131 Y39.917 E2.44755
G1 X49.4 Y39.917 E0.03143
G1 X89.665 Y80.183 E2.44755
G1 X88.934 Y80.183 E0.03143
G1 X48.669 Y39.917 E2.44755
G1 X47.937 Y39.917 E0.03143
G1 X88.203 Y80.183 E2.44755
G1 X87.471 Y80.183 E0.03143
G1 X47.206 Y39.917 E2.44755
G1 X46.475 Y39.917 E0.03143
G1 X86.74 Y80.183 E2.44755
G1 X86.009 Y80.183 E0.03143
G1 X45.744 Y39.917 E2.44755
G1 X45.012 Y39.917 E0.03143
G1 X85.277 Y80.183 E2.44755
G1 X84.546 Y80.183 E0.03143
G1 X44.281 Y39.917 E2.44755
G1 X43.55 Y39.917 E0.03143
G1 X83.815 Y80.183 E2.44755
G1 X83.084 Y80.183 E0.03143
G1 X42.819 Y39.917 E2.44755
G1 X42.087 Y39.917 E0.03143
G1 X82.352 Y80.183 E2.44755
G1 X81.621 Y80.183 E0.03143
G1 X41.356 Y39.917 E2.44755
G1 X40.625 Y39.917 E0.03143
G1 X80.89 Y80.183 E2.44755
G1 X80.159 Y80.183 E0.03143
G1 X39.894 Y39.917 E2.44755
G1 X39.162 Y39.917 E0.03143
G1 X79.427 Y80.183 E2.44755
G1 X78.696 Y80.183 E0.03143
G1 X38.431 Y39.917 E2.44755
G1 X37.7 Y39.917 E0.03143
G1 X77.965 Y80.183 E2.44755
G1 X77.234 Y80.183 E0.03143
G1 X36.969 Y39.917 E2.44755
G1 X36.237 Y39.917 E0.03143
G1 X76.502 Y80.183 E2.44755
G1 X75.771 Y80.183 E0.03143
G1 X35.506 Y39.917 E2.44755
G1 X34.775 Y39.917 E0.03143
G1 X75.04 Y80.183 E2.44755
G1 X74.309 Y80.183 E0.03143
G1 X34.043 Y39.917 E2.44755
G1 X33.312 Y39.917 E0.03143
G1 X73.577 Y80.183 E2.44755
G1 X72.846 Y80.183 E0.03143
G1 X32.581 Y39.917 E2.44755
G1 X31.85 Y39.917 E0.03143
G1 X72.115 Y80.183 E2.44755
G1 X71.384 Y80.183 E0.03143
G1 X31.118 Y39.917 E2.44755
G1 X30.387 Y39.917 E0.03143
G1 X70.652 Y80.183 E2.44755
G1 X69.921 Y80.183 E0.03143
G1 X29.656 Y39.917 E2.44755
G1 X28.925 Y39.917 E0.03143
G1 X69.19 Y80.183 E2.44755
G1 X68.458 Y80.183 E0.03143
G1 X28.193 Y39.917 E2.44755
G1 X27.462 Y39.917 E0.03143
G1 X67.727 Y80.183 E2.44755
G1 X66.996 Y80.183 E0.03143
G1 X26.731 Y39.917 E2.44755
G1 X26 Y39.917 E0.03143
G1 X66.265 Y80.183 E2.44755
G1 X65.533 Y80.183 E0.03143
G1 X25.268 Y39.917 E2.44755
G1 X24.537 Y39.917 E0.03143
G1 X64.802 Y80.183 E2.44755
G1 X64.071 Y80.183 E0.03143
G1 X23.806 Y39.917 E2.44755
G1 X23.075 Y39.917 E0.03143
G1 X63.34 Y80.183 E2.44755
G1 X62.608 Y80.183 E0.03143
G1 X22.343 Y39.917 E2.44755
G1 X21.612 Y39.917 E0.03143
G1 X61.877 Y80.183 E2.44755
G1 X61.146 Y80.183 E0.03143
G1 X20.881 Y39.917 E2.44755
G1 X20.15 Y39.917 E0.03143
