; generated by SuperSlicer 2.3.57 on 2022-01-31 at 04:09:19 UTC

; 

; external perimeters extrusion width = 0.42mm
; perimeters extrusion width = 0.46mm
; infill extrusion width = 0.44mm
; solid infill extrusion width = 0.46mm
; top infill extrusion width = 0.44mm
; first layer extrusion width = 0.60mm

; object:{"name":"KONGY","id":"KONGY.stl id:0 copy 0","object_center":[100.000000,100.000000,0.000000],"boundingbox_center":[100.000000,100.000000,16.370126],"boundingbox_size":[18.872800,17.600000,32.740251]}
; Total objects to print: 1
M486 T1
; plater:{"center":[100.000000,100.000000,0.000000],"boundingbox_center":[100.000000,100.000000,16.370126],"boundingbox_size":[18.872800,17.600000,32.740251]}

;TYPE:Custom
M115 U3.1.0 ; tell printer latest fw version
M83  ; extruder relative mode
M204 S1500 T1500 ; ENDER3 firmware may only supports the old M204 format
G28 W ; home all
M104 S210 ; set extruder temp
M140 S60 ; set bed temp
M190 S60 ; wait for bed temp
M109 S210 ; wait for extruder temp
G1 X0.0 Y0.0 F1000.0 ; go outside print area
G92 E0.0
G1 X150.0 E20  F1000.0 ; intro line
G92 E0.0
M107
G21 ; set units to millimeters
G90 ; use absolute coordinates
M82 ; use absolute distances for extrusion
G92 E0
;LAYER_CHANGE
;Z:0.3
;HEIGHT:0.3
;BEFORE_LAYER_CHANGE
;0.3


G1 E-0.5 F2100
G1 Z0.6 F7800
;AFTER_LAYER_CHANGE
;0.3
G92 E0
G1 Z0.9
G1 X90.964 Y90.829
G1 Z0.3
G1 E0.5 F2100
;TYPE:Skirt
;WIDTH:0.44
G1 F900
G1 X89.825 Y92.001 E0.57656
G1 X88.859 Y93.34 E0.65392
G1 X88.439 Y94.04 E0.69218
G1 X87.82 Y95.36 E0.7605
G1 X87.543 Y96.116 E0.79819
G1 X87.124 Y97.732 E0.8764
G1 X86.915 Y100.002 E0.98318
G1 X87.126 Y102.275 E1.09015
G1 X87.544 Y103.888 E1.1682
G1 X87.821 Y104.643 E1.20589
G1 X88.439 Y105.961 E1.27407
G1 X88.86 Y106.661 E1.31233
G1 X89.827 Y108.001 E1.38978
G1 X90.964 Y109.171 E1.4662
G1 X91.625 Y109.744 E1.50719
G1 X92.981 Y110.686 E1.58456
G1 X94.974 Y111.648 E1.68821
G1 X97.168 Y112.253 E1.79485
G1 X99.365 Y112.449 E1.8982
G1 X101.639 Y112.238 E2.00517
G1 X103.245 Y111.821 E2.08293
G1 X104.007 Y111.542 E2.1209
G1 X105.324 Y110.925 E2.18908
G1 X106.024 Y110.504 E2.22735
G1 X107.365 Y109.536 E2.30479
G1 X108.535 Y108.4 E2.38121
G1 X109.108 Y107.739 E2.4222
G1 X110.05 Y106.382 E2.49957
G1 X111.011 Y104.39 E2.60322
G1 X111.617 Y102.196 E2.70986
G1 X111.812 Y99.998 E2.81321
G1 X111.616 Y97.803 E2.91646
G1 X111.012 Y95.612 E3.02293
G1 X110.049 Y93.617 E3.12673
G1 X109.106 Y92.259 E3.20419
G1 X108.535 Y91.6 E3.24504
G1 X107.363 Y90.462 E3.3216
G1 X106.023 Y89.495 E3.39896
G1 X105.323 Y89.075 E3.43722
G1 X104.003 Y88.456 E3.50554
G1 X103.248 Y88.18 E3.54323
G1 X101.638 Y87.762 E3.62115
G1 X99.368 Y87.551 E3.72794
G1 X97.167 Y87.747 E3.83147
G1 X94.976 Y88.351 E3.93795
G1 X92.98 Y89.314 E4.04175
G1 X91.622 Y90.257 E4.11921
G1 X91.009 Y90.789 E4.15724
G92 E0
;WIPE_START
G1 F6240
G1 X89.971 Y91.852 E-0.475
;WIPE_END
G1 E-0.5 F2100
G1 Z0.9 F7800
G1 X95.701 Y95.763
G1 Z0.3
G1 E0 F2100
;WIDTH:0.604
G1 F900
G1 X95.736 Y95.731 E0.00317
G1 X95.79 Y95.686 E0.00791
G1 X95.827 Y95.657 E0.01108
G1 X96.492 Y95.191 E0.06573
G1 X96.532 Y95.166 E0.0689
G1 X96.593 Y95.131 E0.07367
G1 X96.635 Y95.109 E0.07685
G1 X97.371 Y94.766 E0.13151
G1 X97.415 Y94.748 E0.13467
G1 X97.481 Y94.724 E0.13943
G1 X97.526 Y94.71 E0.14259
G1 X98.31 Y94.499 E0.19724
G1 X98.356 Y94.489 E0.2004
G1 X98.425 Y94.477 E0.20515
G1 X98.472 Y94.471 E0.2083
G1 X99.281 Y94.4 E0.26296
G1 X99.328 Y94.398 E0.26614
G1 X99.399 Y94.398 E0.27092
G1 X99.446 Y94.4 E0.27411
G1 X100.255 Y94.471 E0.32876
G1 X100.302 Y94.477 E0.33192
G1 X100.371 Y94.489 E0.33666
G1 X100.417 Y94.499 E0.33982
G1 X101.201 Y94.71 E0.39447
G1 X101.246 Y94.724 E0.39764
G1 X101.313 Y94.748 E0.40239
G1 X101.356 Y94.766 E0.40556
G1 X102.092 Y95.109 E0.46022
G1 X102.134 Y95.131 E0.4634
G1 X102.195 Y95.166 E0.46817
G1 X102.235 Y95.192 E0.47134
G1 X102.9 Y95.657 E0.52599
G1 X102.938 Y95.686 E0.52915
G1 X102.992 Y95.731 E0.5339
G1 X103.026 Y95.763 E0.53707
G1 X103.6 Y96.337 E0.59172
G1 X103.632 Y96.372 E0.59489
G1 X103.678 Y96.426 E0.59964
G1 X103.706 Y96.463 E0.6028
G1 X104.172 Y97.128 E0.65745
G1 X104.197 Y97.168 E0.66063
G1 X104.233 Y97.23 E0.6654
G1 X104.255 Y97.271 E0.66857
G1 X104.598 Y98.007 E0.72323
G1 X104.616 Y98.051 E0.7264
G1 X104.64 Y98.117 E0.73115
G1 X104.654 Y98.162 E0.73432
G1 X104.864 Y98.947 E0.78896
G1 X104.874 Y98.992 E0.79213
G1 X104.887 Y99.062 E0.79687
G1 X104.893 Y99.108 E0.80003
G1 X104.964 Y99.917 E0.85468
G1 X104.966 Y99.964 E0.85786
G1 X104.966 Y100.035 E0.86264
G1 X104.964 Y100.083 E0.86583
G1 X104.893 Y100.892 E0.92048
G1 X104.887 Y100.938 E0.92364
G1 X104.874 Y101.008 E0.92839
G1 X104.864 Y101.053 E0.93155
G1 X104.654 Y101.838 E0.98619
G1 X104.64 Y101.883 E0.98936
G1 X104.616 Y101.949 E0.99412
G1 X104.598 Y101.993 E0.99728
G1 X104.255 Y102.729 E1.05194
G1 X104.233 Y102.77 E1.05512
G1 X104.197 Y102.832 E1.05989
G1 X104.172 Y102.872 E1.06307
G1 X103.706 Y103.537 E1.11771
G1 X103.678 Y103.574 E1.12088
G1 X103.632 Y103.628 E1.12562
G1 X103.6 Y103.663 E1.12879
G1 X103.026 Y104.237 E1.18344
G1 X102.992 Y104.269 E1.18661
G1 X102.938 Y104.314 E1.19136
G1 X102.9 Y104.343 E1.19452
G1 X102.235 Y104.809 E1.24917
G1 X102.195 Y104.834 E1.25235
G1 X102.134 Y104.869 E1.25712
G1 X102.092 Y104.891 E1.26029
G1 X101.356 Y105.234 E1.31495
G1 X101.313 Y105.252 E1.31812
G1 X101.246 Y105.276 E1.32287
G1 X101.201 Y105.29 E1.32604
G1 X100.417 Y105.501 E1.38069
G1 X100.371 Y105.511 E1.38385
G1 X100.302 Y105.523 E1.38859
G1 X100.255 Y105.529 E1.39175
G1 X99.446 Y105.6 E1.4464
G1 X99.399 Y105.602 E1.44959
G1 X99.328 Y105.602 E1.45436
G1 X99.281 Y105.6 E1.45755
G1 X98.472 Y105.529 E1.51221
G1 X98.425 Y105.523 E1.51537
G1 X98.356 Y105.511 E1.52011
G1 X98.31 Y105.501 E1.52327
G1 X97.526 Y105.29 E1.57792
G1 X97.481 Y105.276 E1.58108
G1 X97.415 Y105.252 E1.58584
G1 X97.371 Y105.234 E1.589
G1 X96.635 Y104.891 E1.64366
G1 X96.593 Y104.869 E1.64684
G1 X96.532 Y104.834 E1.65161
G1 X96.492 Y104.808 E1.65479
G1 X95.827 Y104.343 E1.70943
G1 X95.79 Y104.314 E1.7126
G1 X95.736 Y104.269 E1.71735
G1 X95.701 Y104.237 E1.72051
G1 X95.127 Y103.663 E1.77517
G1 X95.095 Y103.628 E1.77833
G1 X95.05 Y103.574 E1.78308
G1 X95.021 Y103.537 E1.78625
G1 X94.555 Y102.872 E1.84089
G1 X94.53 Y102.832 E1.84407
G1 X94.494 Y102.77 E1.84884
G1 X94.472 Y102.729 E1.85202
G1 X94.129 Y101.993 E1.90667
G1 X94.111 Y101.949 E1.90984
G1 X94.087 Y101.883 E1.91459
G1 X94.073 Y101.838 E1.91776
G1 X93.863 Y101.053 E1.97241
G1 X93.853 Y101.008 E1.97557
G1 X93.841 Y100.938 E1.98031
G1 X93.835 Y100.892 E1.98347
G1 X93.763 Y100.083 E2.03813
G1 X93.761 Y100.035 E2.04131
G1 X93.761 Y99.965 E2.04609
G1 X93.763 Y99.917 E2.04927
G1 X93.835 Y99.108 E2.10393
G1 X93.841 Y99.062 E2.10709
G1 X93.853 Y98.992 E2.11183
G1 X93.863 Y98.947 E2.11499
G1 X94.073 Y98.162 E2.16964
G1 X94.087 Y98.117 E2.17281
G1 X94.111 Y98.051 E2.17756
G1 X94.129 Y98.007 E2.18073
G1 X94.473 Y97.271 E2.23539
G1 X94.494 Y97.23 E2.23856
G1 X94.53 Y97.168 E2.24333
G1 X94.555 Y97.128 E2.24651
G1 X95.021 Y96.463 E2.30115
G1 X95.05 Y96.426 E2.30432
G1 X95.095 Y96.372 E2.30907
G1 X95.127 Y96.337 E2.31223
G1 X95.659 Y95.806 E2.36285
G1 X96.04 Y96.187 F7800
G1 F900
G1 X96.074 Y96.153 E2.3661
G1 X96.092 Y96.137 E2.36768
G1 X96.128 Y96.107 E2.37085
G1 X96.146 Y96.093 E2.37243
G1 X96.792 Y95.64 E2.42549
G1 X96.812 Y95.628 E2.42708
G1 X96.853 Y95.604 E2.43026
G1 X96.874 Y95.593 E2.43185
G1 X97.588 Y95.26 E2.48492
G1 X97.61 Y95.251 E2.4865
G1 X97.654 Y95.235 E2.48967
G1 X97.677 Y95.228 E2.49125
G1 X98.438 Y95.024 E2.54432
G1 X98.461 Y95.019 E2.5459
G1 X98.508 Y95.011 E2.54906
G1 X98.531 Y95.007 E2.55064
G1 X99.316 Y94.938 E2.60371
G1 X99.34 Y94.937 E2.6053
G1 X99.387 Y94.937 E2.60848
G1 X99.411 Y94.938 E2.61008
G1 X100.196 Y95.007 E2.66315
G1 X100.22 Y95.011 E2.66473
G1 X100.266 Y95.019 E2.66789
G1 X100.289 Y95.024 E2.66947
G1 X101.05 Y95.228 E2.72253
G1 X101.073 Y95.235 E2.72412
G1 X101.117 Y95.251 E2.72729
G1 X101.139 Y95.26 E2.72887
G1 X101.854 Y95.593 E2.78194
G1 X101.874 Y95.604 E2.78353
G1 X101.915 Y95.628 E2.78671
G1 X101.935 Y95.64 E2.7883
G1 X102.581 Y96.093 E2.84136
G1 X102.6 Y96.107 E2.84294
G1 X102.636 Y96.137 E2.84611
G1 X102.653 Y96.153 E2.84769
G1 X103.211 Y96.711 E2.90076
G1 X103.226 Y96.728 E2.90234
G1 X103.257 Y96.764 E2.90551
G1 X103.271 Y96.783 E2.90709
G1 X103.723 Y97.428 E2.96015
G1 X103.736 Y97.448 E2.96174
G1 X103.76 Y97.489 E2.96492
G1 X103.771 Y97.51 E2.96651
G1 X104.104 Y98.225 E3.01958
G1 X104.113 Y98.247 E3.02116
G1 X104.129 Y98.291 E3.02433
G1 X104.136 Y98.313 E3.02592
G1 X104.34 Y99.075 E3.07898
G1 X104.345 Y99.098 E3.08056
G1 X104.353 Y99.144 E3.08372
G1 X104.356 Y99.167 E3.0853
G1 X104.425 Y99.953 E3.13837
G1 X104.426 Y99.976 E3.13996
G1 X104.426 Y100.024 E3.14315
G1 X104.425 Y100.047 E3.14474
G1 X104.356 Y100.833 E3.19781
G1 X104.353 Y100.856 E3.19939
G1 X104.345 Y100.902 E3.20255
G1 X104.34 Y100.925 E3.20413
G1 X104.136 Y101.687 E3.2572
G1 X104.129 Y101.709 E3.25878
G1 X104.113 Y101.753 E3.26195
G1 X104.104 Y101.775 E3.26353
G1 X103.771 Y102.49 E3.3166
G1 X103.76 Y102.511 E3.31819
G1 X103.736 Y102.552 E3.32137
G1 X103.723 Y102.572 E3.32296
G1 X103.271 Y103.217 E3.37602
G1 X103.257 Y103.236 E3.3776
G1 X103.226 Y103.272 E3.38077
G1 X103.211 Y103.289 E3.38235
G1 X102.653 Y103.847 E3.43543
G1 X102.636 Y103.863 E3.43701
G1 X102.6 Y103.893 E3.44017
G1 X102.581 Y103.907 E3.44176
G1 X101.935 Y104.36 E3.49482
G1 X101.915 Y104.372 E3.49641
G1 X101.874 Y104.396 E3.49959
G1 X101.854 Y104.407 E3.50117
G1 X101.139 Y104.74 E3.55424
G1 X101.117 Y104.749 E3.55583
G1 X101.073 Y104.765 E3.559
G1 X101.05 Y104.772 E3.56058
G1 X100.289 Y104.976 E3.61364
G1 X100.266 Y104.981 E3.61523
G1 X100.22 Y104.989 E3.61839
G1 X100.196 Y104.993 E3.61997
G1 X99.411 Y105.062 E3.67303
G1 X99.387 Y105.063 E3.67463
G1 X99.34 Y105.063 E3.67781
G1 X99.316 Y105.062 E3.67941
G1 X98.531 Y104.993 E3.73247
G1 X98.508 Y104.989 E3.73405
G1 X98.461 Y104.981 E3.73722
G1 X98.438 Y104.976 E3.7388
G1 X97.677 Y104.772 E3.79186
G1 X97.654 Y104.765 E3.79344
G1 X97.61 Y104.749 E3.79661
G1 X97.588 Y104.74 E3.7982
G1 X96.874 Y104.407 E3.85127
G1 X96.853 Y104.396 E3.85286
G1 X96.812 Y104.372 E3.85604
G1 X96.792 Y104.36 E3.85763
G1 X96.146 Y103.907 E3.91069
G1 X96.128 Y103.893 E3.91227
G1 X96.092 Y103.863 E3.91543
G1 X96.074 Y103.847 E3.91702
G1 X95.517 Y103.289 E3.97009
G1 X95.501 Y103.272 E3.97167
G1 X95.471 Y103.236 E3.97484
G1 X95.456 Y103.217 E3.97642
G1 X95.004 Y102.572 E4.02948
G1 X94.991 Y102.552 E4.03107
G1 X94.968 Y102.511 E4.03425
G1 X94.957 Y102.49 E4.03584
G1 X94.624 Y101.775 E4.08891
G1 X94.615 Y101.753 E4.09049
G1 X94.598 Y101.709 E4.09366
G1 X94.591 Y101.687 E4.09524
G1 X94.387 Y100.925 E4.14831
G1 X94.382 Y100.902 E4.14989
G1 X94.374 Y100.856 E4.15305
G1 X94.371 Y100.833 E4.15463
G1 X94.302 Y100.047 E4.2077
G1 X94.301 Y100.024 E4.20929
G1 X94.301 Y99.976 E4.21248
G1 X94.302 Y99.953 E4.21407
G1 X94.371 Y99.167 E4.26714
G1 X94.374 Y99.144 E4.26872
G1 X94.382 Y99.098 E4.27188
G1 X94.387 Y99.075 E4.27346
G1 X94.591 Y98.313 E4.32652
G1 X94.598 Y98.291 E4.32811
G1 X94.615 Y98.247 E4.33128
G1 X94.624 Y98.225 E4.33286
G1 X94.957 Y97.51 E4.38593
G1 X94.968 Y97.489 E4.38752
G1 X94.991 Y97.448 E4.3907
G1 X95.004 Y97.428 E4.39229
G1 X95.456 Y96.783 E4.44535
G1 X95.471 Y96.764 E4.44693
G1 X95.501 Y96.728 E4.4501
G1 X95.517 Y96.711 E4.45168
G1 X95.998 Y96.23 E4.49747
G1 X96.379 Y96.611 F7800
G1 F900
G1 X96.447 Y96.543 E4.50396
G1 X96.465 Y96.528 E4.50554
G1 X97.092 Y96.089 E4.55702
G1 X97.112 Y96.077 E4.55861
G1 X97.806 Y95.754 E4.61009
G1 X97.828 Y95.746 E4.61168
G1 X98.567 Y95.548 E4.66316
G1 X98.59 Y95.544 E4.66474
G1 X99.352 Y95.477 E4.71622
G1 X99.375 Y95.477 E4.71782
G1 X100.137 Y95.544 E4.7693
G1 X100.161 Y95.548 E4.77088
G1 X100.899 Y95.746 E4.82236
G1 X100.922 Y95.754 E4.82395
G1 X101.615 Y96.077 E4.87543
G1 X101.635 Y96.089 E4.87702
G1 X102.262 Y96.528 E4.92849
G1 X102.28 Y96.543 E4.93008
G1 X102.821 Y97.084 E4.98157
G1 X102.836 Y97.102 E4.98315
G1 X103.275 Y97.728 E5.03463
G1 X103.286 Y97.749 E5.03622
G1 X103.61 Y98.442 E5.0877
G1 X103.618 Y98.464 E5.08928
G1 X103.816 Y99.203 E5.14076
G1 X103.82 Y99.226 E5.14235
G1 X103.887 Y99.988 E5.19383
G1 X103.887 Y100.012 E5.19542
G1 X103.82 Y100.774 E5.2469
G1 X103.816 Y100.797 E5.24848
G1 X103.618 Y101.536 E5.29997
G1 X103.61 Y101.558 E5.30155
G1 X103.286 Y102.251 E5.35304
G1 X103.275 Y102.272 E5.35463
G1 X102.836 Y102.898 E5.4061
G1 X102.821 Y102.916 E5.40768
G1 X102.28 Y103.457 E5.45917
G1 X102.262 Y103.472 E5.46076
G1 X101.635 Y103.911 E5.51223
G1 X101.615 Y103.923 E5.51382
G1 X100.922 Y104.246 E5.5653
G1 X100.899 Y104.254 E5.56689
G1 X100.161 Y104.452 E5.61837
G1 X100.137 Y104.456 E5.61995
G1 X99.375 Y104.523 E5.67143
G1 X99.352 Y104.523 E5.67303
G1 X98.59 Y104.456 E5.72451
G1 X98.567 Y104.452 E5.72609
G1 X97.828 Y104.254 E5.77757
G1 X97.806 Y104.246 E5.77916
G1 X97.112 Y103.923 E5.83064
G1 X97.092 Y103.911 E5.83223
G1 X96.465 Y103.472 E5.8837
G1 X96.447 Y103.457 E5.88529
G1 X95.907 Y102.916 E5.93678
G1 X95.891 Y102.898 E5.93836
G1 X95.453 Y102.272 E5.98984
G1 X95.441 Y102.251 E5.99143
G1 X95.118 Y101.558 E6.04291
G1 X95.11 Y101.536 E6.04449
G1 X94.912 Y100.797 E6.09598
G1 X94.908 Y100.774 E6.09756
G1 X94.841 Y100.012 E6.14904
G1 X94.841 Y99.988 E6.15063
G1 X94.908 Y99.226 E6.20211
G1 X94.912 Y99.203 E6.2037
G1 X95.11 Y98.464 E6.25518
G1 X95.118 Y98.442 E6.25676
G1 X95.441 Y97.749 E6.30825
G1 X95.453 Y97.728 E6.30984
G1 X95.891 Y97.102 E6.36131
G1 X95.907 Y97.084 E6.36289
G1 X96.337 Y96.654 E6.40385
; INIT printing object KONGY.stl id:0 copy 0
; printing object KONGY.stl id:0 copy 0
M486 S0
G1 X96.629 Y96.987 F7800
;TYPE:Thin wall
;WIDTH:0.4
G1 F900
G1 X96.496 Y97.103 E6.41124
G1 X96.467 Y97.133 E6.413
G1 X96.246 Y97.384 E6.427
G1 X95.839 Y97.94 E6.45583
G1 X95.817 Y97.978 E6.45767
G1 X95.539 Y98.608 E6.4865
G1 X95.432 Y98.925 E6.50049
G1 X95.421 Y98.965 E6.50225
G1 X95.356 Y99.293 E6.51626
G1 X95.281 Y99.978 E6.54509
G1 X95.281 Y100.022 E6.54693
G1 X95.356 Y100.707 E6.57576
G1 X95.421 Y101.035 E6.58977
G1 X95.432 Y101.075 E6.59153
G1 X95.539 Y101.392 E6.60552
G1 X95.817 Y102.022 E6.63435
G1 X95.839 Y102.06 E6.63618
G1 X96.246 Y102.616 E6.66502
G1 X96.467 Y102.867 E6.67902
G1 X96.496 Y102.897 E6.68078
G1 X96.748 Y103.117 E6.69478
G1 X97.303 Y103.525 E6.72362
G1 X97.341 Y103.547 E6.72545
G1 X97.972 Y103.824 E6.75428
G1 X98.288 Y103.932 E6.76828
G1 X98.329 Y103.942 E6.77003
G1 X98.657 Y104.008 E6.78404
G1 X99.342 Y104.083 E6.81287
G1 X99.386 Y104.083 E6.81471
G1 X100.07 Y104.008 E6.84354
G1 X100.398 Y103.942 E6.85755
G1 X100.439 Y103.932 E6.85931
G1 X100.756 Y103.824 E6.8733
G1 X101.386 Y103.547 E6.90213
G1 X101.424 Y103.525 E6.90397
G1 X101.979 Y103.117 E6.9328
G1 X102.231 Y102.897 E6.9468
G1 X102.261 Y102.867 E6.94856
G1 X102.481 Y102.616 E6.96256
G1 X102.889 Y102.06 E6.9914
G1 X102.91 Y102.022 E6.99324
G1 X103.188 Y101.392 E7.02206
G1 X103.295 Y101.075 E7.03606
G1 X103.306 Y101.035 E7.03782
G1 X103.371 Y100.707 E7.05182
G1 X103.446 Y100.022 E7.08066
G1 X103.448 Y100 E7.08158
G1 X103.446 Y99.978 E7.0825
G1 X103.371 Y99.293 E7.11133
G1 X103.306 Y98.965 E7.12534
G1 X103.295 Y98.925 E7.1271
G1 X103.188 Y98.608 E7.14109
G1 X102.91 Y97.978 E7.16992
G1 X102.889 Y97.94 E7.17175
G1 X102.481 Y97.384 E7.20059
G1 X102.261 Y97.133 E7.21459
G1 X102.231 Y97.103 E7.21635
G1 X101.979 Y96.883 E7.23035
G1 X101.424 Y96.475 E7.25919
G1 X101.386 Y96.453 E7.26102
G1 X100.756 Y96.176 E7.28985
G1 X100.439 Y96.068 E7.30385
G1 X100.398 Y96.058 E7.3056
G1 X100.07 Y95.992 E7.31961
G1 X99.386 Y95.917 E7.34845
G1 X99.342 Y95.917 E7.35028
G1 X98.657 Y95.992 E7.37911
G1 X98.329 Y96.058 E7.39312
G1 X98.288 Y96.068 E7.39488
G1 X97.972 Y96.176 E7.40887
G1 X97.341 Y96.453 E7.4377
G1 X97.303 Y96.475 E7.43954
G1 X96.748 Y96.883 E7.46837
G1 X96.674 Y96.947 E7.47248
; INIT stop printing object KONGY.stl id:0 copy 0
M106 S84.15
;LAYER_CHANGE
;Z:0.5
;HEIGHT:0.2
;BEFORE_LAYER_CHANGE
;0.5


G92 E0
;WIPE_START
G1 F6240
G1 X96.496 Y97.103 E-0.07561
G1 X96.467 Y97.133 E-0.08902
G1 X96.246 Y97.384 E-0.19598
G1 X95.839 Y97.94 E-0.41621
G1 X95.817 Y97.978 E-0.43023
G1 X95.76 Y98.106 E-0.475
;WIPE_END
