;FLAVOR:RepRap
;TIME:1332
;Filament used: 1.64017m
;Layer height: 0.3
;MINX:44.525
;MINY:44.525
;MINZ:0.3
;MAXX:75.475
;MAXY:75.475
;MAXZ:20.1
;Generated with Cura_SteamEngine 4.12.1
T0
M190 S60
M104 S205
M109 S205
M82 ;absolute extrusion mode
print_start
M83 ;relative extrusion mode
G1 F4800 E-6.5
;LAYER_COUNT:67
;LAYER:0
M107
G1 F600 Z0.5
G0 F7200 X45.962 Y46.322 Z0.5
;TYPE:SKIRT
G1 F600 Z0.3
G1 F1920 E6.5
G1 F1200 X46.436 Y45.86 E0.03715
G1 X46.963 Y45.46 E0.03713
G1 X47.533 Y45.126 E0.03708
G1 X48.14 Y44.863 E0.03713
G1 X48.775 Y44.675 E0.03717
G1 X49.427 Y44.565 E0.03711
G1 X49.856 Y44.536 E0.02413
G1 X50.177 Y44.527 E0.01802
G1 X50.33 Y44.525 E0.00859
G1 X69.293 Y44.525 E1.06433
G1 X70.069 Y44.536 E0.04356
G1 X70.729 Y44.585 E0.03715
G1 X71.378 Y44.714 E0.03714
G1 X72.007 Y44.92 E0.03715
G1 X72.606 Y45.2 E0.03711
G1 X73.167 Y45.55 E0.03711
G1 X73.682 Y45.966 E0.03716
G1 X74.142 Y46.44 E0.03707
G1 X74.543 Y46.967 E0.03717
G1 X74.876 Y47.538 E0.0371
G1 X75.139 Y48.146 E0.03718
G1 X75.326 Y48.78 E0.0371
G1 X75.435 Y49.432 E0.0371
G1 X75.464 Y49.856 E0.02385
G1 X75.473 Y50.176 E0.01797
G1 X75.475 Y50.33 E0.00864
G1 X75.475 Y69.332 E1.06652
G1 X75.466 Y70.059 E0.04081
G1 X75.417 Y70.719 E0.03715
G1 X75.29 Y71.368 E0.03712
G1 X75.085 Y71.997 E0.03713
G1 X74.806 Y72.596 E0.03709
G1 X74.457 Y73.158 E0.03713
G1 X74.042 Y73.674 E0.03717
G1 X73.569 Y74.135 E0.03707
G1 X73.043 Y74.537 E0.03716
G1 X72.472 Y74.872 E0.03716
G1 X71.865 Y75.135 E0.03713
G1 X71.231 Y75.324 E0.03713
G1 X70.579 Y75.434 E0.03711
G1 X70.144 Y75.464 E0.02447
G1 X69.823 Y75.473 E0.01802
G1 X69.67 Y75.475 E0.00859
G1 X50.636 Y75.475 E1.06831
G1 X49.938 Y75.466 E0.03918
G1 X49.279 Y75.417 E0.03709
G1 X48.63 Y75.289 E0.03713
G1 X48.001 Y75.084 E0.03713
G1 X47.401 Y74.805 E0.03714
G1 X46.84 Y74.455 E0.03711
G1 X46.324 Y74.04 E0.03717
G1 X45.863 Y73.566 E0.03711
G1 X45.462 Y73.04 E0.03712
G1 X45.127 Y72.47 E0.03711
G1 X44.864 Y71.863 E0.03713
G1 X44.676 Y71.229 E0.03712
G1 X44.565 Y70.576 E0.03718
G1 X44.536 Y70.139 E0.02458
G1 X44.525 Y69.658 E0.027
G1 X44.526 Y50.6 E1.06966
G1 X44.535 Y49.935 E0.03733
G1 X44.583 Y49.275 E0.03714
G1 X44.711 Y48.626 E0.03713
G1 X44.917 Y47.997 E0.03715
G1 X45.197 Y47.398 E0.03711
G1 X45.547 Y46.837 E0.03711
G1 X45.962 Y46.322 E0.03712
G0 F7200 X46.404 Y46.508
G1 F1200 X46.873 Y46.082 E0.03556
G1 X47.392 Y45.719 E0.03555
G1 X47.953 Y45.424 E0.03557
G1 X48.547 Y45.201 E0.03561
G1 X49.163 Y45.056 E0.03552
G1 X49.868 Y44.986 E0.03976
G1 X50.33 Y44.975 E0.02594
G1 X69.293 Y44.975 E1.06433
G1 X70.063 Y44.986 E0.04322
G1 X70.695 Y45.035 E0.03558
G1 X71.315 Y45.163 E0.03553
G1 X71.915 Y45.368 E0.03559
G1 X72.484 Y45.647 E0.03557
G1 X73.013 Y45.995 E0.03554
G1 X73.495 Y46.408 E0.03563
G1 X73.92 Y46.877 E0.03552
G1 X74.283 Y47.397 E0.03559
G1 X74.578 Y47.958 E0.03557
G1 X74.8 Y48.551 E0.03554
G1 X74.945 Y49.168 E0.03557
G1 X75.014 Y49.869 E0.03953
G1 X75.025 Y50.33 E0.02588
G1 X75.025 Y69.326 E1.06618
G1 X75.016 Y70.053 E0.04081
G1 X74.968 Y70.685 E0.03557
G1 X74.841 Y71.306 E0.03558
G1 X74.637 Y71.906 E0.03557
G1 X74.359 Y72.475 E0.03554
G1 X74.011 Y73.005 E0.03559
G1 X73.6 Y73.487 E0.03555
G1 X73.131 Y73.914 E0.0356
G1 X72.613 Y74.278 E0.03553
G1 X72.052 Y74.574 E0.0356
G1 X71.459 Y74.797 E0.03556
G1 X70.842 Y74.943 E0.03559
G1 X70.132 Y75.014 E0.04005
G1 X69.67 Y75.025 E0.02594
G1 X50.642 Y75.025 E1.06797
G1 X49.944 Y75.016 E0.03918
G1 X49.312 Y74.967 E0.03558
G1 X48.692 Y74.84 E0.03552
G1 X48.092 Y74.636 E0.03557
G1 X47.522 Y74.358 E0.03559
G1 X46.992 Y74.01 E0.03559
G1 X46.511 Y73.598 E0.03555
G1 X46.084 Y73.129 E0.0356
G1 X45.721 Y72.61 E0.03555
G1 X45.425 Y72.05 E0.03555
G1 X45.202 Y71.456 E0.03561
G1 X45.056 Y70.84 E0.03553
G1 X44.986 Y70.127 E0.04021
G1 X44.975 Y69.658 E0.02633
G1 X44.975 Y50.606 E1.06932
G1 X44.984 Y49.941 E0.03733
G1 X45.033 Y49.309 E0.03558
G1 X45.161 Y48.688 E0.03559
G1 X45.365 Y48.089 E0.03552
G1 X45.644 Y47.52 E0.03557
G1 X45.992 Y46.99 E0.03559
G1 X46.404 Y46.508 E0.03559
G0 F7200 X46.437 Y47.151
G1 F1200 X46.845 Y46.705 E0.03393
G1 X47.308 Y46.316 E0.03394
G1 X47.819 Y45.992 E0.03396
G1 X48.368 Y45.739 E0.03393
G1 X48.945 Y45.559 E0.03392
G1 X49.541 Y45.458 E0.03393
G1 X49.881 Y45.436 E0.01912
G1 X50.33 Y45.425 E0.02521
G1 X69.359 Y45.425 E1.06803
G1 X70.057 Y45.435 E0.03918
G1 X70.659 Y45.484 E0.0339
G1 X71.25 Y45.612 E0.03394
G1 X71.819 Y45.816 E0.03393
G1 X72.356 Y46.094 E0.03394
G1 X72.852 Y46.44 E0.03394
G1 X73.298 Y46.849 E0.03396
G1 X73.686 Y47.312 E0.0339
G1 X74.009 Y47.823 E0.03393
G1 X74.263 Y48.372 E0.03395
G1 X74.441 Y48.95 E0.03394
G1 X74.542 Y49.546 E0.03393
G1 X74.564 Y49.881 E0.01884
G1 X74.575 Y50.33 E0.02521
G1 X74.575 Y69.321 E1.0659
G1 X74.566 Y70.048 E0.04081
G1 X74.518 Y70.65 E0.0339
G1 X74.392 Y71.242 E0.03397
G1 X74.188 Y71.811 E0.03393
G1 X73.912 Y72.349 E0.03394
G1 X73.567 Y72.845 E0.03391
G1 X73.159 Y73.292 E0.03397
G1 X72.696 Y73.681 E0.03394
G1 X72.186 Y74.005 E0.03391
G1 X71.637 Y74.26 E0.03398
G1 X71.06 Y74.439 E0.03391
G1 X70.464 Y74.541 E0.03394
G1 X70.119 Y74.564 E0.01941
G1 X69.67 Y74.575 E0.02521
G1 X50.648 Y74.575 E1.06764
G1 X49.95 Y74.566 E0.03918
G1 X49.347 Y74.518 E0.03395
G1 X48.756 Y74.391 E0.03393
G1 X48.187 Y74.187 E0.03393
G1 X47.649 Y73.91 E0.03396
G1 X47.153 Y73.565 E0.03391
G1 X46.707 Y73.157 E0.03393
G1 X46.318 Y72.694 E0.03394
G1 X45.994 Y72.184 E0.03391
G1 X45.74 Y71.635 E0.03395
G1 X45.56 Y71.058 E0.03392
G1 X45.458 Y70.462 E0.03394
G1 X45.436 Y70.115 E0.01951
G1 X45.425 Y69.658 E0.02566
G1 X45.425 Y50.612 E1.06898
G1 X45.434 Y49.947 E0.03733
G1 X45.483 Y49.344 E0.03396
G1 X45.61 Y48.753 E0.03393
G1 X45.814 Y48.184 E0.03393
G1 X46.091 Y47.647 E0.03391
G1 X46.437 Y47.151 E0.03394
G0 F7200 X46.881 Y47.32
G1 F1200 X47.284 Y46.912 E0.03219
G1 X47.741 Y46.564 E0.03224
G1 X48.241 Y46.282 E0.03222
G1 X48.776 Y46.073 E0.03224
G1 X49.334 Y45.94 E0.0322
G1 X49.893 Y45.886 E0.03152
G1 X50.33 Y45.875 E0.02454
G1 X69.352 Y45.875 E1.06764
G1 X70.05 Y45.885 E0.03918
G1 X70.622 Y45.934 E0.03222
G1 X71.182 Y46.061 E0.03223
G1 X71.719 Y46.264 E0.03222
G1 X72.222 Y46.54 E0.0322
G1 X72.682 Y46.884 E0.03224
G1 X73.09 Y47.288 E0.03223
G1 X73.438 Y47.744 E0.0322
G1 X73.719 Y48.245 E0.03224
G1 X73.928 Y48.78 E0.03224
G1 X74.061 Y49.338 E0.0322
G1 X74.114 Y49.894 E0.03135
G1 X74.125 Y50.33 E0.02448
G1 X74.125 Y69.315 E1.06556
G1 X74.116 Y70.042 E0.04081
G1 X74.069 Y70.614 E0.03221
G1 X73.943 Y71.174 E0.03222
G1 X73.74 Y71.712 E0.03227
G1 X73.465 Y72.215 E0.03218
G1 X73.122 Y72.676 E0.03225
G1 X72.719 Y73.085 E0.03223
G1 X72.263 Y73.434 E0.03223
G1 X71.763 Y73.716 E0.03222
G1 X71.229 Y73.926 E0.03221
G1 X70.671 Y74.06 E0.03221
G1 X70.107 Y74.114 E0.0318
G1 X69.67 Y74.125 E0.02454
G1 X50.654 Y74.125 E1.0673
G1 X49.956 Y74.116 E0.03918
G1 X49.384 Y74.068 E0.03222
G1 X48.824 Y73.942 E0.03222
G1 X48.287 Y73.739 E0.03222
G1 X47.783 Y73.464 E0.03222
G1 X47.322 Y73.121 E0.03225
G1 X46.914 Y72.718 E0.03219
G1 X46.565 Y72.261 E0.03227
G1 X46.283 Y71.761 E0.03222
G1 X46.074 Y71.227 E0.03219
G1 X45.94 Y70.669 E0.03221
G1 X45.886 Y70.102 E0.03197
G1 X45.875 Y69.658 E0.02493
G1 X45.875 Y50.618 E1.06865
G1 X45.884 Y49.953 E0.03733
G1 X45.932 Y49.381 E0.03222
G1 X46.059 Y48.821 E0.03223
G1 X46.262 Y48.284 E0.03222
G1 X46.538 Y47.781 E0.0322
G1 X46.881 Y47.32 E0.03225
G0 F7200 X47.324 Y47.5
G1 F1200 X47.722 Y47.133 E0.03039
G1 X48.169 Y46.828 E0.03037
G1 X48.657 Y46.592 E0.03042
G1 X49.174 Y46.43 E0.03041
G1 X49.906 Y46.335 E0.04143
G1 X50.227 Y46.326 E0.01802
G1 X69.346 Y46.325 E1.07308
G1 X70.044 Y46.335 E0.03918
G1 X70.583 Y46.383 E0.03037
G1 X71.11 Y46.51 E0.03043
G1 X71.613 Y46.712 E0.03042
G1 X72.08 Y46.987 E0.03042
G1 X72.502 Y47.327 E0.03042
G1 X72.869 Y47.725 E0.03039
G1 X73.174 Y48.173 E0.03042
G1 X73.409 Y48.661 E0.0304
G1 X73.571 Y49.178 E0.03041
G1 X73.665 Y49.907 E0.04125
G1 X73.674 Y50.227 E0.01797
G1 X73.675 Y69.309 E1.07101
G1 X73.666 Y70.036 E0.04081
G1 X73.619 Y70.576 E0.03042
G1 X73.494 Y71.103 E0.0304
G1 X73.292 Y71.606 E0.03042
G1 X73.019 Y72.074 E0.03041
G1 X72.679 Y72.497 E0.03046
G1 X72.282 Y72.865 E0.03038
G1 X71.834 Y73.17 E0.03042
G1 X71.347 Y73.407 E0.0304
G1 X70.83 Y73.569 E0.03041
G1 X70.094 Y73.665 E0.04166
G1 X69.773 Y73.674 E0.01802
G1 X50.66 Y73.675 E1.07275
G1 X49.962 Y73.666 E0.03918
G1 X49.422 Y73.619 E0.03042
G1 X48.895 Y73.493 E0.03041
G1 X48.392 Y73.291 E0.03042
G1 X47.924 Y73.017 E0.03044
G1 X47.502 Y72.678 E0.03038
G1 X47.134 Y72.28 E0.03042
G1 X46.829 Y71.833 E0.03037
G1 X46.592 Y71.345 E0.03045
G1 X46.431 Y70.828 E0.03039
G1 X46.335 Y70.09 E0.04177
G1 X46.325 Y69.658 E0.02425
G1 X46.325 Y50.624 E1.06831
G1 X46.334 Y49.959 E0.03733
G1 X46.382 Y49.419 E0.03043
G1 X46.508 Y48.893 E0.03036
G1 X46.71 Y48.39 E0.03042
G1 X46.984 Y47.922 E0.03044
G1 X47.324 Y47.5 E0.03042
G0 F7200 X47.765 Y47.693
G1 F1200 X48.156 Y47.369 E0.0285
G1 X48.593 Y47.111 E0.02848
G1 X49.065 Y46.925 E0.02847
G1 X49.561 Y46.815 E0.02852
G1 X49.919 Y46.785 E0.02016
G1 X50.33 Y46.775 E0.02307
G1 X69.339 Y46.775 E1.06691
G1 X70.037 Y46.785 E0.03918
G1 X70.543 Y46.833 E0.02853
G1 X71.034 Y46.958 E0.02844
G1 X71.5 Y47.16 E0.02851
G1 X71.929 Y47.432 E0.02851
G1 X72.309 Y47.768 E0.02847
G1 X72.632 Y48.159 E0.02847
G1 X72.89 Y48.597 E0.02853
G1 X73.076 Y49.069 E0.02847
G1 X73.185 Y49.564 E0.02845
G1 X73.215 Y49.919 E0.02
G1 X73.225 Y50.33 E0.02307
G1 X73.225 Y69.304 E1.06494
G1 X73.216 Y70.031 E0.04081
G1 X73.17 Y70.536 E0.02846
G1 X73.045 Y71.028 E0.02849
G1 X72.844 Y71.495 E0.02854
G1 X72.573 Y71.924 E0.02848
G1 X72.238 Y72.305 E0.02847
G1 X71.847 Y72.628 E0.02847
G1 X71.41 Y72.887 E0.02851
G1 X70.938 Y73.074 E0.0285
G1 X70.443 Y73.184 E0.02846
G1 X70.081 Y73.215 E0.02039
G1 X69.67 Y73.225 E0.02307
G1 X50.665 Y73.225 E1.06668
G1 X49.967 Y73.216 E0.03918
G1 X49.462 Y73.169 E0.02847
G1 X48.97 Y73.044 E0.02849
G1 X48.504 Y72.843 E0.02848
G1 X48.075 Y72.572 E0.02848
G1 X47.694 Y72.236 E0.02851
G1 X47.371 Y71.846 E0.02842
G1 X47.112 Y71.409 E0.02851
G1 X46.926 Y70.937 E0.02847
G1 X46.816 Y70.441 E0.02852
G1 X46.785 Y70.078 E0.02045
G1 X46.775 Y69.658 E0.02358
G1 X46.775 Y50.63 E1.06797
G1 X46.784 Y49.965 E0.03733
G1 X46.831 Y49.46 E0.02847
G1 X46.957 Y48.968 E0.02851
G1 X47.158 Y48.502 E0.02848
G1 X47.429 Y48.073 E0.02848
G1 X47.765 Y47.693 E0.02847
G1 F4800 E-6.5
G1 F600 Z0.5
;MESH:VORON_CUBE_20mm_V3.stl
G0 F7200 X59.669 Y66.367 Z0.5
;TYPE:WALL-INNER
G1 F600 Z0.3
G1 F1920 E6.5
G1 F1200 X60 Y66.375 E0.01652
G1 X60.33 Y66.368 E0.01647
G1 X60.661 Y66.341 E0.01657
G1 X60.987 Y66.298 E0.01641
G1 X61.312 Y66.239 E0.01648
G1 X61.633 Y66.162 E0.01647
G1 X61.95 Y66.07 E0.01647
G1 X62.262 Y65.961 E0.01649
G1 X62.568 Y65.835 E0.01651
G1 X62.867 Y65.694 E0.01649
G1 X63.157 Y65.539 E0.01641
G1 X63.441 Y65.367 E0.01656
G1 X63.713 Y65.182 E0.01641
G1 X63.977 Y64.983 E0.01649
G1 X64.231 Y64.77 E0.01654
G1 X64.472 Y64.544 E0.01648
G1 X64.702 Y64.307 E0.01648
G1 X64.917 Y64.056 E0.01649
G1 X65.121 Y63.798 E0.01641
G1 X65.311 Y63.527 E0.01651
G1 X65.487 Y63.247 E0.0165
G1 X65.647 Y62.958 E0.01648
G1 X65.792 Y62.663 E0.0164
G1 X65.924 Y62.358 E0.01658
G1 X66.037 Y62.049 E0.01641
G1 X66.136 Y61.733 E0.01652
G1 X66.216 Y61.412 E0.0165
G1 X66.281 Y61.09 E0.01639
G1 X66.329 Y60.763 E0.01649
G1 X66.36 Y60.434 E0.01649
G1 X66.374 Y60.103 E0.01653
G1 X66.371 Y59.774 E0.01641
G1 X66.351 Y59.444 E0.01649
G1 X66.313 Y59.114 E0.01657
G1 X66.259 Y58.79 E0.01639
G1 X66.188 Y58.467 E0.0165
G1 X66.1 Y58.149 E0.01646
G1 X65.996 Y57.835 E0.0165
G1 X65.876 Y57.526 E0.01654
G1 X65.739 Y57.227 E0.01641
G1 X65.59 Y56.934 E0.0164
G1 X65.422 Y56.647 E0.01659
G1 X65.241 Y56.372 E0.01642
G1 X65.048 Y56.106 E0.0164
G1 X64.837 Y55.847 E0.01667
G1 X64.617 Y55.603 E0.01639
G1 X64.383 Y55.37 E0.01647
G1 X64.138 Y55.15 E0.01643
G1 X63.881 Y54.942 E0.01649
G1 X63.613 Y54.747 E0.01654
G1 X63.336 Y54.566 E0.01651
G1 X63.05 Y54.401 E0.01647
G1 X62.756 Y54.251 E0.01647
G1 X62.454 Y54.116 E0.0165
G1 X62.146 Y53.997 E0.01647
G1 X61.833 Y53.894 E0.01644
G1 X61.515 Y53.807 E0.01645
G1 X61.19 Y53.737 E0.01659
G1 X60.865 Y53.684 E0.01643
G1 X60.537 Y53.648 E0.01646
G1 X60.209 Y53.628 E0.01639
G1 X59.876 Y53.626 E0.01661
G1 X59.548 Y53.641 E0.01638
G1 X59.219 Y53.673 E0.01649
G1 X58.891 Y53.722 E0.01655
G1 X58.566 Y53.788 E0.01655
G1 X58.248 Y53.871 E0.0164
G1 X57.934 Y53.969 E0.01641
G1 X57.624 Y54.085 E0.01651
G1 X57.319 Y54.216 E0.01656
G1 X57.025 Y54.363 E0.0164
G1 X56.736 Y54.523 E0.01648
G1 X56.457 Y54.701 E0.01651
G1 X56.187 Y54.891 E0.01647
G1 X55.927 Y55.096 E0.01652
G1 X55.679 Y55.313 E0.01644
G1 X55.443 Y55.544 E0.01648
G1 X55.218 Y55.785 E0.01645
G1 X55.006 Y56.039 E0.01651
G1 X54.807 Y56.302 E0.01645
G1 X54.621 Y56.577 E0.01656
G1 X54.456 Y56.854 E0.01609
G1 X54.41 Y56.936 E0.00469
G1 X54.261 Y57.226 E0.01627
G1 X54.125 Y57.527 E0.01648
G1 X54.005 Y57.834 E0.01644
G1 X53.9 Y58.148 E0.01652
G1 X53.812 Y58.467 E0.01651
G1 X53.742 Y58.788 E0.01639
G1 X53.699 Y59.033 E0.01241
G1 X53.658 Y59.359 E0.01639
G1 X53.629 Y59.771 E0.02061
G1 X53.626 Y60.102 E0.01651
G1 X53.64 Y60.433 E0.01653
G1 X53.671 Y60.76 E0.01639
G1 X53.706 Y61.009 E0.01254
G1 X53.766 Y61.331 E0.01634
G1 X53.843 Y61.651 E0.01642
G1 X53.938 Y61.971 E0.01665
G1 X54.045 Y62.274 E0.01603
G1 X54.08 Y62.362 E0.00472
G1 X54.208 Y62.662 E0.01627
G1 X54.353 Y62.956 E0.01635
G1 X54.471 Y63.172 E0.01228
G1 X54.518 Y63.253 E0.00467
G1 X54.689 Y63.524 E0.01599
G1 X54.831 Y63.731 E0.01252
G1 X55.028 Y63.988 E0.01616
G1 X55.087 Y64.06 E0.00464
G1 X55.299 Y64.304 E0.01613
G1 X55.466 Y64.481 E0.01214
G1 X55.533 Y64.548 E0.00473
G1 X55.771 Y64.77 E0.01624
G1 X56.024 Y64.982 E0.01647
G1 X56.287 Y65.18 E0.01642
G1 X56.559 Y65.366 E0.01644
G1 X56.841 Y65.537 E0.01645
G1 X57.061 Y65.657 E0.0125
G1 X57.35 Y65.797 E0.01602
G1 X57.436 Y65.836 E0.00471
G1 X57.738 Y65.96 E0.01629
G1 X58.051 Y66.069 E0.01654
G1 X58.366 Y66.161 E0.01637
G1 X58.688 Y66.238 E0.01652
G1 X59.014 Y66.298 E0.01654
G1 X59.341 Y66.341 E0.01645
G1 X59.669 Y66.367 E0.01642
G0 F7200 X59.69 Y65.967
;TYPE:WALL-OUTER
G1 F1200 X60.001 Y65.975 E0.01552
G1 X60.309 Y65.968 E0.01537
G1 X60.619 Y65.943 E0.01552
G1 X60.925 Y65.903 E0.0154
G1 X61.229 Y65.847 E0.01542
G1 X61.531 Y65.775 E0.01549
G1 X61.828 Y65.689 E0.01543
G1 X62.12 Y65.587 E0.01543
G1 X62.407 Y65.469 E0.01548
G1 X62.687 Y65.337 E0.01544
G1 X62.959 Y65.191 E0.0154
G1 X63.225 Y65.03 E0.01551
G1 X63.48 Y64.857 E0.01537
G1 X63.728 Y64.67 E0.0155
G1 X63.965 Y64.471 E0.01544
G1 X64.191 Y64.259 E0.01546
G1 X64.406 Y64.037 E0.01542
G1 X64.608 Y63.802 E0.01546
G1 X64.8 Y63.559 E0.01545
G1 X64.978 Y63.306 E0.01543
G1 X65.142 Y63.044 E0.01542
G1 X65.292 Y62.773 E0.01545
G1 X65.429 Y62.495 E0.01546
G1 X65.552 Y62.21 E0.01549
G1 X65.658 Y61.92 E0.0154
G1 X65.751 Y61.624 E0.01548
G1 X65.826 Y61.324 E0.01543
G1 X65.887 Y61.021 E0.01542
G1 X65.932 Y60.715 E0.01543
G1 X65.961 Y60.407 E0.01543
G1 X65.974 Y60.097 E0.01548
G1 X65.971 Y59.788 E0.01542
G1 X65.952 Y59.479 E0.01545
G1 X65.917 Y59.17 E0.01551
G1 X65.866 Y58.866 E0.01538
G1 X65.8 Y58.563 E0.01547
G1 X65.717 Y58.265 E0.01543
G1 X65.62 Y57.971 E0.01545
G1 X65.507 Y57.682 E0.01548
G1 X65.379 Y57.401 E0.01541
G1 X65.239 Y57.126 E0.0154
G1 X65.082 Y56.858 E0.0155
G1 X64.912 Y56.599 E0.01546
G1 X64.731 Y56.35 E0.01536
G1 X64.533 Y56.108 E0.0156
G1 X64.327 Y55.879 E0.01537
G1 X64.108 Y55.661 E0.01542
G1 X63.878 Y55.454 E0.01544
G1 X63.637 Y55.259 E0.01547
G1 X63.386 Y55.076 E0.0155
G1 X63.127 Y54.907 E0.01543
G1 X62.859 Y54.753 E0.01542
G1 X62.583 Y54.612 E0.01546
G1 X62.3 Y54.485 E0.01548
G1 X62.011 Y54.374 E0.01545
G1 X61.718 Y54.277 E0.0154
G1 X61.42 Y54.196 E0.01541
G1 X61.116 Y54.13 E0.01552
G1 X60.811 Y54.081 E0.01541
G1 X60.503 Y54.047 E0.01546
G1 X60.195 Y54.028 E0.0154
G1 X59.884 Y54.026 E0.01552
G1 X59.576 Y54.04 E0.01538
G1 X59.268 Y54.07 E0.01544
G1 X58.961 Y54.116 E0.01549
G1 X58.657 Y54.178 E0.01548
G1 X58.358 Y54.256 E0.01542
G1 X58.063 Y54.348 E0.01542
G1 X57.773 Y54.456 E0.01544
G1 X57.488 Y54.579 E0.01549
G1 X57.211 Y54.717 E0.01544
G1 X56.941 Y54.867 E0.01541
G1 X56.68 Y55.033 E0.01543
G1 X56.426 Y55.212 E0.0155
G1 X56.183 Y55.404 E0.01545
G1 X55.95 Y55.607 E0.01542
G1 X55.729 Y55.823 E0.01542
