;FLAVOR:RepRap
;TIME:2365
;Filament used: 1.62309m
;Layer height: 0.15
;MINX:44.525
;MINY:44.525
;MINZ:0.2
;MAXX:75.475
;MAXY:75.475
;MAXZ:20
;Generated with Cura_SteamEngine 4.12.1
T0
M190 S60
M104 S205
M109 S205
M82 ;absolute extrusion mode
print_start
M83 ;relative extrusion mode
G1 F4800 E-6.5
;LAYER_COUNT:133
;LAYER:0
M107
G1 F600 Z0.4
G0 F7200 X45.962 Y46.322 Z0.4
;TYPE:SKIRT
G1 F600 Z0.2
G1 F1920 E6.5
G1 F2400 X46.436 Y45.86 E0.02477
G1 X46.963 Y45.46 E0.02476
G1 X47.533 Y45.126 E0.02472
G1 X48.14 Y44.863 E0.02475
G1 X48.775 Y44.675 E0.02478
G1 X49.427 Y44.565 E0.02474
G1 X49.856 Y44.536 E0.01609
G1 X50.177 Y44.527 E0.01202
G1 X50.33 Y44.525 E0.00573
G1 X69.293 Y44.525 E0.70955
G1 X70.069 Y44.536 E0.02904
G1 X70.729 Y44.585 E0.02476
G1 X71.378 Y44.714 E0.02476
G1 X72.007 Y44.92 E0.02477
G1 X72.606 Y45.2 E0.02474
G1 X73.167 Y45.55 E0.02474
G1 X73.682 Y45.966 E0.02477
G1 X74.142 Y46.44 E0.02471
G1 X74.543 Y46.967 E0.02478
G1 X74.876 Y47.538 E0.02473
G1 X75.139 Y48.146 E0.02479
G1 X75.326 Y48.78 E0.02473
G1 X75.435 Y49.432 E0.02473
G1 X75.464 Y49.856 E0.0159
G1 X75.473 Y50.176 E0.01198
G1 X75.475 Y50.33 E0.00576
G1 X75.475 Y69.332 E0.71101
G1 X75.466 Y70.059 E0.0272
G1 X75.417 Y70.719 E0.02476
G1 X75.29 Y71.368 E0.02474
G1 X75.085 Y71.997 E0.02475
G1 X74.806 Y72.596 E0.02473
G1 X74.457 Y73.158 E0.02475
G1 X74.042 Y73.674 E0.02478
G1 X73.569 Y74.135 E0.02471
G1 X73.043 Y74.537 E0.02477
G1 X72.472 Y74.872 E0.02477
G1 X71.865 Y75.135 E0.02475
G1 X71.231 Y75.324 E0.02475
G1 X70.579 Y75.434 E0.02474
G1 X70.144 Y75.464 E0.01632
G1 X69.823 Y75.473 E0.01202
G1 X69.67 Y75.475 E0.00573
G1 X50.636 Y75.475 E0.71221
G1 X49.938 Y75.466 E0.02612
G1 X49.279 Y75.417 E0.02473
G1 X48.63 Y75.289 E0.02475
G1 X48.001 Y75.084 E0.02475
G1 X47.401 Y74.805 E0.02476
G1 X46.84 Y74.455 E0.02474
G1 X46.324 Y74.04 E0.02478
G1 X45.863 Y73.566 E0.02474
G1 X45.462 Y73.04 E0.02475
G1 X45.127 Y72.47 E0.02474
G1 X44.864 Y71.863 E0.02475
G1 X44.676 Y71.229 E0.02474
G1 X44.565 Y70.576 E0.02478
G1 X44.536 Y70.139 E0.01639
G1 X44.525 Y69.658 E0.018
G1 X44.526 Y50.6 E0.71311
G1 X44.535 Y49.935 E0.02489
G1 X44.583 Y49.275 E0.02476
G1 X44.711 Y48.626 E0.02475
G1 X44.917 Y47.997 E0.02477
G1 X45.197 Y47.398 E0.02474
G1 X45.547 Y46.837 E0.02474
G1 X45.962 Y46.322 E0.02475
G0 F7200 X46.404 Y46.508
G1 F2400 X46.873 Y46.082 E0.02371
G1 X47.392 Y45.719 E0.0237
G1 X47.953 Y45.424 E0.02372
G1 X48.547 Y45.201 E0.02374
G1 X49.163 Y45.056 E0.02368
G1 X49.868 Y44.986 E0.02651
G1 X50.33 Y44.975 E0.01729
G1 X69.293 Y44.975 E0.70955
G1 X70.063 Y44.986 E0.02881
G1 X70.695 Y45.035 E0.02372
G1 X71.315 Y45.163 E0.02369
G1 X71.915 Y45.368 E0.02372
G1 X72.484 Y45.647 E0.02371
G1 X73.013 Y45.995 E0.02369
G1 X73.495 Y46.408 E0.02375
G1 X73.92 Y46.877 E0.02368
G1 X74.283 Y47.397 E0.02373
G1 X74.578 Y47.958 E0.02372
G1 X74.8 Y48.551 E0.02369
G1 X74.945 Y49.168 E0.02372
G1 X75.014 Y49.869 E0.02636
G1 X75.025 Y50.33 E0.01725
G1 X75.025 Y69.326 E0.71079
G1 X75.016 Y70.053 E0.0272
G1 X74.968 Y70.685 E0.02372
G1 X74.841 Y71.306 E0.02372
G1 X74.637 Y71.906 E0.02371
G1 X74.359 Y72.475 E0.0237
G1 X74.011 Y73.005 E0.02372
G1 X73.6 Y73.487 E0.0237
G1 X73.131 Y73.914 E0.02373
G1 X72.613 Y74.278 E0.02369
G1 X72.052 Y74.574 E0.02373
G1 X71.459 Y74.797 E0.02371
G1 X70.842 Y74.943 E0.02372
G1 X70.132 Y75.014 E0.0267
G1 X69.67 Y75.025 E0.01729
G1 X50.642 Y75.025 E0.71198
G1 X49.944 Y75.016 E0.02612
G1 X49.312 Y74.967 E0.02372
G1 X48.692 Y74.84 E0.02368
G1 X48.092 Y74.636 E0.02371
G1 X47.522 Y74.358 E0.02373
G1 X46.992 Y74.01 E0.02372
G1 X46.511 Y73.598 E0.0237
G1 X46.084 Y73.129 E0.02373
G1 X45.721 Y72.61 E0.0237
G1 X45.425 Y72.05 E0.0237
G1 X45.202 Y71.456 E0.02374
G1 X45.056 Y70.84 E0.02369
G1 X44.986 Y70.127 E0.02681
G1 X44.975 Y69.658 E0.01755
G1 X44.975 Y50.606 E0.71288
G1 X44.984 Y49.941 E0.02489
G1 X45.033 Y49.309 E0.02372
G1 X45.161 Y48.688 E0.02372
G1 X45.365 Y48.089 E0.02368
G1 X45.644 Y47.52 E0.02371
G1 X45.992 Y46.99 E0.02372
G1 X46.404 Y46.508 E0.02373
G0 F7200 X46.437 Y47.151
G1 F2400 X46.845 Y46.705 E0.02262
G1 X47.308 Y46.316 E0.02263
G1 X47.819 Y45.992 E0.02264
G1 X48.368 Y45.739 E0.02262
G1 X48.945 Y45.559 E0.02262
G1 X49.541 Y45.458 E0.02262
G1 X49.881 Y45.436 E0.01275
G1 X50.33 Y45.425 E0.01681
G1 X69.359 Y45.425 E0.71202
G1 X70.057 Y45.435 E0.02612
G1 X70.659 Y45.484 E0.0226
G1 X71.25 Y45.612 E0.02263
G1 X71.819 Y45.816 E0.02262
G1 X72.356 Y46.094 E0.02263
G1 X72.852 Y46.44 E0.02263
G1 X73.298 Y46.849 E0.02264
G1 X73.686 Y47.312 E0.0226
G1 X74.009 Y47.823 E0.02262
G1 X74.263 Y48.372 E0.02263
G1 X74.441 Y48.95 E0.02263
G1 X74.542 Y49.546 E0.02262
G1 X74.564 Y49.881 E0.01256
G1 X74.575 Y50.33 E0.01681
G1 X74.575 Y69.321 E0.7106
G1 X74.566 Y70.048 E0.0272
G1 X74.518 Y70.65 E0.0226
G1 X74.392 Y71.242 E0.02265
G1 X74.188 Y71.811 E0.02262
G1 X73.912 Y72.349 E0.02263
G1 X73.567 Y72.845 E0.02261
G1 X73.159 Y73.292 E0.02265
G1 X72.696 Y73.681 E0.02263
G1 X72.186 Y74.005 E0.02261
G1 X71.637 Y74.26 E0.02265
G1 X71.06 Y74.439 E0.02261
G1 X70.464 Y74.541 E0.02263
G1 X70.119 Y74.564 E0.01294
G1 X69.67 Y74.575 E0.01681
G1 X50.648 Y74.575 E0.71176
G1 X49.95 Y74.566 E0.02612
G1 X49.347 Y74.518 E0.02263
G1 X48.756 Y74.391 E0.02262
G1 X48.187 Y74.187 E0.02262
G1 X47.649 Y73.91 E0.02264
G1 X47.153 Y73.565 E0.02261
G1 X46.707 Y73.157 E0.02262
G1 X46.318 Y72.694 E0.02263
G1 X45.994 Y72.184 E0.02261
G1 X45.74 Y71.635 E0.02263
G1 X45.56 Y71.058 E0.02262
G1 X45.458 Y70.462 E0.02263
G1 X45.436 Y70.115 E0.01301
G1 X45.425 Y69.658 E0.0171
G1 X45.425 Y50.612 E0.71266
G1 X45.434 Y49.947 E0.02489
G1 X45.483 Y49.344 E0.02264
G1 X45.61 Y48.753 E0.02262
G1 X45.814 Y48.184 E0.02262
G1 X46.091 Y47.647 E0.02261
G1 X46.437 Y47.151 E0.02263
G0 F7200 X46.881 Y47.32
G1 F2400 X47.284 Y46.912 E0.02146
G1 X47.741 Y46.564 E0.02149
G1 X48.241 Y46.282 E0.02148
G1 X48.776 Y46.073 E0.02149
G1 X49.334 Y45.94 E0.02146
G1 X49.893 Y45.886 E0.02101
G1 X50.33 Y45.875 E0.01636
G1 X69.352 Y45.875 E0.71176
G1 X70.05 Y45.885 E0.02612
G1 X70.622 Y45.934 E0.02148
G1 X71.182 Y46.061 E0.02149
G1 X71.719 Y46.264 E0.02148
G1 X72.222 Y46.54 E0.02147
G1 X72.682 Y46.884 E0.02149
G1 X73.09 Y47.288 E0.02148
G1 X73.438 Y47.744 E0.02146
G1 X73.719 Y48.245 E0.02149
G1 X73.928 Y48.78 E0.02149
G1 X74.061 Y49.338 E0.02146
G1 X74.114 Y49.894 E0.0209
G1 X74.125 Y50.33 E0.01632
G1 X74.125 Y69.315 E0.71037
G1 X74.116 Y70.042 E0.0272
G1 X74.069 Y70.614 E0.02148
G1 X73.943 Y71.174 E0.02148
G1 X73.74 Y71.712 E0.02152
G1 X73.465 Y72.215 E0.02145
G1 X73.122 Y72.676 E0.0215
G1 X72.719 Y73.085 E0.02148
G1 X72.263 Y73.434 E0.02149
G1 X71.763 Y73.716 E0.02148
G1 X71.229 Y73.926 E0.02147
G1 X70.671 Y74.06 E0.02147
G1 X70.107 Y74.114 E0.0212
G1 X69.67 Y74.125 E0.01636
G1 X50.654 Y74.125 E0.71153
G1 X49.956 Y74.116 E0.02612
G1 X49.384 Y74.068 E0.02148
G1 X48.824 Y73.942 E0.02148
G1 X48.287 Y73.739 E0.02148
G1 X47.783 Y73.464 E0.02148
G1 X47.322 Y73.121 E0.0215
G1 X46.914 Y72.718 E0.02146
G1 X46.565 Y72.261 E0.02152
G1 X46.283 Y71.761 E0.02148
G1 X46.074 Y71.227 E0.02146
G1 X45.94 Y70.669 E0.02147
G1 X45.886 Y70.102 E0.02131
G1 X45.875 Y69.658 E0.01662
G1 X45.875 Y50.618 E0.71243
G1 X45.884 Y49.953 E0.02489
G1 X45.932 Y49.381 E0.02148
G1 X46.059 Y48.821 E0.02149
G1 X46.262 Y48.284 E0.02148
G1 X46.538 Y47.781 E0.02147
G1 X46.881 Y47.32 E0.0215
G0 F7200 X47.324 Y47.5
G1 F2400 X47.722 Y47.133 E0.02026
G1 X48.169 Y46.828 E0.02025
G1 X48.657 Y46.592 E0.02028
G1 X49.174 Y46.43 E0.02027
G1 X49.906 Y46.335 E0.02762
G1 X50.227 Y46.326 E0.01202
G1 X69.346 Y46.325 E0.71539
G1 X70.044 Y46.335 E0.02612
G1 X70.583 Y46.383 E0.02025
G1 X71.11 Y46.51 E0.02028
G1 X71.613 Y46.712 E0.02028
G1 X72.08 Y46.987 E0.02028
G1 X72.502 Y47.327 E0.02028
G1 X72.869 Y47.725 E0.02026
G1 X73.174 Y48.173 E0.02028
G1 X73.409 Y48.661 E0.02027
G1 X73.571 Y49.178 E0.02027
G1 X73.665 Y49.907 E0.0275
G1 X73.674 Y50.227 E0.01198
G1 X73.675 Y69.309 E0.714
G1 X73.666 Y70.036 E0.0272
G1 X73.619 Y70.576 E0.02028
G1 X73.494 Y71.103 E0.02027
G1 X73.292 Y71.606 E0.02028
G1 X73.019 Y72.074 E0.02027
G1 X72.679 Y72.497 E0.02031
G1 X72.282 Y72.865 E0.02026
G1 X71.834 Y73.17 E0.02028
G1 X71.347 Y73.407 E0.02027
G1 X70.83 Y73.569 E0.02027
G1 X70.094 Y73.665 E0.02777
G1 X69.773 Y73.674 E0.01202
G1 X50.66 Y73.675 E0.71516
G1 X49.962 Y73.666 E0.02612
G1 X49.422 Y73.619 E0.02028
G1 X48.895 Y73.493 E0.02027
G1 X48.392 Y73.291 E0.02028
G1 X47.924 Y73.017 E0.02029
G1 X47.502 Y72.678 E0.02025
G1 X47.134 Y72.28 E0.02028
G1 X46.829 Y71.833 E0.02025
G1 X46.592 Y71.345 E0.0203
G1 X46.431 Y70.828 E0.02026
G1 X46.335 Y70.09 E0.02785
G1 X46.325 Y69.658 E0.01617
G1 X46.325 Y50.624 E0.71221
G1 X46.334 Y49.959 E0.02489
G1 X46.382 Y49.419 E0.02029
G1 X46.508 Y48.893 E0.02024
G1 X46.71 Y48.39 E0.02028
G1 X46.984 Y47.922 E0.02029
G1 X47.324 Y47.5 E0.02028
G0 F7200 X47.765 Y47.693
G1 F2400 X48.156 Y47.369 E0.019
G1 X48.593 Y47.111 E0.01899
G1 X49.065 Y46.925 E0.01898
G1 X49.561 Y46.815 E0.01901
G1 X49.919 Y46.785 E0.01344
G1 X50.33 Y46.775 E0.01538
G1 X69.339 Y46.775 E0.71127
G1 X70.037 Y46.785 E0.02612
G1 X70.543 Y46.833 E0.01902
G1 X71.034 Y46.958 E0.01896
G1 X71.5 Y47.16 E0.019
G1 X71.929 Y47.432 E0.01901
G1 X72.309 Y47.768 E0.01898
G1 X72.632 Y48.159 E0.01898
G1 X72.89 Y48.597 E0.01902
G1 X73.076 Y49.069 E0.01898
G1 X73.185 Y49.564 E0.01897
G1 X73.215 Y49.919 E0.01333
G1 X73.225 Y50.33 E0.01538
G1 X73.225 Y69.304 E0.70996
G1 X73.216 Y70.031 E0.0272
G1 X73.17 Y70.536 E0.01897
G1 X73.045 Y71.028 E0.01899
G1 X72.844 Y71.495 E0.01902
G1 X72.573 Y71.924 E0.01899
G1 X72.238 Y72.305 E0.01898
G1 X71.847 Y72.628 E0.01898
G1 X71.41 Y72.887 E0.01901
G1 X70.938 Y73.074 E0.019
G1 X70.443 Y73.184 E0.01897
G1 X70.081 Y73.215 E0.01359
G1 X69.67 Y73.225 E0.01538
G1 X50.665 Y73.225 E0.71112
G1 X49.967 Y73.216 E0.02612
G1 X49.462 Y73.169 E0.01898
G1 X48.97 Y73.044 E0.01899
G1 X48.504 Y72.843 E0.01899
G1 X48.075 Y72.572 E0.01899
G1 X47.694 Y72.236 E0.01901
G1 X47.371 Y71.846 E0.01895
G1 X47.112 Y71.409 E0.01901
G1 X46.926 Y70.937 E0.01898
G1 X46.816 Y70.441 E0.01901
G1 X46.785 Y70.078 E0.01363
G1 X46.775 Y69.658 E0.01572
G1 X46.775 Y50.63 E0.71198
G1 X46.784 Y49.965 E0.02489
G1 X46.831 Y49.46 E0.01898
G1 X46.957 Y48.968 E0.019
G1 X47.158 Y48.502 E0.01899
G1 X47.429 Y48.073 E0.01899
G1 X47.765 Y47.693 E0.01898
G1 F4800 E-6.5
G1 F600 Z0.4
;MESH:VORON_CUBE_20mm_V3.stl
G0 F7200 X59.668 Y66.404 Z0.4
;TYPE:WALL-INNER
G1 F600 Z0.2
G1 F1920 E6.5
G1 F2400 X59.999 Y66.412 E0.01101
G1 X60.334 Y66.405 E0.01114
G1 X60.66 Y66.379 E0.01088
G1 X60.991 Y66.336 E0.0111
G1 X61.318 Y66.276 E0.01106
G1 X61.64 Y66.199 E0.01101
G1 X61.96 Y66.106 E0.01108
G1 X62.12 Y66.048 E0.00566
G1 X62.268 Y65.999 E0.00519
G1 X62.579 Y65.872 E0.01117
G1 X62.879 Y65.73 E0.01104
G1 X63.171 Y65.575 E0.011
G1 X63.455 Y65.403 E0.01104
G1 X63.728 Y65.218 E0.01097
G1 X63.994 Y65.018 E0.01107
G1 X64.248 Y64.804 E0.01105
G1 X64.491 Y64.578 E0.01104
G1 X64.721 Y64.34 E0.01101
G1 X64.939 Y64.09 E0.01103
G1 X65.143 Y63.83 E0.01099
G1 X65.335 Y63.56 E0.01102
G1 X65.512 Y63.278 E0.01107
G1 X65.674 Y62.989 E0.01102
G1 X65.821 Y62.692 E0.01102
G1 X65.952 Y62.388 E0.01101
G1 X66.068 Y62.076 E0.01107
G1 X66.167 Y61.76 E0.01101
G1 X66.249 Y61.438 E0.01105
G1 X66.315 Y61.115 E0.01097
G1 X66.365 Y60.788 E0.011
G1 X66.397 Y60.455 E0.01113
G1 X66.412 Y60.125 E0.01099
G1 X66.41 Y59.792 E0.01108
G1 X66.39 Y59.462 E0.011
G1 X66.354 Y59.134 E0.01097
G1 X66.301 Y58.805 E0.01108
G1 X66.23 Y58.482 E0.011
G1 X66.144 Y58.161 E0.01105
G1 X66.04 Y57.846 E0.01103
G1 X65.922 Y57.538 E0.01097
G1 X65.786 Y57.235 E0.01105
G1 X65.636 Y56.939 E0.01104
G1 X65.469 Y56.652 E0.01104
G1 X65.289 Y56.374 E0.01102
G1 X65.094 Y56.105 E0.01105
G1 X64.886 Y55.845 E0.01107
G1 X64.664 Y55.6 E0.011
G1 X64.433 Y55.366 E0.01094
G1 X64.308 Y55.251 E0.00565
G1 X64.184 Y55.141 E0.00551
G1 X63.93 Y54.932 E0.01094
G1 X63.664 Y54.737 E0.01097
G1 X63.523 Y54.642 E0.00565
G1 X63.382 Y54.552 E0.00556
G1 X63.099 Y54.386 E0.01091
G1 X62.804 Y54.233 E0.01105
G1 X62.503 Y54.096 E0.011
G1 X62.195 Y53.974 E0.01102
G1 X61.878 Y53.868 E0.01112
G1 X61.56 Y53.78 E0.01097
G1 X61.236 Y53.708 E0.01104
G1 X60.913 Y53.653 E0.0109
G1 X60.577 Y53.614 E0.01125
G1 X60.25 Y53.592 E0.0109
G1 X59.918 Y53.588 E0.01104
G1 X59.587 Y53.601 E0.01102
G1 X59.256 Y53.631 E0.01105
G1 X58.929 Y53.679 E0.01099
G1 X58.603 Y53.741 E0.01104
G1 X58.282 Y53.822 E0.01101
G1 X57.965 Y53.918 E0.01102
G1 X57.653 Y54.033 E0.01106
G1 X57.348 Y54.162 E0.01101
G1 X57.05 Y54.307 E0.01102
G1 X56.759 Y54.467 E0.01105
G1 X56.477 Y54.642 E0.01104
G1 X56.207 Y54.83 E0.01094
G1 X56.071 Y54.934 E0.00569
G1 X55.941 Y55.038 E0.00554
G1 X55.693 Y55.25 E0.01085
G1 X55.452 Y55.48 E0.01108
G1 X55.228 Y55.718 E0.01087
G1 X55.116 Y55.846 E0.00566
G1 X55.008 Y55.976 E0.00562
G1 X54.811 Y56.234 E0.0108
G1 X54.713 Y56.373 E0.00566
G1 X54.621 Y56.509 E0.00546
G1 X54.532 Y56.65 E0.00555
G1 X54.447 Y56.793 E0.00553
G1 X54.365 Y56.939 E0.00557
G1 X54.217 Y57.231 E0.01089
G1 X54.146 Y57.382 E0.00555
G1 X54.08 Y57.536 E0.00557
G1 X54.017 Y57.692 E0.0056
G1 X53.908 Y57.999 E0.01084
G1 X53.857 Y58.161 E0.00565
G1 X53.811 Y58.324 E0.00563
G1 X53.734 Y58.64 E0.01082
G1 X53.671 Y58.967 E0.01108
G1 X53.626 Y59.295 E0.01101
G1 X53.599 Y59.622 E0.01091
G1 X53.591 Y59.792 E0.00566
G1 X53.588 Y59.957 E0.00549
G1 X53.589 Y60.124 E0.00555
G1 X53.594 Y60.29 E0.00552
G1 X53.605 Y60.46 E0.00567
G1 X53.636 Y60.781 E0.01073
G1 X53.658 Y60.95 E0.00567
G1 X53.686 Y61.115 E0.00557
G1 X53.717 Y61.276 E0.00545
G1 X53.752 Y61.437 E0.00548
G1 X53.79 Y61.596 E0.00544
G1 X53.834 Y61.758 E0.00558
G1 X53.881 Y61.918 E0.00555
G1 X53.934 Y62.076 E0.00554
G1 X53.989 Y62.23 E0.00544
G1 X54.049 Y62.386 E0.00556
G1 X54.112 Y62.538 E0.00547
G1 X54.182 Y62.694 E0.00569
G1 X54.325 Y62.984 E0.01075
G1 X54.405 Y63.133 E0.00562
G1 X54.492 Y63.281 E0.00571
G1 X54.666 Y63.558 E0.01088
G1 X54.857 Y63.828 E0.011
G1 X55.06 Y64.087 E0.01095
G1 X55.169 Y64.215 E0.00559
G1 X55.392 Y64.458 E0.01097
G1 X55.514 Y64.58 E0.00574
G1 X55.751 Y64.801 E0.01078
G1 X55.877 Y64.909 E0.00552
G1 X56.007 Y65.016 E0.0056
G1 X56.138 Y65.117 E0.0055
G1 X56.274 Y65.218 E0.00563
G1 X56.546 Y65.402 E0.01092
G1 X56.827 Y65.571 E0.01091
G1 X56.975 Y65.653 E0.00563
G1 X57.126 Y65.731 E0.00565
G1 X57.422 Y65.871 E0.01089
G1 X57.73 Y65.996 E0.01106
G1 X58.04 Y66.104 E0.01092
G1 X58.201 Y66.153 E0.0056
G1 X58.364 Y66.198 E0.00562
G1 X58.684 Y66.275 E0.01095
G1 X59.01 Y66.335 E0.01102
G1 X59.339 Y66.378 E0.01104
G1 X59.668 Y66.404 E0.01098
G0 F7200 X59.689 Y66.004
;TYPE:WALL-OUTER
G1 F2400 X60 Y66.012 E0.01035
G1 X60.312 Y66.005 E0.01038
G1 X60.464 Y65.992 E0.00507
G1 X60.62 Y65.981 E0.0052
G1 X60.929 Y65.941 E0.01036
G1 X61.235 Y65.885 E0.01035
G1 X61.537 Y65.812 E0.01033
G1 X61.837 Y65.725 E0.01039
G1 X61.985 Y65.672 E0.00523
G1 X62.129 Y65.624 E0.00505
G1 X62.418 Y65.506 E0.01038
G1 X62.699 Y65.373 E0.01034
G1 X62.973 Y65.227 E0.01033
G1 X63.239 Y65.066 E0.01034
G1 X63.496 Y64.892 E0.01032
G1 X63.745 Y64.705 E0.01036
G1 X63.983 Y64.505 E0.01034
G1 X64.21 Y64.293 E0.01033
G1 X64.426 Y64.069 E0.01035
G1 X64.631 Y63.835 E0.01035
G1 X64.822 Y63.591 E0.01031
G1 X65.002 Y63.337 E0.01035
G1 X65.168 Y63.074 E0.01034
G1 X65.32 Y62.802 E0.01036
G1 X65.458 Y62.524 E0.01032
G1 X65.581 Y62.239 E0.01032
G1 X65.689 Y61.947 E0.01035
G1 X65.782 Y61.651 E0.01032
G1 X65.859 Y61.349 E0.01037
G1 X65.921 Y61.045 E0.01032
G1 X65.968 Y60.738 E0.01033
G1 X65.998 Y60.427 E0.01039
G1 X66.012 Y60.117 E0.01032
G1 X66.01 Y59.806 E0.01034
G1 X65.991 Y59.496 E0.01033
G1 X65.957 Y59.187 E0.01034
G1 X65.908 Y58.88 E0.01034
G1 X65.841 Y58.577 E0.01032
G1 X65.761 Y58.276 E0.01036
G1 X65.663 Y57.981 E0.01034
G1 X65.552 Y57.691 E0.01033
G1 X65.425 Y57.407 E0.01035
G1 X65.284 Y57.13 E0.01034
G1 X65.128 Y56.861 E0.01034
G1 X64.959 Y56.6 E0.01034
G1 X64.776 Y56.348 E0.01036
G1 X64.581 Y56.105 E0.01036
G1 X64.373 Y55.875 E0.01031
G1 X64.155 Y55.654 E0.01032
G1 X64.04 Y55.548 E0.0052
G1 X63.924 Y55.445 E0.00516
G1 X63.684 Y55.248 E0.01033
G1 X63.434 Y55.064 E0.01032
G1 X63.304 Y54.977 E0.0052
G1 X63.173 Y54.893 E0.00518
G1 X62.906 Y54.736 E0.0103
G1 X62.629 Y54.593 E0.01037
G1 X62.346 Y54.464 E0.01034
