;FLAVOR:RepRap
;TIME:584
;Filament used: 0.378106m
;Layer height: 0.1
;MINX:28.435
;MINY:48.425
;MINZ:0.2
;MAXX:91.565
;MAXY:71.575
;MAXZ:2.3
;Generated with Cura_SteamEngine 4.12.1
T0
M190 S60
M104 S200
M109 S200
M82 ;absolute extrusion mode
print_start
M83 ;relative extrusion mode
G1 F4800 E-6.5
;LAYER_COUNT:20
;LAYER:0
M107
G1 F600 Z0.4
G0 F7200 X33.596 Y50.274 Z0.4
;TYPE:SKIRT
G1 F600 Z0.2
G1 F1920 E6.5
G1 F3600 X34.013 Y50.011 E0.01845
G1 X34.248 Y49.873 E0.0102
G1 X34.417 Y49.78 E0.00722
G1 X34.577 Y49.696 E0.00676
G1 X35.005 Y49.482 E0.01791
G1 X35.274 Y49.358 E0.01108
G1 X35.459 Y49.28 E0.00751
G1 X35.649 Y49.205 E0.00764
G1 X36.087 Y49.043 E0.01747
G1 X36.329 Y48.961 E0.00956
G1 X36.537 Y48.897 E0.00814
G1 X36.747 Y48.838 E0.00816
G1 X37.196 Y48.723 E0.01734
G1 X37.445 Y48.667 E0.00955
G1 X37.668 Y48.623 E0.00851
G1 X37.903 Y48.583 E0.00892
G1 X38.348 Y48.519 E0.01682
G1 X38.596 Y48.49 E0.00934
G1 X38.811 Y48.471 E0.00808
G1 X39.039 Y48.456 E0.00855
G1 X39.701 Y48.432 E0.02479
G1 X40.228 Y48.425 E0.01972
G1 X79.673 Y48.425 E1.47594
G1 X80.479 Y48.436 E0.03016
G1 X80.775 Y48.447 E0.01108
G1 X81.308 Y48.482 E0.01999
G1 X81.554 Y48.506 E0.00925
G1 X81.772 Y48.533 E0.00822
G1 X81.994 Y48.566 E0.0084
G1 X82.448 Y48.645 E0.01724
G1 X82.765 Y48.711 E0.01212
G1 X82.999 Y48.769 E0.00902
G1 X83.166 Y48.814 E0.00647
G1 X83.596 Y48.938 E0.01675
G1 X83.824 Y49.01 E0.00895
G1 X83.983 Y49.065 E0.0063
G1 X84.206 Y49.149 E0.00892
G1 X84.677 Y49.34 E0.01902
G1 X84.894 Y49.435 E0.00886
G1 X85.076 Y49.52 E0.00752
G1 X85.287 Y49.625 E0.00882
G1 X85.701 Y49.845 E0.01754
G1 X85.929 Y49.975 E0.00982
G1 X86.115 Y50.088 E0.00814
G1 X86.293 Y50.202 E0.00791
G1 X86.684 Y50.465 E0.01763
G1 X86.902 Y50.621 E0.01003
G1 X87.078 Y50.755 E0.00828
G1 X87.239 Y50.883 E0.0077
G1 X87.614 Y51.196 E0.01828
G1 X87.79 Y51.351 E0.00878
G1 X87.911 Y51.463 E0.00617
G1 X88.07 Y51.617 E0.00828
G1 X88.424 Y51.978 E0.01892
G1 X88.617 Y52.188 E0.01067
G1 X88.771 Y52.366 E0.00881
G1 X88.887 Y52.506 E0.0068
G1 X89.191 Y52.887 E0.01824
G1 X89.347 Y53.094 E0.0097
G1 X89.459 Y53.252 E0.00725
G1 X89.57 Y53.415 E0.00738
G1 X89.716 Y53.641 E0.01007
G1 X89.867 Y53.894 E0.01102
G1 X90.334 Y54.732 E0.0359
G1 X90.362 Y54.785 E0.00224
G1 X90.498 Y55.064 E0.01161
G1 X90.586 Y55.262 E0.00811
G1 X90.662 Y55.445 E0.00741
G1 X90.78 Y55.745 E0.01206
G1 X90.88 Y56.024 E0.01109
G1 X91.095 Y56.695 E0.02636
G1 X91.207 Y57.112 E0.01616
G1 X91.365 Y57.833 E0.02762
G1 X91.439 Y58.275 E0.01677
G1 X91.519 Y58.952 E0.02551
G1 X91.55 Y59.393 E0.01654
G1 X91.565 Y60.11 E0.02683
G1 X91.552 Y60.559 E0.01681
G1 X91.496 Y61.282 E0.02713
G1 X91.441 Y61.722 E0.01659
G1 X91.326 Y62.375 E0.02481
G1 X91.228 Y62.808 E0.01661
G1 X91.028 Y63.527 E0.02792
G1 X90.89 Y63.943 E0.0164
G1 X90.635 Y64.606 E0.02658
G1 X90.557 Y64.796 E0.00769
G1 X90.505 Y64.915 E0.00486
G1 X90.409 Y65.122 E0.00854
G1 X90.297 Y65.347 E0.0094
G1 X90.211 Y65.511 E0.00693
G1 X90.094 Y65.724 E0.00909
G1 X89.95 Y65.967 E0.01057
G1 X89.509 Y66.664 E0.03086
G1 X89.394 Y66.838 E0.0078
G1 X89.233 Y67.061 E0.01029
G1 X89.106 Y67.227 E0.00782
G1 X88.961 Y67.406 E0.00862
G1 X88.643 Y67.781 E0.0184
G1 X88.487 Y67.956 E0.00877
G1 X88.345 Y68.107 E0.00776
G1 X88.19 Y68.264 E0.00826
G1 X87.843 Y68.599 E0.01805
G1 X87.646 Y68.778 E0.00996
G1 X87.497 Y68.906 E0.00735
G1 X87.341 Y69.035 E0.00757
G1 X86.955 Y69.338 E0.01836
G1 X86.755 Y69.486 E0.00931
G1 X86.588 Y69.603 E0.00763
G1 X86.407 Y69.723 E0.00813
G1 X85.994 Y69.984 E0.01828
G1 X85.758 Y70.124 E0.01027
G1 X85.591 Y70.216 E0.00713
G1 X85.429 Y70.301 E0.00685
G1 X84.995 Y70.518 E0.01816
G1 X84.726 Y70.642 E0.01108
G1 X84.541 Y70.72 E0.00751
G1 X84.351 Y70.795 E0.00764
G1 X83.913 Y70.957 E0.01747
G1 X83.671 Y71.039 E0.00956
G1 X83.463 Y71.103 E0.00814
G1 X83.253 Y71.162 E0.00816
G1 X82.804 Y71.277 E0.01734
G1 X82.555 Y71.333 E0.00955
G1 X82.332 Y71.377 E0.00851
G1 X82.096 Y71.418 E0.00896
G1 X81.65 Y71.482 E0.01686
G1 X81.405 Y71.51 E0.00923
G1 X81.191 Y71.529 E0.00804
G1 X80.961 Y71.544 E0.00862
G1 X80.299 Y71.568 E0.02479
G1 X79.772 Y71.575 E0.01972
G1 X40.327 Y71.575 E1.47594
G1 X39.521 Y71.564 E0.03016
G1 X39.225 Y71.553 E0.01108
G1 X38.692 Y71.518 E0.01999
G1 X38.446 Y71.494 E0.00925
G1 X38.228 Y71.467 E0.00822
G1 X38.006 Y71.434 E0.0084
G1 X37.552 Y71.355 E0.01724
G1 X37.231 Y71.288 E0.01227
G1 X36.994 Y71.229 E0.00914
G1 X36.833 Y71.185 E0.00625
G1 X36.406 Y71.062 E0.01663
G1 X36.176 Y70.99 E0.00902
G1 X36.017 Y70.935 E0.0063
G1 X35.794 Y70.851 E0.00892
G1 X35.323 Y70.66 E0.01902
G1 X35.104 Y70.564 E0.00895
G1 X34.918 Y70.477 E0.00768
G1 X34.701 Y70.369 E0.00907
G1 X34.289 Y70.149 E0.01748
G1 X34.081 Y70.03 E0.00897
G1 X33.897 Y69.919 E0.00804
G1 X33.702 Y69.795 E0.00865
G1 X33.309 Y69.53 E0.01774
G1 X33.102 Y69.382 E0.00952
G1 X32.928 Y69.25 E0.00817
G1 X32.761 Y69.117 E0.00799
G1 X32.386 Y68.804 E0.01828
G1 X32.202 Y68.642 E0.00917
G1 X32.073 Y68.522 E0.00659
G1 X31.922 Y68.375 E0.00789
G1 X31.573 Y68.019 E0.01865
G1 X31.376 Y67.805 E0.01088
G1 X31.225 Y67.63 E0.00865
G1 X31.113 Y67.494 E0.00659
G1 X30.805 Y67.108 E0.01848
G1 X30.65 Y66.903 E0.00962
G1 X30.54 Y66.748 E0.00711
G1 X30.423 Y66.574 E0.00785
G1 X30.279 Y66.35 E0.00996
G1 X30.132 Y66.106 E0.01066
G1 X29.711 Y65.352 E0.03231
G1 X29.619 Y65.178 E0.00736
G1 X29.495 Y64.92 E0.01071
G1 X29.411 Y64.73 E0.00777
G1 X29.339 Y64.557 E0.00701
G1 X29.22 Y64.255 E0.01215
G1 X29.119 Y63.972 E0.01124
G1 X28.905 Y63.303 E0.02628
G1 X28.792 Y62.886 E0.01617
G1 X28.634 Y62.163 E0.02769
G1 X28.561 Y61.722 E0.01673
G1 X28.481 Y61.044 E0.02555
G1 X28.45 Y60.604 E0.0165
G1 X28.435 Y59.89 E0.02672
G1 X28.448 Y59.441 E0.01681
G1 X28.504 Y58.718 E0.02713
G1 X28.559 Y58.278 E0.01659
G1 X28.674 Y57.625 E0.02481
G1 X28.772 Y57.192 E0.01661
G1 X28.972 Y56.473 E0.02792
G1 X29.11 Y56.057 E0.0164
G1 X29.365 Y55.394 E0.02658
G1 X29.44 Y55.209 E0.00747
G1 X29.494 Y55.085 E0.00506
G1 X29.597 Y54.866 E0.00906
G1 X29.707 Y54.646 E0.0092
G1 X29.789 Y54.489 E0.00663
G1 X29.906 Y54.276 E0.00909
G1 X30.05 Y54.033 E0.01057
G1 X30.491 Y53.336 E0.03086
G1 X30.65 Y53.1 E0.01065
G1 X30.777 Y52.927 E0.00803
G1 X30.907 Y52.758 E0.00798
G1 X31.046 Y52.586 E0.00827
G1 X31.367 Y52.208 E0.01856
G1 X31.527 Y52.029 E0.00898
G1 X31.661 Y51.887 E0.00731
G1 X31.803 Y51.743 E0.00757
G1 X32.134 Y51.422 E0.01725
G1 X32.335 Y51.238 E0.0102
G1 X32.5 Y51.096 E0.00815
G1 X32.659 Y50.965 E0.00771
G1 X33.045 Y50.662 E0.01836
G1 X33.245 Y50.514 E0.00931
G1 X33.412 Y50.397 E0.00763
G1 X33.596 Y50.274 E0.00828
G0 F7200 X33.836 Y50.655
G1 F3600 X34.253 Y50.392 E0.01845
G1 X34.465 Y50.267 E0.00921
G1 X34.634 Y50.174 E0.00722
G1 X34.778 Y50.098 E0.00609
G1 X35.206 Y49.884 E0.01791
G1 X35.448 Y49.773 E0.00996
G1 X35.633 Y49.695 E0.00751
G1 X35.805 Y49.627 E0.00692
G1 X36.243 Y49.465 E0.01747
G1 X36.461 Y49.391 E0.00861
G1 X36.669 Y49.327 E0.00814
G1 X36.859 Y49.274 E0.00738
G1 X37.308 Y49.159 E0.01734
G1 X37.532 Y49.108 E0.0086
G1 X37.755 Y49.064 E0.00851
G1 X37.967 Y49.028 E0.00805
G1 X38.412 Y48.964 E0.01682
G1 X38.636 Y48.938 E0.00844
G1 X38.851 Y48.919 E0.00808
G1 X39.056 Y48.906 E0.00769
G1 X39.707 Y48.882 E0.02438
G1 X40.234 Y48.875 E0.01972
G1 X79.667 Y48.875 E1.47549
G1 X80.587 Y48.889 E0.03443
G1 X80.872 Y48.903 E0.01068
G1 X81.277 Y48.931 E0.01519
G1 X81.499 Y48.952 E0.00834
G1 X81.717 Y48.979 E0.00822
G1 X81.917 Y49.009 E0.00757
G1 X82.371 Y49.088 E0.01724
G1 X82.656 Y49.148 E0.0109
G1 X82.89 Y49.206 E0.00902
G1 X83.041 Y49.247 E0.00585
G1 X83.471 Y49.371 E0.01675
G1 X83.676 Y49.436 E0.00805
G1 X83.835 Y49.491 E0.0063
G1 X84.037 Y49.566 E0.00806
G1 X84.508 Y49.757 E0.01902
G1 X84.704 Y49.843 E0.00801
G1 X84.886 Y49.928 E0.00752
G1 X85.076 Y50.022 E0.00793
G1 X85.49 Y50.242 E0.01754
G1 X85.696 Y50.36 E0.00888
G1 X85.882 Y50.473 E0.00814
G1 X86.042 Y50.575 E0.0071
G1 X86.433 Y50.838 E0.01763
G1 X86.63 Y50.979 E0.00906
G1 X86.806 Y51.113 E0.00828
G1 X86.95 Y51.228 E0.0069
G1 X87.325 Y51.541 E0.01828
G1 X87.484 Y51.681 E0.00793
G1 X87.605 Y51.793 E0.00617
G1 X87.748 Y51.932 E0.00746
G1 X88.102 Y52.293 E0.01892
G1 X88.277 Y52.482 E0.00964
G1 X88.431 Y52.66 E0.00881
G1 X88.535 Y52.786 E0.00611
G1 X88.839 Y53.167 E0.01824
G1 X88.98 Y53.354 E0.00876
G1 X89.092 Y53.512 E0.00725
G1 X89.192 Y53.66 E0.00668
G1 X89.338 Y53.886 E0.01007
G1 X89.475 Y54.113 E0.00992
G1 X89.891 Y54.858 E0.03193
G1 X89.964 Y54.995 E0.00581
G1 X90.086 Y55.247 E0.01048
G1 X90.174 Y55.445 E0.00811
G1 X90.244 Y55.61 E0.00671
G1 X90.362 Y55.91 E0.01206
G1 X90.451 Y56.161 E0.00996
G1 X90.666 Y56.832 E0.02636
G1 X90.767 Y57.208 E0.01457
G1 X90.925 Y57.929 E0.02762
G1 X90.992 Y58.328 E0.01514
G1 X91.072 Y59.005 E0.02551
G1 X91.1 Y59.403 E0.01493
G1 X91.115 Y60.12 E0.02683
G1 X91.104 Y60.525 E0.01516
G1 X91.048 Y61.248 E0.02713
G1 X90.997 Y61.644 E0.01494
G1 X90.882 Y62.297 E0.02481
G1 X90.794 Y62.687 E0.01496
G1 X90.594 Y63.406 E0.02792
G1 X90.47 Y63.782 E0.01481
G1 X90.215 Y64.445 E0.02658
G1 X90.145 Y64.616 E0.00691
G1 X90.093 Y64.735 E0.00486
G1 X90.006 Y64.921 E0.00768
G1 X89.894 Y65.146 E0.0094
G1 X89.816 Y65.294 E0.00626
G1 X89.699 Y65.507 E0.00909
G1 X89.57 Y65.727 E0.00954
G1 X89.129 Y66.424 E0.03086
G1 X88.981 Y66.643 E0.00989
G1 X88.875 Y66.787 E0.00669
G1 X88.748 Y66.953 E0.00782
G1 X88.618 Y67.115 E0.00777
G1 X88.3 Y67.49 E0.0184
G1 X88.159 Y67.648 E0.00792
G1 X88.017 Y67.799 E0.00776
G1 X87.877 Y67.941 E0.00746
G1 X87.53 Y68.276 E0.01805
G1 X87.353 Y68.437 E0.00895
G1 X87.204 Y68.565 E0.00735
G1 X87.063 Y68.681 E0.00683
G1 X86.677 Y68.984 E0.01836
G1 X86.497 Y69.117 E0.00837
G1 X86.33 Y69.234 E0.00763
G1 X86.167 Y69.343 E0.00734
G1 X85.754 Y69.604 E0.01828
G1 X85.54 Y69.73 E0.00929
G1 X85.228 Y69.899 E0.01328
G1 X84.794 Y70.116 E0.01816
G1 X84.552 Y70.227 E0.00996
G1 X84.367 Y70.305 E0.00751
G1 X84.195 Y70.373 E0.00692
G1 X83.757 Y70.535 E0.01747
G1 X83.539 Y70.609 E0.00861
G1 X83.331 Y70.673 E0.00814
G1 X83.141 Y70.726 E0.00738
G1 X82.692 Y70.841 E0.01734
G1 X82.468 Y70.892 E0.0086
G1 X82.245 Y70.936 E0.00851
G1 X82.032 Y70.972 E0.00808
G1 X81.586 Y71.036 E0.01686
G1 X81.365 Y71.062 E0.00833
G1 X81.151 Y71.081 E0.00804
G1 X80.944 Y71.094 E0.00776
G1 X80.293 Y71.118 E0.02438
G1 X79.766 Y71.125 E0.01972
G1 X40.333 Y71.125 E1.47549
G1 X39.413 Y71.111 E0.03443
G1 X39.128 Y71.097 E0.01068
G1 X38.723 Y71.069 E0.01519
G1 X38.501 Y71.048 E0.00834
G1 X38.283 Y71.021 E0.00822
G1 X38.083 Y70.991 E0.00757
G1 X37.629 Y70.912 E0.01724
G1 X37.34 Y70.851 E0.01105
G1 X37.103 Y70.792 E0.00914
G1 X36.957 Y70.753 E0.00565
G1 X36.53 Y70.63 E0.01663
G1 X36.324 Y70.564 E0.00809
G1 X36.165 Y70.509 E0.0063
G1 X35.963 Y70.434 E0.00806
G1 X35.492 Y70.243 E0.01902
G1 X35.294 Y70.156 E0.00809
G1 X35.108 Y70.069 E0.00768
G1 X34.913 Y69.972 E0.00815
G1 X34.501 Y69.752 E0.01748
G1 X34.313 Y69.645 E0.00809
G1 X34.129 Y69.534 E0.00804
G1 X33.954 Y69.422 E0.00777
G1 X33.561 Y69.157 E0.01774
G1 X33.374 Y69.023 E0.00861
G1 X33.2 Y68.891 E0.00817
G1 X33.05 Y68.772 E0.00716
G1 X32.675 Y68.459 E0.01828
G1 X32.508 Y68.312 E0.00832
G1 X32.379 Y68.192 E0.00659
G1 X32.243 Y68.06 E0.00709
G1 X31.894 Y67.704 E0.01865
G1 X31.717 Y67.511 E0.0098
G1 X31.566 Y67.336 E0.00865
G1 X31.465 Y67.214 E0.00593
G1 X31.157 Y66.828 E0.01848
G1 X31.017 Y66.642 E0.00871
G1 X30.907 Y66.487 E0.00711
G1 X30.801 Y66.331 E0.00706
G1 X30.657 Y66.107 E0.00996
G1 X30.525 Y65.887 E0.0096
G1 X30.104 Y65.133 E0.03231
G1 X30.018 Y64.971 E0.00686
G1 X29.906 Y64.738 E0.00967
G1 X29.822 Y64.548 E0.00777
G1 X29.757 Y64.392 E0.00632
G1 X29.638 Y64.09 E0.01215
G1 X29.547 Y63.835 E0.01013
G1 X29.333 Y63.166 E0.02628
G1 X29.232 Y62.79 E0.01457
G1 X29.074 Y62.067 E0.02769
G1 X29.007 Y61.669 E0.0151
G1 X28.927 Y60.991 E0.02555
G1 X28.9 Y60.595 E0.01485
G1 X28.885 Y59.881 E0.02672
G1 X28.896 Y59.475 E0.0152
G1 X28.952 Y58.752 E0.02713
G1 X29.003 Y58.356 E0.01494
G1 X29.118 Y57.703 E0.02481
G1 X29.206 Y57.313 E0.01496
G1 X29.406 Y56.594 E0.02792
G1 X29.53 Y56.218 E0.01481
G1 X29.785 Y55.555 E0.02658
G1 X29.853 Y55.389 E0.00671
G1 X29.907 Y55.265 E0.00506
G1 X29.999 Y55.067 E0.00817
G1 X30.109 Y54.847 E0.0092
G1 X30.301 Y54.493 E0.01507
G1 X30.43 Y54.273 E0.00954
G1 X30.871 Y53.576 E0.03086
G1 X31.019 Y53.357 E0.00989
G1 X31.133 Y53.201 E0.00723
G1 X31.263 Y53.032 E0.00798
G1 X31.389 Y52.877 E0.00747
G1 X31.71 Y52.499 E0.01856
G1 X31.854 Y52.338 E0.00808
G1 X31.988 Y52.196 E0.00731
G1 X32.116 Y52.066 E0.00683
G1 X32.447 Y51.745 E0.01725
G1 X32.628 Y51.579 E0.00919
G1 X32.793 Y51.437 E0.00815
G1 X32.937 Y51.319 E0.00697
G1 X33.323 Y51.016 E0.01836
G1 X33.503 Y50.883 E0.00837
G1 X33.67 Y50.766 E0.00763
G1 X33.836 Y50.655 E0.00747
G0 F7200 X34.077 Y51.036
G1 F3600 X34.494 Y50.773 E0.01845
G1 X34.682 Y50.661 E0.00819
G1 X34.851 Y50.568 E0.00722
G1 X34.979 Y50.501 E0.00541
G1 X35.407 Y50.287 E0.01791
G1 X35.623 Y50.188 E0.00889
G1 X35.808 Y50.11 E0.00751
G1 X35.961 Y50.049 E0.00616
G1 X36.399 Y49.887 E0.01747
G1 X36.593 Y49.822 E0.00766
G1 X36.801 Y49.758 E0.00814
G1 X36.97 Y49.71 E0.00657
G1 X37.419 Y49.595 E0.01734
G1 X37.62 Y49.55 E0.00771
G1 X37.843 Y49.506 E0.00851
G1 X38.031 Y49.473 E0.00714
G1 X38.476 Y49.409 E0.01682
G1 X38.675 Y49.386 E0.0075
G1 X38.89 Y49.367 E0.00808
G1 X39.073 Y49.356 E0.00686
G1 X39.713 Y49.332 E0.02396
G1 X40.24 Y49.325 E0.01972
G1 X79.661 Y49.325 E1.47504
G1 X80.467 Y49.336 E0.03016
G1 X80.738 Y49.346 E0.01015
G1 X81.245 Y49.38 E0.01901
G1 X81.444 Y49.399 E0.00748
G1 X81.662 Y49.426 E0.00822
G1 X81.84 Y49.452 E0.00673
G1 X82.294 Y49.531 E0.01724
G1 X82.548 Y49.585 E0.00972
G1 X82.782 Y49.643 E0.00902
G1 X82.916 Y49.679 E0.00519
G1 X83.346 Y49.803 E0.01675
G1 X83.529 Y49.861 E0.00718
G1 X83.688 Y49.916 E0.0063
G1 X83.868 Y49.983 E0.00719
G1 X84.339 Y50.174 E0.01902
G1 X84.513 Y50.25 E0.0071
G1 X84.695 Y50.335 E0.00752
G1 X84.865 Y50.42 E0.00711
G1 X85.279 Y50.64 E0.01754
G1 X85.462 Y50.744 E0.00788
G1 X85.648 Y50.857 E0.00814
G1 X85.791 Y50.949 E0.00636
G1 X86.182 Y51.212 E0.01763
G1 X86.357 Y51.337 E0.00805
G1 X86.533 Y51.471 E0.00828
G1 X86.662 Y51.574 E0.00618
G1 X87.037 Y51.887 E0.01828
G1 X87.178 Y52.011 E0.00703
G1 X87.299 Y52.123 E0.00617
G1 X87.427 Y52.247 E0.00667
G1 X87.781 Y52.608 E0.01892
G1 X87.936 Y52.777 E0.00858
G1 X88.184 Y53.067 E0.01428
G1 X88.488 Y53.448 E0.01824
G1 X88.613 Y53.615 E0.00781
G1 X88.725 Y53.773 E0.00725
G1 X88.814 Y53.904 E0.00593
G1 X88.96 Y54.13 E0.01007
G1 X89.082 Y54.332 E0.00883
G1 X89.498 Y55.077 E0.03193
G1 X89.566 Y55.205 E0.00542
G1 X89.675 Y55.429 E0.00932
G1 X89.763 Y55.627 E0.00811
G1 X89.825 Y55.775 E0.006
G1 X89.943 Y56.075 E0.01206
G1 X90.023 Y56.299 E0.0089
G1 X90.238 Y56.97 E0.02636
G1 X90.328 Y57.304 E0.01294
G1 X90.486 Y58.025 E0.02762
G1 X90.546 Y58.381 E0.01351
G1 X90.626 Y59.058 E0.02551
G1 X90.65 Y59.412 E0.01328
G1 X90.665 Y60.129 E0.02683
G1 X90.655 Y60.49 E0.01351
G1 X90.599 Y61.213 E0.02713
G1 X90.554 Y61.566 E0.01332
G1 X90.439 Y62.219 E0.02481
G1 X90.361 Y62.567 E0.01334
G1 X90.161 Y63.286 E0.02792
G1 X90.05 Y63.62 E0.01317
G1 X89.795 Y64.283 E0.02658
G1 X89.733 Y64.436 E0.00618
G1 X89.681 Y64.555 E0.00486
G1 X89.603 Y64.721 E0.00686
G1 X89.491 Y64.946 E0.0094
G1 X89.422 Y65.077 E0.00554
G1 X89.305 Y65.29 E0.00909
G1 X89.19 Y65.486 E0.0085
G1 X88.749 Y66.183 E0.03086
G1 X88.612 Y66.385 E0.00913
G1 X88.518 Y66.514 E0.00597
G1 X88.391 Y66.68 E0.00782
G1 X88.275 Y66.824 E0.00692
G1 X87.957 Y67.199 E0.0184
G1 X87.831 Y67.34 E0.00708
G1 X87.689 Y67.491 E0.00776
G1 X87.564 Y67.617 E0.00664
G1 X87.217 Y67.952 E0.01805
G1 X87.06 Y68.096 E0.00797
G1 X86.911 Y68.224 E0.00735
G1 X86.785 Y68.327 E0.00609
G1 X86.399 Y68.63 E0.01836
G1 X86.239 Y68.749 E0.00746
G1 X86.072 Y68.866 E0.00763
G1 X85.926 Y68.963 E0.00656
G1 X85.513 Y69.224 E0.01828
G1 X85.323 Y69.336 E0.00825
G1 X85.156 Y69.428 E0.00713
G1 X85.027 Y69.496 E0.00546
G1 X84.593 Y69.713 E0.01816
G1 X84.377 Y69.812 E0.00889
G1 X84.192 Y69.89 E0.00751
G1 X84.039 Y69.951 E0.00616
G1 X83.601 Y70.113 E0.01747
G1 X83.407 Y70.178 E0.00766
G1 X83.199 Y70.242 E0.00814
G1 X83.03 Y70.29 E0.00657
G1 X82.581 Y70.405 E0.01734
G1 X82.38 Y70.45 E0.00771
G1 X82.157 Y70.494 E0.00851
G1 X81.968 Y70.527 E0.00718
G1 X81.522 Y70.591 E0.01686
