; generated by SuperSlicer 2.3.57 on 2022-01-30 at 06:29:49 UTC


;
;

;
;
; TODO: check the size of the extruder and the y-bar clearance. Optimize & test supports.

; external perimeters extrusion width = 0.42mm
; perimeters extrusion width = 0.46mm
; infill extrusion width = 0.44mm
; solid infill extrusion width = 0.46mm
; top infill extrusion width = 0.44mm
; first layer extrusion width = 0.56mm

; object:{"name":"Voron_Design_Cube_v7","id":"Voron_Design_Cube_v7 id:0 copy 0","object_center":[59.000000,59.500000,0.000000],"boundingbox_center":[59.000000,59.500000,10.000000],"boundingbox_size":[20.000000,20.000000,20.000000]}
; plater:{"center":[59.000000,59.500000,0.000000],"boundingbox_center":[59.000000,59.500000,10.000000],"boundingbox_size":[20.000000,20.000000,20.000000]}

M73 P0 R15
;TYPE:Custom
; custom gcode: start_gcode
; M190 S0
; M109 S0 ; uncomment to remove set&wait temp gcode added automatically after this start gcode
print_start EXTRUDER=200 BED=60 CHAMBER=0
; custom gcode end: start_gcode
G21 ; set units to millimeters
G90 ; use absolute coordinates
M83 ; use relative distances for extrusion
; custom gcode: start_filament_gcode
; Filament gcode
; custom gcode end: start_filament_gcode
M104 S200 ; set temperature
M109 S200 ; set temperature and wait for it to be reached
M190 S60 ; set bed temperature and wait for it to be reached
;LAYER_CHANGE
;Z:0.2375
;HEIGHT:0.2375
; custom gcode: before_layer_gcode
;BEFORE_LAYER_CHANGE
;0.2375

; custom gcode end: before_layer_gcode

G1 Z0.2375 F18000
; custom gcode: layer_gcode
;AFTER_LAYER_CHANGE
;0.2375
; custom gcode end: layer_gcode

; INIT printing object Voron_Design_Cube_v7 id:0 copy 0
G1 E-0.4 F3000
G1 Z0.4375 F18000
; printing object Voron_Design_Cube_v7 id:0 copy 0
G1 X54.227 Y54.279
G1 Z0.2375
G1 E0.4 F1800
; custom gcode: feature_gcode
; External perimeter
;;Perimeter
;SET_VELOCITY_LIMIT ACCEL=2000 ACCEL_TO_DECEL=2000 SQUARE_CORNER_VELOCITY=8

; Overhang perimeter
;
; custom gcode end: feature_gcode

;TYPE:Internal perimeter
;WIDTH:0.56
G1 X53.754 Y54.756 E0.03379
G1 X53.463 Y55.098 E0.02256
G1 X53.047 Y55.679 E0.03592
G1 X52.683 Y56.316 E0.03687
G1 X52.387 Y56.987 E0.03686
G1 X52.163 Y57.685 E0.03688
G1 X52.011 Y58.403 E0.03688
G1 X51.935 Y59.133 E0.03687
G1 X51.935 Y59.867 E0.03688
G1 X52.011 Y60.597 E0.03687
G1 X52.163 Y61.315 E0.03688
G1 X52.387 Y62.013 E0.03688
G1 X52.683 Y62.684 E0.03686
G1 X53.037 Y63.305 E0.03592
G1 X53.291 Y63.675 E0.02257
G1 X53.712 Y64.199 E0.03378
G1 X54.226 Y64.72 E0.03678
G1 X54.792 Y65.187 E0.03688
G1 X55.404 Y65.592 E0.03687
G1 X56.037 Y65.923 E0.0359
G1 X56.451 Y66.097 E0.02258
G1 X57.088 Y66.311 E0.03381
G1 X57.802 Y66.472 E0.03677
G1 X58.53 Y66.559 E0.03687
G1 X59.264 Y66.569 E0.03688
G1 X59.995 Y66.504 E0.03687
G1 X60.715 Y66.363 E0.03687
G1 X61.397 Y66.154 E0.03589
G1 X61.815 Y65.988 E0.02259
G1 X62.42 Y65.693 E0.03383
G1 X63.041 Y65.307 E0.03675
G1 X63.62 Y64.857 E0.03688
G1 X64.15 Y64.35 E0.03687
G1 X64.625 Y63.79 E0.03687
G1 X65.039 Y63.184 E0.03688
G1 X65.388 Y62.539 E0.03687
G1 X65.668 Y61.861 E0.03687
G1 X65.877 Y61.158 E0.03688
G1 X66.012 Y60.437 E0.03687
G1 X66.069 Y59.726 E0.03583
G1 X66.069 Y59.274 E0.02276
G1 X66.012 Y58.563 E0.03583
G1 X65.877 Y57.842 E0.03687
G1 X65.669 Y57.141 E0.03674
G1 X65.413 Y56.518 E0.03386
G1 X65.211 Y56.116 E0.0226
G1 X64.84 Y55.507 E0.03585
G1 X64.395 Y54.924 E0.03687
G1 X63.892 Y54.39 E0.03687
G1 X63.336 Y53.911 E0.03687
G1 X62.734 Y53.492 E0.03688
G1 X62.094 Y53.138 E0.03675
G1 X61.475 Y52.875 E0.03383
G1 X61.049 Y52.73 E0.02259
G1 X60.356 Y52.557 E0.03588
G1 X59.63 Y52.454 E0.03687
G1 X58.897 Y52.427 E0.03687
G1 X58.165 Y52.475 E0.03687
G1 X57.442 Y52.6 E0.03687
G1 X56.736 Y52.798 E0.03687
G1 X56.054 Y53.069 E0.03687
G1 X55.404 Y53.408 E0.03687
G1 X54.792 Y53.813 E0.03687
G1 X54.274 Y54.24 E0.03377
G1 X54.597 Y54.633 F18000
G1 F1800
G1 X54.571 Y54.655 E0.00171
G1 X54.13 Y55.101 E0.03153
G1 X53.865 Y55.412 E0.02055
G1 X53.476 Y55.954 E0.03353
G1 X53.138 Y56.545 E0.03422
G1 X52.864 Y57.168 E0.0342
G1 X52.655 Y57.816 E0.03422
G1 X52.515 Y58.482 E0.03422
G1 X52.444 Y59.16 E0.03422
G1 X52.444 Y59.84 E0.03422
G1 X52.515 Y60.518 E0.03422
G1 X52.655 Y61.184 E0.03422
G1 X52.864 Y61.832 E0.03422
G1 X53.138 Y62.455 E0.0342
G1 X53.469 Y63.034 E0.03353
G1 X53.7 Y63.371 E0.02055
G1 X54.093 Y63.86 E0.03152
G1 X54.57 Y64.344 E0.03415
G1 X55.095 Y64.777 E0.03422
G1 X55.663 Y65.153 E0.03421
G1 X56.254 Y65.462 E0.03352
G1 X56.631 Y65.621 E0.02055
G1 X57.226 Y65.82 E0.03154
G1 X57.888 Y65.97 E0.03414
G1 X58.564 Y66.05 E0.03421
G1 X59.245 Y66.06 E0.03422
G1 X59.923 Y65.999 E0.03421
G1 X60.591 Y65.869 E0.03421
G1 X61.229 Y65.674 E0.03351
G1 X61.609 Y65.522 E0.02057
G1 X62.173 Y65.247 E0.03156
G1 X62.749 Y64.888 E0.03413
G1 X63.287 Y64.471 E0.03422
G1 X63.779 Y64 E0.03421
G1 X64.219 Y63.481 E0.03422
G1 X64.604 Y62.919 E0.03422
G1 X64.927 Y62.32 E0.03421
G1 X65.188 Y61.691 E0.03422
G1 X65.381 Y61.039 E0.03422
G1 X65.506 Y60.369 E0.03422
G1 X65.56 Y59.706 E0.03347
G1 X65.56 Y59.294 E0.02069
G1 X65.506 Y58.631 E0.03347
G1 X65.381 Y57.961 E0.03422
G1 X65.188 Y57.311 E0.03412
G1 X64.95 Y56.729 E0.03158
G1 X64.766 Y56.364 E0.02057
G1 X64.419 Y55.795 E0.03348
G1 X64.006 Y55.254 E0.03421
G1 X63.539 Y54.758 E0.03421
G1 X63.024 Y54.314 E0.03422
G1 X62.465 Y53.925 E0.03422
G1 X61.87 Y53.597 E0.03413
G1 X61.293 Y53.35 E0.03156
G1 X60.905 Y53.219 E0.02056
G1 X60.259 Y53.057 E0.0335
G1 X59.585 Y52.962 E0.03422
G1 X58.904 Y52.936 E0.03422
G1 X58.225 Y52.981 E0.03422
G1 X57.554 Y53.097 E0.03421
G1 X56.899 Y53.281 E0.03422
G1 X56.266 Y53.532 E0.03421
G1 X55.663 Y53.847 E0.03422
G1 X55.095 Y54.223 E0.03421
G1 X54.643 Y54.595 E0.02942
G1 X54.967 Y54.988 F18000
G1 F1800
G1 X54.914 Y55.032 E0.00343
G1 X54.505 Y55.445 E0.02927
G1 X54.266 Y55.726 E0.01853
G1 X53.905 Y56.23 E0.03115
G1 X53.593 Y56.775 E0.03156
G1 X53.34 Y57.349 E0.03155
G1 X53.148 Y57.947 E0.03156
G1 X53.018 Y58.561 E0.03156
G1 X52.953 Y59.186 E0.03156
G1 X52.953 Y59.814 E0.03157
G1 X53.018 Y60.439 E0.03156
G1 X53.148 Y61.053 E0.03156
G1 X53.34 Y61.651 E0.03156
G1 X53.593 Y62.225 E0.03155
G1 X53.9 Y62.763 E0.03115
G1 X54.109 Y63.067 E0.01853
G1 X54.474 Y63.521 E0.02926
G1 X54.914 Y63.968 E0.03152
G1 X55.399 Y64.367 E0.03156
G1 X55.922 Y64.714 E0.03156
G1 X56.471 Y65.001 E0.03114
G1 X56.811 Y65.144 E0.01853
G1 X57.363 Y65.329 E0.02928
G1 X57.975 Y65.467 E0.03151
G1 X58.598 Y65.541 E0.03156
G1 X59.226 Y65.55 E0.03156
G1 X59.851 Y65.494 E0.03156
G1 X60.467 Y65.374 E0.03156
G1 X61.06 Y65.193 E0.03113
G1 X61.402 Y65.057 E0.01854
G1 X61.926 Y64.801 E0.02929
G1 X62.458 Y64.47 E0.0315
G1 X62.954 Y64.085 E0.03156
G1 X63.408 Y63.651 E0.03156
G1 X63.814 Y63.172 E0.03156
G1 X64.168 Y62.654 E0.03156
G1 X64.467 Y62.101 E0.03155
G1 X64.707 Y61.521 E0.03156
G1 X64.886 Y60.919 E0.03156
G1 X65.001 Y60.302 E0.03156
G1 X65.051 Y59.685 E0.0311
G1 X65.051 Y59.315 E0.01861
G1 X65.001 Y58.698 E0.0311
G1 X64.886 Y58.081 E0.03156
G1 X64.708 Y57.48 E0.0315
G1 X64.486 Y56.941 E0.0293
G1 X64.32 Y56.611 E0.01855
G1 X63.998 Y56.083 E0.03111
G1 X63.617 Y55.583 E0.03156
G1 X63.187 Y55.126 E0.03156
G1 X62.711 Y54.716 E0.03156
G1 X62.196 Y54.358 E0.03156
G1 X61.647 Y54.055 E0.03151
G1 X61.111 Y53.826 E0.02929
G1 X60.762 Y53.708 E0.01854
G1 X60.161 Y53.558 E0.03113
G1 X59.539 Y53.469 E0.03156
G1 X58.912 Y53.446 E0.03156
G1 X58.285 Y53.488 E0.03156
G1 X57.667 Y53.594 E0.03156
G1 X57.062 Y53.764 E0.03156
G1 X56.478 Y53.995 E0.03156
G1 X55.922 Y54.286 E0.03156
G1 X55.399 Y54.633 E0.03156
G1 X55.013 Y54.95 E0.02508
G1 X55.337 Y55.343 F18000
; custom gcode: feature_gcode
; External perimeter
;;ExternalPerimeter
;SET_VELOCITY_LIMIT ACCEL=1000 ACCEL_TO_DECEL=1000 SQUARE_CORNER_VELOCITY=8

; Perimeter
;
; custom gcode end: feature_gcode

;TYPE:External perimeter
G1 F1800
G1 X55.258 Y55.408 E0.00514
G1 X54.88 Y55.79 E0.02701
G1 X54.667 Y56.04 E0.01651
G1 X54.334 Y56.505 E0.02876
G1 X54.048 Y57.004 E0.0289
G1 X53.817 Y57.53 E0.02889
G1 X53.641 Y58.078 E0.02891
G1 X53.522 Y58.64 E0.02891
G1 X53.462 Y59.212 E0.0289
G1 X53.462 Y59.788 E0.02891
G1 X53.522 Y60.36 E0.0289
G1 X53.641 Y60.922 E0.02891
G1 X53.817 Y61.47 E0.02891
G1 X54.048 Y61.996 E0.02889
G1 X54.332 Y62.493 E0.02876
G1 X54.518 Y62.763 E0.01651
G1 X54.854 Y63.182 E0.02701
G1 X55.258 Y63.592 E0.02889
G1 X55.702 Y63.957 E0.0289
G1 X56.181 Y64.275 E0.0289
G1 X56.688 Y64.54 E0.02875
G1 X56.991 Y64.667 E0.01651
G1 X57.5 Y64.838 E0.02701
G1 X58.061 Y64.965 E0.02889
G1 X58.632 Y65.033 E0.0289
G1 X59.207 Y65.041 E0.0289
G1 X59.78 Y64.99 E0.0289
G1 X60.344 Y64.88 E0.0289
G1 X60.891 Y64.712 E0.02875
G1 X61.196 Y64.591 E0.01652
G1 X61.679 Y64.355 E0.02701
G1 X62.167 Y64.051 E0.02888
G1 X62.621 Y63.699 E0.0289
G1 X63.037 Y63.301 E0.0289
G1 X63.409 Y62.863 E0.0289
G1 X63.733 Y62.388 E0.0289
G1 X64.007 Y61.882 E0.0289
G1 X64.227 Y61.351 E0.0289
G1 X64.39 Y60.8 E0.0289
G1 X64.496 Y60.234 E0.0289
G1 X64.542 Y59.665 E0.02874
G1 X64.542 Y59.335 E0.01654
G1 X64.496 Y58.766 E0.02874
G1 X64.39 Y58.2 E0.0289
G1 X64.227 Y57.649 E0.02888
G1 X64.023 Y57.152 E0.02702
G1 X63.875 Y56.859 E0.01652
G1 X63.577 Y56.37 E0.02874
G1 X63.228 Y55.913 E0.0289
G1 X62.834 Y55.495 E0.0289
G1 X62.399 Y55.119 E0.0289
G1 X61.927 Y54.791 E0.0289
G1 X61.424 Y54.513 E0.02888
G1 X60.929 Y54.302 E0.02701
G1 X60.618 Y54.197 E0.01651
G1 X60.063 Y54.058 E0.02875
G1 X59.494 Y53.977 E0.0289
G1 X58.919 Y53.956 E0.0289
G1 X58.346 Y53.994 E0.0289
G1 X57.779 Y54.091 E0.0289
G1 X57.225 Y54.247 E0.0289
G1 X56.691 Y54.459 E0.0289
G1 X56.181 Y54.725 E0.0289
G1 X55.702 Y55.043 E0.0289
G1 X55.383 Y55.305 E0.02073
;WIPE_START
G1 X55.241 Y55.307 F18000
;WIPE_END
G1 X53.657 Y51.422
; custom gcode: feature_gcode
; External perimeter
;;Perimeter
;SET_VELOCITY_LIMIT ACCEL=2000 ACCEL_TO_DECEL=2000 SQUARE_CORNER_VELOCITY=8

; Overhang perimeter
;
; custom gcode end: feature_gcode

;TYPE:Internal perimeter
G1 F1800
G1 X64.343 Y51.422 E0.53714
G1 X67.078 Y54.157 E0.1944
G1 X67.078 Y64.843 E0.53714
G1 X64.343 Y67.578 E0.1944
G1 X53.657 Y67.578 E0.53714
G1 X50.922 Y64.843 E0.1944
G1 X50.922 Y54.157 E0.53714
G1 X53.614 Y51.464 E0.19139
G1 X53.446 Y50.913 F18000
G1 F1800
G1 X64.554 Y50.913 E0.55834
G1 X67.587 Y53.946 E0.2156
G1 X67.587 Y65.054 E0.55834
G1 X64.554 Y68.087 E0.2156
G1 X53.446 Y68.087 E0.55834
M73 P1 R15
G1 X50.413 Y65.054 E0.2156
G1 X50.413 Y53.946 E0.55834
G1 X53.403 Y50.955 E0.21258
G1 X53.235 Y50.404 F18000
G1 F1800
G1 X64.765 Y50.404 E0.57953
G1 X64.855 Y50.493 E0.00638
G1 X68.096 Y53.735 E0.23041
G1 X68.096 Y65.265 E0.57953
G1 X64.765 Y68.596 E0.23679
G1 X53.235 Y68.596 E0.57953
G1 X49.904 Y65.265 E0.23679
G1 X49.904 Y53.735 E0.57953
G1 X53.192 Y50.446 E0.23378
G1 X53.024 Y49.895 F18000
; custom gcode: feature_gcode
; External perimeter
;;ExternalPerimeter
;SET_VELOCITY_LIMIT ACCEL=1000 ACCEL_TO_DECEL=1000 SQUARE_CORNER_VELOCITY=8

; Perimeter
;
; custom gcode end: feature_gcode

;TYPE:External perimeter
G1 F1800
G1 X64.976 Y49.895 E0.60073
G1 X65.215 Y50.133 E0.01698
G1 X68.605 Y53.524 E0.24101
G1 X68.605 Y65.476 E0.60073
G1 X64.976 Y69.105 E0.25799
G1 X53.024 Y69.105 E0.60073
G1 X49.395 Y65.476 E0.25799
G1 X49.395 Y53.524 E0.60073
G1 X52.982 Y49.937 E0.25497
;WIPE_START
G1 X53.307 Y50.177 F18000
;WIPE_END
G1 X51.1 Y59.889
; custom gcode: feature_gcode
; External perimeter
;;SolidInfill
;SET_VELOCITY_LIMIT ACCEL=4000 ACCEL_TO_DECEL=4000 SQUARE_CORNER_VELOCITY=8

; Bridge infill
;
; custom gcode end: feature_gcode

;TYPE:Solid infill
;WIDTH:0.560882
G1 F3600
G1 X51.589 Y60.379 E0.03486
G1 X51.619 Y60.658 E0.01415
G1 X51.744 Y61.253 E0.03059
G1 X51.319 Y60.828 E0.03026
G1 X51.319 Y61.548 E0.03624
G1 X52.514 Y62.743 E0.08512
G1 X57.87 Y66.659 F18000
G1 F3600
G1 X58.392 Y67.181 E0.03715
G1 X57.672 Y67.181 E0.03624
G1 X57.244 Y66.753 E0.03049
G1 X56.981 Y66.694 E0.01355
G1 X56.31 Y66.469 E0.03563
G1 X56.188 Y66.417 E0.00665
G1 X56.952 Y67.181 E0.05439
G1 X56.233 Y67.181 E0.03624
G1 X51.319 Y62.267 E0.34983
G1 X51.319 Y62.987 E0.03624
G1 X55.513 Y67.181 E0.29858
G1 X54.793 Y67.181 E0.03624
G1 X51.319 Y63.707 E0.24733
G1 X51.319 Y64.427 E0.03624
G1 X54.292 Y67.4 E0.21166
G1 E-0.4 F3000
G1 Z0.4375 F18000
G1 X66.9 Y54.554
G1 Z0.2375
G1 E0.4 F1800
G1 F3600
G1 X64.164 Y51.819 E0.19477
G1 X63.445 Y51.819 E0.03624
G1 X66.681 Y55.055 E0.23043
G1 X66.681 Y55.775 E0.03624
G1 X62.725 Y51.819 E0.28168
G1 X62.005 Y51.819 E0.03624
G1 X66.681 Y56.495 E0.33294
G1 X66.681 Y57.215 E0.03624
G1 X65.73 Y56.263 E0.06775
G1 X65.558 Y55.923 E0.01917
G1 X65.168 Y55.283 E0.03776
G1 X64.698 Y54.667 E0.039
G1 X64.167 Y54.103 E0.039
G1 X63.58 Y53.597 E0.03901
G1 X62.944 Y53.154 E0.03901
G1 X62.268 Y52.781 E0.03886
G1 X62.232 Y52.766 E0.00197
G1 X61.066 Y51.6 E0.08301
G1 X61.411 Y52.665 F18000
G1 F3600
G1 X60.565 Y51.819 E0.06024
G1 X59.845 Y51.819 E0.03624
G1 X60.154 Y52.127 E0.02198
G1 X59.666 Y52.058 E0.02483
G1 X59.353 Y52.046 E0.01575
G1 X59.125 Y51.819 E0.01621
G1 X58.405 Y51.819 E0.03624
G1 X58.633 Y52.046 E0.0162
G1 X58.118 Y52.081 E0.02598
G1 X57.972 Y52.106 E0.00744
G1 X57.686 Y51.819 E0.02042
G1 X56.966 Y51.819 E0.03624
G1 X57.358 Y52.211 E0.02794
G1 X56.796 Y52.369 E0.0294
G1 X56.246 Y51.819 E0.03916
G1 X55.526 Y51.819 E0.03624
G1 X56.265 Y52.558 E0.05261
G1 X55.888 Y52.707 E0.02039
G1 X55.761 Y52.774 E0.00724
G1 X54.806 Y51.819 E0.06799
G1 X54.086 Y51.819 E0.03624
G1 X55.288 Y53.021 E0.08557
G1 X55.202 Y53.066 E0.00492
G1 X54.848 Y53.3 E0.02136
G1 X53.594 Y52.046 E0.08929
G1 X53.234 Y52.406 E0.02563
G1 X54.427 Y53.6 E0.08497
G1 X54.032 Y53.925 E0.02575
G1 X52.874 Y52.766 E0.08249
G1 X52.514 Y53.126 E0.02563
G1 X53.668 Y54.28 E0.08214
G1 X53.462 Y54.488 E0.01473
G1 X53.321 Y54.653 E0.01093
G1 X52.154 Y53.486 E0.08309
G1 X51.794 Y53.846 E0.02563
G1 X53.005 Y55.056 E0.08619
G1 X52.705 Y55.477 E0.02598
G1 X51.434 Y54.206 E0.09048
G1 X51.319 Y54.321 E0.00821
G1 X51.319 Y54.81 E0.02463
G1 X52.443 Y55.935 E0.08006
G1 X52.328 Y56.137 E0.01172
G1 X52.205 Y56.416 E0.01537
G1 X51.319 Y55.53 E0.06309
G1 X51.319 Y56.25 E0.03624
G1 X51.991 Y56.922 E0.04786
G1 X51.816 Y57.467 E0.0288
G1 X51.319 Y56.97 E0.03539
G1 X51.319 Y57.69 E0.03624
G1 X51.68 Y58.051 E0.02571
G1 X51.619 Y58.342 E0.01496
G1 X51.584 Y58.675 E0.01686
G1 X51.319 Y58.41 E0.01888
G1 X51.319 Y59.13 E0.03624
G1 X51.594 Y59.405 E0.01959
G1 E-0.4 F3000
G1 Z0.4375 F18000
G1 X65.841 Y57.095
G1 Z0.2375
G1 E0.4 F1800
G1 F3600
G1 X66.681 Y57.935 E0.05982
G1 X66.681 Y58.655 E0.03624
G1 X66.376 Y58.349 E0.02177
G1 X66.406 Y58.51 E0.00826
G1 X66.458 Y59.151 E0.03236
G1 X66.772 Y59.465 E0.02237
G1 X66.253 Y59.666 F18000
G1 F3600
G1 X66.681 Y60.095 E0.0305
G1 X66.681 Y60.814 E0.03624
G1 X66.398 Y60.531 E0.02017
G1 X66.285 Y61.138 E0.03106
G1 X66.681 Y61.534 E0.02824
G1 X66.681 Y62.254 E0.03624
G1 X66.13 Y61.702 E0.03928
G1 X66.043 Y61.994 E0.01532
G1 X65.943 Y62.236 E0.01316
G1 X66.681 Y62.974 E0.05256
G1 X66.681 Y63.694 E0.03624
G1 X65.729 Y62.742 E0.06777
G1 X65.477 Y63.209 E0.02674
G1 X66.681 Y64.414 E0.08576
G1 X66.681 Y64.679 E0.01334
G1 X66.454 Y64.906 E0.01619
G1 X65.2 Y63.652 E0.08928
G1 X64.941 Y64.031 E0.02311
G1 X64.903 Y64.076 E0.00292
G1 X66.094 Y65.266 E0.08477
G1 X65.734 Y65.626 E0.02563
G1 X64.573 Y64.465 E0.08267
G1 X64.44 Y64.622 E0.01037
G1 X64.22 Y64.832 E0.01529
G1 X65.374 Y65.986 E0.08216
G1 X65.014 Y66.346 E0.02563
G1 X63.85 Y65.181 E0.08291
G1 X63.444 Y65.496 E0.02583
G1 X64.654 Y66.706 E0.08615
G1 X64.294 Y67.066 E0.02563
G1 X63.017 Y65.789 E0.09094
G1 X62.612 Y66.04 E0.024
G1 X62.57 Y66.061 E0.00238
G1 X63.69 Y67.181 E0.07975
G1 X62.97 Y67.181 E0.03624
G1 X62.086 Y66.298 E0.06291
G1 X61.976 Y66.352 E0.00618
G1 X61.578 Y66.51 E0.02153
G1 X62.25 Y67.181 E0.04781
G1 X61.53 Y67.181 E0.03624
G1 X61.031 Y66.682 E0.03557
G1 X60.811 Y66.749 E0.01156
G1 X60.449 Y66.82 E0.01859
G1 X60.81 Y67.181 E0.02575
G1 X60.09 Y67.181 E0.03624
G1 X59.826 Y66.917 E0.01878
G1 X59.269 Y66.967 E0.02816
G1 X59.274 Y67.085 E0.00595
G1 X59.589 Y67.4 E0.02241
; INIT stop printing object Voron_Design_Cube_v7 id:0 copy 0
M106 S76.5
;LAYER_CHANGE
;Z:0.4375
;HEIGHT:0.2
; custom gcode: before_layer_gcode
;BEFORE_LAYER_CHANGE
;0.4375

