; generated by SuperSlicer 2.3.57 on 2022-03-05 at 08:17:15 UTC


;
;

;
;
; 

; external perimeters extrusion width = 0.40mm
; perimeters extrusion width = 0.45mm
; infill extrusion width = 0.72mm
; solid infill extrusion width = 0.56mm
; top infill extrusion width = 0.40mm
; first layer extrusion width = 0.48mm

; object:{"name":"Voron_Design_Cube_v7","id":"Voron_Design_Cube_v7.stl id:0 copy 0","object_center":[60.000000,60.000000,0.000000],"boundingbox_center":[60.000000,60.000000,15.000000],"boundingbox_size":[30.000000,30.000000,30.000000]}
; plater:{"center":[60.000000,60.000000,0.000000],"boundingbox_center":[60.000000,60.000000,15.000000],"boundingbox_size":[30.000000,30.000000,30.000000]}

M73 P0 R57
;TYPE:Custom
; custom gcode: start_gcode
M104 S0 ; Stops PS/SS from sending temp waits separately
M140 S0
print_start EXTRUDER_TEMP=250 BED_TEMP=110 CHAMBER=0 FILAMENT=ASA
; custom gcode end: start_gcode
G21 ; set units to millimeters
G90 ; use absolute coordinates
M83 ; use relative distances for extrusion
; custom gcode: start_filament_gcode
; Filament gcode
; custom gcode end: start_filament_gcode
;LAYER_CHANGE
;Z:0.24
;HEIGHT:0.24
G1 Z0.24 F27000
; INIT printing object Voron_Design_Cube_v7.stl id:0 copy 0
M104 S250 ; set temperature
G1 E-0.5 F1800
G1 Z0.44 F27000
; printing object Voron_Design_Cube_v7.stl id:0 copy 0
G1 X53.474 Y53.306
G1 Z0.24
G1 E0.5 F1800
; custom gcode: feature_gcode
; External perimeter
;Perimeter
SET_VELOCITY_LIMIT ACCEL=2000 ACCEL_TO_DECEL=1000 SQUARE_CORNER_VELOCITY=8

; Overhang perimeter
; custom gcode end: feature_gcode

;TYPE:Internal perimeter
;WIDTH:0.48
G1 X53.13 Y53.651 E0.01924
G1 X52.676 Y54.176 E0.0274
G1 X52.118 Y54.956 E0.03788
G1 X51.639 Y55.797 E0.03825
G1 X51.25 Y56.684 E0.03825
G1 X50.954 Y57.605 E0.03825
G1 X50.755 Y58.553 E0.03825
G1 X50.655 Y59.516 E0.03825
G1 X50.655 Y60.484 E0.03825
G1 X50.755 Y61.447 E0.03825
G1 X50.954 Y62.395 E0.03825
G1 X51.247 Y63.308 E0.0379
G1 X51.519 Y63.946 E0.02739
G1 X51.871 Y64.634 E0.03055
G1 X52.39 Y65.445 E0.03803
G1 X52.993 Y66.202 E0.03825
G1 X53.671 Y66.893 E0.03825
G1 X54.418 Y67.51 E0.03825
G1 X55.223 Y68.047 E0.03825
G1 X56.072 Y68.492 E0.03786
G1 X56.713 Y68.758 E0.02742
G1 X57.447 Y69.002 E0.03058
G1 X58.385 Y69.217 E0.038
G1 X59.346 Y69.335 E0.03825
G1 X60.314 Y69.352 E0.03825
G1 X61.279 Y69.27 E0.03825
G1 X62.23 Y69.088 E0.03825
G1 X63.147 Y68.812 E0.03783
G1 X63.791 Y68.553 E0.02745
G1 X64.487 Y68.211 E0.03061
G1 X65.306 Y67.708 E0.03797
G1 X66.074 Y67.118 E0.03825
G1 X66.777 Y66.453 E0.03825
G1 X67.407 Y65.718 E0.03825
G1 X67.958 Y64.922 E0.03825
G1 X68.424 Y64.073 E0.03825
G1 X68.8 Y63.181 E0.03825
G1 X69.081 Y62.255 E0.03825
G1 X69.266 Y61.304 E0.03825
G1 X69.35 Y60.352 E0.03778
G1 X69.35 Y59.648 E0.0278
G1 X69.266 Y58.696 E0.03778
G1 X69.081 Y57.745 E0.03825
G1 X68.802 Y56.826 E0.03794
G1 X68.508 Y56.108 E0.03064
G1 X68.196 Y55.487 E0.02748
G1 X67.693 Y54.673 E0.0378
G1 X67.101 Y53.907 E0.03825
G1 X66.434 Y53.206 E0.03825
G1 X65.697 Y52.577 E0.03825
G1 X64.9 Y52.028 E0.03825
G1 X64.056 Y51.568 E0.03797
G1 X63.344 Y51.263 E0.03061
G1 X62.687 Y51.037 E0.02745
G1 X61.757 Y50.809 E0.03783
G1 X60.797 Y50.677 E0.03825
G1 X59.83 Y50.644 E0.03825
G1 X58.864 Y50.712 E0.03825
G1 X57.911 Y50.879 E0.03825
G1 X56.979 Y51.144 E0.03825
G1 X56.08 Y51.503 E0.03825
G1 X55.223 Y51.953 E0.03825
G1 X54.418 Y52.49 E0.03825
G1 X53.676 Y53.103 E0.03802
G1 X53.474 Y53.306 E0.01132
G1 X53.777 Y53.609 F27000
G1 F1800
G1 X53.444 Y53.943 E0.01863
G1 X53.013 Y54.441 E0.02602
G1 X52.48 Y55.187 E0.03623
G1 X52.023 Y55.99 E0.03649
G1 X51.651 Y56.836 E0.03649
G1 X51.369 Y57.715 E0.03649
G1 X51.179 Y58.619 E0.03649
G1 X51.083 Y59.538 E0.03649
G1 X51.083 Y60.462 E0.03649
G1 X51.179 Y61.381 E0.03649
G1 X51.369 Y62.285 E0.03649
G1 X51.649 Y63.158 E0.03624
G1 X51.907 Y63.764 E0.02601
G1 X52.243 Y64.421 E0.02913
G1 X52.739 Y65.195 E0.03634
G1 X53.314 Y65.918 E0.03649
G1 X53.962 Y66.577 E0.03649
G1 X54.674 Y67.166 E0.03649
G1 X55.442 Y67.678 E0.03649
G1 X56.254 Y68.104 E0.03622
G1 X56.863 Y68.357 E0.02603
G1 X57.563 Y68.589 E0.02916
G1 X58.459 Y68.794 E0.03632
G1 X59.376 Y68.907 E0.03649
G1 X60.3 Y68.923 E0.03649
G1 X61.22 Y68.845 E0.03649
G1 X62.127 Y68.671 E0.03649
G1 X63.005 Y68.407 E0.03619
G1 X63.617 Y68.161 E0.02606
G1 X64.28 Y67.835 E0.02918
G1 X65.062 Y67.354 E0.0363
G1 X65.795 Y66.792 E0.03649
G1 X66.466 Y66.157 E0.03649
G1 X67.067 Y65.456 E0.03649
G1 X67.593 Y64.696 E0.03649
G1 X68.038 Y63.887 E0.03649
G1 X68.396 Y63.035 E0.03649
G1 X68.665 Y62.151 E0.03649
G1 X68.841 Y61.245 E0.03649
G1 X68.921 Y60.333 E0.03616
G1 X68.921 Y59.667 E0.02631
G1 X68.841 Y58.755 E0.03616
G1 X68.665 Y57.849 E0.03649
G1 X68.398 Y56.97 E0.03628
G1 X68.118 Y56.286 E0.0292
G1 X67.822 Y55.696 E0.02608
G1 X67.34 Y54.917 E0.03617
G1 X66.776 Y54.186 E0.03649
G1 X66.139 Y53.517 E0.03649
G1 X65.436 Y52.917 E0.03649
G1 X64.675 Y52.394 E0.03649
G1 X63.869 Y51.954 E0.0363
G1 X63.19 Y51.663 E0.02918
G1 X62.566 Y51.449 E0.02605
G1 X61.676 Y51.23 E0.0362
G1 X60.761 Y51.104 E0.03649
G1 X59.838 Y51.073 E0.03649
G1 X58.916 Y51.138 E0.03649
G1 X58.006 Y51.297 E0.03649
G1 X57.118 Y51.55 E0.03649
G1 X56.26 Y51.893 E0.03649
G1 X55.442 Y52.322 E0.03649
G1 X54.674 Y52.834 E0.03649
G1 X53.965 Y53.42 E0.03633
G1 X53.777 Y53.609 E0.01051
G1 X54.08 Y53.911 F27000
G1 F1800
G1 X53.758 Y54.235 E0.01803
G1 X53.35 Y54.707 E0.02464
G1 X52.841 Y55.419 E0.03458
G1 X52.406 Y56.183 E0.03474
G1 X52.052 Y56.988 E0.03474
G1 X51.784 Y57.825 E0.03474
G1 X51.603 Y58.686 E0.03474
G1 X51.512 Y59.56 E0.03474
G1 X51.512 Y60.44 E0.03474
G1 X51.603 Y61.314 E0.03474
G1 X51.784 Y62.175 E0.03474
G1 X52.051 Y63.009 E0.03459
G1 X52.295 Y63.582 E0.02464
G1 X52.615 Y64.207 E0.02772
G1 X53.088 Y64.946 E0.03465
G1 X53.636 Y65.633 E0.03474
G1 X54.252 Y66.261 E0.03474
G1 X54.929 Y66.821 E0.03474
G1 X55.661 Y67.309 E0.03474
G1 X56.436 Y67.716 E0.03457
G1 X57.012 Y67.955 E0.02465
G1 X57.679 Y68.176 E0.02774
G1 X58.533 Y68.372 E0.03463
G1 X59.406 Y68.478 E0.03474
G1 X60.285 Y68.494 E0.03474
G1 X61.161 Y68.419 E0.03474
G1 X62.025 Y68.254 E0.03474
G1 X62.863 Y68.002 E0.03456
G1 X63.442 Y67.769 E0.02466
G1 X64.072 Y67.46 E0.02775
G1 X64.819 Y67.001 E0.03462
G1 X65.517 Y66.465 E0.03474
G1 X66.155 Y65.861 E0.03474
G1 X66.728 Y65.193 E0.03474
G1 X67.228 Y64.471 E0.03474
G1 X67.651 Y63.7 E0.03474
G1 X67.993 Y62.889 E0.03474
G1 X68.248 Y62.048 E0.03474
G1 X68.416 Y61.185 E0.03474
G1 X68.493 Y60.314 E0.03453
G1 X68.493 Y59.686 E0.02482
G1 X68.416 Y58.815 E0.03453
G1 X68.248 Y57.952 E0.03474
G1 X67.994 Y57.114 E0.03461
G1 X67.727 Y56.463 E0.02776
G1 X67.447 Y55.905 E0.02468
G1 X66.987 Y55.161 E0.03454
G1 X66.45 Y54.465 E0.03474
G1 X65.844 Y53.829 E0.03474
G1 X65.175 Y53.258 E0.03474
G1 X64.45 Y52.759 E0.03474
G1 X63.681 Y52.34 E0.03462
G1 X63.035 Y52.063 E0.02775
G1 X62.445 Y51.86 E0.02466
G1 X61.595 Y51.652 E0.03456
G1 X60.724 Y51.532 E0.03474
G1 X59.845 Y51.502 E0.03474
G1 X58.968 Y51.564 E0.03474
G1 X58.102 Y51.715 E0.03474
G1 X57.256 Y51.956 E0.03474
G1 X56.44 Y52.282 E0.03474
G1 X55.661 Y52.691 E0.03474
G1 X54.929 Y53.179 E0.03474
G1 X54.254 Y53.738 E0.03464
G1 X54.08 Y53.911 E0.0097
G1 X54.384 Y54.214 F27000
; custom gcode: feature_gcode
; External perimeter
;ExternalPerimeter
SET_VELOCITY_LIMIT ACCEL=1000 ACCEL_TO_DECEL=500 SQUARE_CORNER_VELOCITY=8

; Perimeter
; custom gcode end: feature_gcode

;TYPE:External perimeter
G1 F1800
G1 X54.073 Y54.526 E0.01743
G1 X53.688 Y54.972 E0.02326
G1 X53.202 Y55.65 E0.03293
G1 X52.789 Y56.375 E0.03299
G1 X52.453 Y57.14 E0.03299
G1 X52.198 Y57.935 E0.03299
G1 X52.027 Y58.752 E0.03299
G1 X51.94 Y59.583 E0.03299
G1 X51.94 Y60.417 E0.03299
G1 X52.027 Y61.248 E0.03299
G1 X52.198 Y62.065 E0.03299
G1 X52.453 Y62.859 E0.03293
G1 X52.684 Y63.401 E0.02326
G1 X52.987 Y63.993 E0.02631
G1 X53.437 Y64.696 E0.03295
G1 X53.957 Y65.349 E0.03299
G1 X54.542 Y65.945 E0.03299
G1 X55.185 Y66.477 E0.03299
G1 X55.88 Y66.94 E0.03299
G1 X56.618 Y67.327 E0.03293
G1 X57.162 Y67.553 E0.02327
G1 X57.794 Y67.763 E0.02631
G1 X58.607 Y67.949 E0.03295
G1 X59.436 Y68.05 E0.03299
G1 X60.271 Y68.066 E0.03299
G1 X61.103 Y67.994 E0.03299
G1 X61.923 Y67.838 E0.03299
G1 X62.721 Y67.598 E0.03292
G1 X63.267 Y67.378 E0.02327
G1 X63.865 Y67.084 E0.02632
G1 X64.576 Y66.647 E0.03294
G1 X65.238 Y66.139 E0.03298
G1 X65.844 Y65.565 E0.03298
G1 X66.388 Y64.931 E0.03298
G1 X66.863 Y64.245 E0.03298
G1 X67.265 Y63.513 E0.03298
G1 X67.589 Y62.744 E0.03298
G1 X67.832 Y61.945 E0.03298
G1 X67.991 Y61.125 E0.03298
G1 X68.064 Y60.295 E0.03291
G1 X68.064 Y59.705 E0.02333
G1 X67.991 Y58.875 E0.03291
G1 X67.832 Y58.055 E0.03298
G1 X67.59 Y57.258 E0.03294
G1 X67.337 Y56.641 E0.02632
G1 X67.073 Y56.114 E0.02328
G1 X66.635 Y55.406 E0.03291
G1 X66.124 Y54.745 E0.03298
G1 X65.549 Y54.14 E0.03298
G1 X64.913 Y53.598 E0.03298
G1 X64.226 Y53.125 E0.03299
G1 X63.494 Y52.725 E0.03294
G1 X62.881 Y52.463 E0.02632
G1 X62.324 Y52.272 E0.02327
G1 X61.515 Y52.073 E0.03292
G1 X60.688 Y51.959 E0.03299
G1 X59.853 Y51.931 E0.03299
G1 X59.02 Y51.989 E0.03299
G1 X58.198 Y52.134 E0.03299
G1 X57.395 Y52.362 E0.03299
G1 X56.62 Y52.672 E0.03299
G1 X55.88 Y53.06 E0.03299
G1 X55.185 Y53.523 E0.03299
G1 X54.543 Y54.055 E0.03295
G1 X54.384 Y54.214 E0.00888
;WIPE_START
G1 X53.997 Y54.111 F27000
;WIPE_END
G1 X46.705 Y68.452
; custom gcode: feature_gcode
; External perimeter
;Perimeter
SET_VELOCITY_LIMIT ACCEL=2000 ACCEL_TO_DECEL=1000 SQUARE_CORNER_VELOCITY=8

; Overhang perimeter
; custom gcode end: feature_gcode

;TYPE:Internal perimeter
G1 F1800
G1 X46.705 Y51.548 E0.66779
G1 X51.548 Y46.705 E0.27057
G1 X68.452 Y46.705 E0.66779
G1 X73.295 Y51.548 E0.27057
G1 X73.295 Y68.452 E0.66779
G1 X68.452 Y73.295 E0.27057
G1 X51.548 Y73.295 E0.66779
G1 X46.705 Y68.452 E0.27057
G1 X46.402 Y68.755 F27000
G1 F1800
G1 X46.277 Y68.629 E0.00701
G1 X46.277 Y51.371 E0.68181
G1 X51.371 Y46.277 E0.28459
G1 X68.629 Y46.277 E0.68181
G1 X73.723 Y51.371 E0.28459
G1 X73.723 Y68.629 E0.68181
G1 X68.629 Y73.723 E0.28459
G1 X51.371 Y73.723 E0.68181
G1 X46.402 Y68.755 E0.27758
G1 E-0.5
G1 Z0.44 F27000
G1 X74.152 Y51.193
G1 Z0.24
G1 E0.5 F1800
G1 X74.152 Y68.807 E0.69583
G1 X68.807 Y74.152 E0.29862
G1 X51.193 Y74.152 E0.69583
G1 X45.848 Y68.807 E0.29862
G1 X45.848 Y51.193 E0.69583
G1 X51.193 Y45.848 E0.29862
G1 X68.807 Y45.848 E0.69583
G1 X74.152 Y51.193 E0.29862
G1 X74.454 Y50.89 F27000
; custom gcode: feature_gcode
; External perimeter
;ExternalPerimeter
SET_VELOCITY_LIMIT ACCEL=1000 ACCEL_TO_DECEL=500 SQUARE_CORNER_VELOCITY=8

; Perimeter
; custom gcode end: feature_gcode

;TYPE:External perimeter
G1 F1800
G1 X74.58 Y51.016 E0.00701
G1 X74.58 Y68.984 E0.70986
G1 X68.984 Y74.58 E0.31264
G1 X51.016 Y74.58 E0.70986
G1 X45.42 Y68.984 E0.31264
G1 X45.42 Y51.016 E0.70986
G1 X51.016 Y45.42 E0.31264
G1 X68.984 Y45.42 E0.70986
G1 X69.225 Y45.661 E0.01348
G1 X74.454 Y50.89 E0.29215
;WIPE_START
G1 X74.409 Y51.062 F27000
;WIPE_END
G1 X73.23 Y51.848
; custom gcode: feature_gcode
; External perimeter
;SolidInfill
SET_VELOCITY_LIMIT ACCEL=4000 ACCEL_TO_DECEL=2000 SQUARE_CORNER_VELOCITY=8

; Bridge infill
; custom gcode end: feature_gcode

;TYPE:Solid infill
;WIDTH:0.469127
G1 F3600
G1 X68.337 Y46.954 E0.26722
G1 X67.731 Y46.954 E0.0234
G1 X73.046 Y52.269 E0.29024
G1 X73.046 Y52.875 E0.0234
G1 X67.125 Y46.954 E0.32333
G1 X66.519 Y46.954 E0.0234
G1 X73.046 Y53.481 E0.35642
G1 X73.046 Y54.087 E0.0234
G1 X65.913 Y46.954 E0.38951
G1 X65.307 Y46.954 E0.0234
G1 X73.046 Y54.693 E0.4226
G1 X73.046 Y55.299 E0.0234
G1 X64.701 Y46.954 E0.45569
G1 X64.095 Y46.954 E0.0234
G1 X73.046 Y55.905 E0.48878
G1 X73.046 Y56.511 E0.0234
G1 X63.489 Y46.954 E0.52187
G1 X62.883 Y46.954 E0.0234
G1 X73.046 Y57.117 E0.55496
G1 X73.046 Y57.723 E0.0234
G1 X62.277 Y46.954 E0.58805
G1 X61.671 Y46.954 E0.0234
G1 X73.046 Y58.329 E0.62114
G1 X73.046 Y58.935 E0.0234
G1 X61.065 Y46.954 E0.65423
G1 X60.459 Y46.954 E0.0234
G1 X73.046 Y59.541 E0.68732
G1 X73.046 Y60.147 E0.0234
G1 X68.563 Y55.664 E0.24478
G1 X68.734 Y56.005 E0.01473
G1 X69.037 Y56.744 E0.03081
G1 X73.046 Y60.753 E0.21893
G1 X73.046 Y61.359 E0.0234
G1 X69.301 Y57.614 E0.20448
G1 X69.323 Y57.685 E0.00286
G1 X69.457 Y58.376 E0.02717
G1 X73.046 Y61.965 E0.19599
G1 X73.046 Y62.571 E0.0234
G1 X69.548 Y59.074 E0.19098
G1 X69.598 Y59.637 E0.02185
G1 X69.598 Y59.729 E0.00356
G1 X73.046 Y63.177 E0.18826
G1 X73.046 Y63.783 E0.0234
G1 X69.598 Y60.335 E0.18826
G1 X69.598 Y60.363 E0.00106
G1 X69.551 Y60.894 E0.0206
G1 X73.046 Y64.389 E0.19083
G1 X73.046 Y64.995 E0.0234
G1 X69.492 Y61.441 E0.19405
G1 X69.394 Y61.949 E0.01996
G1 X73.046 Y65.601 E0.19943
G1 X73.046 Y66.207 E0.0234
G1 X69.283 Y62.444 E0.20546
G1 X69.142 Y62.909 E0.01875
G1 X73.046 Y66.813 E0.21317
G1 X73.046 Y67.419 E0.0234
M73 P1 R57
G1 X68.992 Y63.365 E0.22137
G1 X68.812 Y63.791 E0.01786
G1 X73.046 Y68.025 E0.23118
G1 X73.046 Y68.349 E0.0125
G1 X72.905 Y68.49 E0.0077
G1 X68.63 Y64.215 E0.23344
G1 X68.415 Y64.606 E0.01723
G1 X72.602 Y68.793 E0.22862
G1 X72.299 Y69.096 E0.01654
G1 X68.2 Y64.997 E0.22381
G1 X68.17 Y65.053 E0.00245
G1 X67.957 Y65.36 E0.01442
G1 X71.996 Y69.399 E0.22054
G1 X71.693 Y69.702 E0.01654
G1 X67.709 Y65.718 E0.21754
G1 X67.604 Y65.87 E0.00713
G1 X67.443 Y66.058 E0.00955
G1 X71.39 Y70.005 E0.21553
G1 X71.087 Y70.308 E0.01654
G1 X67.163 Y66.384 E0.21427
G1 X66.957 Y66.624 E0.01223
G1 X66.875 Y66.702 E0.00435
G1 X70.784 Y70.611 E0.21345
G1 X70.481 Y70.914 E0.01654
G1 X66.564 Y66.996 E0.21391
G1 X66.252 Y67.291 E0.01655
G1 X70.178 Y71.217 E0.21436
G1 X69.875 Y71.52 E0.01654
G1 X65.911 Y67.556 E0.21644
G1 X65.568 Y67.819 E0.01669
G1 X69.572 Y71.823 E0.21861
G1 X69.269 Y72.126 E0.01654
G1 X65.205 Y68.061 E0.22193
G1 X64.829 Y68.292 E0.01701
G1 X68.966 Y72.429 E0.22588
G1 X68.663 Y72.732 E0.01654
G1 X64.441 Y68.51 E0.23052
G1 X64.035 Y68.71 E0.01748
G1 X68.36 Y73.035 E0.23616
G1 X68.349 Y73.046 E0.00062
G1 X67.765 Y73.046 E0.02253
G1 X63.612 Y68.893 E0.22679
G1 X63.229 Y69.047 E0.01594
G1 X63.176 Y69.063 E0.00214
G1 X67.159 Y73.046 E0.21752
G1 X66.553 Y73.046 E0.0234
G1 X62.71 Y69.203 E0.20986
G1 X62.289 Y69.33 E0.01698
G1 X62.24 Y69.339 E0.00192
G1 X65.947 Y73.046 E0.20243
G1 X65.341 Y73.046 E0.0234
G1 X61.731 Y69.436 E0.19712
G1 X61.313 Y69.516 E0.01646
G1 X61.214 Y69.525 E0.00383
G1 X64.735 Y73.046 E0.19229
G1 X64.129 Y73.046 E0.0234
G1 X60.656 Y69.572 E0.18968
G1 X60.322 Y69.601 E0.01291
G1 X60.074 Y69.596 E0.00961
G1 X63.523 Y73.046 E0.18837
G1 X62.917 Y73.046 E0.0234
G1 X59.457 Y69.585 E0.18898
G1 X59.329 Y69.583 E0.00494
G1 X58.781 Y69.516 E0.0213
G1 X62.311 Y73.046 E0.19276
M73 P1 R56
G1 X61.705 Y73.046 E0.0234
G1 X58.056 Y69.397 E0.19927
G1 X57.38 Y69.242 E0.02676
G1 X57.253 Y69.2 E0.00518
G1 X61.1 Y73.046 E0.21003
G1 X60.494 Y73.046 E0.0234
G1 X55.947 Y68.499 E0.24826
G1 X54.451 Y67.609 F27000
G1 F3600
G1 X60.072 Y73.23 E0.30693
G1 E-0.5 F1800
G1 Z0.44 F27000
G1 X64.799 Y51.9
G1 Z0.24
G1 E0.5 F1800
G1 F3600
G1 X59.853 Y46.954 E0.27006
G1 X59.247 Y46.954 E0.0234
G1 X63.266 Y50.973 E0.21947
G1 X62.757 Y50.799 E0.0208
G1 X62.397 Y50.71 E0.01429
G1 X58.641 Y46.954 E0.20511
G1 X58.035 Y46.954 E0.0234
G1 X61.62 Y50.539 E0.19577
G1 X60.917 Y50.442 E0.0274
G1 X57.429 Y46.954 E0.19048
G1 X56.823 Y46.954 E0.0234
G1 X60.28 Y50.411 E0.18875
G1 X59.825 Y50.395 E0.01755
G1 X59.669 Y50.406 E0.00604
G1 X56.217 Y46.954 E0.18851
G1 X55.611 Y46.954 E0.0234
G1 X59.103 Y50.446 E0.19068
G1 X58.834 Y50.465 E0.01041
G1 X58.563 Y50.512 E0.01061
G1 X55.005 Y46.954 E0.19429
G1 X54.399 Y46.954 E0.0234
G1 X58.048 Y50.603 E0.19923
G1 X57.855 Y50.636 E0.00755
G1 X57.559 Y50.72 E0.01187
G1 X53.793 Y46.954 E0.20566
G1 X53.187 Y46.954 E0.0234
G1 X57.087 Y50.854 E0.21298
G1 X56.899 Y50.908 E0.00757
G1 X56.639 Y51.012 E0.01081
G1 X52.581 Y46.954 E0.22158
G1 X51.975 Y46.954 E0.0234
G1 X56.206 Y51.185 E0.23104
G1 X55.976 Y51.277 E0.00956
G1 X55.79 Y51.375 E0.00812
G1 X51.51 Y47.095 E0.2337
G1 X51.207 Y47.398 E0.01654
G1 X55.393 Y51.584 E0.22855
G1 X55.096 Y51.74 E0.01293
G1 X55.004 Y51.801 E0.00428
G1 X50.904 Y47.701 E0.22387
G1 X50.601 Y48.004 E0.01654
G1 X54.64 Y52.043 E0.22055
G1 X54.277 Y52.285 E0.01687
G1 X50.298 Y48.307 E0.21724
