; generated by SuperSlicer 2.3.57 on 2022-02-10 at 03:43:34 UTC


;
;

;
;
; TODO: check the size of the extruder and the y-bar clearance. Optimize & test supports.

; external perimeters extrusion width = 0.42mm
; perimeters extrusion width = 0.46mm
; infill extrusion width = 0.44mm
; solid infill extrusion width = 0.46mm
; top infill extrusion width = 0.44mm
; first layer extrusion width = 0.56mm

; object:{"name":"wrench_mini_-s","id":"wrench_mini_-s.stl id:0 copy 0","object_center":[59.000000,59.500000,0.000000],"boundingbox_center":[59.000000,59.500000,3.849501],"boundingbox_size":[54.273685,39.347015,7.699001]}
; plater:{"center":[59.000000,59.500000,0.000000],"boundingbox_center":[59.000000,59.500000,3.849501],"boundingbox_size":[54.273685,39.347015,7.699001]}

M73 P0 R24
;TYPE:Custom
; custom gcode: start_gcode
; M190 S0
; M109 S0 ; uncomment to remove set&wait temp gcode added automatically after this start gcode
print_start EXTRUDER=210 BED=60 CHAMBER=15
; custom gcode end: start_gcode
G21 ; set units to millimeters
G90 ; use absolute coordinates
M83 ; use relative distances for extrusion
M104 S210 ; set temperature
M109 S210 ; set temperature and wait for it to be reached
M190 S60 ; set bed temperature and wait for it to be reached
;LAYER_CHANGE
;Z:0.2
;HEIGHT:0.2
; custom gcode: before_layer_gcode
;BEFORE_LAYER_CHANGE
;0.2

; custom gcode end: before_layer_gcode

G1 Z0.2 F18000
; custom gcode: layer_gcode
;AFTER_LAYER_CHANGE
;0.2
; custom gcode end: layer_gcode

G1 E-0.4 F3000
G1 Z0.4 F18000
M204 S1500
G1 X37.685 Y34.155
G1 Z0.2
G1 E0.4 F1800
; custom gcode: feature_gcode
; External perimeter
;;Skirt
;SET_VELOCITY_LIMIT ACCEL=7000 ACCEL_TO_DECEL=7000 SQUARE_CORNER_VELOCITY=8

; Support material
;
; custom gcode end: feature_gcode

;TYPE:Skirt
;WIDTH:0.52
G1 X23.521 Y52.398 E0.91618
G1 X22.269 Y54.445 E0.09519
G1 X22.017 Y55.276 E0.03445
G1 X21.941 Y56.142 E0.03445
G1 X22.049 Y57.024 E0.03525
G1 X27.754 Y81.158 E0.98379
G1 X28.096 Y82.065 E0.03844
G1 X28.64 Y82.873 E0.03864
G1 X29.54 Y83.659 E0.0474
G1 X30.625 Y84.159 E0.0474
G1 X49.333 Y89.241 E0.76902
M73 P0 R23
G1 X50.464 Y89.379 E0.04521
G1 X51.415 Y89.255 E0.03804
G1 X52.309 Y88.92 E0.03785
G1 X86.829 Y71.013 E1.54267
G1 X88.489 Y69.929 E0.07867
G1 X89.9 Y68.715 E0.07382
G1 X90.857 Y67.685 E0.05579
G1 X91.883 Y66.333 E0.06734
G1 X92.829 Y64.682 E0.07546
G1 X93.336 Y63.528 E0.05002
G1 X93.905 Y61.76 E0.07367
G1 X94.194 Y60.297 E0.05915
G1 X94.311 Y59.207 E0.04351
G1 X94.333 Y57.496 E0.06786
G1 X94.2 Y56.08 E0.05644
G1 X93.845 Y54.344 E0.07029
G1 X93.514 Y53.272 E0.04449
G1 X92.978 Y51.968 E0.05593
G1 X92.314 Y50.692 E0.05708
G1 X91.352 Y49.256 E0.06853
G1 X89.999 Y47.711 E0.0815
G1 X88.625 Y46.5 E0.07263
G1 X87.182 Y45.522 E0.06917
G1 X64.968 Y33.7 E0.99825
G1 X50.605 Y29.761 E0.59081
G1 X49.534 Y29.621 E0.04283
G1 X48.834 Y29.68 E0.02786
G1 X48.149 Y29.855 E0.02806
G1 X39.089 Y33.264 E0.38401
G1 X38.34 Y33.641 E0.03326
G1 X37.732 Y34.118 E0.03068
G1 X37.878 Y34.305 F18000
M204 S1000
G1 X38.025 Y34.492
G1 F1800
G1 X23.916 Y52.667 E0.91274
G1 X22.723 Y54.597 E0.09
G1 X22.488 Y55.351 E0.0313
G1 X22.418 Y56.132 E0.03111
G1 X22.513 Y56.915 E0.0313
G1 X28.216 Y81.04 E0.98341
G1 X28.519 Y81.845 E0.03412
G1 X28.999 Y82.558 E0.03412
G1 X29.799 Y83.258 E0.04217
G1 X30.769 Y83.705 E0.04236
G1 X49.451 Y88.779 E0.76793
G1 X50.459 Y88.902 E0.0403
G1 X51.303 Y88.791 E0.03374
G1 X52.095 Y88.494 E0.03355
G1 X86.607 Y70.591 E1.54231
G1 X88.204 Y69.546 E0.07571
G1 X89.571 Y68.37 E0.07156
G1 X90.49 Y67.38 E0.05357
G1 X91.485 Y66.07 E0.06528
G1 X92.4 Y64.475 E0.07293
G1 X92.886 Y63.369 E0.04794
G1 X93.438 Y61.664 E0.07105
G1 X93.723 Y60.221 E0.05837
G1 X93.837 Y59.159 E0.04238
G1 X93.856 Y57.504 E0.06565
G1 X93.729 Y56.152 E0.05386
G1 X93.386 Y54.476 E0.06788
G1 X93.066 Y53.436 E0.04316
G1 X92.538 Y52.15 E0.05516
G1 X91.902 Y50.934 E0.05443
G1 X90.976 Y49.55 E0.06605
G1 X89.658 Y48.045 E0.07938
G1 X88.33 Y46.875 E0.07019
G1 X86.923 Y45.923 E0.06741
G1 X64.784 Y34.14 E0.99486
G1 X50.483 Y30.222 E0.58824
G1 X49.536 Y30.098 E0.03787
G1 X48.911 Y30.15 E0.02491
G1 X48.298 Y30.309 E0.02509
G1 X39.262 Y33.709 E0.38299
G1 X38.599 Y34.041 E0.02942
G1 X38.072 Y34.455 E0.02658
M204 S1500
G1 X38.218 Y34.642 F18000
M204 S1000
G1 X38.365 Y34.828
G1 F1800
G1 X38.348 Y34.841 E0.00083
G1 X24.31 Y52.937 E0.90852
M73 P1 R23
G1 X23.172 Y54.762 E0.08531
G1 X22.959 Y55.43 E0.02781
G1 X22.895 Y56.123 E0.02764
G1 X22.979 Y56.81 E0.02746
G1 X28.678 Y80.92 E0.98279
G1 X28.941 Y81.622 E0.02974
G1 X29.359 Y82.245 E0.02974
G1 X30.059 Y82.858 E0.03691
G1 X30.908 Y83.248 E0.03708
G1 X49.572 Y88.317 E0.76721
G1 X50.452 Y88.425 E0.03516
G1 X51.187 Y88.328 E0.02939
G1 X51.88 Y88.068 E0.02939
G1 X86.383 Y70.17 E1.5419
G1 X87.918 Y69.164 E0.07279
G1 X89.242 Y68.025 E0.06929
G1 X90.123 Y67.076 E0.05137
G1 X91.084 Y65.811 E0.06303
G1 X91.968 Y64.272 E0.0704
G1 X92.438 Y63.205 E0.04626
G1 X92.971 Y61.564 E0.06842
G1 X93.252 Y60.146 E0.05736
G1 X93.362 Y59.111 E0.04128
G1 X93.379 Y57.513 E0.0634
G1 X93.257 Y56.225 E0.05131
G1 X92.928 Y54.608 E0.06546
G1 X92.619 Y53.6 E0.04183
G1 X92.099 Y52.338 E0.05417
G1 X91.489 Y51.173 E0.05216
G1 X90.598 Y49.84 E0.0636
G1 X89.318 Y48.379 E0.07705
G1 X88.033 Y47.248 E0.06792
G1 X86.662 Y46.322 E0.06562
G1 X64.598 Y34.58 E0.99149
G1 X50.365 Y30.685 E0.58538
G1 X49.534 Y30.575 E0.03324
G1 X48.449 Y30.762 E0.0437
G1 X39.434 Y34.154 E0.38208
G1 X38.855 Y34.444 E0.02571
G1 X38.412 Y34.791 E0.02232
G1 E-0.4 F3000
M204 S3000
G1 Z0.4 F18000
M204 S1500
G1 X39.861 Y37.321
M204 S1000
G1 X41.31 Y39.851
G1 Z0.2
G1 E0.4 F1800
;WIDTH:0.56
G1 X42.726 Y39.039 E0.07018
G1 X44.359 Y38.83 E0.07076
G1 X45.582 Y39.162 E0.0545
G1 X46.107 Y39.305 E0.02338
G1 X47.232 Y38.677 E0.05538
G1 X48.887 Y38.494 E0.0716
G1 X49.048 Y37.9 E0.02646
G1 X50.054 Y36.598 E0.07075
G1 X51.668 Y35.673 E0.07996
G1 X53.3 Y35.464 E0.07075
G1 X54.97 Y35.917 E0.0744
G1 X59.247 Y37.078 E0.19056
G1 X60.55 Y38.085 E0.07076
G1 X61.474 Y39.699 E0.07997
G1 X61.684 Y41.331 E0.07076
G1 X60.514 Y45.635 E0.19177
G1 X60.501 Y45.653 E0.00095
G1 X60.783 Y45.827 E0.01428
G1 X61.308 Y46.125 E0.02595
G1 X61.845 Y46.406 E0.02606
G1 X62.394 Y46.668 E0.02614
G1 X62.953 Y46.911 E0.02623
G1 X63.518 Y47.134 E0.02608
G1 X64.083 Y47.333 E0.02576
G1 X64.667 Y47.515 E0.02629
G1 X65.253 Y47.677 E0.02618
G1 X65.84 Y47.815 E0.02593
G1 X66.434 Y47.934 E0.02604
G1 X67.037 Y48.031 E0.02626
G1 X67.643 Y48.109 E0.02626
G1 X68.242 Y48.164 E0.02588
G1 X68.846 Y48.196 E0.02599
G1 X69.498 Y48.209 E0.02804
G1 X80.108 Y48.25 E0.45618
G1 X80.296 Y48.259 E0.00809
G1 X80.879 Y48.314 E0.02519
G1 X81.09 Y48.345 E0.00916
G1 X82.062 Y48.54 E0.04262
G1 X82.319 Y48.609 E0.01145
G1 X83.26 Y48.928 E0.04273
G1 X83.456 Y49.005 E0.00904
G1 X83.96 Y49.236 E0.02384
G1 X84.073 Y49.292 E0.00544
G1 X84.556 Y49.549 E0.02351
G1 X84.735 Y49.656 E0.00897
G1 X85.559 Y50.207 E0.04263
G1 X85.772 Y50.371 E0.01157
G1 X86.516 Y51.024 E0.04256
G1 X86.661 Y51.164 E0.00865
G1 X87.041 Y51.569 E0.02389
G1 X87.133 Y51.673 E0.00596
G1 X87.483 Y52.101 E0.02376
G1 X87.605 Y52.266 E0.00883
G1 X88.132 Y53.058 E0.04091
G1 X88.234 Y53.229 E0.00856
G1 X88.511 Y53.746 E0.02522
G1 X88.597 Y53.929 E0.00868
G1 X88.963 Y54.809 E0.04098
G1 X89.031 Y55.001 E0.00878
G1 X89.204 Y55.57 E0.02554
G1 X89.254 Y55.772 E0.00894
G1 X89.437 Y56.703 E0.0408
G1 X89.466 Y56.894 E0.0083
G1 X89.525 Y57.478 E0.02524
G1 X89.535 Y57.686 E0.00895
G1 X89.535 Y58.642 E0.0411
G1 X89.525 Y58.846 E0.00879
G1 X89.467 Y59.434 E0.02541
G1 X89.437 Y59.635 E0.0087
G1 X89.244 Y60.601 E0.04239
G1 X89.175 Y60.86 E0.0115
G1 X88.873 Y61.756 E0.04065
G1 X88.802 Y61.935 E0.0083
G1 X88.545 Y62.512 E0.02715
G1 X88.447 Y62.705 E0.00933
G1 X87.95 Y63.565 E0.04271
G1 X87.802 Y63.786 E0.01142
G1 X87.23 Y64.536 E0.04055
G1 X87.106 Y64.683 E0.00826
G1 X86.676 Y65.149 E0.02727
G1 X86.517 Y65.304 E0.00953
G1 X85.768 Y65.959 E0.0428
G1 X85.557 Y66.12 E0.0114
G1 X84.704 Y66.692 E0.04416
G1 X84.465 Y66.83 E0.01186
G1 X83.574 Y67.268 E0.04269
G1 X83.393 Y67.346 E0.00847
G1 X82.842 Y67.554 E0.02532
G1 X82.644 Y67.618 E0.00894
G1 X81.721 Y67.865 E0.0411
G1 X81.521 Y67.908 E0.00877
G1 X80.94 Y68.003 E0.02532
G1 X80.744 Y68.025 E0.00851
G1 X79.827 Y68.087 E0.03949
G1 X79.683 Y68.091 E0.0062
G1 X70.768 Y68.064 E0.38332
G1 X69.944 Y68.075 E0.03542
G1 X69.15 Y68.11 E0.03419
G1 X68.354 Y68.167 E0.03428
G1 X67.563 Y68.248 E0.03421
G1 X66.773 Y68.352 E0.03424
G1 X65.988 Y68.479 E0.0342
G1 X65.207 Y68.63 E0.03421
G1 X64.43 Y68.803 E0.03422
G1 X63.657 Y69 E0.03429
G1 X62.894 Y69.218 E0.03414
G1 X62.138 Y69.459 E0.0341
G1 X61.384 Y69.725 E0.03437
G1 X60.668 Y69.999 E0.03295
G1 X59.25 Y70.617 E0.06652
G1 X58.463 Y71.001 E0.03766
G1 X57.764 Y71.369 E0.03394
G1 X57.071 Y71.761 E0.03423
G1 X56.389 Y72.173 E0.03426
G1 X55.722 Y72.604 E0.03417
G1 X55.062 Y73.059 E0.03446
G1 X53.85 Y73.942 E0.06446
G1 X53.722 Y74.028 E0.00664
G1 X52.629 Y74.706 E0.0553
G1 X52.466 Y74.797 E0.00802
G1 X52.216 Y74.923 E0.01205
G1 X52.326 Y75.783 E0.03728
G1 X50.883 Y81.1 E0.23687
G1 X49.877 Y82.402 E0.07076
G1 X48.263 Y83.327 E0.07997
G1 X46.631 Y83.536 E0.07076
G1 X35.908 Y80.624 E0.47771
G1 X34.606 Y79.618 E0.07076
G1 X33.681 Y78.004 E0.07997
G1 X33.472 Y76.371 E0.07076
G1 X34.356 Y73.12 E0.14485
G1 X34.315 Y73.089 E0.00222
G1 X34.169 Y72.967 E0.0082
G1 X33.221 Y72.097 E0.0553
G1 X33.118 Y71.994 E0.00625
G1 X32.648 Y71.498 E0.02937
G1 X32.586 Y71.429 E0.00401
G1 X32.14 Y70.913 E0.02931
G1 X32.048 Y70.798 E0.00636
G1 X31.296 Y69.79 E0.05406
G1 X31.217 Y69.676 E0.00597
G1 X30.846 Y69.102 E0.02936
G1 X30.795 Y69.019 E0.0042
G1 X30.453 Y68.43 E0.02929
G1 X30.386 Y68.305 E0.00612
G1 X29.859 Y67.237 E0.0512
G1 X29.802 Y67.109 E0.006
G1 X29.509 Y66.396 E0.03316
G1 X29.457 Y66.257 E0.00636
G1 X29.083 Y65.124 E0.05131
G1 X29.045 Y64.994 E0.00583
G1 X28.857 Y64.268 E0.03225
G1 X28.832 Y64.161 E0.00473
G1 X28.696 Y63.486 E0.02959
G1 X28.672 Y63.349 E0.006
G1 X28.366 Y61.051 E0.09967
G1 X29.098 Y59.105 E0.08935
G1 X30.87 Y57.554 E0.10126
G1 X32.703 Y57.131 E0.0809
G1 X31.313 Y55.779 E0.08337
G1 X30.612 Y53.456 E0.10435
G1 X31.066 Y51.364 E0.09202
G1 X32.612 Y49.599 E0.1009
G1 X32.702 Y49.504 E0.00561
G1 X33.243 Y48.959 E0.03302
G1 X33.317 Y48.889 E0.00438
G1 X33.836 Y48.416 E0.03021
G1 X33.938 Y48.329 E0.00577
G1 X34.949 Y47.522 E0.05559
G1 X35.057 Y47.44 E0.00584
G1 X35.632 Y47.04 E0.03011
G1 X35.709 Y46.989 E0.00397
G1 X36.297 Y46.617 E0.02992
G1 X36.412 Y46.55 E0.00576
G1 X37.568 Y45.92 E0.05658
G1 X37.729 Y45.841 E0.00772
G1 X38.873 Y45.341 E0.05366
G1 X38.991 Y45.293 E0.00549
G1 X39.015 Y45.285 E0.00108
G1 X40.106 Y41.266 E0.17904
G1 X41.112 Y39.964 E0.07076
G1 X41.258 Y39.88 E0.00721
M204 S1500
G1 X41.386 Y40.105 F18000
M204 S1000
G1 X41.515 Y40.329
G1 F1800
G1 X42.894 Y39.539 E0.06833
G1 X44.322 Y39.356 E0.06192
G1 X45.446 Y39.661 E0.05008
G1 X46.175 Y39.859 E0.03244
G1 X47.392 Y39.18 E0.05995
G1 X48.845 Y39.019 E0.06284
G1 X49.248 Y39.138 E0.01806
G1 X49.52 Y38.135 E0.0447
G1 X50.401 Y36.995 E0.06191
G1 X51.836 Y36.173 E0.07112
G1 X53.264 Y35.99 E0.06191
G1 X54.835 Y36.416 E0.06998
G1 X59.013 Y37.55 E0.18613
G1 X60.152 Y38.431 E0.06192
G1 X60.974 Y39.866 E0.07113
G1 X61.158 Y41.295 E0.06192
G1 X60.042 Y45.4 E0.18292
G1 X59.747 Y45.783 E0.02079
G1 X59.987 Y45.943 E0.01243
G1 X60.52 Y46.272 E0.0269
G1 X61.061 Y46.58 E0.02676
G1 X61.614 Y46.869 E0.02685
G1 X62.18 Y47.138 E0.02692
M73 P2 R23
G1 X62.755 Y47.389 E0.027
G1 X63.337 Y47.618 E0.02688
G1 X63.92 Y47.824 E0.02658
G1 X64.521 Y48.011 E0.02706
G1 X65.125 Y48.178 E0.02696
G1 X65.73 Y48.321 E0.02674
G1 X66.342 Y48.443 E0.02683
G1 X66.963 Y48.543 E0.02703
G1 X67.587 Y48.623 E0.02703
G1 X68.205 Y48.68 E0.0267
G1 X68.827 Y48.713 E0.0268
G1 X69.492 Y48.726 E0.02859
G1 X80.094 Y48.767 E0.45584
G1 X80.259 Y48.775 E0.00708
G1 X80.817 Y48.828 E0.02411
G1 X81.001 Y48.855 E0.00801
G1 X81.944 Y49.044 E0.04133
G1 X82.169 Y49.104 E0.01002
G1 X83.082 Y49.413 E0.04145
G1 X83.253 Y49.481 E0.00791
G1 X83.738 Y49.703 E0.02294
G1 X83.837 Y49.752 E0.00476
G1 X84.302 Y49.999 E0.02261
G1 X84.458 Y50.093 E0.00785
G1 X85.257 Y50.628 E0.04134
G1 X85.444 Y50.771 E0.01012
G1 X86.166 Y51.405 E0.0413
G1 X86.292 Y51.527 E0.00756
G1 X86.658 Y51.917 E0.02298
G1 X86.738 Y52.008 E0.00521
G1 X87.075 Y52.419 E0.02284
G1 X87.182 Y52.563 E0.00773
G1 X87.695 Y53.334 E0.03982
G1 X87.784 Y53.484 E0.00749
G1 X88.049 Y53.979 E0.02414
G1 X88.124 Y54.139 E0.0076
G1 X88.48 Y54.996 E0.03989
G1 X88.54 Y55.164 E0.00769
G1 X88.705 Y55.708 E0.02443
G1 X88.749 Y55.884 E0.00783
G1 X88.928 Y56.791 E0.03972
G1 X88.952 Y56.958 E0.00727
G1 X89.009 Y57.517 E0.02417
G1 X89.018 Y57.699 E0.00783
G1 X89.018 Y58.629 E0.04
G1 X89.009 Y58.808 E0.00769
G1 X88.953 Y59.371 E0.02432
G1 X88.927 Y59.546 E0.00762
G1 X88.741 Y60.484 E0.04113
G1 X88.68 Y60.71 E0.01006
G1 X88.387 Y61.579 E0.03941
G1 X88.325 Y61.736 E0.00726
G1 X88.079 Y62.289 E0.02605
G1 X87.992 Y62.458 E0.00816
G1 X87.51 Y63.292 E0.04142
G1 X87.381 Y63.486 E0.00999
G1 X86.826 Y64.212 E0.03932
G1 X86.718 Y64.341 E0.00723
G1 X86.305 Y64.788 E0.02615
G1 X86.166 Y64.923 E0.00834
G1 X85.44 Y65.559 E0.04149
G1 X85.256 Y65.7 E0.00997
G1 X84.43 Y66.252 E0.04271
G1 X84.221 Y66.373 E0.01038
G1 X83.357 Y66.798 E0.04142
G1 X83.199 Y66.867 E0.00741
G1 X82.672 Y67.066 E0.02423
G1 X82.498 Y67.122 E0.00783
G1 X81.6 Y67.362 E0.04
G1 X81.425 Y67.399 E0.00767
G1 X80.869 Y67.491 E0.02424
G1 X80.697 Y67.51 E0.00745
G1 X79.802 Y67.57 E0.03857
G1 X79.675 Y67.574 E0.00543
G1 X70.765 Y67.547 E0.38311
G1 X69.929 Y67.558 E0.03593
G1 X69.12 Y67.593 E0.03484
G1 X68.309 Y67.652 E0.03493
G1 X67.503 Y67.734 E0.03487
G1 X66.698 Y67.84 E0.03489
G1 X65.898 Y67.97 E0.03486
G1 X65.102 Y68.123 E0.03486
G1 X64.31 Y68.3 E0.03488
G1 X63.522 Y68.501 E0.03494
G1 X62.744 Y68.723 E0.03481
G1 X61.974 Y68.969 E0.03477
G1 X61.206 Y69.239 E0.035
G1 X60.473 Y69.521 E0.03375
G1 X59.034 Y70.147 E0.06749
G1 X58.229 Y70.539 E0.03849
G1 X57.516 Y70.915 E0.03462
G1 X56.81 Y71.314 E0.03488
G1 X56.115 Y71.734 E0.03492
G1 X55.435 Y72.174 E0.03483
G1 X54.763 Y72.637 E0.03508
G1 X53.554 Y73.518 E0.06434
G1 X53.442 Y73.594 E0.00581
G1 X52.367 Y74.26 E0.05438
G1 X52.224 Y74.34 E0.00702
G1 X51.656 Y74.625 E0.02732
G1 X51.8 Y75.746 E0.04862
G1 X50.411 Y80.865 E0.22803
G1 X49.531 Y82.004 E0.06192
G1 X48.095 Y82.827 E0.07113
G1 X46.667 Y83.01 E0.06192
G1 X36.143 Y80.152 E0.46887
G1 X35.003 Y79.272 E0.06192
G1 X34.181 Y77.836 E0.07113
G1 X33.998 Y76.408 E0.06192
G1 X34.946 Y72.92 E0.1554
G1 X34.638 Y72.685 E0.01667
G1 X34.51 Y72.578 E0.00717
G1 X33.578 Y71.722 E0.05439
G1 X33.487 Y71.633 E0.00547
G1 X33.028 Y71.147 E0.02873
G1 X32.973 Y71.086 E0.00351
G1 X32.538 Y70.582 E0.02867
G1 X32.457 Y70.481 E0.00556
G1 X31.716 Y69.488 E0.05328
G1 X31.646 Y69.388 E0.00523
G1 X31.284 Y68.827 E0.02872
G1 X31.239 Y68.754 E0.00367
G1 X30.904 Y68.178 E0.02864
G1 X30.846 Y68.068 E0.00535
G1 X30.327 Y67.016 E0.05044
G1 X30.277 Y66.905 E0.00525
G1 X29.99 Y66.208 E0.03239
G1 X29.945 Y66.087 E0.00556
G1 X29.577 Y64.97 E0.05055
G1 X29.543 Y64.856 E0.0051
G1 X29.359 Y64.145 E0.03159
G1 X29.338 Y64.051 E0.00414
G1 X29.204 Y63.392 E0.02892
G1 X29.184 Y63.272 E0.00525
G1 X28.896 Y61.111 E0.09371
G1 X29.536 Y59.409 E0.07818
G1 X31.113 Y58.029 E0.09009
G1 X32.884 Y57.62 E0.07817
G1 X39.173 Y59.329 E0.28019
G1 X39.79 Y58.622 E0.04033
G1 X33.112 Y56.808 E0.29752
G1 X31.77 Y55.502 E0.08052
G1 X31.146 Y53.434 E0.09285
G1 X31.543 Y51.604 E0.08052
G1 X32.996 Y49.946 E0.0948
G1 X33.074 Y49.863 E0.00491
G1 X33.605 Y49.328 E0.03239
G1 X33.67 Y49.267 E0.00383
G1 X34.178 Y48.804 E0.02958
G1 X34.267 Y48.727 E0.00505
G1 X35.265 Y47.931 E0.05487
G1 X35.36 Y47.86 E0.00511
G1 X35.923 Y47.468 E0.02949
G1 X35.99 Y47.423 E0.00347
G1 X36.566 Y47.059 E0.02931
G1 X36.667 Y47 E0.00504
G1 X37.806 Y46.379 E0.05574
G1 X37.947 Y46.31 E0.00675
G1 X39.073 Y45.818 E0.05284
G1 X39.176 Y45.776 E0.0048
G1 X39.444 Y45.679 E0.01224
G1 X40.578 Y41.501 E0.18613
G1 X41.463 Y40.359 E0.06211
M204 S1500
G1 X41.634 Y40.559 F18000
M204 S1000
G1 X41.805 Y40.759
G1 F1800
G1 X43.062 Y40.039 E0.06228
G1 X44.286 Y39.882 E0.05307
G1 X45.311 Y40.16 E0.04565
