; generated by SuperSlicer 2.5.59 on 2022-12-05 at 00:14:29 UTC


;
;

;
;
; TODO: check the size of the extruder and the y-bar clearance. Optimize & test supports.

; external perimeters extrusion width = 0.42mm
; perimeters extrusion width = 0.46mm
; infill extrusion width = 0.44mm
; solid infill extrusion width = 0.46mm
; top infill extrusion width = 0.44mm
; first layer extrusion width = 0.56mm

; object:{"name":"Voron_Design_Cube_v7","id":"Voron_Design_Cube_v7 id:0 copy 0","object_center":[60.000000,60.000000,0.000000],"boundingbox_center":[60.000000,60.000000,10.000000],"boundingbox_size":[20.000000,20.000000,20.000000]}
; plater:{"center":[60.000000,60.000000,0.000000],"boundingbox_center":[60.000000,60.000000,10.000000],"boundingbox_size":[20.000000,20.000000,20.000000]}

;TYPE:Custom
; M190 S0
; M109 S0 ; uncomment to remove set&wait temp gcode added automatically after this start gcode
print_start EXTRUDER=220 BED=0 CHAMBER=15


; Pre-Processed for Cancel-Object support by preprocess_cancellation v0.2.0
; 1 known objects
EXCLUDE_OBJECT_DEFINE NAME=Voron_Design_Cube_v7_id_0_copy_0 CENTER=60.170,60.071 POLYGON=[[50.21,50.21],[50.21,69.79],[66.88,70.0],[69.79,69.79],[70.0,53.098],[69.79,50.21],[50.21,50.21]]
M107
G21 ; set units to millimeters
G90 ; use absolute coordinates
M83 ; use relative distances for extrusion
;_TOOLCHANGE 0
M104 S220 ; set temperature
M109 S220 ; set temperature and wait for it to be reached
M107
;LAYER_CHANGE
;Z:0.2
;HEIGHT:0.2
;BEFORE_LAYER_CHANGE
;0.2


G1 Z0.2 F18000
;AFTER_LAYER_CHANGE
;0.2
G92 E0
G1 E-2 F3000
G1 Z0.6 F18000
M204 S1000
G1 X48.052 Y48.052
G1 Z0.2
G1 E2 F1800
;TYPE:Skirt
;WIDTH:0.52
G1 X46.157 Y49.947 E0.10631
G1 X44.906 Y51.849 E0.09032
G1 X44.509 Y53.923 E0.08377
G1 X44.509 Y66.077 E0.48211
G1 X44.97 Y68.306 E0.09032
G1 X46.157 Y70.053 E0.08377
G1 X49.947 Y73.843 E0.21263
G1 X51.849 Y75.094 E0.09032
G1 X53.923 Y75.491 E0.08377
G1 X66.077 Y75.491 E0.48211
G1 X68.306 Y75.03 E0.09032
G1 X70.053 Y73.843 E0.08377
G1 X73.843 Y70.053 E0.21263
G1 X75.094 Y68.151 E0.09032
G1 X75.491 Y66.077 E0.08377
G1 X75.491 Y53.923 E0.48211
G1 X75.03 Y51.694 E0.09032
G1 X73.843 Y49.947 E0.08377
G1 X70.053 Y46.157 E0.21263
G1 X68.151 Y44.906 E0.09032
G1 X66.077 Y44.509 E0.08377
G1 X53.923 Y44.509 E0.48211
G1 X51.694 Y44.97 E0.09032
G1 X49.947 Y46.157 E0.08377
G1 X48.094 Y48.009 E0.10393
G1 X48.431 Y48.347 F18000
G1 F1800
G1 X46.494 Y50.284 E0.10869
G1 X45.383 Y51.943 E0.07922
G1 X44.986 Y53.923 E0.0801
G1 X44.986 Y66.077 E0.48211
G1 X45.374 Y68.036 E0.07922
G1 X46.494 Y69.716 E0.0801
G1 X50.284 Y73.506 E0.21263
G1 X51.943 Y74.617 E0.07922
G1 X53.923 Y75.014 E0.0801
G1 X66.077 Y75.014 E0.48211
G1 X68.036 Y74.626 E0.07922
G1 X69.716 Y73.506 E0.0801
G1 X73.506 Y69.716 E0.21263
G1 X74.617 Y68.057 E0.07922
G1 X75.014 Y66.077 E0.0801
G1 X75.014 Y53.923 E0.48211
G1 X74.626 Y51.964 E0.07922
G1 X73.506 Y50.284 E0.0801
G1 X69.716 Y46.494 E0.21263
G1 X68.057 Y45.383 E0.07922
G1 X66.077 Y44.986 E0.0801
G1 X53.923 Y44.986 E0.48211
G1 X51.964 Y45.374 E0.07922
G1 X50.284 Y46.494 E0.0801
G1 X48.474 Y48.304 E0.10155
G1 X48.811 Y48.642 F18000
G1 F1800
G1 X46.831 Y50.621 E0.11107
G1 X45.859 Y52.042 E0.06829
G1 X45.464 Y53.923 E0.07626
G1 X45.464 Y66.077 E0.48211
G1 X45.781 Y67.769 E0.06829
G1 X46.831 Y69.379 E0.07626
G1 X50.621 Y73.169 E0.21263
G1 X52.042 Y74.141 E0.06829
G1 X53.923 Y74.536 E0.07626
G1 X66.077 Y74.536 E0.48211
G1 X67.769 Y74.219 E0.06829
G1 X69.379 Y73.169 E0.07626
G1 X73.169 Y69.379 E0.21263
G1 X74.141 Y67.958 E0.06829
G1 X74.536 Y66.077 E0.07626
G1 X74.536 Y53.923 E0.48211
G1 X74.219 Y52.231 E0.06829
G1 X73.169 Y50.621 E0.07626
G1 X69.379 Y46.831 E0.21263
G1 X67.958 Y45.859 E0.06829
G1 X66.077 Y45.464 E0.07626
G1 X53.923 Y45.464 E0.48211
G1 X52.231 Y45.781 E0.06829
G1 X50.621 Y46.831 E0.07626
G1 X48.854 Y48.599 E0.09917
G1 X49.191 Y48.936 F18000
G1 F1800
G1 X47.169 Y50.959 E0.11345
G1 X46.336 Y52.146 E0.05754
G1 X45.941 Y53.923 E0.07222
G1 X45.941 Y66.077 E0.48211
G1 X46.192 Y67.505 E0.05754
G1 X47.169 Y69.041 E0.07222
G1 X50.959 Y72.831 E0.21263
G1 X52.146 Y73.664 E0.05754
G1 X53.923 Y74.059 E0.07222
G1 X66.077 Y74.059 E0.48211
G1 X67.505 Y73.808 E0.05754
G1 X69.041 Y72.831 E0.07222
G1 X72.831 Y69.041 E0.21263
G1 X73.664 Y67.854 E0.05754
G1 X74.059 Y66.077 E0.07222
G1 X74.059 Y53.923 E0.48211
G1 X73.808 Y52.495 E0.05754
G1 X72.831 Y50.959 E0.07222
G1 X69.041 Y47.169 E0.21263
G1 X67.854 Y46.336 E0.05754
G1 X66.077 Y45.941 E0.07222
G1 X53.923 Y45.941 E0.48211
G1 X52.495 Y46.192 E0.05754
G1 X50.959 Y47.169 E0.07222
G1 X49.233 Y48.894 E0.09679
G1 X49.571 Y49.231 F18000
G1 F1800
G1 X47.506 Y51.296 E0.11584
G1 X46.812 Y52.257 E0.04702
G1 X46.418 Y53.923 E0.06793
G1 X46.418 Y66.077 E0.48211
G1 X46.607 Y67.247 E0.04702
G1 X47.506 Y68.704 E0.06793
G1 X51.296 Y72.494 E0.21263
G1 X52.257 Y73.188 E0.04702
G1 X53.923 Y73.582 E0.06793
G1 X66.077 Y73.582 E0.48211
G1 X67.247 Y73.393 E0.04702
G1 X68.704 Y72.494 E0.06793
G1 X72.494 Y68.704 E0.21263
G1 X73.188 Y67.743 E0.04702
G1 X73.582 Y66.077 E0.06793
G1 X73.582 Y53.923 E0.48211
G1 X73.393 Y52.753 E0.04702
G1 X72.494 Y51.296 E0.06793
G1 X68.704 Y47.506 E0.21263
G1 X67.743 Y46.812 E0.04702
G1 X66.077 Y46.418 E0.06793
G1 X53.923 Y46.418 E0.48211
G1 X52.753 Y46.607 E0.04702
G1 X51.296 Y47.506 E0.06793
G1 X49.613 Y49.189 E0.09441
G1 X49.951 Y49.526 F18000
G1 F1800
G1 X47.843 Y51.633 E0.11822
G1 X47.289 Y52.376 E0.03676
G1 X46.895 Y53.923 E0.06336
G1 X46.895 Y66.077 E0.48211
G1 X47.027 Y66.994 E0.03676
G1 X47.843 Y68.367 E0.06336
G1 X51.633 Y72.157 E0.21263
G1 X52.376 Y72.711 E0.03676
G1 X53.923 Y73.105 E0.06336
G1 X66.077 Y73.105 E0.48211
G1 X66.994 Y72.973 E0.03676
G1 X68.367 Y72.157 E0.06336
G1 X72.157 Y68.367 E0.21263
G1 X72.711 Y67.624 E0.03676
G1 X73.105 Y66.077 E0.06336
G1 X73.105 Y53.923 E0.48211
G1 X72.973 Y53.006 E0.03676
G1 X72.157 Y51.633 E0.06336
G1 X68.367 Y47.843 E0.21263
G1 X67.624 Y47.289 E0.03676
G1 X66.077 Y46.895 E0.06336
G1 X53.923 Y46.895 E0.48211
G1 X53.006 Y47.027 E0.03676
G1 X51.633 Y47.843 E0.06336
G1 X49.993 Y49.484 E0.09203
G1 E-2 F3000
M204 S1500
G1 Z0.6 F18000
; printing object Voron_Design_Cube_v7 id:0 copy 0
EXCLUDE_OBJECT_START NAME=Voron_Design_Cube_v7_id_0_copy_0
; acceleration to travel
G1 X53.388 Y52.898
; decel to extrusion
M204 S1000
G1 X55.651 Y55.173
; end travel
G1 Z0.2
G1 E2 F1800
;TYPE:Internal perimeter
;WIDTH:0.56
G1 X55.612 Y55.206 E0.00221
G1 X55.202 Y55.619 E0.02502
G1 X54.914 Y55.955 E0.01901
G1 X54.528 Y56.493 E0.02847
G1 X54.195 Y57.078 E0.02895
G1 X53.924 Y57.694 E0.02895
G1 X53.718 Y58.335 E0.02895
G1 X53.579 Y58.994 E0.02895
G1 X53.509 Y59.663 E0.02895
G1 X53.509 Y60.337 E0.02895
G1 X53.579 Y61.006 E0.02895
G1 X53.718 Y61.665 E0.02895
G1 X53.92 Y62.296 E0.02848
G1 X54.092 Y62.703 E0.01901
G1 X54.355 Y63.222 E0.025
G1 X54.717 Y63.786 E0.02883
G1 X55.137 Y64.312 E0.02895
G1 X55.609 Y64.792 E0.02895
G1 X56.129 Y65.221 E0.02895
G1 X56.69 Y65.593 E0.02894
G1 X57.276 Y65.9 E0.02845
G1 X57.684 Y66.071 E0.01903
G1 X58.236 Y66.255 E0.02503
G1 X58.89 Y66.404 E0.0288
G1 X59.558 Y66.484 E0.02895
G1 X60.231 Y66.495 E0.02895
G1 X60.902 Y66.436 E0.02894
G1 X61.563 Y66.309 E0.02895
G1 X62.196 Y66.116 E0.02842
G1 X62.607 Y65.952 E0.01905
G1 X63.13 Y65.695 E0.02505
G1 X63.7 Y65.343 E0.02878
G1 X64.233 Y64.932 E0.02895
G1 X64.72 Y64.468 E0.02895
G1 X65.157 Y63.955 E0.02895
G1 X65.538 Y63.401 E0.02895
G1 X65.86 Y62.809 E0.02894
G1 X66.12 Y62.188 E0.02895
G1 X66.313 Y61.543 E0.02895
G1 X66.439 Y60.882 E0.02895
G1 X66.494 Y60.224 E0.02837
G1 X66.494 Y59.776 E0.01928
G1 X66.439 Y59.118 E0.02837
G1 X66.313 Y58.457 E0.02895
G1 X66.121 Y57.816 E0.02877
G1 X65.9 Y57.276 E0.02508
G1 X65.7 Y56.88 E0.01907
G1 X65.355 Y56.317 E0.0284
G1 X64.945 Y55.783 E0.02894
G1 X64.482 Y55.294 E0.02894
G1 X63.971 Y54.855 E0.02895
G1 X63.418 Y54.472 E0.02895
G1 X62.831 Y54.15 E0.02879
G1 X62.295 Y53.921 E0.02505
G1 X61.876 Y53.778 E0.01905
G1 X61.234 Y53.619 E0.02842
G1 X60.567 Y53.526 E0.02895
G1 X59.895 Y53.502 E0.02895
G1 X59.559 Y53.524 E0.01447
G1 X59.223 Y53.547 E0.01447
G1 X58.559 Y53.662 E0.02895
G1 X57.911 Y53.845 E0.02895
G1 X57.286 Y54.094 E0.02894
G1 X56.69 Y54.407 E0.02895
G1 X56.129 Y54.779 E0.02895
G1 X55.698 Y55.135 E0.02403
G1 X55.981 Y55.572 F18000
G1 F1800
G1 X55.961 Y55.588 E0.0011
G1 X55.582 Y55.97 E0.02311
G1 X55.321 Y56.274 E0.01724
G1 X54.964 Y56.772 E0.02634
G1 X54.657 Y57.31 E0.02664
G1 X54.408 Y57.878 E0.02664
G1 X54.218 Y58.467 E0.02664
G1 X54.091 Y59.074 E0.02664
G1 X54.026 Y59.69 E0.02664
G1 X54.026 Y60.31 E0.02664
G1 X54.091 Y60.926 E0.02664
G1 X54.218 Y61.533 E0.02664
G1 X54.406 Y62.116 E0.02635
G1 X54.561 Y62.485 E0.01723
G1 X54.805 Y62.964 E0.0231
G1 X55.138 Y63.484 E0.02657
G1 X55.525 Y63.969 E0.02664
G1 X55.959 Y64.41 E0.02664
G1 X56.437 Y64.805 E0.02664
G1 X56.953 Y65.147 E0.02664
G1 X57.496 Y65.432 E0.02633
G1 X57.866 Y65.586 E0.01725
G1 X58.376 Y65.757 E0.02311
G1 X58.978 Y65.894 E0.02655
G1 X59.593 Y65.968 E0.02664
G1 X60.213 Y65.978 E0.02664
G1 X60.83 Y65.924 E0.02664
G1 X61.438 Y65.806 E0.02664
G1 X62.024 Y65.628 E0.02632
G1 X62.397 Y65.479 E0.01726
G1 X62.88 Y65.242 E0.02313
G1 X63.405 Y64.918 E0.02654
G1 X63.895 Y64.539 E0.02664
G1 X64.344 Y64.112 E0.02664
G1 X64.746 Y63.64 E0.02664
G1 X65.097 Y63.13 E0.02664
G1 X65.394 Y62.586 E0.02664
G1 X65.632 Y62.014 E0.02664
G1 X65.81 Y61.42 E0.02664
G1 X65.926 Y60.812 E0.02664
G1 X65.977 Y60.202 E0.02628
G1 X65.977 Y59.798 E0.0174
G1 X65.926 Y59.188 E0.02628
G1 X65.81 Y58.58 E0.02664
G1 X65.633 Y57.989 E0.02653
G1 X65.429 Y57.491 E0.02315
G1 X65.248 Y57.132 E0.01727
G1 X64.928 Y56.61 E0.0263
G1 X64.551 Y56.119 E0.02664
G1 X64.125 Y55.669 E0.02664
G1 X63.655 Y55.265 E0.02664
G1 X63.146 Y54.913 E0.02664
G1 X62.604 Y54.616 E0.02654
G1 X62.11 Y54.404 E0.02313
G1 X61.73 Y54.275 E0.01726
G1 X61.136 Y54.127 E0.02632
G1 X60.522 Y54.041 E0.02664
G1 X59.903 Y54.019 E0.02664
G1 X59.594 Y54.04 E0.01332
G1 X59.285 Y54.061 E0.01332
G1 X58.674 Y54.167 E0.02664
G1 X58.078 Y54.336 E0.02664
G1 X57.502 Y54.565 E0.02664
G1 X56.953 Y54.853 E0.02664
G1 X56.437 Y55.195 E0.02664
G1 X56.027 Y55.534 E0.02288
G1 X56.31 Y55.971 F18000
;TYPE:External perimeter
G1 F1800
G1 X55.962 Y56.321 E0.02119
G1 X55.728 Y56.594 E0.01546
G1 X55.4 Y57.052 E0.02422
G1 X55.12 Y57.543 E0.02433
G1 X54.892 Y58.061 E0.02434
G1 X54.719 Y58.6 E0.02434
G1 X54.602 Y59.154 E0.02434
G1 X54.544 Y59.717 E0.02433
G1 X54.544 Y60.283 E0.02434
G1 X54.602 Y60.846 E0.02433
G1 X54.719 Y61.4 E0.02434
G1 X54.891 Y61.936 E0.02422
G1 X55.03 Y62.268 E0.01546
G1 X55.254 Y62.707 E0.02119
G1 X55.559 Y63.183 E0.02431
G1 X55.912 Y63.625 E0.02433
G1 X56.309 Y64.029 E0.02434
G1 X56.746 Y64.389 E0.02434
G1 X57.217 Y64.702 E0.02433
G1 X57.716 Y64.963 E0.02422
G1 X58.048 Y65.102 E0.01547
G1 X58.515 Y65.258 E0.02119
G1 X59.067 Y65.383 E0.0243
G1 X59.628 Y65.451 E0.02434
G1 X60.194 Y65.46 E0.02434
G1 X60.758 Y65.411 E0.02433
G1 X61.314 Y65.303 E0.02433
G1 X61.853 Y65.14 E0.02421
G1 X62.187 Y65.006 E0.01547
G1 X62.63 Y64.789 E0.0212
G1 X63.11 Y64.492 E0.02429
G1 X63.558 Y64.146 E0.02434
G1 X63.968 Y63.756 E0.02433
G1 X64.335 Y63.325 E0.02434
G1 X64.656 Y62.859 E0.02433
G1 X64.927 Y62.362 E0.02433
G1 X65.145 Y61.839 E0.02434
G1 X65.307 Y61.297 E0.02433
G1 X65.413 Y60.741 E0.02434
G1 X65.46 Y60.181 E0.02419
G1 X65.46 Y59.819 E0.01553
G1 X65.413 Y59.259 E0.02419
G1 X65.307 Y58.703 E0.02434
G1 X65.145 Y58.162 E0.02429
G1 X64.958 Y57.705 E0.02121
G1 X64.796 Y57.384 E0.01548
G1 X64.502 Y56.904 E0.0242
G1 X64.157 Y56.455 E0.02433
G1 X63.768 Y56.044 E0.02433
G1 X63.339 Y55.675 E0.02433
G1 X62.873 Y55.353 E0.02434
G1 X62.378 Y55.081 E0.0243
G1 X61.925 Y54.887 E0.0212
G1 X61.584 Y54.771 E0.01547
G1 X61.037 Y54.636 E0.02421
G1 X60.477 Y54.557 E0.02434
G1 X59.911 Y54.537 E0.02433
G1 X59.629 Y54.556 E0.01217
G1 X59.347 Y54.575 E0.01217
G1 X58.789 Y54.672 E0.02433
G1 X58.244 Y54.826 E0.02434
G1 X57.718 Y55.035 E0.02433
G1 X57.217 Y55.298 E0.02434
G1 X56.746 Y55.611 E0.02433
G1 X56.356 Y55.933 E0.02172
;WIPE_START
M204 S1500
G1 X55.926 Y55.856 F18000
;WIPE_END
G1 E-2 F3000
G1 Z0.6 F18000
; acceleration to travel
G1 X55.051 Y53.211
; decel to extrusion
M204 S1000
G1 X54.468 Y51.447
; end travel
G1 Z0.2
G1 E2 F1800
;TYPE:Internal perimeter
G1 X65.532 Y51.447 E0.47572
G1 X68.553 Y54.468 E0.18365
G1 X68.553 Y65.532 E0.47572
G1 X65.532 Y68.553 E0.18365
G1 X54.468 Y68.553 E0.47572
G1 X51.447 Y65.532 E0.18365
G1 X51.447 Y54.468 E0.47572
G1 X54.425 Y51.49 E0.18107
G1 X54.254 Y50.93 F18000
G1 F1800
G1 X65.746 Y50.93 E0.49414
G1 X65.834 Y51.018 E0.0053
G1 X69.07 Y54.254 E0.19677
G1 X69.07 Y65.746 E0.49414
G1 X65.746 Y69.07 E0.20207
G1 X54.254 Y69.07 E0.49414
G1 X50.93 Y65.746 E0.20207
G1 X50.93 Y54.254 E0.49414
G1 X54.211 Y50.973 E0.19949
G1 X54.039 Y50.413 F18000
;TYPE:External perimeter
G1 F1800
G1 X65.961 Y50.413 E0.51255
G1 X66.199 Y50.652 E0.01451
G1 X69.587 Y54.039 E0.20598
G1 X69.587 Y65.961 E0.51255
G1 X65.961 Y69.587 E0.22048
G1 X54.039 Y69.587 E0.51255
G1 X50.413 Y65.961 E0.22048
G1 X50.413 Y54.039 E0.51255
G1 X53.997 Y50.456 E0.2179
;WIPE_START
M204 S1500
G1 X54.322 Y50.696 F18000
;WIPE_END
G1 E-2 F3000
G1 Z0.6 F18000
; acceleration to travel
G1 X60.806 Y51.256
; decel to extrusion
M204 S1000
G1 X65.128 Y51.628
; end travel
G1 Z0.2
G1 E2 F1800
;TYPE:Solid infill
;WIDTH:0.556351
G1 X68.149 Y54.65 E0.1825
G1 X68.149 Y55.381 E0.03124
G1 X64.619 Y51.851 E0.21324
G1 X63.888 Y51.851 E0.03124
G1 X68.149 Y56.112 E0.25742
G1 X68.149 Y56.843 E0.03124
G1 X63.157 Y51.851 E0.30159
G1 X62.425 Y51.851 E0.03124
G1 X68.149 Y57.575 E0.34576
G1 X68.149 Y58.306 E0.03124
G1 X61.694 Y51.851 E0.38994
G1 X60.963 Y51.851 E0.03124
G1 X62.818 Y53.706 E0.11206
G1 X63.008 Y53.787 E0.00881
G1 X63.63 Y54.129 E0.03034
G1 X64.218 Y54.536 E0.03055
G1 X64.761 Y55.002 E0.03055
G1 X65.252 Y55.521 E0.03054
G1 X65.692 Y56.094 E0.03084
G1 X66.263 Y57.099 E0.0494
G1 X66.299 Y57.187 E0.00403
G1 X68.149 Y59.037 E0.11178
G1 X68.149 Y59.768 E0.03124
G1 X66.69 Y58.309 E0.08815
G1 X66.705 Y58.361 E0.00231
G1 X66.839 Y59.063 E0.03055
G1 X66.851 Y59.201 E0.0059
G1 X68.149 Y60.5 E0.07844
G1 X68.149 Y61.231 E0.03124
G1 X66.889 Y59.97 E0.07616
G1 X66.854 Y60.666 E0.02978
G1 X68.149 Y61.962 E0.07827
G1 X68.149 Y62.693 E0.03124
G1 X66.768 Y61.312 E0.08346
G1 X66.705 Y61.639 E0.01423
G1 X66.627 Y61.902 E0.01173
G1 X68.149 Y63.425 E0.09198
G1 X68.149 Y64.156 E0.03124
G1 X66.446 Y62.453 E0.10288
G1 X66.231 Y62.969 E0.02388
G1 X68.149 Y64.887 E0.11588
G1 X68.149 Y65.365 E0.02042
G1 X68.023 Y65.492 E0.00765
G1 X65.974 Y63.444 E0.12373
G1 X65.883 Y63.612 E0.00819
G1 X65.691 Y63.891 E0.01448
G1 X67.657 Y65.857 E0.11878
G1 X67.291 Y66.223 E0.02209
G1 X65.382 Y64.313 E0.11536
G1 X65.045 Y64.708 E0.02216
G1 X66.926 Y66.589 E0.11361
G1 X66.56 Y66.954 E0.02209
G1 X64.674 Y65.068 E0.11393
G1 X64.496 Y65.238 E0.01053
G1 X64.28 Y65.405 E0.01165
G1 X66.194 Y67.32 E0.11567
G1 X65.829 Y67.686 E0.02209
G1 X63.861 Y65.718 E0.11887
G1 X63.409 Y65.997 E0.02269
G1 X65.463 Y68.051 E0.12408
G1 X65.365 Y68.149 E0.00592
G1 X64.83 Y68.149 E0.02286
G1 X62.926 Y66.245 E0.11504
G1 X62.762 Y66.325 E0.00781
G1 X62.399 Y66.449 E0.01638
G1 X64.099 Y68.149 E0.10269
G1 X63.367 Y68.149 E0.03124
G1 X61.854 Y66.635 E0.09145
G1 X61.667 Y66.699 E0.00843
G1 X61.264 Y66.777 E0.01753
G1 X62.636 Y68.149 E0.08289
G1 X61.905 Y68.149 E0.03124
G1 X60.621 Y66.866 E0.07753
G1 X60.246 Y66.899 E0.01611
G1 X59.918 Y66.893 E0.01401
G1 X61.174 Y68.149 E0.07586
G1 X60.442 Y68.149 E0.03124
G1 X59.132 Y66.839 E0.07914
G1 X58.821 Y66.802 E0.01341
G1 X58.229 Y66.667 E0.02592
G1 X59.933 Y68.372 E0.10296
G1 E-2 F3000
M204 S1500
G1 Z0.6 F18000
; acceleration to travel
G1 X61.198 Y59.545
; decel to extrusion
M204 S1000
G1 X62.042 Y53.661
; end travel
G1 Z0.2
G1 E2 F1800
G1 X60.232 Y51.851 E0.10933
G1 X59.5 Y51.851 E0.03124
G1 X60.801 Y53.151 E0.07854
G1 X60.596 Y53.122 E0.00884
G1 X60.04 Y53.122 E0.02373
G1 X58.769 Y51.851 E0.07677
G1 X58.038 Y51.851 E0.03124
G1 X59.335 Y53.148 E0.07837
G1 X58.693 Y53.237 E0.02771
G1 X57.307 Y51.851 E0.08373
G1 X56.575 Y51.851 E0.03124
G1 X58.098 Y53.374 E0.09199
G1 X57.782 Y53.463 E0.01405
G1 X57.549 Y53.556 E0.0107
