; generated by SuperSlicer 2.5.59 on 2022-12-07 at 07:52:19 UTC


;
;

;
;
; TODO: check the size of the extruder and the y-bar clearance. Optimize & test supports.

; external perimeters extrusion width = 0.42mm
; perimeters extrusion width = 0.46mm
; infill extrusion width = 0.44mm
; solid infill extrusion width = 0.46mm
; top infill extrusion width = 0.44mm
; support material extrusion width = 0.44mm
; first layer extrusion width = 0.56mm

; object:{"name":"V0","id":"V0.2181.stl id:0 copy 0","object_center":[60.000000,60.000000,0.000000],"boundingbox_center":[60.000000,60.000000,4.500000],"boundingbox_size":[83.227997,20.000000,9.000000]}
; plater:{"center":[60.000000,60.000000,0.000000],"boundingbox_center":[60.000000,60.000000,4.500000],"boundingbox_size":[83.227997,20.000000,9.000000]}

;TYPE:Custom
; M190 S0
; M109 S0 ; uncomment to remove set&wait temp gcode added automatically after this start gcode
print_start EXTRUDER=250 BED=100 CHAMBER=50


; Pre-Processed for Cancel-Object support by preprocess_cancellation v0.2.0
; 1 known objects
EXCLUDE_OBJECT_DEFINE NAME=V0_2181_stl_id_0_copy_0 CENTER=58.267,60.201 POLYGON=[[27.383,50.21],[26.656,50.267],[25.956,50.435],[25.291,50.711],[24.677,51.087],[24.123,51.56],[19.946,55.737],[19.473,56.291],[19.097,56.905],[18.821,57.57],[18.653,58.27],[18.596,58.996],[18.596,65.992],[18.643,66.593],[18.782,67.171],[19.01,67.72],[19.32,68.227],[19.707,68.679],[20.159,69.066],[20.666,69.376],[21.215,69.604],[21.793,69.743],[22.394,69.79],[97.606,69.79],[98.207,69.743],[98.785,69.604],[99.334,69.376],[99.841,69.066],[100.293,68.679],[100.68,68.227],[100.99,67.72],[101.218,67.171],[101.357,66.593],[101.404,65.992],[101.404,58.996],[101.347,58.27],[101.179,57.57],[100.903,56.905],[100.527,56.291],[100.054,55.737],[95.877,51.56],[95.323,51.087],[94.709,50.711],[94.044,50.435],[93.344,50.267],[92.618,50.21],[27.383,50.21]]
M107
G21 ; set units to millimeters
G90 ; use absolute coordinates
M83 ; use relative distances for extrusion
;_TOOLCHANGE 0
M104 S250 ; set temperature
M109 S250 ; set temperature and wait for it to be reached
M190 S100 ; set bed temperature and wait for it to be reached
M107
;LAYER_CHANGE
;Z:0.2
;HEIGHT:0.2
;BEFORE_LAYER_CHANGE
;0.2


G1 Z0.2 F18000
;AFTER_LAYER_CHANGE
;0.2
G92 E0
G1 E-2 F3000
G1 Z0.6 F18000
M204 S1000
G1 X23.912 Y48.731
G1 Z0.2
G1 E2 F1800
;TYPE:Skirt
;WIDTH:0.52
G1 X22.669 Y49.635 E0.06098
G1 X18.02 Y54.283 E0.26078
G1 X17.346 Y55.152 E0.04364
G1 X16.818 Y56.113 E0.04351
G1 X16.344 Y57.571 E0.06082
G1 X16.193 Y58.992 E0.05668
G1 X16.193 Y65.996 E0.27784
G1 X16.407 Y67.596 E0.06403
G1 X16.731 Y68.512 E0.03855
G1 X17.193 Y69.366 E0.03853
G1 X17.784 Y70.137 E0.03851
G1 X18.488 Y70.806 E0.03855
G1 X19.288 Y71.357 E0.0385
G1 X20.163 Y71.775 E0.03851
G1 X21.095 Y72.052 E0.03853
G1 X22.061 Y72.18 E0.03867
G1 X97.61 Y72.193 E2.99698
G1 X99.211 Y71.979 E0.06407
G1 X100.713 Y71.357 E0.06448
G1 X101.751 Y70.602 E0.05093
G1 X102.42 Y69.898 E0.03851
G1 X102.97 Y69.099 E0.03851
G1 X103.593 Y67.597 E0.06447
G1 X103.807 Y65.996 E0.06408
G1 X103.807 Y58.992 E0.27784
G1 X103.759 Y58.221 E0.03065
G1 X103.554 Y57.145 E0.04346
G1 X103.182 Y56.112 E0.04354
G1 X102.267 Y54.62 E0.06943
G1 X97.331 Y49.635 E0.27831
G1 X96.462 Y48.96 E0.04364
G1 X95.096 Y48.264 E0.06082
G1 X94.042 Y47.958 E0.04354
G1 X92.951 Y47.82 E0.04362
G1 X27.378 Y47.807 E2.60123
G1 X26.607 Y47.855 E0.03065
G1 X25.531 Y48.06 E0.04346
G1 X23.968 Y48.708 E0.06712
G1 X24.162 Y49.138 F18000
G1 F1800
G1 X23.316 Y49.71 E0.04051
G1 X22.764 Y50.196 E0.02916
G1 X18.383 Y54.593 E0.24623
G1 X17.753 Y55.401 E0.04067
G1 X17.259 Y56.296 E0.04054
G1 X16.808 Y57.683 E0.05785
G1 X16.67 Y58.992 E0.05223
G1 X16.67 Y65.996 E0.27784
G1 X16.871 Y67.485 E0.05959
G1 X17.172 Y68.33 E0.03558
G1 X17.6 Y69.117 E0.03556
G1 X18.147 Y69.827 E0.03554
G1 X18.798 Y70.443 E0.03558
G1 X19.537 Y70.95 E0.03554
G1 X20.346 Y71.335 E0.03554
G1 X21.206 Y71.588 E0.03556
G1 X22.098 Y71.704 E0.0357
G1 X97.61 Y71.716 E2.9955
G1 X99.1 Y71.515 E0.05962
G1 X100.463 Y70.95 E0.05856
G1 X101.441 Y70.239 E0.04796
G1 X102.057 Y69.588 E0.03555
G1 X102.564 Y68.849 E0.03554
G1 X103.129 Y67.486 E0.05855
G1 X103.33 Y65.996 E0.05963
G1 X103.33 Y58.992 E0.27784
G1 X103.283 Y58.258 E0.02916
G1 X103.09 Y57.256 E0.0405
G1 X102.741 Y56.295 E0.04056
G1 X101.905 Y54.93 E0.06352
G1 X97.021 Y49.997 E0.27533
G1 X96.213 Y49.367 E0.04067
G1 X94.913 Y48.705 E0.05786
G1 X93.931 Y48.422 E0.04056
G1 X92.914 Y48.296 E0.04065
G1 X27.378 Y48.284 E2.59975
G1 X26.645 Y48.331 E0.02916
G1 X25.642 Y48.524 E0.0405
G1 X24.217 Y49.115 E0.06119
G1 X24.411 Y49.544 F18000
G1 F1800
G1 X23.102 Y50.533 E0.06508
G1 X18.746 Y54.902 E0.24475
G1 X18.16 Y55.65 E0.0377
G1 X17.699 Y56.478 E0.03757
G1 X17.272 Y57.794 E0.05489
G1 X17.147 Y58.992 E0.04779
G1 X17.147 Y65.996 E0.27784
G1 X17.335 Y67.373 E0.05514
G1 X17.612 Y68.147 E0.03261
G1 X18.007 Y68.868 E0.03259
G1 X18.509 Y69.517 E0.03257
G1 X19.108 Y70.081 E0.03261
G1 X19.786 Y70.543 E0.03257
G1 X20.529 Y70.894 E0.03257
G1 X21.317 Y71.124 E0.03259
G1 X22.136 Y71.229 E0.03273
G1 X97.61 Y71.239 E2.99401
G1 X98.988 Y71.051 E0.05517
G1 X100.214 Y70.543 E0.05264
G1 X101.131 Y69.876 E0.04499
G1 X101.694 Y69.279 E0.03258
G1 X102.157 Y68.6 E0.03258
G1 X102.665 Y67.374 E0.05263
G1 X102.853 Y65.996 E0.05518
G1 X102.853 Y58.992 E0.27784
G1 X102.626 Y57.367 E0.06507
G1 X102.3 Y56.478 E0.03759
G1 X101.542 Y55.24 E0.0576
G1 X96.712 Y50.36 E0.27236
G1 X95.963 Y49.774 E0.03771
G1 X94.731 Y49.145 E0.05489
G1 X93.819 Y48.886 E0.03759
G1 X92.876 Y48.771 E0.03769
G1 X27.378 Y48.761 E2.59826
G1 X25.754 Y48.988 E0.06508
G1 X24.466 Y49.521 E0.05527
G1 E-2 F3000
M204 S1500
G1 Z0.6 F18000
; printing object V0.2181.stl id:0 copy 0
EXCLUDE_OBJECT_START NAME=V0_2181_stl_id_0_copy_0
; acceleration to travel
G1 X55.369 Y54.862
; decel to extrusion
M204 S1000
G1 X75.97 Y58.422
; end travel
G1 Z0.2
G1 E2 F1800
;TYPE:Internal perimeter
;WIDTH:0.56
G1 X78.184 Y57.987 E0.09699
G1 X78.184 Y62.207 E0.18145
G1 X76.184 Y62.207 E0.08597
G1 X76.225 Y61.704 E0.02168
G1 X76.186 Y61.186 E0.02237
G1 X76.058 Y60.683 E0.02231
G1 X75.825 Y60.203 E0.02292
G1 X75.475 Y59.775 E0.0238
G1 X75.268 Y59.625 E0.01096
G1 X75.622 Y59.273 E0.02147
G1 X75.865 Y58.803 E0.02275
G1 X75.954 Y58.48 E0.01443
G1 E-2 F3000
M204 S1500
G1 Z0.6 F18000
; acceleration to travel
G1 X68.698 Y58.561
; decel to extrusion
M204 S1000
G1 X63.86 Y58.615
; end travel
G1 Z0.2
G1 E2 F1800
G1 X63.86 Y61.69 E0.13219
G1 X62.579 Y61.69 E0.05508
G1 X62.579 Y61.685 E0.0002
G1 X60.656 Y61.692 E0.08268
G1 X61.322 Y61.006 E0.0411
G1 X61.636 Y60.6 E0.02208
G1 X62.058 Y59.944 E0.03352
G1 X62.24 Y59.565 E0.01808
G1 X62.383 Y59.169 E0.01812
G1 X62.437 Y58.895 E0.01199
G1 X63.801 Y58.627 E0.05978
G1 E-2 F3000
M204 S1500
G1 Z0.6 F18000
; acceleration to travel
G1 X58.621 Y56.821
; decel to extrusion
M204 S1000
G1 X55.168 Y55.617
; end travel
G1 Z0.2
G1 E2 F1800
G1 X55.168 Y58.782 E0.13607
G1 X57.062 Y57.855 E0.09069
G1 X57.297 Y57.76 E0.01088
G1 X57.777 Y57.614 E0.02156
G1 X58.21 Y57.545 E0.01884
G1 X58.367 Y57.538 E0.00676
G1 X58.587 Y57.555 E0.0095
G1 X58.744 Y57.593 E0.00693
G1 X58.861 Y57.648 E0.00558
G1 X58.959 Y57.719 E0.00518
G1 X59.03 Y57.799 E0.00461
G1 X59.075 Y57.878 E0.00389
G1 X59.105 Y57.976 E0.00441
G1 X59.116 Y58.1 E0.00536
G1 X59.091 Y58.292 E0.00833
G1 X58.995 Y58.542 E0.01152
G1 X58.922 Y58.671 E0.00635
G1 X58.799 Y58.851 E0.00938
G1 X58.397 Y59.346 E0.02741
G1 X57.558 Y60.232 E0.05247
G1 X54.931 Y62.927 E0.16182
G1 X54.931 Y61.745 E0.05082
G1 X51.865 Y61.745 E0.13182
G1 X51.987 Y60.986 E0.03304
G1 X52.037 Y59.939 E0.04507
G1 X51.987 Y58.889 E0.04518
G1 X51.835 Y57.941 E0.0413
G1 X51.568 Y57.09 E0.03836
G1 X51.173 Y56.341 E0.0364
G1 X50.642 Y55.717 E0.03526
G1 X49.979 Y55.254 E0.03476
G1 X49.215 Y54.979 E0.03491
G1 X48.382 Y54.892 E0.03597
G1 X47.973 Y54.935 E0.01769
G1 X47.55 Y54.979 E0.01828
G1 X46.786 Y55.254 E0.03491
G1 X46.333 Y55.57 E0.02377
G1 X46.092 Y55.382 E0.01313
G1 X46.247 Y54.975 E0.01874
G1 X43.183 Y54.975 E0.13174
G1 X41.227 Y60.169 E0.23863
G1 X39.275 Y54.975 E0.23856
G1 X36.205 Y54.975 E0.13201
G1 X39.988 Y64.897 E0.45656
G1 X42.47 Y64.897 E0.10673
G1 X44.394 Y59.842 E0.23255
G1 X44.726 Y59.895 E0.01446
G1 X44.778 Y60.986 E0.04695
G1 X44.93 Y61.933 E0.04122
G1 X45.196 Y62.783 E0.03831
G1 X45.591 Y63.532 E0.03641
G1 X46.123 Y64.156 E0.03528
G1 X46.786 Y64.619 E0.03476
G1 X47.551 Y64.893 E0.0349
G1 X48.383 Y64.98 E0.03596
G1 X49.214 Y64.893 E0.03596
G1 X49.978 Y64.619 E0.0349
G1 X50.641 Y64.156 E0.03475
G1 X51.173 Y63.532 E0.03525
G1 X51.568 Y62.783 E0.0364
G1 X51.739 Y62.239 E0.02451
G1 X52.09 Y62.293 E0.01527
G1 X52.09 Y64.847 E0.10981
G1 X55.114 Y64.847 E0.13003
G1 X55.114 Y64.897 E0.00215
G1 X62.062 Y64.897 E0.29874
G1 X62.062 Y62.204 E0.11578
G1 X59.43 Y62.213 E0.11318
G1 X60.931 Y60.667 E0.09268
G1 X61.214 Y60.301 E0.01987
G1 X61.606 Y59.691 E0.03117
G1 X61.763 Y59.365 E0.01557
G1 X61.883 Y59.03 E0.01531
G1 X62.003 Y58.423 E0.02663
G1 X62.022 Y58.06 E0.01562
G1 X61.959 Y57.386 E0.02909
G1 X61.759 Y56.747 E0.02878
G1 X61.419 Y56.173 E0.0287
G1 X60.953 Y55.688 E0.02889
G1 X60.394 Y55.308 E0.02907
G1 X59.766 Y55.044 E0.02929
G1 X59.086 Y54.893 E0.02996
G1 X58.375 Y54.846 E0.03065
G1 X58.045 Y54.857 E0.0142
G1 X57.443 Y54.931 E0.02607
G1 X57.099 Y55 E0.01507
G1 X56.443 Y55.176 E0.0292
G1 X55.225 Y55.598 E0.05544
G1 X55.685 Y55.985 F18000
;TYPE:External perimeter
G1 F1800
G1 X55.685 Y57.953 E0.0846
G1 X56.852 Y57.382 E0.05587
G1 X57.125 Y57.272 E0.01266
G1 X57.66 Y57.109 E0.02403
G1 X58.158 Y57.03 E0.02166
G1 X58.375 Y57.021 E0.00935
G1 X58.668 Y57.042 E0.01266
G1 X58.915 Y57.103 E0.01092
G1 X59.126 Y57.2 E0.00997
G1 X59.308 Y57.334 E0.00971
G1 X59.452 Y57.495 E0.00931
G1 X59.553 Y57.673 E0.00879
G1 X59.615 Y57.876 E0.00914
G1 X59.636 Y58.11 E0.01009
G1 X59.596 Y58.42 E0.01344
G1 X59.464 Y58.764 E0.01585
G1 X59.361 Y58.944 E0.00892
G1 X59.214 Y59.16 E0.01121
G1 X58.786 Y59.687 E0.02921
G1 X57.931 Y60.59 E0.05347
G1 X55.631 Y62.949 E0.14166
G1 X55.631 Y64.38 E0.06151
G1 X61.545 Y64.38 E0.25427
G1 X61.545 Y62.723 E0.07124
G1 X59.719 Y62.729 E0.07851
G1 X59.221 Y62.758 E0.02145
G1 X58.75 Y62.824 E0.02045
G1 X57.991 Y62.824 E0.03262
G1 X58.493 Y62.304 E0.03106
G1 X58.859 Y62.019 E0.01993
G1 X59.218 Y61.689 E0.02096
G1 X60.54 Y60.327 E0.08161
G1 X60.791 Y60.002 E0.01766
G1 X61.154 Y59.439 E0.02882
G1 X61.285 Y59.165 E0.01305
G1 X61.384 Y58.892 E0.01249
G1 X61.489 Y58.36 E0.0233
G1 X61.503 Y58.057 E0.01302
G1 X61.45 Y57.489 E0.02455
G1 X61.284 Y56.959 E0.02385
G1 X61.004 Y56.488 E0.02356
G1 X60.618 Y56.085 E0.024
G1 X60.146 Y55.765 E0.02451
G1 X59.609 Y55.539 E0.02506
G1 X59.013 Y55.406 E0.02626
G1 X58.366 Y55.364 E0.02785
G1 X58.085 Y55.373 E0.01211
G1 X57.526 Y55.442 E0.02423
G1 X57.217 Y55.504 E0.01352
G1 X56.595 Y55.67 E0.0277
G1 X55.742 Y55.966 E0.03882
;WIPE_START
M204 S1500
G1 X55.288 Y56.03 F18000
;WIPE_END
G1 E-2 F3000
G1 Z0.6 F18000
; acceleration to travel
G1 X54.763 Y59.769
; decel to extrusion
M204 S1000
G1 X54.414 Y62.262
; end travel
G1 Z0.2
G1 E2 F1800
G1 X52.607 Y62.262 E0.07769
G1 X52.607 Y64.33 E0.08891
G1 X54.414 Y64.33 E0.07769
G1 X54.414 Y62.322 E0.08633
;WIPE_START
M204 S1500
G1 X54.414 Y61.862 F18000
;WIPE_END
G1 E-2 F3000
G1 Z0.6 F18000
M204 S1000
G1 X51.401 Y61.377
G1 Z0.2
G1 E2 F1800
G1 X51.472 Y60.933 E0.01932
G1 X51.519 Y59.939 E0.04278
G1 X51.472 Y58.943 E0.04288
G1 X51.33 Y58.06 E0.03844
G1 X51.089 Y57.289 E0.03472
G1 X50.742 Y56.633 E0.03192
G1 X50.291 Y56.102 E0.02994
G1 X49.739 Y55.717 E0.02894
G1 X49.099 Y55.487 E0.02926
G1 X48.383 Y55.412 E0.03096
G1 X48.027 Y55.449 E0.01537
G1 X47.666 Y55.487 E0.01559
G1 X47.026 Y55.717 E0.02927
G1 X46.474 Y56.102 E0.02894
G1 X46.022 Y56.633 E0.02996
G1 X45.676 Y57.29 E0.03192
G1 X45.434 Y58.06 E0.03472
G1 X45.293 Y58.943 E0.03844
G1 X45.246 Y59.939 E0.04288
G1 X45.293 Y60.933 E0.04277
G1 X45.434 Y61.814 E0.03836
G1 X45.676 Y62.583 E0.03468
G1 X46.022 Y63.24 E0.03192
G1 X46.474 Y63.77 E0.02995
G1 X47.026 Y64.155 E0.02894
G1 X47.666 Y64.385 E0.02926
G1 X48.383 Y64.46 E0.03096
G1 X49.099 Y64.385 E0.03096
G1 X49.739 Y64.155 E0.02925
G1 X50.291 Y63.77 E0.02893
G1 X50.742 Y63.24 E0.02993
G1 X51.089 Y62.584 E0.03192
G1 X51.33 Y61.814 E0.03469
G1 X51.391 Y61.436 E0.01646
;WIPE_START
M204 S1500
G1 X51.775 Y61.234 F18000
;WIPE_END
G1 E-2 F3000
G1 Z0.6 F18000
; acceleration to travel
G1 X48.008 Y57.789
; decel to extrusion
M204 S1000
G1 X45.497 Y55.492
; end travel
G1 Z0.2
G1 E2 F1800
G1 X43.541 Y55.492 E0.08411
G1 X41.9 Y59.848 E0.20015
G1 X41.581 Y60.79 E0.04276
G1 X41.473 Y61.266 E0.02095
G1 X41.226 Y61.92 E0.03007
G1 X40.98 Y61.266 E0.03005
G1 X40.872 Y60.791 E0.02095
G1 X40.554 Y59.849 E0.04275
G1 X38.917 Y55.492 E0.2001
G1 X36.955 Y55.492 E0.08434
G1 X40.344 Y64.38 E0.40898
G1 X42.114 Y64.38 E0.07609
G1 X45.476 Y55.548 E0.40631
;WIPE_START
M204 S1500
G1 X45.545 Y55.095 F18000
;WIPE_END
G1 E-2 F3000
G1 Z0.6 F18000
; acceleration to travel
G1 X55.673 Y55.349
; decel to extrusion
M204 S1000
G1 X62.424 Y55.519
; end travel
G1 Z0.2
G1 E2 F1800
;TYPE:Internal perimeter
G1 X62.424 Y58.371 E0.12261
G1 X64.377 Y57.987 E0.08558
G1 X64.377 Y62.207 E0.18145
G1 X62.582 Y62.207 E0.07718
G1 X62.582 Y64.897 E0.11566
G1 X69.052 Y64.897 E0.27819
G1 X69.052 Y63.264 E0.0702
G1 X69.883 Y64.181 E0.0532
G1 X70.448 Y64.569 E0.02945
G1 X71.089 Y64.832 E0.02978
G1 X71.788 Y64.98 E0.03072
G1 X72.542 Y65.027 E0.03248
G1 X73.296 Y64.98 E0.03248
G1 X73.995 Y64.832 E0.03071
G1 X74.635 Y64.569 E0.02978
G1 X75.199 Y64.181 E0.02941
G1 X75.657 Y63.676 E0.02932
G1 X75.982 Y63.076 E0.02933
G1 X76.031 Y62.9 E0.00787
G1 X76.389 Y62.949 E0.01551
G1 X76.389 Y64.897 E0.08375
G1 X82.859 Y64.897 E0.27819
G1 X82.859 Y62.207 E0.11566
G1 X81.065 Y62.207 E0.07713
G1 X81.065 Y54.975 E0.31094
G1 X78.981 Y54.975 E0.0896
G1 X76.231 Y55.519 E0.12054
G1 X76.231 Y56.845 E0.05702
G1 X75.88 Y56.899 E0.01525
G1 X75.786 Y56.601 E0.01345
G1 X75.461 Y56.062 E0.02709
G1 X75.016 Y55.61 E0.02725
G1 X74.482 Y55.261 E0.02743
G1 X73.883 Y55.023 E0.02773
G1 X73.235 Y54.888 E0.02846
G1 X72.542 Y54.845 E0.02987
G1 X72.201 Y54.866 E0.01469
G1 X71.85 Y54.888 E0.01509
G1 X71.204 Y55.023 E0.0284
G1 X70.605 Y55.261 E0.0277
G1 X70.07 Y55.609 E0.02745
G1 X69.625 Y56.061 E0.02728
G1 X69.298 Y56.6 E0.02712
G1 X69.107 Y57.203 E0.02718
G1 X69.048 Y57.836 E0.02734
G1 X69.088 Y58.33 E0.02131
G1 X69.218 Y58.803 E0.02108
G1 X69.46 Y59.273 E0.02275
G1 X69.816 Y59.627 E0.02157
G1 X69.612 Y59.774 E0.01081
G1 X69.26 Y60.202 E0.02382
G1 X69.026 Y60.681 E0.02296
G1 X68.898 Y61.185 E0.02234
G1 X68.858 Y61.704 E0.02239
G1 X68.899 Y62.207 E0.02168
G1 X67.258 Y62.207 E0.07053
G1 X67.258 Y54.975 E0.31094
G1 X65.174 Y54.975 E0.0896
G1 X62.483 Y55.507 E0.11796
G1 X62.941 Y55.944 F18000
;TYPE:External perimeter
G1 F1800
G1 X62.941 Y57.742 E0.07731
G1 X64.894 Y57.358 E0.08558
G1 X64.894 Y62.724 E0.23071
G1 X63.099 Y62.724 E0.07718
G1 X63.099 Y64.38 E0.0712
G1 X68.535 Y64.38 E0.23372
G1 X68.535 Y62.724 E0.0712
G1 X66.741 Y62.724 E0.07713
G1 X66.741 Y55.492 E0.31094
G1 X65.225 Y55.492 E0.06519
G1 X63 Y55.932 E0.09751
;WIPE_START
M204 S1500
G1 X62.542 Y55.97 F18000
;WIPE_END
G1 E-2 F3000
G1 Z0.6 F18000
; acceleration to travel
G1 X67.421 Y58.189
; decel to extrusion
M204 S1000
G1 X70.674 Y59.668
; end travel
G1 Z0.2
G1 E2 F1800
G1 X70.596 Y59.702 E0.00368
G1 X69.969 Y60.154 E0.03323
G1 X69.698 Y60.483 E0.01832
G1 X69.514 Y60.861 E0.01806
G1 X69.41 Y61.269 E0.01813
G1 X69.377 Y61.703 E0.01871
G1 X69.427 Y62.321 E0.02666
G1 X69.583 Y62.881 E0.025
G1 X69.85 Y63.375 E0.02413
G1 X70.226 Y63.789 E0.02405
G1 X70.695 Y64.111 E0.02448
G1 X71.242 Y64.336 E0.0254
G1 X71.858 Y64.466 E0.02707
G1 X72.542 Y64.509 E0.02947
G1 X73.226 Y64.466 E0.02947
G1 X73.841 Y64.336 E0.02706
G1 X74.388 Y64.111 E0.02539
G1 X74.856 Y63.789 E0.02446
G1 X75.232 Y63.375 E0.02405
G1 X75.5 Y62.881 E0.02414
G1 X75.656 Y62.321 E0.025
G1 X75.707 Y61.703 E0.02666
G1 X75.674 Y61.269 E0.0187
G1 X75.57 Y60.861 E0.01812
G1 X75.387 Y60.484 E0.01803
G1 X75.117 Y60.154 E0.0183
G1 X74.492 Y59.703 E0.03317
G1 X74.411 Y59.667 E0.00379
G1 X74.706 Y59.455 E0.01561
