; generated by SuperSlicer 2.5.59 on 2022-12-07 at 08:24:55 UTC


;
;

;
;
; TODO: check the size of the extruder and the y-bar clearance. Optimize & test supports.

; external perimeters extrusion width = 0.42mm
; perimeters extrusion width = 0.46mm
; infill extrusion width = 0.44mm
; solid infill extrusion width = 0.46mm
; top infill extrusion width = 0.44mm
; support material extrusion width = 0.44mm
; first layer extrusion width = 0.56mm

; external perimeters extrusion width = 0.42mm
; perimeters extrusion width = 0.46mm
; infill extrusion width = 0.44mm
; solid infill extrusion width = 0.46mm
; top infill extrusion width = 0.44mm
; support material extrusion width = 0.44mm
; first layer extrusion width = 0.56mm

; external perimeters extrusion width = 0.42mm
; perimeters extrusion width = 0.46mm
; infill extrusion width = 0.44mm
; solid infill extrusion width = 0.46mm
; top infill extrusion width = 0.44mm
; support material extrusion width = 0.44mm
; first layer extrusion width = 0.56mm

; object:{"name":"V2","id":"V2.4045.stl id:0 copy 0","object_center":[60.000000,34.000000,0.000000],"boundingbox_center":[60.000000,34.000000,4.000000],"boundingbox_size":[93.227997,20.000000,8.000000]}
; object:{"name":"VT","id":"VT.597.stl id:1 copy 0","object_center":[60.000000,60.000000,0.000000],"boundingbox_center":[60.000000,60.000000,4.000000],"boundingbox_size":[83.227997,20.000000,8.000000]}
; object:{"name":"V0","id":"V0.2181.stl id:2 copy 0","object_center":[60.000001,86.000000,0.000000],"boundingbox_center":[60.000001,86.000000,4.500000],"boundingbox_size":[83.227997,20.000000,9.000000]}
; plater:{"center":[60.000000,60.000000,0.000000],"boundingbox_center":[60.000000,60.000000,4.500000],"boundingbox_size":[93.227997,72.000000,9.000000]}

;TYPE:Custom
; M190 S0
; M109 S0 ; uncomment to remove set&wait temp gcode added automatically after this start gcode
print_start EXTRUDER=250 BED=110 CHAMBER=50


; Pre-Processed for Cancel-Object support by preprocess_cancellation v0.2.0
; 3 known objects
EXCLUDE_OBJECT_DEFINE NAME=V2_4045_stl_id_0_copy_0 CENTER=59.206,34.004 POLYGON=[[22.379,24.21],[21.577,24.28],[20.804,24.487],[20.079,24.825],[19.424,25.284],[14.67,30.038],[14.211,30.693],[13.873,31.418],[13.753,31.8],[13.666,32.191],[13.596,32.993],[13.596,39.995],[13.661,40.696],[13.852,41.369],[13.994,41.689],[14.164,41.995],[14.585,42.553],[14.833,42.801],[15.391,43.222],[16.017,43.534],[16.349,43.645],[17.036,43.774],[17.391,43.79],[102.609,43.79],[103.31,43.725],[103.983,43.534],[104.609,43.222],[105.167,42.801],[105.638,42.284],[106.007,41.689],[106.148,41.369],[106.339,40.696],[106.404,39.995],[106.404,32.993],[106.334,32.191],[106.127,31.418],[105.974,31.049],[105.574,30.356],[105.056,29.739],[100.576,25.284],[99.921,24.825],[99.565,24.64],[99.196,24.487],[98.423,24.28],[97.621,24.21],[22.379,24.21]]
EXCLUDE_OBJECT_DEFINE NAME=VT_597_stl_id_1_copy_0 CENTER=59.585,60.023 POLYGON=[[27.378,50.21],[26.656,50.267],[25.956,50.435],[25.29,50.71],[24.976,50.886],[24.393,51.31],[19.696,56.007],[19.473,56.29],[19.096,56.905],[18.821,57.57],[18.653,58.27],[18.596,58.992],[18.596,65.995],[18.661,66.696],[18.852,67.369],[18.994,67.689],[19.164,67.995],[19.585,68.553],[19.833,68.801],[20.391,69.222],[21.017,69.534],[21.349,69.645],[22.036,69.774],[22.391,69.79],[97.609,69.79],[98.31,69.725],[98.983,69.534],[99.609,69.222],[100.167,68.801],[100.638,68.284],[101.007,67.689],[101.148,67.369],[101.339,66.696],[101.404,65.995],[101.39,58.628],[101.277,57.917],[101.179,57.57],[100.904,56.905],[100.527,56.29],[100.057,55.74],[95.607,51.31],[95.024,50.886],[94.709,50.71],[94.044,50.435],[93.697,50.337],[92.986,50.224],[92.622,50.21],[27.378,50.21]]
EXCLUDE_OBJECT_DEFINE NAME=V0_2181_stl_id_2_copy_0 CENTER=58.256,86.202 POLYGON=[[27.383,76.21],[26.656,76.267],[25.956,76.435],[25.291,76.711],[24.677,77.087],[24.123,77.56],[19.946,81.737],[19.473,82.291],[19.097,82.905],[18.821,83.57],[18.653,84.27],[18.596,84.996],[18.596,91.992],[18.643,92.593],[18.782,93.171],[19.01,93.72],[19.32,94.227],[19.707,94.679],[20.159,95.066],[20.666,95.376],[21.215,95.604],[21.793,95.743],[22.394,95.79],[97.606,95.79],[98.207,95.743],[98.785,95.604],[99.334,95.376],[99.841,95.066],[100.293,94.679],[100.68,94.227],[100.99,93.72],[101.218,93.171],[101.357,92.593],[101.404,91.992],[101.404,84.996],[101.347,84.27],[101.179,83.57],[100.903,82.905],[100.527,82.291],[100.054,81.737],[95.877,77.56],[95.323,77.087],[94.709,76.711],[94.044,76.435],[93.344,76.267],[92.618,76.21],[27.383,76.21]]
M107
G21 ; set units to millimeters
G90 ; use absolute coordinates
M83 ; use relative distances for extrusion
;_TOOLCHANGE 0
M104 S250 ; set temperature
M109 S250 ; set temperature and wait for it to be reached
M190 S110 ; set bed temperature and wait for it to be reached
M107
;LAYER_CHANGE
;Z:0.2
;HEIGHT:0.2
;BEFORE_LAYER_CHANGE
;0.2


G1 Z0.2 F18000
;AFTER_LAYER_CHANGE
;0.2
G92 E0
G1 E-2 F3000
G1 Z0.6 F18000
M204 S1000
G1 X18.482 Y22.994
G1 Z0.2
G1 E2 F1800
;TYPE:Skirt
;WIDTH:0.52
G1 X17.493 Y23.794 E0.05045
G1 X12.799 Y28.378 E0.26027
G1 X12.232 Y29.186 E0.03914
G1 X11.695 Y30.35 E0.05088
G1 X11.322 Y31.664 E0.05416
G1 X11.199 Y32.763 E0.04388
G1 X11.193 Y39.996 E0.28695
G1 X16.238 Y92.714 E2.10083
G1 X16.407 Y93.596 E0.03562
G1 X16.731 Y94.512 E0.03855
G1 X17.193 Y95.366 E0.03853
G1 X17.784 Y96.137 E0.03851
G1 X18.488 Y96.806 E0.03855
G1 X19.874 Y97.655 E0.06446
G1 X21.095 Y98.052 E0.05093
G1 X22.39 Y98.193 E0.05169
G1 X97.61 Y98.193 E2.98393
G1 X98.906 Y98.052 E0.05171
G1 X99.836 Y97.775 E0.0385
G1 X100.713 Y97.357 E0.03853
G1 X101.751 Y96.602 E0.05093
G1 X102.42 Y95.898 E0.03851
G1 X102.97 Y95.099 E0.03851
G1 X103.389 Y94.222 E0.03853
G1 X103.763 Y92.714 E0.06163
G1 X108.771 Y40.657 E2.07463
G1 X108.783 Y32.451 E0.3255
G1 X108.579 Y31.231 E0.04909
G1 X108.329 Y30.455 E0.03235
G1 X107.864 Y29.488 E0.04255
G1 X107.42 Y28.813 E0.03204
G1 X106.757 Y28.042 E0.04036
G1 X102.174 Y23.492 E0.25619
G1 X101.127 Y22.75 E0.05089
G1 X99.703 Y22.126 E0.06167
G1 X98.167 Y21.831 E0.06205
G1 X96.655 Y21.808 E0.06
G1 X22.377 Y21.807 E2.94655
G1 X21.076 Y21.932 E0.05186
G1 X19.816 Y22.296 E0.05203
G1 X18.535 Y22.967 E0.05735
G1 X18.756 Y23.385 F18000
G1 F1800
G1 X17.823 Y24.138 E0.0476
G1 X13.155 Y28.696 E0.25881
G1 X12.652 Y29.412 E0.03469
G1 X12.144 Y30.511 E0.04803
G1 X11.793 Y31.742 E0.05079
G1 X11.676 Y32.789 E0.04178
G1 X11.67 Y39.996 E0.28592
G1 X16.712 Y92.669 E2.09902
G1 X16.871 Y93.485 E0.03298
G1 X17.172 Y94.33 E0.03558
G1 X17.6 Y95.117 E0.03556
G1 X18.147 Y95.827 E0.03554
G1 X18.798 Y96.443 E0.03558
G1 X20.056 Y97.214 E0.05854
G1 X21.206 Y97.588 E0.04796
G1 X22.39 Y97.716 E0.04724
G1 X97.61 Y97.716 E2.98393
G1 X98.794 Y97.588 E0.04726
G1 X99.654 Y97.335 E0.03553
G1 X100.463 Y96.95 E0.03556
G1 X101.441 Y96.239 E0.04796
G1 X102.057 Y95.588 E0.03555
G1 X102.564 Y94.849 E0.03554
G1 X102.949 Y94.04 E0.03556
G1 X103.288 Y92.669 E0.05603
G1 X108.296 Y40.611 E2.07463
G1 X108.307 Y32.477 E0.32265
G1 X108.12 Y31.361 E0.04489
G1 X107.888 Y30.637 E0.03017
G1 X107.446 Y29.718 E0.04047
G1 X107.03 Y29.089 E0.02989
G1 X106.419 Y28.379 E0.03716
G1 X101.855 Y23.847 E0.25514
G1 X100.897 Y23.168 E0.0466
G1 X99.572 Y22.585 E0.05741
G1 X98.14 Y22.307 E0.05787
G1 X96.655 Y22.286 E0.05894
G1 X22.377 Y22.284 E2.94655
G1 X21.154 Y22.402 E0.04873
G1 X20.001 Y22.735 E0.04761
G1 X18.81 Y23.357 E0.05332
G1 X19.031 Y23.775 F18000
G1 F1800
G1 X18.153 Y24.483 E0.04475
G1 X13.722 Y28.778 E0.24477
G1 X13.072 Y29.638 E0.04278
G1 X12.593 Y30.672 E0.04519
G1 X12.263 Y31.82 E0.04741
G1 X12.152 Y32.815 E0.03969
G1 X12.147 Y39.996 E0.28489
G1 X17.187 Y92.623 E2.09721
G1 X17.335 Y93.373 E0.03034
G1 X17.612 Y94.147 E0.03261
G1 X18.007 Y94.868 E0.03259
G1 X18.509 Y95.517 E0.03257
G1 X19.108 Y96.081 E0.03261
G1 X20.239 Y96.774 E0.05262
G1 X21.317 Y97.124 E0.04499
G1 X22.39 Y97.239 E0.04279
G1 X97.61 Y97.239 E2.98393
G1 X98.683 Y97.124 E0.04281
G1 X99.471 Y96.894 E0.03257
G1 X100.214 Y96.543 E0.03259
G1 X101.131 Y95.876 E0.04499
G1 X101.694 Y95.279 E0.03258
G1 X102.157 Y94.6 E0.03258
G1 X102.508 Y93.857 E0.03259
G1 X102.813 Y92.623 E0.05043
G1 X107.821 Y40.565 E2.07463
G1 X107.831 Y32.504 E0.31979
G1 X107.661 Y31.492 E0.04068
G1 X107.447 Y30.82 E0.02799
G1 X107.028 Y29.947 E0.03839
G1 X106.641 Y29.365 E0.02774
G1 X106.082 Y28.716 E0.03397
G1 X101.537 Y24.203 E0.2541
G1 X100.667 Y23.586 E0.04231
G1 X99.442 Y23.044 E0.05316
G1 X98.114 Y22.784 E0.05368
G1 X96.655 Y22.763 E0.05787
G1 X22.377 Y22.761 E2.94655
G1 X21.233 Y22.873 E0.04561
G1 X20.187 Y23.175 E0.04318
G1 X19.084 Y23.747 E0.04929
G1 E-2 F3000
M204 S1500
G1 Z0.6 F18000
; printing object V2.4045.stl id:0 copy 0
EXCLUDE_OBJECT_START NAME=V2_4045_stl_id_0_copy_0
; acceleration to travel
G1 X53.449 Y30.812
; decel to extrusion
M204 S1000
G1 X76.359 Y35.521
; end travel
G1 Z0.2
G1 E2 F1800
;TYPE:Internal perimeter
;WIDTH:0.56
G1 X76.359 Y35.118 E0.01734
G1 X78.014 Y34.536 E0.07544
G1 X78.547 Y34.436 E0.0233
G1 X78.872 Y34.419 E0.01399
G1 X79.19 Y34.441 E0.01371
G1 X79.433 Y34.498 E0.01073
G1 X79.616 Y34.581 E0.00867
G1 X79.761 Y34.687 E0.0077
G1 X79.869 Y34.809 E0.00703
G1 X79.945 Y34.949 E0.00684
G1 X79.997 Y35.132 E0.00817
G1 X80.018 Y35.376 E0.01053
G1 X79.997 Y35.62 E0.01054
G1 X79.945 Y35.803 E0.00819
G1 X79.869 Y35.944 E0.00687
G1 X79.761 Y36.066 E0.00702
G1 X79.617 Y36.171 E0.00766
G1 X79.433 Y36.254 E0.00867
G1 X79.19 Y36.311 E0.01074
G1 X78.873 Y36.333 E0.01368
G1 X78.415 Y36.308 E0.0197
G1 X77.973 Y36.23 E0.0193
G1 X77.796 Y36.181 E0.00788
G1 X77.369 Y36.018 E0.01966
G1 X76.413 Y35.548 E0.04584
G1 E-2 F3000
M204 S1500
G1 Z0.6 F18000
; acceleration to travel
G1 X58.486 Y33.718
; decel to extrusion
M204 S1000
G1 X46.536 Y32.497
; end travel
G1 Z0.2
G1 E2 F1800
G1 X47.129 Y32.244 E0.02775
G1 X47.541 Y32.119 E0.01848
G1 X47.892 Y32.063 E0.01528
G1 X48.327 Y32.074 E0.01871
G1 X48.026 Y32.549 E0.02414
G1 X47.656 Y33.005 E0.02526
G1 X46.833 Y33.874 E0.05146
G1 X44.296 Y36.476 E0.15624
G1 X44.012 Y36.295 E0.01447
G1 X45.246 Y33.048 E0.14934
G1 X46.48 Y32.521 E0.05771
G1 E-2 F3000
M204 S1500
G1 Z0.6 F18000
; acceleration to travel
G1 X65.128 Y34.331
; decel to extrusion
M204 S1000
G1 X77.56 Y35.537
; end travel
G1 Z0.2
G1 E2 F1800
G1 X77.56 Y35.244 E0.0126
G1 X78.148 Y35.037 E0.02681
G1 X78.608 Y34.951 E0.02013
G1 X78.867 Y34.937 E0.01114
G1 X79.112 Y34.954 E0.01054
G1 X79.266 Y34.99 E0.00681
G1 X79.355 Y35.03 E0.00421
G1 X79.411 Y35.071 E0.00296
G1 X79.457 Y35.124 E0.00303
G1 X79.486 Y35.225 E0.00454
G1 X79.499 Y35.376 E0.0065
G1 X79.486 Y35.527 E0.00651
G1 X79.45 Y35.652 E0.00559
G1 X79.357 Y35.721 E0.00501
G1 X79.267 Y35.762 E0.00425
G1 X79.112 Y35.798 E0.00682
G1 X78.869 Y35.815 E0.01048
G1 X78.474 Y35.793 E0.01699
G1 X78.104 Y35.728 E0.01615
G1 X77.617 Y35.557 E0.02223
G1 E-2 F3000
M204 S1500
G1 Z0.6 F18000
; acceleration to travel
G1 X58.612 Y31.45
; decel to extrusion
M204 S1000
G1 X45.942 Y28.712
; end travel
G1 Z0.2
G1 E2 F1800
G1 X44.705 Y28.496 E0.05399
G1 X42.84 Y28.423 E0.08025
G1 X41.227 Y32.701 E0.19657
G1 X39.633 Y28.458 E0.19488
G1 X35.454 Y28.458 E0.17967
G1 X39.631 Y39.414 E0.50415
G1 X42.827 Y39.414 E0.1374
G1 X43.905 Y36.576 E0.13053
G1 X44.244 Y36.638 E0.01482
G1 X44.244 Y39.414 E0.11935
G1 X52.227 Y39.414 E0.3432
G1 X52.227 Y39.364 E0.00215
G1 X55.448 Y39.364 E0.1385
G1 X55.448 Y37.494 E0.0804
G1 X57.99 Y37.494 E0.10929
G1 X57.99 Y39.414 E0.08255
G1 X61.911 Y39.414 E0.1686
G1 X61.911 Y37.54 E0.08058
G1 X62.226 Y37.462 E0.01392
G1 X62.416 Y37.824 E0.01758
G1 X63.029 Y38.543 E0.0406
G1 X63.803 Y39.082 E0.04058
G1 X64.691 Y39.401 E0.04054
G1 X65.638 Y39.5 E0.04097
G1 X66.586 Y39.401 E0.04097
G1 X67.474 Y39.082 E0.04054
G1 X68.248 Y38.542 E0.04058
G1 X68.86 Y37.824 E0.04058
G1 X69.036 Y37.489 E0.01627
G1 X71.797 Y37.492 E0.11868
G1 X71.797 Y39.414 E0.08262
G1 X75.718 Y39.414 E0.1686
G1 X75.718 Y39.003 E0.01767
G1 X77.019 Y39.33 E0.0577
G1 X77.651 Y39.447 E0.0276
G1 X78.278 Y39.519 E0.02713
G1 X78.919 Y39.544 E0.02761
G1 X79.8 Y39.487 E0.03795
G1 X80.65 Y39.3 E0.03741
G1 X81.442 Y38.965 E0.037
G1 X82.146 Y38.469 E0.03702
G1 X82.722 Y37.827 E0.03707
G1 X83.132 Y37.071 E0.03697
G1 X83.364 Y36.245 E0.03691
G1 X83.436 Y35.376 E0.03747
G1 X83.366 Y34.525 E0.03672
G1 X83.14 Y33.714 E0.03621
G1 X82.746 Y32.968 E0.03624
G1 X82.07 Y32.182 E0.04459
G1 X82.833 Y32.182 E0.03281
G1 X82.833 Y28.458 E0.16013
G1 X72.159 Y28.458 E0.45895
G1 X69.711 Y32.193 E0.19199
G1 X69.303 Y30.89 E0.05869
G1 X68.86 Y30.049 E0.04088
G1 X68.248 Y29.331 E0.04057
G1 X67.474 Y28.79 E0.04059
G1 X66.586 Y28.472 E0.04056
G1 X65.638 Y28.372 E0.04098
G1 X64.69 Y28.472 E0.04098
G1 X63.803 Y28.79 E0.04055
G1 X63.029 Y29.33 E0.04059
G1 X62.416 Y30.049 E0.04061
G1 X62.226 Y30.411 E0.01757
G1 X61.911 Y30.333 E0.01392
G1 X61.911 Y28.458 E0.08062
G1 X58.353 Y28.458 E0.15301
G1 X54.325 Y34.596 E0.31567
G1 X54.325 Y35.228 E0.02715
G1 X51.573 Y35.228 E0.11833
G1 X51.573 Y35.688 E0.01976
G1 X50.304 Y35.692 E0.05456
G1 X50.97 Y35.006 E0.0411
G1 X51.284 Y34.6 E0.02208
G1 X51.706 Y33.944 E0.03352
G1 X51.888 Y33.565 E0.01808
G1 X52.03 Y33.169 E0.01811
G1 X52.165 Y32.485 E0.02995
G1 X52.187 Y32.033 E0.01944
G1 X52.117 Y31.283 E0.03239
G1 X51.882 Y30.535 E0.03372
G1 X51.48 Y29.858 E0.03384
G1 X50.937 Y29.291 E0.03378
G1 X50.29 Y28.851 E0.03362
G1 X49.571 Y28.549 E0.03352
G1 X48.807 Y28.38 E0.03366
G1 X48.031 Y28.328 E0.03345
G1 X47.651 Y28.341 E0.01633
G1 X47.003 Y28.421 E0.02808
G1 X46.605 Y28.504 E0.01749
G1 X45.999 Y28.694 E0.02731
G1 E-2 F3000
M204 S1500
G1 Z0.6 F18000
; acceleration to travel
G1 X51.358 Y34.786
; decel to extrusion
M204 S1000
G1 X54.931 Y38.847
; end travel
G1 Z0.2
G1 E2 F1800
G1 X54.931 Y36.977 E0.0804
G1 X58.507 Y36.977 E0.15375
G1 X58.507 Y38.897 E0.08255
G1 X61.394 Y38.897 E0.12413
G1 X61.394 Y36.977 E0.08257
G1 X62.554 Y36.976 E0.04986
G1 X62.847 Y37.532 E0.02703
G1 X63.379 Y38.156 E0.03528
G1 X64.042 Y38.619 E0.03476
G1 X64.806 Y38.893 E0.0349
G1 X65.638 Y38.98 E0.03596
G1 X66.47 Y38.893 E0.03596
G1 X67.234 Y38.619 E0.0349
G1 X67.897 Y38.156 E0.03476
G1 X68.429 Y37.532 E0.03526
G1 X68.724 Y36.971 E0.02724
G1 X72.314 Y36.976 E0.15432
G1 X72.314 Y38.897 E0.08259
G1 X75.201 Y38.897 E0.12413
G1 X75.201 Y36.977 E0.08255
G1 X75.867 Y36.977 E0.02864
G1 X75.867 Y38.508 E0.0658
G1 X77.13 Y38.825 E0.05598
G1 X77.727 Y38.936 E0.02613
G1 X78.317 Y39.003 E0.02552
G1 X78.913 Y39.026 E0.02563
G1 X79.727 Y38.974 E0.03511
G1 X80.492 Y38.806 E0.03366
G1 X81.19 Y38.51 E0.03258
G1 X81.801 Y38.08 E0.03212
G1 X82.296 Y37.527 E0.03192
G1 X82.649 Y36.876 E0.03187
G1 X82.853 Y36.153 E0.03229
G1 X82.917 Y35.376 E0.0335
G1 X82.854 Y34.616 E0.03277
G1 X82.657 Y33.906 E0.03171
G1 X82.316 Y33.262 E0.03134
G1 X81.84 Y32.707 E0.03144
G1 X81.253 Y32.267 E0.03154
G1 X80.653 Y31.99 E0.02841
G1 X80.724 Y31.665 E0.01431
G1 X82.316 Y31.665 E0.06844
G1 X82.316 Y28.975 E0.11566
G1 X76.21 Y28.975 E0.26254
G1 X76.21 Y34.287 E0.22839
G1 X75.201 Y34.287 E0.04339
G1 X75.201 Y28.975 E0.22839
G1 X72.438 Y28.975 E0.11879
G1 X69.552 Y33.38 E0.22644
G1 X69.261 Y33.3 E0.01296
G1 X69.243 Y32.891 E0.01762
G1 X69.091 Y31.941 E0.04136
G1 X68.824 Y31.09 E0.03836
G1 X68.429 Y30.341 E0.0364
G1 X67.897 Y29.717 E0.03526
G1 X67.235 Y29.254 E0.03476
G1 X66.47 Y28.979 E0.03491
G1 X65.638 Y28.892 E0.03597
G1 X65.229 Y28.935 E0.01769
G1 X64.806 Y28.979 E0.01828
G1 X64.042 Y29.254 E0.03491
G1 X63.379 Y29.716 E0.03477
G1 X62.847 Y30.341 E0.03528
G1 X62.452 Y31.09 E0.03641
G1 X62.186 Y31.941 E0.03835
G1 X62.033 Y32.89 E0.0413
G1 X61.985 Y33.943 E0.04535
G1 X62.005 Y34.302 E0.01545
G1 X61.394 Y34.296 E0.02629
G1 X61.394 Y28.975 E0.22877
G1 X58.632 Y28.975 E0.11877
G1 X54.842 Y34.751 E0.29703
G1 X54.842 Y35.745 E0.04273
G1 X52.09 Y35.745 E0.11833
G1 X52.09 Y36.203 E0.01969
G1 X49.077 Y36.213 E0.12953
G1 X50.578 Y34.667 E0.09267
G1 X50.861 Y34.301 E0.01987
G1 X51.253 Y33.691 E0.03117
G1 X51.41 Y33.365 E0.01557
G1 X51.531 Y33.03 E0.0153
G1 X51.651 Y32.423 E0.02663
G1 X51.669 Y32.045 E0.01623
G1 X51.607 Y31.386 E0.02847
G1 X51.407 Y30.747 E0.02878
G1 X51.066 Y30.173 E0.0287
G1 X50.601 Y29.688 E0.02889
G1 X50.042 Y29.308 E0.02907
