; HEADER_BLOCK_START
; generated by OrcaSlicer 2.0.0 on 2024-04-20 at 09:54:52
; total layer number: 75
; filament_density: 1.04
; filament_diameter: 1.75
; max_z_height: 15.00
; HEADER_BLOCK_END

; THUMBNAIL_BLOCK_START

;
; THUMBNAIL_BLOCK_END

; external perimeters extrusion width = 0.40mm
; perimeters extrusion width = 0.40mm
; infill extrusion width = 0.60mm
; solid infill extrusion width = 0.40mm
; top infill extrusion width = 0.40mm
; first layer extrusion width = 0.50mm

; EXECUTABLE_BLOCK_START
EXCLUDE_OBJECT_DEFINE NAME=a__spool_holder_3mmfoam_x1.stl_id_0_copy_0 CENTER=80,80 POLYGON=[[32.7,63.1254],[33.1,62.7254],[117.1,50],[127.3,50],[127.3,110],[117.1,110],[33.1,97.2746],[32.7,96.8746],[32.7,63.1254]]
M73 P0 R48
;TYPE:Custom
M117
PRINT_START BED_TEMP=105 EXTRUDER_TEMP=260 ;
G90
G21
M83 ; use relative distances for extrusion
; Filament gcode
M106 S0
;LAYER_CHANGE
;Z:0.2
;HEIGHT:0.2
;BEFORE_LAYER_CHANGE
;0.2
G92 E0

G1 E-.4 F1800
;AFTER_LAYER_CHANGE
;0.2
;_SET_FAN_SPEED_CHANGING_LAYER
SET_VELOCITY_LIMIT ACCEL=500 ACCEL_TO_DECEL=250
SET_VELOCITY_LIMIT SQUARE_CORNER_VELOCITY=9
; printing object [a]_spool_holder_3mmfoam_x1.stl id:0 copy 0
EXCLUDE_OBJECT_START NAME=a__spool_holder_3mmfoam_x1.stl_id_0_copy_0
G1 Z.2 F21000
G1 X93.053 Y87.772
G1 Z.2
G1 E.4 F1800
;TYPE:Inner wall
;WIDTH:0.60306
G1 F3000
G1 X92.78 Y87.789 E.01182
;WIDTH:0.568707
G1 X92.506 Y87.806 E.01109
;WIDTH:0.534353
G1 X92.233 Y87.823 E.01037
;WIDTH:0.499999
G1 X84.102 Y87.823 E.28613
;WIDTH:0.539747
G1 X83.859 Y87.803 E.00936
;WIDTH:0.579494
G1 X83.615 Y87.784 E.0101
;WIDTH:0.619241
G1 X83.371 Y87.764 E.01085
;WIDTH:0.658988
G1 X83.127 Y87.744 E.0116
G1 X83.198 Y87.711 E.00367
;WIDTH:0.628046
G1 X83.268 Y87.678 E.00348
;WIDTH:0.597104
G1 X83.757 Y87.49 E.02239
;WIDTH:0.548552
G1 X84.247 Y87.302 E.02043
;WIDTH:0.499999
G1 X85.145 Y86.79 E.03637
G1 X85.853 Y86.184 E.03282
G1 X86.521 Y85.35 E.03759
G1 X86.791 Y84.877 E.01917
G1 X87.029 Y84.334 E.02085
G1 X87.235 Y83.643 E.02537
G1 X87.288 Y83.318 E.0116
G1 X87.364 Y82.501 E.02889
G1 X87.364 Y77.499 E.17602
G1 X87.326 Y77.061 E.01549
G1 X87.232 Y76.347 E.02536
G1 X86.99 Y75.563 E.02887
G1 X86.816 Y75.196 E.01428
G1 X86.381 Y74.444 E.03056
G1 X85.702 Y73.667 E.03631
G1 X85.002 Y73.11 E.0315
G1 X84.415 Y72.778 E.02374
G1 X83.576 Y72.449 E.0317
;WIDTH:0.539385
G1 X83.457 Y72.401 E.00493
;WIDTH:0.57877
G1 X83.337 Y72.352 E.00532
;WIDTH:0.618155
G1 X83.217 Y72.304 E.00571
;WIDTH:0.65754
G1 X83.098 Y72.255 E.0061
G1 X83.225 Y72.236 E.0061
;WIDTH:0.618155
G1 X83.353 Y72.216 E.00571
;WIDTH:0.57877
G1 X83.48 Y72.196 E.00532
;WIDTH:0.539385
G1 X83.608 Y72.177 E.00493
;WIDTH:0.499999
G1 X91.808 Y72.177 E.28861
;WIDTH:0.539747
G1 X92.024 Y72.197 E.0083
;WIDTH:0.579494
G1 X92.24 Y72.216 E.00896
;WIDTH:0.619241
G1 X92.456 Y72.236 E.00963
;WIDTH:0.658988
G1 X92.673 Y72.256 E.01029
G1 X92.607 Y72.286 E.0034
;WIDTH:0.630356
G1 X92.542 Y72.316 E.00324
;WIDTH:0.601724
G1 X92.266 Y72.42 E.0127
;WIDTH:0.567816
G1 X91.99 Y72.525 E.01193
;WIDTH:0.533908
G1 X91.714 Y72.629 E.01116
;WIDTH:0.499999
G1 X91.086 Y72.936 E.02459
G1 X90.244 Y73.534 E.03634
G1 X89.599 Y74.208 E.03285
G1 X89.217 Y74.768 E.02384
G1 X88.958 Y75.25 E.01927
G1 X88.642 Y76.059 E.03056
G1 X88.479 Y76.863 E.02887
G1 X88.436 Y77.499 E.02244
G1 X88.436 Y82.561 E.17816
G1 X88.532 Y83.48 E.03251
G1 X88.709 Y84.158 E.02466
G1 X89.027 Y84.914 E.02888
G1 X89.251 Y85.282 E.01514
G1 X89.735 Y85.956 E.0292
G1 X90.408 Y86.602 E.03284
G1 X91.286 Y87.173 E.03684
G1 X92.259 Y87.559 E.03685
;WIDTH:0.534353
G1 X92.524 Y87.63 E.01037
;WIDTH:0.568707
G1 X92.788 Y87.701 E.01109
;WIDTH:0.60306
G1 X93.014 Y87.761 E.01009
G1 E-.28 F1800
;WIPE_START
G1 F3000
G1 X92.78 Y87.789 E-.02837
G1 X92.506 Y87.806 E-.03288
G1 X92.233 Y87.823 E-.03288
G1 X92.017 Y87.823 E-.02587
;WIPE_END
G1 Z.4 F21000
G1 X67.102 Y87.745 Z.4
G1 Z.2
G1 E.4 F1800
;WIDTH:0.65754
G1 F3000
G1 X66.975 Y87.764 E.0061
;WIDTH:0.618155
G1 X66.847 Y87.784 E.00571
;WIDTH:0.57877
G1 X66.72 Y87.804 E.00532
;WIDTH:0.539385
G1 X66.592 Y87.823 E.00493
;WIDTH:0.499999
G1 X58.702 Y87.823 E.27767
;WIDTH:0.539747
G1 X58.459 Y87.803 E.00935
;WIDTH:0.579494
G1 X58.215 Y87.784 E.0101
;WIDTH:0.619241
G1 X57.971 Y87.764 E.01085
;WIDTH:0.658988
G1 X57.727 Y87.744 E.0116
G1 X57.798 Y87.711 E.00367
;WIDTH:0.628045
G1 X57.868 Y87.678 E.00348
;WIDTH:0.597102
G1 X58.357 Y87.49 E.02239
;WIDTH:0.548551
G1 X58.847 Y87.302 E.02043
;WIDTH:0.499999
G1 X59.755 Y86.781 E.03685
G1 X60.533 Y86.103 E.03631
G1 X61.08 Y85.417 E.03089
G1 X61.357 Y84.95 E.01911
G1 X61.629 Y84.334 E.02367
G1 X61.877 Y83.43 E.03299
;WIDTH:0.54146
G1 X61.915 Y83.244 E.00729
;WIDTH:0.582921
G1 X61.953 Y83.059 E.00789
;WIDTH:0.624382
G1 X61.991 Y82.873 E.0085
;WIDTH:0.665843
G1 X62.03 Y82.687 E.0091
;WIDTH:0.707304
G1 X62.068 Y82.501 E.00971
G1 X62.068 Y77.385 E.26172
G1 X62.021 Y77.177 E.01089
;WIDTH:0.665843
G1 X61.973 Y76.969 E.01021
;WIDTH:0.624382
G1 X61.926 Y76.762 E.00953
;WIDTH:0.582921
G1 X61.879 Y76.554 E.00885
;WIDTH:0.54146
G1 X61.832 Y76.346 E.00817
;WIDTH:0.499999
G1 X61.59 Y75.563 E.02887
G1 X61.374 Y75.119 E.01737
G1 X60.989 Y74.455 E.02699
G1 X60.383 Y73.746 E.03282
G1 X59.602 Y73.11 E.03547
G1 X59.015 Y72.778 E.02374
G1 X58.176 Y72.449 E.0317
;WIDTH:0.53939
G1 X58.057 Y72.401 E.00493
;WIDTH:0.57878
G1 X57.937 Y72.352 E.00532
;WIDTH:0.61817
G1 X57.818 Y72.304 E.00571
;WIDTH:0.65756
G1 X57.698 Y72.255 E.0061
G1 X57.825 Y72.236 E.0061
;WIDTH:0.61817
G1 X57.953 Y72.216 E.00571
;WIDTH:0.57878
G1 X58.08 Y72.196 E.00532
;WIDTH:0.53939
G1 X58.208 Y72.177 E.00493
;WIDTH:0.499999
G1 X66.208 Y72.177 E.28157
;WIDTH:0.539747
G1 X66.424 Y72.197 E.0083
;WIDTH:0.579494
G1 X66.64 Y72.216 E.00896
;WIDTH:0.619241
G1 X66.857 Y72.236 E.00963
;WIDTH:0.658988
G1 X67.073 Y72.256 E.01029
G1 X67.007 Y72.286 E.0034
;WIDTH:0.630356
G1 X66.942 Y72.316 E.00324
;WIDTH:0.601724
G1 X66.666 Y72.42 E.0127
;WIDTH:0.567816
G1 X66.39 Y72.525 E.01193
;WIDTH:0.533908
G1 X66.114 Y72.629 E.01116
;WIDTH:0.499999
G1 X65.486 Y72.936 E.02459
G1 X64.644 Y73.534 E.03634
G1 X63.999 Y74.208 E.03285
G1 X63.443 Y75.05 E.03552
G1 X63.171 Y75.666 E.02367
G1 X62.923 Y76.57 E.03299
;WIDTH:0.54146
G1 X62.885 Y76.756 E.00729
;WIDTH:0.582921
G1 X62.847 Y76.941 E.00789
;WIDTH:0.624382
G1 X62.809 Y77.127 E.0085
;WIDTH:0.665843
G1 X62.77 Y77.313 E.0091
;WIDTH:0.707303
G1 X62.732 Y77.499 E.00971
G1 X62.732 Y82.586 E.26023
G1 X62.779 Y82.8 E.01118
;WIDTH:0.665843
G1 X62.827 Y83.013 E.01048
;WIDTH:0.624382
G1 X62.874 Y83.227 E.00979
;WIDTH:0.582921
G1 X62.921 Y83.44 E.00909
;WIDTH:0.54146
G1 X62.968 Y83.654 E.00839
;WIDTH:0.499999
G1 X63.21 Y84.437 E.02887
G1 X63.426 Y84.881 E.01737
G1 X63.811 Y85.545 E.02699
G1 X64.417 Y86.254 E.03282
G1 X65.198 Y86.89 E.03547
G1 X65.785 Y87.222 E.02374
G1 X66.624 Y87.551 E.0317
;WIDTH:0.539385
G1 X66.743 Y87.599 E.00493
;WIDTH:0.57877
G1 X66.863 Y87.648 E.00532
;WIDTH:0.618155
G1 X66.983 Y87.696 E.00571
;WIDTH:0.65754
G1 X67.065 Y87.73 E.00421
G1 E-.28 F1800
;WIPE_START
G1 F3000
G1 X66.975 Y87.764 E-.01162
G1 X66.847 Y87.784 E-.01548
G1 X66.72 Y87.804 E-.01548
G1 X66.592 Y87.823 E-.01548
G1 X66.076 Y87.823 E-.06195
;WIPE_END
G1 Z.4 F21000
G1 X83.04 Y87.204 Z.4
G1 Z.2
G1 E.4 F1800
;WIDTH:0.499999
G1 F3000
G1 X82.139 Y87.307 E.0319
G1 X68.099 Y87.307 E.49411
G1 X67.319 Y87.238 E.02756
G1 X66.729 Y87.106 E.0213
G1 X65.959 Y86.8 E.02917
G1 X65.431 Y86.496 E.02142
G1 X64.711 Y85.904 E.03283
G1 X64.164 Y85.255 E.02984
G1 X63.828 Y84.663 E.02399
G1 X63.613 Y84.192 E.0182
G1 X63.403 Y83.513 E.02503
G1 X63.293 Y82.539 E.03449
G1 X63.293 Y77.499 E.17737
G1 X63.378 Y76.615 E.03126
G1 X63.609 Y75.797 E.02994
G1 X63.858 Y75.242 E.02138
G1 X64.376 Y74.466 E.03286
G1 X64.967 Y73.857 E.02985
G1 X65.744 Y73.314 E.03335
G1 X66.305 Y73.044 E.02193
G1 X67.088 Y72.803 E.02881
G1 X68.061 Y72.693 E.03449
G1 X82.101 Y72.693 E.4941
G1 X82.881 Y72.762 E.02756
G1 X83.471 Y72.894 E.0213
G1 X84.241 Y73.2 E.02917
G1 X84.769 Y73.504 E.02142
G1 X85.413 Y74.021 E.02905
G1 X86.031 Y74.738 E.03333
G1 X86.414 Y75.415 E.02737
G1 X86.614 Y75.893 E.01825
G1 X86.795 Y76.481 E.02165
G1 X86.871 Y77.106 E.02216
G1 X86.907 Y77.499 E.01388
G1 X86.907 Y82.501 E.17602
G1 X86.833 Y83.273 E.02729
G1 X86.711 Y83.802 E.01911
G1 X86.556 Y84.295 E.0182
G1 X86.342 Y84.758 E.01794
G1 X86.031 Y85.262 E.02085
G1 X85.503 Y85.89 E.02886
G1 X84.855 Y86.436 E.02984
G1 X84.028 Y86.9 E.03337
G1 X83.118 Y87.195 E.03366
G1 X83.079 Y87.2 E.00139
G1 X83.042 Y86.74 F21000
;TYPE:Outer wall
G1 F3000
G1 X82.984 Y86.758 E.00216
G1 X82.113 Y86.85 E.03083
G1 X68.099 Y86.85 E.49317
G1 X67.361 Y86.783 E.02609
G1 X66.833 Y86.661 E.01906
G1 X66.132 Y86.377 E.02664
G1 X65.663 Y86.103 E.01911
G1 X65.004 Y85.553 E.03019
G1 X64.518 Y84.966 E.02686
G1 X64.229 Y84.444 E.02099
G1 X64.05 Y84.057 E.01499
G1 X63.841 Y83.382 E.02488
G1 X63.75 Y82.513 E.03076
G1 X63.75 Y77.499 E.17644
G1 X63.833 Y76.661 E.02966
G1 X64.047 Y75.927 E.02689
G1 X64.273 Y75.434 E.01909
G1 X64.754 Y74.723 E.0302
G1 X65.291 Y74.181 E.02686
G1 X66.001 Y73.691 E.03036
G1 X66.497 Y73.459 E.01927
G1 X67.218 Y73.241 E.02652
G1 X68.088 Y73.15 E.03076
G1 X82.101 Y73.15 E.49317
G1 X82.839 Y73.217 E.02609
G1 X83.367 Y73.339 E.01906
G1 X84.068 Y73.623 E.02664
G1 X84.537 Y73.897 E.01911
G1 X85.123 Y74.374 E.0266
G1 X85.68 Y75.032 E.03035
G1 X86.013 Y75.633 E.02418
G1 X86.177 Y76.028 E.01504
G1 X86.358 Y76.616 E.02165
G1 X86.45 Y77.499 E.03125
G1 X86.45 Y82.501 E.17602
G1 X86.378 Y83.227 E.02568
G1 X86.178 Y83.987 E.02767
G1 X85.961 Y84.493 E.01938
G1 X85.7 Y84.94 E.0182
G1 X85.153 Y85.596 E.03006
G1 X84.565 Y86.082 E.02686
G1 X83.81 Y86.499 E.03037
G1 X83.08 Y86.728 E.0269
G1 E-.28 F1800
;WIPE_START
G1 F3000
G1 X82.984 Y86.758 E-.01217
G1 X82.113 Y86.85 E-.10512
G1 X82.09 Y86.85 E-.00271
;WIPE_END
G1 Z.4 F21000
G1 X67.073 Y72.256 Z.4
G1 Z.2
G1 E.4 F1800
;TYPE:Inner wall
;WIDTH:0.658988
G1 F3000
G1 X67.395 Y72.239 E.0153
;WIDTH:0.625628
G1 X67.717 Y72.223 E.01447
;WIDTH:0.592267
G1 X68.039 Y72.206 E.01364
;WIDTH:0.558906
G1 X82.101 Y72.206 E.55866
;WIDTH:0.5945
G1 X82.515 Y72.224 E.0176
;WIDTH:0.630094
G1 X82.929 Y72.242 E.01874
;WIDTH:0.65754
G1 X83.098 Y72.255 E.00804
G1 E-.28 F1800
;WIPE_START
G1 F3000
G1 X82.929 Y72.242 E-.02038
G1 X82.515 Y72.224 E-.04973
G1 X82.101 Y72.206 E-.04973
G1 X82.099 Y72.206 E-.00016
;WIPE_END
G1 Z.4 F21000
G1 X83.127 Y87.744 Z.4
G1 Z.2
G1 E.4 F1800
;WIDTH:0.658988
G1 F3000
G1 X82.805 Y87.761 E.0153
;WIDTH:0.625628
G1 X82.483 Y87.777 E.01447
;WIDTH:0.592267
G1 X82.161 Y87.794 E.01364
;WIDTH:0.558906
G1 X68.099 Y87.794 E.55866
;WIDTH:0.594502
G1 X67.685 Y87.776 E.0176
;WIDTH:0.630098
G1 X67.271 Y87.758 E.01874
;WIDTH:0.65754
G1 X67.102 Y87.745 E.00804
G1 E-.28 F1800
;WIPE_START
G1 F3000
G1 X67.271 Y87.758 E-.02037
G1 X67.685 Y87.776 E-.04973
G1 X68.099 Y87.794 E-.04973
G1 X68.101 Y87.794 E-.00016
;WIPE_END
G1 Z.4 F21000
G1 X41.702 Y87.745 Z.4
G1 Z.2
G1 E.4 F1800
;WIDTH:0.65756
G1 F3000
G1 X41.575 Y87.764 E.0061
;WIDTH:0.61817
G1 X41.447 Y87.784 E.00571
;WIDTH:0.57878
G1 X41.32 Y87.804 E.00532
;WIDTH:0.53939
G1 X41.192 Y87.823 E.00493
;WIDTH:0.499999
G1 X39.317 Y87.825 E.066
G1 X38.796 Y87.983 E.01917
G1 X38.474 Y88.267 E.0151
G1 X38.334 Y88.504 E.00968
G1 X38.236 Y88.966 E.01663
G1 X38.236 Y92.21 E.11418
G1 X34.164 Y92.21 E.1433
G1 X34.164 Y67.79 E.85946
G1 X38.236 Y67.79 E.1433
G1 X38.236 Y71.175 E.11915
G1 X38.335 Y71.499 E.01192
G1 X38.557 Y71.828 E.01396
G1 X38.951 Y72.094 E.01673
G1 X39.379 Y72.177 E.01533
G1 X40.808 Y72.177 E.05032
;WIDTH:0.539747
G1 X41.024 Y72.197 E.0083
;WIDTH:0.579494
G1 X41.24 Y72.216 E.00896
;WIDTH:0.619241
G1 X41.457 Y72.236 E.00963
;WIDTH:0.658988
G1 X41.673 Y72.256 E.01029
G1 X41.607 Y72.286 E.0034
;WIDTH:0.630357
G1 X41.542 Y72.316 E.00324
;WIDTH:0.601726
G1 X41.266 Y72.42 E.0127
;WIDTH:0.567817
G1 X40.99 Y72.525 E.01193
;WIDTH:0.533908
G1 X40.714 Y72.629 E.01116
;WIDTH:0.499999
G1 X40.251 Y72.843 E.01795
G1 X39.695 Y73.203 E.0233
G1 X39.244 Y73.534 E.0197
G1 X38.735 Y74.044 E.02537
G1 X38.473 Y74.392 E.01533
G1 X38.043 Y75.05 E.02767
G1 X37.771 Y75.666 E.02367
G1 X37.523 Y76.57 E.03298
G1 X37.436 Y77.499 E.03286
G1 X37.436 Y82.568 E.17839
G1 X37.568 Y83.653 E.03848
G1 X37.899 Y84.647 E.03685
G1 X38.419 Y85.556 E.03685
G1 X39.098 Y86.333 E.03631
G1 X39.798 Y86.89 E.0315
G1 X40.385 Y87.222 E.02374
G1 X41.224 Y87.551 E.0317
;WIDTH:0.53939
G1 X41.343 Y87.599 E.00493
;WIDTH:0.57878
G1 X41.463 Y87.648 E.00532
;WIDTH:0.61817
G1 X41.582 Y87.696 E.00571
;WIDTH:0.65756
G1 X41.665 Y87.73 E.00421
G1 E-.28 F1800
;WIPE_START
G1 F3000
G1 X41.575 Y87.764 E-.01162
G1 X41.447 Y87.784 E-.01548
G1 X41.32 Y87.804 E-.01548
G1 X41.192 Y87.823 E-.01548
G1 X40.676 Y87.824 E-.06196
;WIPE_END
G1 Z.4 F21000
G1 X57.64 Y87.204 Z.4
G1 Z.2
G1 E.4 F1800
;WIDTH:0.499999
G1 F3000
G1 X56.739 Y87.307 E.0319
G1 X42.699 Y87.307 E.49411
G1 X41.919 Y87.238 E.02757
G1 X41.329 Y87.106 E.0213
G1 X40.559 Y86.8 E.02917
G1 X40.031 Y86.496 E.02142
G1 X39.387 Y85.979 E.02905
G1 X38.769 Y85.262 E.03333
G1 X38.3 Y84.428 E.03366
G1 X38.005 Y83.519 E.03366
G1 X37.893 Y82.539 E.03469
G1 X37.893 Y77.499 E.17738
G1 X37.978 Y76.615 E.03126
G1 X38.209 Y75.797 E.02994
G1 X38.458 Y75.242 E.02138
G1 X39.058 Y74.367 E.03734
G1 X39.567 Y73.857 E.02537
G1 X40.344 Y73.314 E.03335
G1 X40.905 Y73.044 E.02193
G1 X41.688 Y72.803 E.02881
G1 X42.661 Y72.693 E.03448
G1 X56.701 Y72.693 E.4941
G1 X57.481 Y72.762 E.02757
G1 X58.071 Y72.894 E.0213
G1 X58.841 Y73.2 E.02917
G1 X59.369 Y73.504 E.02142
G1 X60.089 Y74.096 E.03283
G1 X60.636 Y74.745 E.02984
G1 X60.972 Y75.337 E.02399
G1 X61.187 Y75.808 E.0182
G1 X61.397 Y76.487 E.02503
G1 X61.507 Y77.461 E.03449
G1 X61.507 Y82.501 E.17737
G1 X61.422 Y83.385 E.03126
G1 X61.191 Y84.203 E.02994
G1 X60.942 Y84.758 E.02138
G1 X60.636 Y85.255 E.02056
G1 X60.179 Y85.813 E.02537
G1 X59.461 Y86.431 E.03333
G1 X58.628 Y86.9 E.03366
G1 X57.718 Y87.195 E.03366
G1 X57.679 Y87.2 E.00139
G1 X57.642 Y86.74 F21000
;TYPE:Outer wall
G1 F3000
G1 X57.584 Y86.758 E.00216
G1 X56.713 Y86.85 E.03083
G1 X42.699 Y86.85 E.49317
G1 X41.961 Y86.783 E.02609
G1 X41.433 Y86.661 E.01906
G1 X40.732 Y86.377 E.02664
G1 X40.263 Y86.103 E.0191
G1 X39.677 Y85.626 E.0266
G1 X39.12 Y84.968 E.03035
G1 X38.701 Y84.21 E.03047
G1 X38.442 Y83.384 E.03047
G1 X38.35 Y82.513 E.03083
G1 X38.35 Y77.499 E.17645
G1 X38.433 Y76.661 E.02966
G1 X38.647 Y75.927 E.02689
G1 X38.873 Y75.434 E.01909
G1 X39.381 Y74.69 E.0317
G1 X39.891 Y74.181 E.02537
G1 X40.601 Y73.691 E.03036
G1 X41.097 Y73.459 E.01927
G1 X41.818 Y73.241 E.02652
G1 X42.688 Y73.15 E.03076
G1 X56.701 Y73.15 E.49317
G1 X57.439 Y73.217 E.02609
G1 X57.967 Y73.339 E.01906
G1 X58.668 Y73.623 E.02664
G1 X59.137 Y73.897 E.0191
G1 X59.796 Y74.447 E.03019
G1 X60.282 Y75.034 E.02686
G1 X60.571 Y75.556 E.02099
G1 X60.75 Y75.943 E.01499
G1 X60.959 Y76.618 E.02488
G1 X61.05 Y77.487 E.03076
G1 X61.05 Y82.501 E.17644
G1 X60.967 Y83.339 E.02966
G1 X60.753 Y84.073 E.02689
G1 X60.527 Y84.566 E.01909
G1 X60.282 Y84.966 E.01649
G1 X59.825 Y85.523 E.02537
G1 X59.168 Y86.081 E.03035
G1 X58.41 Y86.499 E.03047
G1 X57.68 Y86.728 E.0269
G1 E-.28 F1800
;WIPE_START
G1 F3000
G1 X57.584 Y86.758 E-.01217
G1 X56.713 Y86.85 E-.10512
G1 X56.69 Y86.85 E-.00271
;WIPE_END
G1 Z.4 F21000
G1 X41.673 Y72.256 Z.4
G1 Z.2
G1 E.4 F1800
;TYPE:Inner wall
;WIDTH:0.658988
G1 F3000
G1 X41.995 Y72.239 E.0153
;WIDTH:0.625628
G1 X42.317 Y72.223 E.01447
;WIDTH:0.592267
G1 X42.639 Y72.206 E.01364
;WIDTH:0.558906
G1 X56.701 Y72.206 E.55866
;WIDTH:0.594509
G1 X57.115 Y72.224 E.0176
;WIDTH:0.630112
G1 X57.529 Y72.242 E.01874
;WIDTH:0.65756
G1 X57.698 Y72.255 E.00804
G1 E-.28 F1800
;WIPE_START
G1 F3000
G1 X57.529 Y72.242 E-.02038
G1 X57.115 Y72.224 E-.04974
G1 X56.701 Y72.206 E-.04974
G1 X56.699 Y72.206 E-.00015
;WIPE_END
G1 Z.4 F21000
G1 X57.727 Y87.744 Z.4
G1 Z.2
G1 E.4 F1800
;WIDTH:0.658988
G1 F3000
G1 X57.405 Y87.761 E.0153
;WIDTH:0.625628
G1 X57.083 Y87.777 E.01447
;WIDTH:0.592267
G1 X56.761 Y87.794 E.01364
;WIDTH:0.558906
G1 X42.699 Y87.794 E.55866
;WIDTH:0.594509
G1 X42.285 Y87.776 E.0176
;WIDTH:0.630112
G1 X41.871 Y87.758 E.01874
;WIDTH:0.65756
G1 X41.702 Y87.745 E.00804
G1 E-.28 F1800
