; HEADER_BLOCK_START
; generated by OrcaSlicer 2.0.0 on 2024-04-20 at 09:56:08
; total layer number: 2
; filament_density: 1.04
; filament_diameter: 1.75
; max_z_height: 0.40
; HEADER_BLOCK_END

; THUMBNAIL_BLOCK_START

;
; THUMBNAIL_BLOCK_END

; external perimeters extrusion width = 0.40mm
; perimeters extrusion width = 0.40mm
; infill extrusion width = 0.60mm
; solid infill extrusion width = 0.40mm
; top infill extrusion width = 0.40mm
; first layer extrusion width = 0.50mm

; EXECUTABLE_BLOCK_START
EXCLUDE_OBJECT_DEFINE NAME=Cube_id_0_copy_0 CENTER=80,80 POLYGON=[[30,30],[130,30],[130,130],[30,130],[30,30]]
M73 P0 R11
;TYPE:Custom
M117
PRINT_START BED_TEMP=105 EXTRUDER_TEMP=260 ;
G90
G21
M83 ; use relative distances for extrusion
; Filament gcode
M106 S0
;LAYER_CHANGE
;Z:0.2
;HEIGHT:0.2
;BEFORE_LAYER_CHANGE
;0.2
G92 E0

G1 E-.4 F1800
;AFTER_LAYER_CHANGE
;0.2
;_SET_FAN_SPEED_CHANGING_LAYER
SET_VELOCITY_LIMIT ACCEL=500 ACCEL_TO_DECEL=250
SET_VELOCITY_LIMIT SQUARE_CORNER_VELOCITY=9
; printing object Cube id:0 copy 0
EXCLUDE_OBJECT_START NAME=Cube_id_0_copy_0
G1 Z.2 F21000
G1 X128.836 Y128.836
G1 Z.2
G1 E.4 F1800
;TYPE:Inner wall
;WIDTH:0.499999
G1 F3000
G1 X31.164 Y128.836 E3.43744
G1 X31.164 Y31.164 E3.43744
G1 X128.836 Y31.164 E3.43744
M73 P1 R11
G1 X128.836 Y128.796 E3.43603
G1 X129.293 Y129.293 F21000
G1 F3000
G1 X30.707 Y129.293 E3.46961
G1 X30.707 Y30.707 E3.46961
G1 X129.293 Y30.707 E3.46961
M73 P2 R11
G1 X129.293 Y129.253 E3.4682
G1 X129.75 Y129.75 F21000
;TYPE:Outer wall
G1 F3000
G1 X30.25 Y129.75 E3.50178
G1 X30.25 Y30.25 E3.50178
M73 P3 R11
G1 X129.75 Y30.25 E3.50178
G1 X129.75 Y129.71 E3.50038
G1 E-.28 F1800
;WIPE_START
G1 F3000
G1 X128.75 Y129.71 E-.12
;WIPE_END
G1 Z.4 F21000
G1 X127.773 Y31.301 Z.4
G1 Z.2
G1 E.4 F1800
;TYPE:Bottom surface
;WIDTH:0.500745
G1 F4800
G1 X128.493 Y32.021 E.03589
G1 X128.493 Y32.669 E.02282
G1 X127.331 Y31.507 E.05791
G1 X126.684 Y31.507 E.02282
G1 X128.493 Y33.316 E.09019
G1 X128.493 Y33.964 E.02282
G1 X126.036 Y31.507 E.12247
G1 X125.389 Y31.507 E.02282
G1 X128.493 Y34.611 E.15474
G1 X128.493 Y35.258 E.02282
G1 X124.742 Y31.507 E.18702
G1 X124.094 Y31.507 E.02282
G1 X128.493 Y35.906 E.2193
M73 P4 R11
G1 X128.493 Y36.553 E.02282
G1 X123.447 Y31.507 E.25158
G1 X122.799 Y31.507 E.02282
G1 X128.493 Y37.201 E.28386
G1 X128.493 Y37.848 E.02282
G1 X122.152 Y31.507 E.31613
G1 X121.504 Y31.507 E.02282
G1 X128.493 Y38.496 E.34841
G1 X128.493 Y39.143 E.02282
G1 X120.857 Y31.507 E.38069
G1 X120.209 Y31.507 E.02282
G1 X128.493 Y39.791 E.41297
G1 X128.493 Y40.438 E.02282
G1 X119.562 Y31.507 E.44524
G1 X118.914 Y31.507 E.02282
G1 X128.493 Y41.086 E.47752
G1 X128.493 Y41.733 E.02282
G1 X118.267 Y31.507 E.5098
G1 X117.619 Y31.507 E.02282
G1 X128.493 Y42.381 E.54208
G1 X128.493 Y43.028 E.02282
G1 X116.972 Y31.507 E.57436
G1 X116.325 Y31.507 E.02282
G1 X128.493 Y43.675 E.60663
G1 X128.493 Y44.323 E.02282
G1 X115.677 Y31.507 E.63891
G1 X115.03 Y31.507 E.02282
G1 X128.493 Y44.97 E.67119
G1 X128.493 Y45.618 E.02282
G1 X114.382 Y31.507 E.70347
G1 X113.735 Y31.507 E.02282
G1 X128.493 Y46.265 E.73575
G1 X128.493 Y46.913 E.02282
G1 X113.087 Y31.507 E.76802
G1 X112.44 Y31.507 E.02282
G1 X128.493 Y47.56 E.8003
G1 X128.493 Y48.208 E.02282
G1 X111.792 Y31.507 E.83258
M73 P5 R11
G1 X111.145 Y31.507 E.02282
G1 X128.493 Y48.855 E.86486
G1 X128.493 Y49.503 E.02282
G1 X110.497 Y31.507 E.89713
G1 X109.85 Y31.507 E.02282
G1 X128.493 Y50.15 E.92941
G1 X128.493 Y50.798 E.02282
G1 X109.202 Y31.507 E.96169
G1 X108.555 Y31.507 E.02282
G1 X128.493 Y51.445 E.99397
G1 X128.493 Y52.092 E.02282
G1 X107.908 Y31.507 E1.02625
G1 X107.26 Y31.507 E.02282
G1 X128.493 Y52.74 E1.05852
G1 X128.493 Y53.387 E.02282
G1 X106.613 Y31.507 E1.0908
G1 X105.965 Y31.507 E.02282
G1 X128.493 Y54.035 E1.12308
G1 X128.493 Y54.682 E.02282
G1 X105.318 Y31.507 E1.15536
M73 P5 R10
G1 X104.67 Y31.507 E.02282
G1 X128.493 Y55.33 E1.18763
G1 X128.493 Y55.977 E.02282
G1 X104.023 Y31.507 E1.21991
G1 X103.375 Y31.507 E.02282
G1 X128.493 Y56.625 E1.25219
M73 P6 R10
G1 X128.493 Y57.272 E.02282
G1 X102.728 Y31.507 E1.28447
G1 X102.08 Y31.507 E.02282
G1 X128.493 Y57.92 E1.31675
G1 X128.493 Y58.567 E.02282
G1 X101.433 Y31.507 E1.34902
G1 X100.785 Y31.507 E.02282
G1 X128.493 Y59.215 E1.3813
G1 X128.493 Y59.862 E.02282
G1 X100.138 Y31.507 E1.41358
G1 X99.491 Y31.507 E.02282
G1 X128.493 Y60.509 E1.44586
G1 X128.493 Y61.157 E.02282
G1 X98.843 Y31.507 E1.47813
G1 X98.196 Y31.507 E.02282
G1 X128.493 Y61.804 E1.51041
G1 X128.493 Y62.452 E.02282
G1 X97.548 Y31.507 E1.54269
G1 X96.901 Y31.507 E.02282
G1 X128.493 Y63.099 E1.57497
G1 X128.493 Y63.747 E.02282
G1 X96.253 Y31.507 E1.60725
M73 P7 R10
G1 X95.606 Y31.507 E.02282
G1 X128.493 Y64.394 E1.63952
G1 X128.493 Y65.042 E.02282
G1 X94.958 Y31.507 E1.6718
G1 X94.311 Y31.507 E.02282
G1 X128.493 Y65.689 E1.70408
G1 X128.493 Y66.337 E.02282
G1 X93.663 Y31.507 E1.73636
G1 X93.016 Y31.507 E.02282
G1 X128.493 Y66.984 E1.76863
G1 X128.493 Y67.632 E.02282
G1 X92.368 Y31.507 E1.80091
G1 X91.721 Y31.507 E.02282
G1 X128.493 Y68.279 E1.83319
G1 X128.493 Y68.927 E.02282
G1 X91.073 Y31.507 E1.86547
M73 P8 R10
G1 X90.426 Y31.507 E.02282
G1 X128.493 Y69.574 E1.89775
G1 X128.493 Y70.221 E.02282
G1 X89.779 Y31.507 E1.93002
G1 X89.131 Y31.507 E.02282
G1 X128.493 Y70.869 E1.9623
G1 X128.493 Y71.516 E.02282
G1 X88.484 Y31.507 E1.99458
G1 X87.836 Y31.507 E.02282
G1 X128.493 Y72.164 E2.02686
G1 X128.493 Y72.811 E.02282
G1 X87.189 Y31.507 E2.05914
G1 X86.541 Y31.507 E.02282
G1 X128.493 Y73.459 E2.09141
G1 X128.493 Y74.106 E.02282
G1 X85.894 Y31.507 E2.12369
M73 P9 R10
G1 X85.246 Y31.507 E.02282
G1 X128.493 Y74.754 E2.15597
G1 X128.493 Y75.401 E.02282
G1 X84.599 Y31.507 E2.18825
G1 X83.951 Y31.507 E.02282
G1 X128.493 Y76.049 E2.22052
G1 X128.493 Y76.696 E.02282
G1 X83.304 Y31.507 E2.2528
G1 X82.656 Y31.507 E.02282
G1 X128.493 Y77.344 E2.28508
G1 X128.493 Y77.991 E.02282
G1 X82.009 Y31.507 E2.31736
G1 X81.362 Y31.507 E.02282
G1 X128.493 Y78.638 E2.34964
G1 X128.493 Y79.286 E.02282
G1 X80.714 Y31.507 E2.38191
M73 P10 R10
G1 X80.067 Y31.507 E.02282
G1 X128.493 Y79.933 E2.41419
G1 X128.493 Y80.581 E.02282
G1 X79.419 Y31.507 E2.44647
G1 X78.772 Y31.507 E.02282
G1 X128.493 Y81.228 E2.47875
G1 X128.493 Y81.876 E.02282
G1 X78.124 Y31.507 E2.51102
G1 X77.477 Y31.507 E.02282
G1 X128.493 Y82.523 E2.5433
G1 X128.493 Y83.171 E.02282
G1 X76.829 Y31.507 E2.57558
M73 P11 R10
G1 X76.182 Y31.507 E.02282
G1 X128.493 Y83.818 E2.60786
G1 X128.493 Y84.466 E.02282
G1 X75.534 Y31.507 E2.64014
G1 X74.887 Y31.507 E.02282
G1 X128.493 Y85.113 E2.67241
G1 X128.493 Y85.761 E.02282
G1 X74.239 Y31.507 E2.70469
G1 X73.592 Y31.507 E.02282
G1 X128.493 Y86.408 E2.73697
G1 X128.493 Y87.055 E.02282
G1 X72.945 Y31.507 E2.76925
M73 P12 R10
G1 X72.297 Y31.507 E.02282
G1 X128.493 Y87.703 E2.80152
G1 X128.493 Y88.35 E.02282
G1 X71.65 Y31.507 E2.8338
G1 X71.002 Y31.507 E.02282
G1 X128.493 Y88.998 E2.86608
G1 X128.493 Y89.645 E.02282
G1 X70.355 Y31.507 E2.89836
G1 X69.707 Y31.507 E.02282
G1 X128.493 Y90.293 E2.93064
G1 X128.493 Y90.94 E.02282
G1 X69.06 Y31.507 E2.96291
M73 P13 R10
G1 X68.412 Y31.507 E.02282
G1 X128.493 Y91.588 E2.99519
G1 X128.493 Y92.235 E.02282
G1 X67.765 Y31.507 E3.02747
G1 X67.117 Y31.507 E.02282
G1 X128.493 Y92.883 E3.05975
G1 X128.493 Y93.53 E.02282
G1 X66.47 Y31.507 E3.09203
G1 X65.822 Y31.507 E.02282
G1 X128.493 Y94.178 E3.1243
G1 X128.493 Y94.825 E.02282
G1 X65.175 Y31.507 E3.15658
M73 P14 R10
G1 X64.528 Y31.507 E.02282
G1 X128.493 Y95.472 E3.18886
G1 X128.493 Y96.12 E.02282
G1 X63.88 Y31.507 E3.22114
M73 P14 R9
G1 X63.233 Y31.507 E.02282
G1 X128.493 Y96.767 E3.25341
G1 X128.493 Y97.415 E.02282
G1 X62.585 Y31.507 E3.28569
G1 X61.938 Y31.507 E.02282
G1 X128.493 Y98.062 E3.31797
M73 P15 R9
G1 X128.493 Y98.71 E.02282
G1 X61.29 Y31.507 E3.35025
G1 X60.643 Y31.507 E.02282
G1 X128.493 Y99.357 E3.38253
G1 X128.493 Y100.005 E.02282
G1 X59.995 Y31.507 E3.4148
G1 X59.348 Y31.507 E.02282
G1 X128.493 Y100.652 E3.44708
G1 X128.493 Y101.3 E.02282
G1 X58.7 Y31.507 E3.47936
M73 P16 R9
G1 X58.053 Y31.507 E.02282
G1 X128.493 Y101.947 E3.51164
G1 X128.493 Y102.595 E.02282
G1 X57.405 Y31.507 E3.54391
G1 X56.758 Y31.507 E.02282
G1 X128.493 Y103.242 E3.57619
G1 X128.493 Y103.889 E.02282
G1 X56.111 Y31.507 E3.60847
G1 X55.463 Y31.507 E.02282
G1 X128.493 Y104.537 E3.64075
M73 P17 R9
G1 X128.493 Y105.184 E.02282
G1 X54.816 Y31.507 E3.67303
G1 X54.168 Y31.507 E.02282
G1 X128.493 Y105.832 E3.7053
G1 X128.493 Y106.479 E.02282
G1 X53.521 Y31.507 E3.73758
G1 X52.873 Y31.507 E.02282
G1 X128.493 Y107.127 E3.76986
G1 X128.493 Y107.774 E.02282
G1 X52.226 Y31.507 E3.80214
M73 P18 R9
G1 X51.578 Y31.507 E.02282
G1 X128.493 Y108.422 E3.83441
G1 X128.493 Y109.069 E.02282
G1 X50.931 Y31.507 E3.86669
G1 X50.283 Y31.507 E.02282
G1 X128.493 Y109.717 E3.89897
G1 X128.493 Y110.364 E.02282
G1 X49.636 Y31.507 E3.93125
M73 P19 R9
G1 X48.988 Y31.507 E.02282
G1 X128.493 Y111.012 E3.96353
G1 X128.493 Y111.659 E.02282
G1 X48.341 Y31.507 E3.9958
G1 X47.694 Y31.507 E.02282
G1 X128.493 Y112.306 E4.02808
G1 X128.493 Y112.954 E.02282
G1 X47.046 Y31.507 E4.06036
G1 X46.399 Y31.507 E.02282
G1 X128.493 Y113.601 E4.09264
M73 P20 R9
G1 X128.493 Y114.249 E.02282
G1 X45.751 Y31.507 E4.12491
G1 X45.104 Y31.507 E.02282
G1 X128.493 Y114.896 E4.15719
G1 X128.493 Y115.544 E.02282
G1 X44.456 Y31.507 E4.18947
G1 X43.809 Y31.507 E.02282
G1 X128.493 Y116.191 E4.22175
M73 P21 R9
G1 X128.493 Y116.839 E.02282
G1 X43.161 Y31.507 E4.25403
G1 X42.514 Y31.507 E.02282
G1 X128.493 Y117.486 E4.2863
G1 X128.493 Y118.134 E.02282
G1 X41.866 Y31.507 E4.31858
G1 X41.219 Y31.507 E.02282
G1 X128.493 Y118.781 E4.35086
M73 P22 R9
G1 X128.493 Y119.429 E.02282
G1 X40.571 Y31.507 E4.38314
G1 X39.924 Y31.507 E.02282
G1 X128.493 Y120.076 E4.41542
G1 X128.493 Y120.723 E.02282
G1 X39.277 Y31.507 E4.44769
G1 X38.629 Y31.507 E.02282
G1 X128.493 Y121.371 E4.47997
M73 P23 R8
G1 X128.493 Y122.018 E.02282
G1 X37.982 Y31.507 E4.51225
G1 X37.334 Y31.507 E.02282
G1 X128.493 Y122.666 E4.54453
G1 X128.493 Y123.313 E.02282
G1 X36.687 Y31.507 E4.5768
G1 X36.039 Y31.507 E.02282
G1 X128.493 Y123.961 E4.60908
M73 P24 R8
G1 X128.493 Y124.608 E.02282
G1 X35.392 Y31.507 E4.64136
G1 X34.744 Y31.507 E.02282
G1 X128.493 Y125.256 E4.67364
G1 X128.493 Y125.903 E.02282
G1 X34.097 Y31.507 E4.70592
G1 X33.449 Y31.507 E.02282
G1 X128.493 Y126.551 E4.73819
M73 P25 R8
G1 X128.493 Y127.198 E.02282
G1 X32.802 Y31.507 E4.77047
G1 X32.154 Y31.507 E.02282
G1 X128.493 Y127.846 E4.80275
G1 X128.493 Y128.493 E.02282
G1 X31.507 Y31.507 E4.83503
G1 X31.507 Y32.154 E.02282
G1 X127.846 Y128.493 E4.80275
M73 P26 R8
G1 X127.198 Y128.493 E.02282
G1 X31.507 Y32.802 E4.77047
G1 X31.507 Y33.449 E.02282
G1 X126.551 Y128.493 E4.73819
G1 X125.903 Y128.493 E.02282
G1 X31.507 Y34.097 E4.70592
M73 P27 R8
G1 X31.507 Y34.744 E.02282
G1 X125.256 Y128.493 E4.67364
G1 X124.608 Y128.493 E.02282
G1 X31.507 Y35.392 E4.64136
G1 X31.507 Y36.039 E.02282
G1 X123.961 Y128.493 E4.60908
G1 X123.313 Y128.493 E.02282
G1 X31.507 Y36.687 E4.5768
M73 P28 R8
G1 X31.507 Y37.334 E.02282
G1 X122.666 Y128.493 E4.54453
G1 X122.018 Y128.493 E.02282
G1 X31.507 Y37.982 E4.51225
G1 X31.507 Y38.629 E.02282
G1 X121.371 Y128.493 E4.47997
G1 X120.723 Y128.493 E.02282
G1 X31.507 Y39.277 E4.44769
M73 P29 R8
G1 X31.507 Y39.924 E.02282
G1 X120.076 Y128.493 E4.41541
G1 X119.429 Y128.493 E.02282
G1 X31.507 Y40.571 E4.38314
G1 X31.507 Y41.219 E.02282
G1 X118.781 Y128.493 E4.35086
G1 X118.134 Y128.493 E.02282
G1 X31.507 Y41.866 E4.31858
M73 P30 R8
G1 X31.507 Y42.514 E.02282
G1 X117.486 Y128.493 E4.2863
G1 X116.839 Y128.493 E.02282
G1 X31.507 Y43.161 E4.25403
G1 X31.507 Y43.809 E.02282
G1 X116.191 Y128.493 E4.22175
G1 X115.544 Y128.493 E.02282
G1 X31.507 Y44.456 E4.18947
M73 P31 R8
G1 X31.507 Y45.104 E.02282
G1 X114.896 Y128.493 E4.15719
G1 X114.249 Y128.493 E.02282
G1 X31.507 Y45.751 E4.12491
M73 P31 R7
G1 X31.507 Y46.399 E.02282
G1 X113.601 Y128.493 E4.09264
G1 X112.954 Y128.493 E.02282
G1 X31.507 Y47.046 E4.06036
G1 X31.507 Y47.694 E.02282
G1 X112.306 Y128.493 E4.02808
M73 P32 R7
G1 X111.659 Y128.493 E.02282
G1 X31.507 Y48.341 E3.9958
G1 X31.507 Y48.988 E.02282
G1 X111.012 Y128.493 E3.96353
G1 X110.364 Y128.493 E.02282
G1 X31.507 Y49.636 E3.93125
G1 X31.507 Y50.283 E.02282
G1 X109.717 Y128.493 E3.89897
M73 P33 R7
G1 X109.069 Y128.493 E.02282
G1 X31.507 Y50.931 E3.86669
G1 X31.507 Y51.578 E.02282
G1 X108.422 Y128.493 E3.83441
G1 X107.774 Y128.493 E.02282
G1 X31.507 Y52.226 E3.80214
G1 X31.507 Y52.873 E.02282
G1 X107.127 Y128.493 E3.76986
G1 X106.479 Y128.493 E.02282
G1 X31.507 Y53.521 E3.73758
M73 P34 R7
G1 X31.507 Y54.168 E.02282
G1 X105.832 Y128.493 E3.7053
G1 X105.184 Y128.493 E.02282
G1 X31.507 Y54.816 E3.67303
G1 X31.507 Y55.463 E.02282
G1 X104.537 Y128.493 E3.64075
G1 X103.889 Y128.493 E.02282
G1 X31.507 Y56.111 E3.60847
M73 P35 R7
G1 X31.507 Y56.758 E.02282
G1 X103.242 Y128.493 E3.57619
G1 X102.595 Y128.493 E.02282
G1 X31.507 Y57.405 E3.54391
G1 X31.507 Y58.053 E.02282
G1 X101.947 Y128.493 E3.51164
G1 X101.3 Y128.493 E.02282
G1 X31.507 Y58.7 E3.47936
G1 X31.507 Y59.348 E.02282
G1 X100.652 Y128.493 E3.44708
M73 P36 R7
G1 X100.005 Y128.493 E.02282
G1 X31.507 Y59.995 E3.4148
G1 X31.507 Y60.643 E.02282
G1 X99.357 Y128.493 E3.38253
G1 X98.71 Y128.493 E.02282
G1 X31.507 Y61.29 E3.35025
G1 X31.507 Y61.938 E.02282
G1 X98.062 Y128.493 E3.31797
G1 X97.415 Y128.493 E.02282
G1 X31.507 Y62.585 E3.28569
G1 X31.507 Y63.233 E.02282
G1 X96.767 Y128.493 E3.25341
M73 P37 R7
G1 X96.12 Y128.493 E.02282
G1 X31.507 Y63.88 E3.22114
G1 X31.507 Y64.528 E.02282
G1 X95.472 Y128.493 E3.18886
G1 X94.825 Y128.493 E.02282
G1 X31.507 Y65.175 E3.15658
G1 X31.507 Y65.822 E.02282
G1 X94.178 Y128.493 E3.1243
G1 X93.53 Y128.493 E.02282
G1 X31.507 Y66.47 E3.09202
M73 P38 R7
G1 X31.507 Y67.117 E.02282
G1 X92.883 Y128.493 E3.05975
G1 X92.235 Y128.493 E.02282
G1 X31.507 Y67.765 E3.02747
G1 X31.507 Y68.412 E.02282
G1 X91.588 Y128.493 E2.99519
G1 X90.94 Y128.493 E.02282
G1 X31.507 Y69.06 E2.96291
G1 X31.507 Y69.707 E.02282
G1 X90.293 Y128.493 E2.93064
G1 X89.645 Y128.493 E.02282
G1 X31.507 Y70.355 E2.89836
M73 P39 R7
G1 X31.507 Y71.002 E.02282
G1 X88.998 Y128.493 E2.86608
G1 X88.35 Y128.493 E.02282
G1 X31.507 Y71.65 E2.8338
G1 X31.507 Y72.297 E.02282
G1 X87.703 Y128.493 E2.80152
G1 X87.055 Y128.493 E.02282
G1 X31.507 Y72.945 E2.76925
G1 X31.507 Y73.592 E.02282
G1 X86.408 Y128.493 E2.73697
G1 X85.761 Y128.493 E.02282
G1 X31.507 Y74.239 E2.70469
M73 P40 R6
G1 X31.507 Y74.887 E.02282
G1 X85.113 Y128.493 E2.67241
G1 X84.466 Y128.493 E.02282
G1 X31.507 Y75.534 E2.64014
G1 X31.507 Y76.182 E.02282
G1 X83.818 Y128.493 E2.60786
G1 X83.171 Y128.493 E.02282
G1 X31.507 Y76.829 E2.57558
G1 X31.507 Y77.477 E.02282
G1 X82.523 Y128.493 E2.5433
G1 X81.876 Y128.493 E.02282
G1 X31.507 Y78.124 E2.51102
M73 P41 R6
G1 X31.507 Y78.772 E.02282
G1 X81.228 Y128.493 E2.47875
G1 X80.581 Y128.493 E.02282
G1 X31.507 Y79.419 E2.44647
G1 X31.507 Y80.067 E.02282
G1 X79.933 Y128.493 E2.41419
G1 X79.286 Y128.493 E.02282
G1 X31.507 Y80.714 E2.38191
G1 X31.507 Y81.362 E.02282
G1 X78.638 Y128.493 E2.34964
G1 X77.991 Y128.493 E.02282
G1 X31.507 Y82.009 E2.31736
G1 X31.507 Y82.656 E.02282
G1 X77.344 Y128.493 E2.28508
M73 P42 R6
G1 X76.696 Y128.493 E.02282
G1 X31.507 Y83.304 E2.2528
G1 X31.507 Y83.951 E.02282
G1 X76.049 Y128.493 E2.22052
G1 X75.401 Y128.493 E.02282
G1 X31.507 Y84.599 E2.18825
G1 X31.507 Y85.246 E.02282
G1 X74.754 Y128.493 E2.15597
G1 X74.106 Y128.493 E.02282
G1 X31.507 Y85.894 E2.12369
G1 X31.507 Y86.541 E.02282
G1 X73.459 Y128.493 E2.09141
G1 X72.811 Y128.493 E.02282
G1 X31.507 Y87.189 E2.05914
M73 P43 R6
G1 X31.507 Y87.836 E.02282
G1 X72.164 Y128.493 E2.02686
G1 X71.516 Y128.493 E.02282
G1 X31.507 Y88.484 E1.99458
G1 X31.507 Y89.131 E.02282
G1 X70.869 Y128.493 E1.9623
G1 X70.221 Y128.493 E.02282
G1 X31.507 Y89.779 E1.93002
G1 X31.507 Y90.426 E.02282
G1 X69.574 Y128.493 E1.89775
G1 X68.926 Y128.493 E.02282
G1 X31.507 Y91.074 E1.86547
G1 X31.507 Y91.721 E.02282
G1 X68.279 Y128.493 E1.83319
G1 X67.632 Y128.493 E.02282
G1 X31.507 Y92.368 E1.80091
M73 P44 R6
G1 X31.507 Y93.016 E.02282
