; HEADER_BLOCK_START
; generated by OrcaSlicer 2.0.0 on 2024-04-22 at 18:09:34
; total layer number: 150
; filament_density: 1.04
; filament_diameter: 1.75
; max_z_height: 30.00
; HEADER_BLOCK_END

; THUMBNAIL_BLOCK_START

;
; THUMBNAIL_BLOCK_END

; external perimeters extrusion width = 0.40mm
; perimeters extrusion width = 0.40mm
; infill extrusion width = 0.45mm
; solid infill extrusion width = 0.40mm
; top infill extrusion width = 0.40mm
; first layer extrusion width = 0.50mm

; external perimeters extrusion width = 0.40mm
; perimeters extrusion width = 0.40mm
; infill extrusion width = 0.45mm
; solid infill extrusion width = 0.40mm
; top infill extrusion width = 0.40mm
; first layer extrusion width = 0.50mm

; EXECUTABLE_BLOCK_START
EXCLUDE_OBJECT_DEFINE NAME=OrcaCube_id_0_copy_0 CENTER=80,94.2614 POLYGON=[[65,79.2614],[90.9808,79.2614],[95,79.2614],[95,105.242],[95,109.261],[69.0192,109.261],[65,109.261],[65,83.2806],[65,79.2614]]
EXCLUDE_OBJECT_DEFINE NAME=OrcaPlug_id_1_copy_0 CENTER=80.344,61.7367 POLYGON=[[69.344,61.7367],[69.3519,61.3204],[69.3755,60.9047],[69.4148,60.4903],[69.4698,60.0776],[69.5404,59.6673],[69.6264,59.2599],[69.7278,58.8561],[69.8445,58.4565],[69.9761,58.0615],[70.1226,57.6718],[70.2837,57.2879],[70.4593,56.9104],[70.649,56.5398],[70.8526,56.1767],[71.0698,55.8215],[71.3003,55.4748],[71.5437,55.137],[71.7998,54.8087],[72.068,54.4904],[72.3482,54.1824],[72.6398,53.8852],[72.9424,53.5993],[73.2556,53.3251],[73.579,53.0629],[73.9121,52.8131],[74.2544,52.5761],[74.6054,52.3522],[74.9646,52.1418],[75.3316,51.9451],[75.7057,51.7624],[76.0865,51.594],[76.4733,51.4402],[76.8657,51.3011],[77.2631,51.1769],[77.6649,51.0679],[78.0706,50.9742],[78.4795,50.8958],[78.891,50.8331],[79.3047,50.7859],[79.7198,50.7544],[80.1358,50.7386],[80.5522,50.7386],[80.9682,50.7544],[81.3833,50.7859],[81.797,50.8331],[82.2086,50.8958],[82.6175,50.9742],[83.0231,51.0679],[83.4249,51.1769],[83.8223,51.3011],[84.2147,51.4402],[84.6016,51.594],[84.9823,51.7624],[85.3564,51.9451],[85.7234,52.1418],[86.0826,52.3522],[86.4336,52.5761],[86.7759,52.8131],[87.109,53.0629],[87.4324,53.3251],[87.7456,53.5993],[88.0482,53.8852],[88.3398,54.1824],[88.62,54.4904],[88.8882,54.8088],[89.1443,55.137],[89.3877,55.4748],[89.6182,55.8215],[89.8354,56.1767],[90.039,56.5398],[90.2287,56.9104],[90.4043,57.2879],[90.5654,57.6718],[90.7119,58.0615],[90.8435,58.4565],[90.9601,58.8562],[91.0615,59.26],[91.1476,59.6673],[91.2182,60.0776],[91.2732,60.4903],[91.3125,60.9048],[91.3361,61.3204],[91.344,61.7367],[91.3361,62.1529],[91.3125,62.5686],[91.2732,62.9831],[91.2182,63.3957],[91.1476,63.806],[91.0615,64.2134],[90.9601,64.6172],[90.8435,65.0169],[90.7119,65.4118],[90.5654,65.8015],[90.4042,66.1854],[90.2287,66.5629],[90.039,66.9335],[89.8354,67.2967],[89.6182,67.6518],[89.3877,67.9986],[89.1443,68.3363],[88.8882,68.6646],[88.6199,68.983],[88.3398,69.2909],[88.0482,69.5881],[87.7456,69.874],[87.4324,70.1483],[87.109,70.4105],[86.7759,70.6603],[86.4336,70.8973],[86.0826,71.1211],[85.7234,71.3316],[85.3564,71.5283],[84.9823,71.7109],[84.6015,71.8793],[84.2147,72.0332],[83.8223,72.1723],[83.4249,72.2964],[83.0231,72.4054],[82.6174,72.4992],[82.2085,72.5775],[81.797,72.6403],[81.3833,72.6875],[80.9682,72.7189],[80.5522,72.7347],[80.1358,72.7347],[79.7198,72.7189],[79.3047,72.6875],[78.891,72.6403],[78.4794,72.5775],[78.0705,72.4992],[77.6649,72.4054],[77.2631,72.2964],[76.8657,72.1723],[76.4733,72.0332],[76.0864,71.8793],[75.7057,71.7109],[75.3316,71.5283],[74.9646,71.3316],[74.6054,71.1211],[74.2544,70.8973],[73.9121,70.6603],[73.579,70.4105],[73.2556,70.1483],[72.9424,69.874],[72.6398,69.5881],[72.3482,69.2909],[72.068,68.9829],[71.7998,68.6646],[71.5437,68.3363],[71.3003,67.9985],[71.0698,67.6518],[70.8526,67.2966],[70.649,66.9335],[70.4593,66.5629],[70.2837,66.1854],[70.1226,65.8015],[69.9761,65.4118],[69.8444,65.0168],[69.7278,64.6172],[69.6264,64.2134],[69.5404,63.806],[69.4698,63.3957],[69.4148,62.983],[69.3755,62.5686],[69.3519,62.1529],[69.344,61.7367]]
M73 P0 R38
;TYPE:Custom
print_start EXTRUDER_TEMP=260 BED_TEMP=105
G90
G21
M83 ; use relative distances for extrusion
; Filament gcode
M106 S0
;LAYER_CHANGE
;Z:0.2
;HEIGHT:0.2
;BEFORE_LAYER_CHANGE
;0.2
G92 E0

G1 E-.8 F1800
;AFTER_LAYER_CHANGE
;0.2
;_SET_FAN_SPEED_CHANGING_LAYER
SET_VELOCITY_LIMIT ACCEL=500 ACCEL_TO_DECEL=250
SET_VELOCITY_LIMIT SQUARE_CORNER_VELOCITY=9
; printing object OrcaCube id:0 copy 0
EXCLUDE_OBJECT_START NAME=OrcaCube_id_0_copy_0
G1 Z.4 F21000
G1 X66.464 Y104.767
G1 Z.4
G1 Z.2
G1 E.8 F1800
;TYPE:Inner wall
;WIDTH:0.499999
G1 F3000
G1 X66.464 Y83.755 E.7395
G1 X69.494 Y80.726 E.1508
G1 X90.506 Y80.726 E.7395
G1 X93.536 Y83.755 E.1508
G1 X93.536 Y104.767 E.7395
G1 X90.506 Y107.797 E.1508
G1 X69.494 Y107.797 E.7395
G1 X66.492 Y104.796 E.14939
G1 X66.007 Y104.957 F21000
G1 F3000
G1 X66.007 Y83.566 E.75282
G1 X69.305 Y80.268 E.16412
G1 X90.695 Y80.268 E.75282
G1 X93.993 Y83.566 E.16412
G1 X93.993 Y104.957 E.75282
G1 X90.695 Y108.254 E.16412
G1 X69.305 Y108.254 E.75282
G1 X66.035 Y104.985 E.16272
G1 X65.55 Y105.146 F21000
;TYPE:Outer wall
G1 F3000
G1 X65.55 Y83.377 E.76615
G1 X69.115 Y79.811 E.17745
G1 X90.885 Y79.811 E.76615
G1 X94.45 Y83.377 E.17745
G1 X94.45 Y105.146 E.76615
G1 X90.885 Y108.711 E.17745
G1 X69.115 Y108.711 E.76615
G1 X65.578 Y105.174 E.17604
G1 E-.56 F1800
;WIPE_START
G1 F3000
G1 X65.577 Y104.174 E-.24
;WIPE_END
G1 Z.6 F21000
G1 X67.789 Y94.559 Z.6
G1 Z.2
G1 E.8 F1800
;TYPE:Inner wall
G1 F3000
G1 X67.789 Y93.637 E.03247
G1 X67.877 Y92.646 E.03501
G1 X68.121 Y91.364 E.04594
G1 X68.379 Y90.456 E.03322
G1 X68.697 Y89.596 E.03224
G1 X69.081 Y88.757 E.03248
G1 X69.548 Y87.91 E.03406
G1 X70.29 Y86.83 E.04612
G1 X70.906 Y86.081 E.03411
G1 X71.852 Y85.145 E.04684
G1 X72.574 Y84.547 E.03299
G1 X73.327 Y84.014 E.03247
G1 X74.113 Y83.544 E.03224
G1 X74.941 Y83.129 E.0326
G1 X75.835 Y82.762 E.03399
G1 X77.152 Y82.367 E.0484
G1 X78.442 Y82.134 E.04614
G1 X79.382 Y82.049 E.03322
G1 X80.357 Y82.036 E.03431
G1 X81.719 Y82.152 E.04811
G1 X83.013 Y82.411 E.04643
G1 X83.959 Y82.69 E.03471
G1 X85.174 Y83.183 E.04616
G1 X86.054 Y83.635 E.03482
G1 X87.154 Y84.346 E.04608
G1 X87.974 Y85.009 E.03711
G1 X88.893 Y85.869 E.0443
G1 X89.571 Y86.652 E.03645
G1 X90.296 Y87.667 E.04389
G1 X90.775 Y88.48 E.03323
G1 X91.178 Y89.304 E.03229
G1 X91.52 Y90.162 E.0325
G1 X91.794 Y91.032 E.03209
G1 X92.005 Y91.936 E.03268
G1 X92.145 Y92.838 E.0321
G1 X92.218 Y93.764 E.0327
G1 X92.221 Y94.676 E.0321
G1 X92.15 Y95.654 E.0345
G1 X91.93 Y96.938 E.04588
G1 X91.689 Y97.852 E.03324
G1 X91.389 Y98.713 E.0321
G1 X91.021 Y99.56 E.0325
G1 X90.57 Y100.413 E.03394
G1 X89.847 Y101.51 E.04624
G1 X89.266 Y102.241 E.03288
G1 X88.633 Y102.921 E.03267
G1 X87.963 Y103.541 E.03213
G1 X87.236 Y104.118 E.03269
G1 X86.48 Y104.631 E.03213
G1 X85.68 Y105.09 E.03249
G1 X84.856 Y105.484 E.03213
G1 X83.99 Y105.82 E.03269
G1 X83.116 Y106.086 E.03214
G1 X82.215 Y106.287 E.03249
G1 X81.307 Y106.419 E.03232
G1 X80.385 Y106.483 E.03251
G1 X79.472 Y106.478 E.03214
G1 X78.495 Y106.398 E.0345
G1 X77.211 Y106.166 E.04591
G1 X76.255 Y105.904 E.03486
G1 X74.972 Y105.411 E.04839
G1 X73.811 Y104.807 E.04605
G1 X72.972 Y104.271 E.03503
G1 X71.897 Y103.422 E.04823
G1 X70.96 Y102.494 E.04639
G1 X70.357 Y101.78 E.03291
G1 X69.784 Y100.985 E.0345
G1 X69.128 Y99.856 E.04594
G1 X68.731 Y99.009 E.03291
G1 X68.405 Y98.145 E.03251
G1 X68.147 Y97.268 E.03217
G1 X67.943 Y96.312 E.0344
G1 X67.789 Y94.949 E.04827
G1 X67.789 Y94.599 E.01233
G1 X68.246 Y94.559 F21000
G1 F3000
G1 X68.246 Y93.637 E.03247
G1 X68.33 Y92.708 E.0328
G1 X68.57 Y91.449 E.04512
G1 X68.818 Y90.583 E.0317
G1 X69.125 Y89.756 E.03103
G1 X69.496 Y88.949 E.03127
G1 X69.938 Y88.15 E.03214
G1 X70.667 Y87.089 E.04532
G1 X71.25 Y86.385 E.03214
G1 X72.174 Y85.47 E.04578
G1 X72.863 Y84.9 E.03148
G1 X73.59 Y84.389 E.03126
G1 X74.347 Y83.937 E.03103
G1 X75.145 Y83.538 E.03139
G1 X75.988 Y83.193 E.03207
G1 X77.259 Y82.812 E.04669
G1 X78.524 Y82.584 E.04523
G1 X79.421 Y82.504 E.03171
G1 X80.341 Y82.494 E.03238
G1 X81.655 Y82.605 E.0464
G1 X82.923 Y82.859 E.04553
G1 X83.809 Y83.122 E.03251
G1 X85.002 Y83.606 E.04534
G1 X85.826 Y84.031 E.03261
G1 X86.906 Y84.729 E.04526
G1 X87.684 Y85.362 E.03529
G1 X88.571 Y86.193 E.04279
G1 X89.199 Y86.918 E.03373
G1 X89.924 Y87.932 E.04389
G1 X90.38 Y88.71 E.03172
G1 X90.767 Y89.504 E.03108
G1 X91.095 Y90.33 E.03129
G1 X91.357 Y91.168 E.03089
G1 X91.559 Y92.039 E.03147
G1 X91.693 Y92.906 E.03089
G1 X91.762 Y93.798 E.03148
G1 X91.764 Y94.676 E.03089
G1 X91.696 Y95.599 E.03258
G1 X91.48 Y96.861 E.04508
G1 X91.248 Y97.732 E.03172
G1 X90.958 Y98.561 E.0309
G1 X90.602 Y99.376 E.03129
G1 X90.176 Y100.18 E.03202
G1 X89.465 Y101.258 E.04544
G1 X88.909 Y101.955 E.03137
G1 X88.3 Y102.608 E.03146
G1 X87.654 Y103.204 E.03092
G1 X86.953 Y103.76 E.03147
G1 X86.225 Y104.252 E.03092
G1 X85.454 Y104.693 E.03128
G1 X84.66 Y105.071 E.03092
G1 X83.826 Y105.393 E.03148
G1 X82.985 Y105.648 E.03093
G1 X82.117 Y105.841 E.03128
G1 X81.242 Y105.967 E.03111
G1 X80.355 Y106.027 E.0313
G1 X79.476 Y106.021 E.03093
G1 X78.554 Y105.945 E.03258
G1 X77.292 Y105.716 E.04511
G1 X76.398 Y105.469 E.03266
G1 X75.16 Y104.993 E.04666
G1 X74.022 Y104.401 E.04514
G1 X73.237 Y103.898 E.03283
G1 X72.2 Y103.079 E.0465
G1 X71.282 Y102.17 E.04548
G1 X70.707 Y101.487 E.0314
G1 X70.168 Y100.735 E.03257
G1 X69.523 Y99.627 E.04513
G1 X69.146 Y98.818 E.0314
G1 X68.833 Y97.985 E.03131
G1 X68.586 Y97.141 E.03096
G1 X68.395 Y96.239 E.03243
G1 X68.246 Y94.924 E.0466
G1 X68.246 Y94.599 E.01142
G1 X68.703 Y94.559 F21000
;TYPE:Outer wall
G1 F3000
G1 X68.703 Y93.637 E.03247
G1 X68.784 Y92.772 E.03057
G1 X69.019 Y91.535 E.04432
G1 X69.257 Y90.71 E.03019
G1 X69.553 Y89.916 E.02982
G1 X69.911 Y89.141 E.03006
G1 X70.327 Y88.391 E.0302
G1 X71.044 Y87.347 E.04454
G1 X71.593 Y86.688 E.03019
G1 X72.495 Y85.794 E.0447
G1 X73.153 Y85.254 E.02997
G1 X73.852 Y84.763 E.03005
G1 X74.58 Y84.329 E.02982
G1 X75.348 Y83.947 E.03018
G1 X76.141 Y83.625 E.03013
G1 X77.366 Y83.257 E.045
G1 X78.605 Y83.033 E.04432
G1 X79.46 Y82.96 E.0302
G1 X80.324 Y82.951 E.03043
G1 X81.59 Y83.059 E.04471
G1 X82.833 Y83.308 E.04462
G1 X83.658 Y83.554 E.03028
G1 X84.83 Y84.03 E.04455
G1 X85.597 Y84.428 E.03038
G1 X86.658 Y85.113 E.04446
G1 X87.394 Y85.715 E.03348
G1 X88.25 Y86.518 E.04128
G1 X88.819 Y87.172 E.0305
G1 X89.553 Y88.198 E.04441
G1 X89.985 Y88.94 E.03021
G1 X90.356 Y89.703 E.02987
G1 X90.67 Y90.498 E.03008
G1 X90.921 Y91.303 E.02968
G1 X91.114 Y92.141 E.03026
G1 X91.241 Y92.975 E.02968
G1 X91.306 Y93.832 E.03027
G1 X91.307 Y94.676 E.02968
G1 X91.242 Y95.544 E.03063
G1 X91.029 Y96.784 E.0443
G1 X90.807 Y97.613 E.03021
G1 X90.527 Y98.409 E.0297
G1 X90.184 Y99.192 E.03009
G1 X89.783 Y99.947 E.03008
G1 X89.084 Y101.006 E.04466
G1 X88.553 Y101.668 E.02986
G1 X87.966 Y102.296 E.03025
G1 X87.345 Y102.868 E.02971
G1 X86.67 Y103.401 E.03026
G1 X85.97 Y103.873 E.02971
G1 X85.228 Y104.296 E.03007
G1 X84.465 Y104.658 E.02971
G1 X83.662 Y104.967 E.03027
G1 X82.854 Y105.21 E.02972
G1 X82.019 Y105.394 E.03008
G1 X81.178 Y105.514 E.0299
G1 X80.325 Y105.571 E.03009
G1 X79.48 Y105.564 E.02972
G1 X78.613 Y105.491 E.03063
G1 X77.374 Y105.267 E.04433
G1 X76.541 Y105.035 E.03043
G1 X75.348 Y104.576 E.04496
G1 X74.233 Y103.996 E.04423
G1 X73.503 Y103.525 E.0306
G1 X72.503 Y102.736 E.0448
G1 X71.604 Y101.845 E.04457
G1 X71.058 Y101.194 E.02989
G1 X70.552 Y100.486 E.03062
G1 X69.918 Y99.397 E.04435
G1 X69.561 Y98.626 E.02989
G1 X69.261 Y97.825 E.0301
G1 X69.025 Y97.013 E.02975
G1 X68.847 Y96.166 E.03047
G1 X68.703 Y94.898 E.04493
G1 X68.703 Y94.599 E.01051
G1 E-.56 F1800
;WIPE_START
G1 F3000
G1 X68.703 Y93.637 E-.23099
G1 X68.706 Y93.599 E-.00901
;WIPE_END
G1 Z.6 F21000
G1 X90.154 Y80.863 Z.6
G1 Z.2
G1 E.8 F1800
;TYPE:Bottom surface
;WIDTH:0.505548
G1 F6300
G1 X93.193 Y83.901 E.15307
G1 X93.193 Y84.556 E.02331
G1 X89.706 Y81.068 E.17567
G1 X89.052 Y81.068 E.02331
G1 X93.193 Y85.21 E.20863
G1 X93.193 Y85.864 E.02331
G1 X88.397 Y81.068 E.24159
G1 X87.743 Y81.068 E.02331
G1 X93.193 Y86.518 E.27455
G1 X93.193 Y87.173 E.02331
G1 X87.089 Y81.068 E.30751
G1 X86.435 Y81.068 E.02331
G1 X93.193 Y87.827 E.34046
G1 X93.193 Y88.481 E.02331
G1 X85.78 Y81.068 E.37342
G1 X85.126 Y81.068 E.02331
G1 X93.193 Y89.135 E.40638
G1 X93.193 Y89.79 E.02331
G1 X84.472 Y81.068 E.43934
G1 X83.818 Y81.068 E.02331
G1 X85.951 Y83.202 E.10747
G1 X85.308 Y82.867 E.02581
G1 X84.726 Y82.631 E.02239
G1 X83.163 Y81.068 E.07872
G1 X82.509 Y81.068 E.02331
G1 X83.702 Y82.261 E.06009
G1 X83.085 Y82.076 E.02294
G1 X82.809 Y82.022 E.01002
G1 X81.855 Y81.068 E.04807
G1 X81.201 Y81.068 E.02331
G1 X81.997 Y81.865 E.04014
G1 X81.69 Y81.806 E.01117
G1 X81.248 Y81.77 E.01579
G1 X80.546 Y81.068 E.03535
G1 X79.892 Y81.068 E.02331
G1 X80.536 Y81.713 E.03246
G1 X80.307 Y81.694 E.00819
G1 X79.869 Y81.7 E.01559
G1 X79.238 Y81.068 E.03182
G1 X78.583 Y81.068 E.02331
G1 X79.233 Y81.718 E.03274
G1 X78.633 Y81.773 E.02146
G1 X77.929 Y81.068 E.03547
G1 X77.275 Y81.068 E.02331
G1 X78.063 Y81.856 E.03968
G1 X77.512 Y81.959 E.01997
G1 X76.621 Y81.068 E.04488
G1 X75.966 Y81.068 E.02331
G1 X76.964 Y82.066 E.05024
G1 X76.462 Y82.219 E.01867
G1 X75.312 Y81.068 E.05794
G1 X74.658 Y81.068 E.02331
G1 X75.961 Y82.371 E.06564
G1 X75.475 Y82.54 E.01832
G1 X74.004 Y81.068 E.07411
G1 X73.349 Y81.068 E.02331
G1 X75.011 Y82.73 E.08371
G1 X74.561 Y82.935 E.0176
G1 X72.695 Y81.068 E.09401
G1 X72.041 Y81.068 E.02331
G1 X74.124 Y83.152 E.10495
G1 X73.707 Y83.389 E.01709
G1 X71.387 Y81.068 E.11689
G1 X70.732 Y81.068 E.02331
G1 X73.295 Y83.631 E.12911
G1 X72.906 Y83.896 E.01678
G1 X70.078 Y81.068 E.14244
G1 X69.636 Y81.068 E.01575
G1 X69.53 Y81.174 E.00534
G1 X72.521 Y84.166 E.15068
G1 X72.152 Y84.451 E.01661
G1 X69.203 Y81.501 E.14858
G1 X68.876 Y81.829 E.01648
G1 X71.795 Y84.748 E.14705
G1 X71.452 Y85.059 E.0165
G1 X68.549 Y82.156 E.14624
G1 X68.221 Y82.483 E.01648
G1 X71.123 Y85.384 E.14617
G1 X70.794 Y85.71 E.01648
G1 X67.894 Y82.81 E.14609
G1 X67.567 Y83.137 E.01648
G1 X70.487 Y86.057 E.1471
G1 X70.188 Y86.412 E.01654
G1 X67.24 Y83.464 E.14848
G1 X66.913 Y83.791 E.01648
G1 X69.909 Y86.788 E.15094
G1 X69.641 Y87.174 E.01675
G1 X66.807 Y84.34 E.14278
G1 X66.807 Y84.994 E.02331
G1 X69.373 Y87.56 E.12928
G1 X69.129 Y87.97 E.017
G1 X66.807 Y85.648 E.11697
G1 X66.807 Y86.302 E.02331
G1 X68.894 Y88.39 E.10515
G1 X68.674 Y88.823 E.01733
M73 P1 R38
G1 X66.807 Y86.957 E.09403
G1 X66.807 Y87.611 E.02331
G1 X68.468 Y89.272 E.0837
G1 X68.279 Y89.737 E.01788
G1 X66.807 Y88.265 E.07417
G1 X66.807 Y88.919 E.02331
G1 X68.103 Y90.215 E.06529
G1 X67.947 Y90.714 E.01861
G1 X66.807 Y89.574 E.05745
G1 X66.807 Y90.228 E.02331
G1 X67.804 Y91.225 E.05025
G1 X67.698 Y91.773 E.01987
G1 X66.807 Y90.882 E.04487
G1 X66.807 Y91.536 E.02331
G1 X67.591 Y92.32 E.03949
G1 X67.55 Y92.531 E.00764
G1 X67.515 Y92.899 E.01316
G1 X66.807 Y92.191 E.03567
G1 X66.807 Y92.845 E.02331
G1 X67.459 Y93.497 E.03283
G1 X67.449 Y94.141 E.02297
G1 X66.807 Y93.499 E.03235
M73 P1 R37
G1 X66.807 Y94.153 E.02331
G1 X67.453 Y94.8 E.03255
G1 X67.455 Y95.046 E.00878
G1 X67.507 Y95.508 E.01655
G1 X66.807 Y94.808 E.03526
G1 X66.807 Y95.462 E.02331
G1 X67.591 Y96.246 E.03947
G1 X67.751 Y97.061 E.0296
G1 X66.807 Y96.116 E.04758
G1 X66.807 Y96.771 E.02331
G1 X67.995 Y97.958 E.05982
G1 X68.082 Y98.261 E.01124
G1 X68.344 Y98.962 E.02665
G1 X66.807 Y97.425 E.07744
G1 X66.807 Y98.079 E.02331
G1 X69.507 Y100.779 E.13602
G1 E-.56 F1800
;WIPE_START
G1 F6300
G1 X68.8 Y100.072 E-.24
;WIPE_END
G1 Z.6 F21000
G1 X90.523 Y87.774 Z.6
G1 Z.2
G1 E.8 F1800
G1 F6300
G1 X93.193 Y90.444 E.13451
G1 X93.193 Y91.098 E.02331
G1 X91.645 Y89.55 E.07798
G1 X91.841 Y90.04 E.01879
G1 X92.003 Y90.562 E.01949
G1 X93.193 Y91.752 E.05995
G1 X93.193 Y92.407 E.02331
G1 X92.245 Y91.459 E.04775
G1 X92.359 Y91.965 E.0185
G1 X92.405 Y92.272 E.01105
G1 X93.193 Y93.061 E.03972
G1 X93.193 Y93.715 E.02331
G1 X92.506 Y93.028 E.0346
G1 X92.559 Y93.736 E.02527
G1 X93.193 Y94.369 E.03192
G1 X93.193 Y95.024 E.02331
G1 X92.563 Y94.393 E.03176
G1 X92.564 Y94.68 E.01022
G1 X92.537 Y95.022 E.01222
G1 X93.193 Y95.678 E.03304
